P3
227 128
255
0 0 88 161 73 0 161 73 0 161 73 0 161 73 0 161 73 0 161 73 0 161 73 0
161 73 0 0 0 88 0 0 88 0 0 88 0 0 88 0 0 88 0 0 88 0 0 88 0 0 88 162
74 0 162 74 0 162 74 0 0 0 88 0 0 88 0 0 88 0 0 88 0 0 88 162 74 0 162
74 0 162 74 0 162 74 0 162 74 0 162 74 0 162 74 0 162 74 0 0 0 88 0 0
88 0 0 88 0 0 88 0 0 88 0 0 88 0 0 88 163 75 0 163 75 0 0 0 88 0 0 88
0 0 88 0 0 88 0 0 88 0 0 88 0 0 88 0 0 88 163 75 0 163 75 0 163 75 0
163 75 0 163 75 0 163 75 0 163 76 0 163 76 0 0 0 87 0 0 87 163 76 0
163 76 0 163 76 0 163 76 0 163 76 0 163 76 0 0 0 87 0 0 87 0 0 87 0 0
87 0 0 87 0 0 87 0 0 87 0 0 87 163 76 0 163 76 0 163 76 0 163 76 0 163
76 0 163 76 0 0 0 86 0 0 86 163 77 0 163 77 0 163 77 0 163 77 0 163 77
0 163 77 0 163 77 0 163 77 0 0 0 86 0 0 86 0 0 86 0 0 86 0 0 86 0 0 86
0 0 85 0 0 85 162 77 0 162 77 0 0 0 85 0 0 85 0 0 85 0 0 85 0 0 85 0 0
85 162 77 0 162 77 0 162 77 0 162 77 0 162 77 0 162 77 0 162 77 0 162
77 0 0 0 84 0 0 84 0 0 84 0 0 84 0 0 84 0 0 84 0 0 84 161 77 0 0 0 84
0 0 84 0 0 84 0 0 84 0 0 83 0 0 83 0 0 83 0 0 83 161 78 0 161 78 0 161
78 0 161 78 0 161 78 0 160 78 0 160 78 0 160 78 0 0 0 83 0 0 82 0 0 82
160 78 0 160 78 0 160 78 0 160 78 0 160 78 0 0 0 82 0 0 82 0 0 82 0 0
82 0 0 82 0 0 82 0 0 81 0 0 81 159 78 0 159 78 0 159 78 0 159 78 0 159
78 0 159 78 0 159 78 0 0 0 81 158 78 0 158 78 0 158 78 0 158 78 0 158
78 0 158 78 0 158 78 0 158 78 0 0 0 80 0 0 80 0 0 80 0 0 80 0 0 80 0 0
80 0 0 79 0 0 79 157 78 0 157 78 0 157 78 0 0 0 79 0 0 79 0 0 79 0 0
79 0 0 79 156 78 0 156 77 0 156 77 0 156 77 0 156 77 0 156 77 0 155 77
0 155 77 0 155 77 0 0 0 78 0 0 78 0 0 78 0 0 78 0 0 77 0 0 77 155 77 0
154 77 0 0 0 77 0 0 77 0 0 77 0 0 77 0 0 77 0 0 77 0 0 77 0 0 77 153
77 0 153 77 0 153 77 0 153 77 0 153 77 0 153 77 0 153 77 0 153 77 0 0
0 76 0 0 76 152 77 0 152 77 0 152 77 0 152 77 0 152 77 0 152 77 0
0 0 90 0 0 90 0 0 90 164 74 0 164 74 0 164 74 0 164 74 0 164 74 0 164
74 0 164 74 0 164 74 0 0 0 90 0 0 90 0 0 90 0 0 90 0 0 90 0 0 90 0 0
90 165 75 0 0 0 90 0 0 90 0 0 90 0 0 90 0 0 90 0 0 90 0 0 90 0 0 90 0
0 90 165 75 0 165 75 0 165 76 0 165 76 0 165 76 0 165 76 0 165 76 0
165 76 0 0 0 90 0 0 90 166 76 0 166 76 0 166 76 0 166 76 0 166 76 0
166 76 0 0 0 89 0 0 89 0 0 89 0 0 89 0 0 89 0 0 89 0 0 89 0 0 89 166
77 0 166 77 0 166 77 0 166 77 0 166 77 0 166 77 0 166 77 0 0 0 89 0 0
89 166 77 0 166 77 0 166 77 0 166 77 0 166 77 0 166 77 0 166 77 0 166
77 0 0 0 89 0 0 88 0 0 88 0 0 88 0 0 88 0 0 88 0 0 88 0 0 88 166 78 0
166 78 0 166 78 0 0 0 88 0 0 88 0 0 88 0 0 88 0 0 88 0 0 88 166 78 0
166 78 0 166 78 0 165 78 0 165 78 0 165 78 0 165 78 0 165 78 0 0 0 87
0 0 87 0 0 87 0 0 87 0 0 87 0 0 87 0 0 87 165 78 0 0 0 87 0 0 87 0 0
87 0 0 87 0 0 86 0 0 86 0 0 86 0 0 86 0 0 86 165 79 0 165 79 0 165 79
0 165 79 0 164 79 0 164 79 0 164 79 0 164 79 0 0 0 86 0 0 85 164 79 0
164 79 0 164 79 0 164 79 0 164 79 0 164 79 0 0 0 85 0 0 85 0 0 85 0 0
85 0 0 85 0 0 85 0 0 84 0 0 84 163 79 0 163 79 0 163 79 0 163 79 0 163
79 0 163 79 0 163 79 0 0 0 84 0 0 84 163 79 0 163 79 0 162 79 0 162 79
0 162 79 0 162 79 0 162 79 0 162 79 0 0 0 83 0 0 83 0 0 83 0 0 83 0 0
83 0 0 82 0 0 82 0 0 82 161 79 0 161 79 0 161 79 0 0 0 82 0 0 82 0 0
82 0 0 82 0 0 82 0 0 82 160 79 0 160 79 0 160 79 0 160 79 0 160 79 0
160 79 0 160 79 0 160 79 0 0 0 81 0 0 81 0 0 81 0 0 80 0 0 80 0 0 80 0
0 80 159 79 0 0 0 80 0 0 80 0 0 80 0 0 80 0 0 80 0 0 80 0 0 79 0 0 79
0 0 79 158 79 0 158 79 0 158 79 0 158 79 0 157 79 0 157 79 0 157 79 0
157 79 0 0 0 79 0 0 78 157 79 0 157 78 0 157 78 0 156 78 0 156 78 0
156 78 0 0 0 78 0 0 78 0 0 78 0 0 78 0 0 77 0 0 77 0 0 77 0 0 77 0 0
77 155 78 0 155 78 0 155 78 0 155 78 0 155 78 0 154 78 0 0 0 76 0 0 76
0 0 92 0 0 92 0 0 92 0 0 92 167 75 0 167 75 0 167 75 0 167 75 0 167 76
0 167 76 0 167 76 0 167 76 0 167 76 0 0 0 92 168 76 0 168 76 0 168 76
0 168 76 0 168 76 0 168 76 0 168 76 0 168 76 0 0 0 92 0 0 92 0 0 92 0
0 92 0 0 92 0 0 92 0 0 92 0 0 92 168 77 0 168 77 0 168 77 0 168 77 0
168 77 0 168 77 0 0 0 91 0 0 91 0 0 91 169 77 0 169 77 0 169 77 0 169
77 0 169 77 0 169 77 0 169 77 0 169 78 0 0 0 91 0 0 91 0 0 91 0 0 91 0
0 91 0 0 91 0 0 91 0 0 91 0 0 91 169 78 0 0 0 91 0 0 91 0 0 91 0 0 91
0 0 91 0 0 91 0 0 91 169 78 0 169 78 0 169 78 0 169 78 0 169 78 0 169
79 0 169 79 0 169 79 0 169 79 0 0 0 90 0 0 90 0 0 90 0 0 90 0 0 90 169
79 0 169 79 0 169 79 0 0 0 90 0 0 90 0 0 89 0 0 89 0 0 89 0 0 89 0 0
89 0 0 89 0 0 89 168 79 0 168 79 0 168 79 0 168 79 0 168 79 0 168 79 0
168 79 0 168 79 0 168 80 0 0 0 88 168 80 0 168 80 0 168 80 0 168 80 0
168 80 0 168 80 0 168 80 0 0 0 88 0 0 88 0 0 88 0 0 88 0 0 88 0 0 88 0
0 87 0 0 87 0 0 87 167 80 0 167 80 0 167 80 0 167 80 0 167 80 0 0 0 87
0 0 87 0 0 87 167 80 0 167 80 0 167 80 0 167 80 0 166 80 0 166 80 0
166 80 0 166 80 0 166 80 0 0 0 86 0 0 86 0 0 86 0 0 86 0 0 86 0 0 86 0
0 85 0 0 85 166 80 0 0 0 85 0 0 85 0 0 85 0 0 85 0 0 85 0 0 85 0 0 85
0 0 85 165 80 0 165 80 0 165 80 0 165 80 0 165 80 0 164 80 0 164 80 0
164 80 0 0 0 84 0 0 84 0 0 84 0 0 84 0 0 83 0 0 83 164 80 0 164 80 0
163 80 0 0 0 83 0 0 83 0 0 83 0 0 83 0 0 83 0 0 83 0 0 82 0 0 82 0 0
82 162 80 0 162 80 0 162 80 0 162 80 0 162 80 0 162 80 0 162 80 0 162
80 0 0 0 81 162 80 0 161 80 0 161 80 0 161 80 0 161 80 0 161 80 0 161
80 0 161 80 0 0 0 81 0 0 81 0 0 80 0 0 80 0 0 80 0 0 80 0 0 80 0 0 80
160 80 0 160 80 0 160 80 0 159 80 0 159 80 0 159 80 0 0 0 79 0 0 79 0
0 79 159 80 0 159 80 0 158 80 0 158 80 0 158 80 0 158 80 0 158 80 0
158 79 0 0 0 78 0 0 78 0 0 78 0 0 78 0 0 78 0 0 78 0 0 78 0 0 78 0 0
78
0 0 94 0 0 94 0 0 94 0 0 94 0 0 94 0 0 94 0 0 94 170 77 0 170 77 0 0 0
94 0 0 94 0 0 94 0 0 94 0 0 94 0 0 94 0 0 94 171 77 0 171 77 0 171 77
0 171 77 0 171 77 0 171 77 0 171 77 0 171 78 0 0 0 93 0 0 93 0 0 93 0
0 93 0 0 93 0 0 93 0 0 93 171 78 0 171 78 0 0 0 93 0 0 93 0 0 93 0 0
93 0 0 93 0 0 93 0 0 93 0 0 93 0 0 93 172 79 0 172 79 0 172 79 0 172
79 0 172 79 0 172 79 0 172 79 0 172 79 0 172 79 0 0 0 93 0 0 93 172 79
0 172 79 0 172 79 0 172 79 0 172 79 0 172 79 0 172 79 0 0 0 92 0 0 92
0 0 92 0 0 92 0 0 92 0 0 92 0 0 92 0 0 92 172 80 0 172 80 0 172 80 0
172 80 0 172 80 0 172 80 0 172 80 0 0 0 92 0 0 92 172 80 0 171 80 0
171 80 0 171 80 0 171 80 0 171 80 0 171 80 0 171 80 0 171 80 0 0 0 91
0 0 91 0 0 91 0 0 91 0 0 91 0 0 91 0 0 91 0 0 90 0 0 90 171 81 0 171
81 0 0 0 90 0 0 90 0 0 90 0 0 90 0 0 90 0 0 90 0 0 90 171 81 0 171 81
0 171 81 0 170 81 0 170 81 0 170 81 0 170 81 0 170 81 0 170 81 0 0 0
89 0 0 89 0 0 89 0 0 89 0 0 89 0 0 89 0 0 89 170 81 0 0 0 88 0 0 88 0
0 88 0 0 88 0 0 88 0 0 88 0 0 88 0 0 88 0 0 88 169 81 0 169 81 0 169
81 0 169 81 0 169 81 0 169 82 0 169 82 0 169 82 0 168 82 0 0 0 87 0 0
87 0 0 87 168 82 0 168 82 0 168 82 0 168 82 0 168 82 0 168 82 0 0 0 86
0 0 86 0 0 86 0 0 86 0 0 86 0 0 86 0 0 86 0 0 85 0 0 85 167 82 0 167
82 0 167 82 0 167 82 0 167 82 0 166 82 0 166 82 0 0 0 85 166 82 0 166
82 0 166 82 0 166 82 0 166 82 0 166 82 0 166 82 0 165 82 0 165 82 0 0
0 84 0 0 84 0 0 84 0 0 83 0 0 83 0 0 83 0 0 83 0 0 83 0 0 83 164 82 0
164 81 0 164 81 0 0 0 83 0 0 82 0 0 82 0 0 82 0 0 82 0 0 82 163 81 0
163 81 0 163 81 0 163 81 0 163 81 0 163 81 0 163 81 0 163 81 0 162 81
0 0 0 81 0 0 81 0 0 81 0 0 81 0 0 81 0 0 81 0 0 81 162 81 0 0 0 80 0 0
80 0 0 80 0 0 80 0 0 80 0 0 80 0 0 80 0 0 80 0 0 80 160 81 0 160 81 0
160 81 0 160 81 0 160 81 0 160 81 0 160 81 0 159 81 0 159 81 0
173 77 0 0 0 95 0 0 95 173 78 0 173 78 0 173 78 0 173 78 0 173 78 0
173 78 0 173 78 0 0 0 95 0 0 95 0 0 95 0 0 95 0 0 95 0 0 95 0 0 95 0 0
95 0 0 95 174 78 0 174 79 0 174 79 0 174 79 0 174 79 0 174 79 0 174 79
0 0 0 95 0 0 95 174 79 0 174 79 0 174 79 0 174 79 0 174 79 0 174 79 0
174 79 0 174 79 0 174 79 0 0 0 95 0 0 95 0 0 95 0 0 95 0 0 95 0 0 95 0
0 95 0 0 95 0 0 95 174 80 0 174 80 0 175 80 0 0 0 94 0 0 94 0 0 94 0 0
94 0 0 94 0 0 94 175 80 0 175 80 0 175 80 0 175 80 0 175 80 0 175 81 0
175 81 0 175 81 0 175 81 0 0 0 94 0 0 94 0 0 94 0 0 94 0 0 94 0 0 94 0
0 93 174 81 0 174 81 0 0 0 93 0 0 93 0 0 93 0 0 93 0 0 93 0 0 93 0 0
93 0 0 93 0 0 93 174 81 0 174 81 0 174 82 0 174 82 0 174 82 0 174 82 0
174 82 0 174 82 0 174 82 0 0 0 92 0 0 92 0 0 92 174 82 0 174 82 0 174
82 0 174 82 0 174 82 0 174 82 0 0 0 92 0 0 91 0 0 91 0 0 91 0 0 91 0 0
91 0 0 91 0 0 91 0 0 91 173 82 0 173 82 0 173 82 0 173 82 0 173 82 0
173 82 0 173 82 0 173 82 0 0 0 90 173 82 0 173 83 0 172 83 0 172 83 0
172 83 0 172 83 0 172 83 0 172 83 0 172 83 0 0 0 89 0 0 89 0 0 89 0 0
89 0 0 89 0 0 89 0 0 89 0 0 89 0 0 89 0 0 89 171 83 0 171 83 0 0 0 88
0 0 88 0 0 88 0 0 88 0 0 88 0 0 88 0 0 88 171 83 0 170 83 0 170 83 0
170 83 0 170 83 0 170 83 0 170 83 0 170 83 0 170 83 0 0 0 87 0 0 87 0
0 87 0 0 87 0 0 86 0 0 86 0 0 86 169 83 0 169 83 0 0 0 86 0 0 86 0 0
86 0 0 86 0 0 86 0 0 85 0 0 85 0 0 85 0 0 85 168 83 0 168 83 0 168 83
0 168 83 0 168 83 0 167 83 0 167 83 0 167 83 0 167 83 0 0 0 84 0 0 84
0 0 84 167 83 0 167 83 0 166 83 0 166 83 0 166 83 0 166 83 0 0 0 83 0
0 83 0 0 83 0 0 83 0 0 83 0 0 83 0 0 83 0 0 83 0 0 83 165 83 0 165 82
0 165 82 0 165 82 0 165 82 0 164 82 0 164 82 0 0 0 82 0 0 82 164 82 0
164 82 0 164 82 0 164 82 0 163 82 0 163 82 0 163 82 0 163 82 0 163 82
0 0 0 81 0 0 81 0 0 81 0 0 80 0 0 80 0 0 80 0 0 80 0 0 80 0 0 80
0 0 97 0 0 97 0 0 97 0 0 97 176 79 0 176 79 0 176 79 0 176 79 0 176 79
0 176 79 0 176 79 0 176 79 0 176 79 0 0 0 97 0 0 97 0 0 97 0 0 97 0 0
97 0 0 97 177 80 0 177 80 0 177 80 0 0 0 97 0 0 97 0 0 97 0 0 97 0 0
97 0 0 97 0 0 97 0 0 97 0 0 97 0 0 97 177 80 0 177 80 0 177 80 0 177
80 0 177 81 0 177 81 0 177 81 0 177 81 0 177 81 0 0 0 96 0 0 96 177 81
0 177 81 0 177 81 0 177 81 0 177 81 0 177 81 0 177 81 0 0 0 96 0 0 96
0 0 96 0 0 96 0 0 96 0 0 96 0 0 96 0 0 96 0 0 96 0 0 96 177 82 0 177
82 0 177 82 0 177 82 0 177 82 0 177 82 0 0 0 95 0 0 95 0 0 95 177 82 0
177 82 0 177 82 0 177 82 0 177 82 0 177 82 0 177 82 0 177 82 0 177 82
0 0 0 95 0 0 95 0 0 94 0 0 94 0 0 94 0 0 94 0 0 94 0 0 94 0 0 94 0 0
94 177 83 0 0 0 94 0 0 94 0 0 94 0 0 94 0 0 94 0 0 93 0 0 93 0 0 93
176 83 0 176 83 0 176 83 0 176 83 0 176 83 0 176 83 0 176 83 0 176 83
0 176 83 0 0 0 93 0 0 92 0 0 92 0 0 92 0 0 92 0 0 92 0 0 92 176 84 0
175 84 0 175 84 0 0 0 92 0 0 92 0 0 92 0 0 91 0 0 91 0 0 91 0 0 91 0 0
91 0 0 91 175 84 0 175 84 0 175 84 0 175 84 0 174 84 0 174 84 0 174 84
0 174 84 0 174 84 0 0 0 90 0 0 90 174 84 0 174 84 0 174 84 0 174 84 0
174 84 0 174 84 0 173 84 0 0 0 89 0 0 89 0 0 89 0 0 89 0 0 89 0 0 89 0
0 89 0 0 89 0 0 89 0 0 88 172 84 0 172 84 0 172 84 0 172 84 0 172 84 0
172 84 0 0 0 88 0 0 88 0 0 88 172 84 0 172 84 0 171 84 0 171 84 0 171
84 0 171 84 0 171 84 0 171 84 0 171 84 0 0 0 87 0 0 86 0 0 86 0 0 86 0
0 86 0 0 86 0 0 86 0 0 86 0 0 86 0 0 86 170 84 0 0 0 85 0 0 85 0 0 85
0 0 85 0 0 85 0 0 85 0 0 85 0 0 85 169 84 0 169 84 0 168 84 0 168 84 0
168 84 0 168 84 0 168 84 0 168 84 0 168 84 0 0 0 84 0 0 84 0 0 84 0 0
83 0 0 83 0 0 83 0 0 83 167 84 0 167 84 0 167 84 0 0 0 83 0 0 83 0 0
83 0 0 83 0 0 82 0 0 82 0 0 82 0 0 82 0 0 82 165 83 0 165 83 0 165 83
0 165 83 0 165 83 0 165 83 0 165 83 0 164 83 0 164 83 0
0 0 99 0 0 99 0 0 99 0 0 99 0 0 99 0 0 99 0 0 99 179 80 0 179 80 0 179
80 0 179 80 0 179 80 0 0 0 99 0 0 99 0 0 99 0 0 99 0 0 99 179 81 0 180
81 0 180 81 0 180 81 0 180 81 0 180 81 0 180 81 0 180 81 0 180 81 0
180 81 0 0 0 99 0 0 99 0 0 99 0 0 99 0 0 99 0 0 99 0 0 98 0 0 98 180
82 0 0 0 98 0 0 98 0 0 98 0 0 98 0 0 98 0 0 98 0 0 98 0 0 98 0 0 98 0
0 98 180 82 0 180 82 0 180 82 0 180 82 0 180 82 0 180 82 0 180 82 0
180 83 0 180 83 0 0 0 98 0 0 97 0 0 97 0 0 97 180 83 0 180 83 0 180 83
0 180 83 0 180 83 0 180 83 0 0 0 97 0 0 97 0 0 97 0 0 97 0 0 97 0 0 97
0 0 97 0 0 97 0 0 96 180 83 0 180 84 0 180 84 0 180 84 0 180 84 0 180
84 0 180 84 0 180 84 0 180 84 0 0 0 96 180 84 0 180 84 0 180 84 0 179
84 0 179 84 0 179 84 0 179 84 0 179 84 0 179 84 0 0 0 95 0 0 95 0 0 95
0 0 95 0 0 95 0 0 95 0 0 95 0 0 94 0 0 94 0 0 94 179 85 0 179 85 0 179
85 0 179 85 0 0 0 94 0 0 94 0 0 94 0 0 94 0 0 94 0 0 93 178 85 0 178
85 0 178 85 0 178 85 0 178 85 0 178 85 0 178 85 0 178 85 0 178 85 0 0
0 93 0 0 93 0 0 92 0 0 92 0 0 92 0 0 92 0 0 92 0 0 92 0 0 92 177 85 0
0 0 92 0 0 92 0 0 91 0 0 91 0 0 91 0 0 91 0 0 91 0 0 91 0 0 91 176 85
0 176 85 0 176 85 0 176 85 0 176 85 0 176 85 0 176 85 0 176 85 0 175
85 0 175 85 0 0 0 90 0 0 90 0 0 90 0 0 90 175 85 0 175 85 0 175 85 0
175 85 0 174 85 0 0 0 89 0 0 89 0 0 89 0 0 89 0 0 89 0 0 88 0 0 88 0 0
88 0 0 88 0 0 88 173 85 0 173 85 0 173 85 0 173 85 0 173 85 0 173 85 0
173 85 0 173 85 0 172 85 0 0 0 87 172 85 0 172 85 0 172 85 0 172 85 0
172 85 0 172 85 0 172 85 0 171 85 0 171 85 0 0 0 86 0 0 86 0 0 86 0 0
86 0 0 86 0 0 86 0 0 85 0 0 85 0 0 85 0 0 85 170 85 0 170 85 0 170 85
0 170 85 0 0 0 85 0 0 84 0 0 84 0 0 84 0 0 84 169 85 0 169 85 0 169 85
0 169 85 0 168 85 0 168 85 0 168 85 0 168 85 0 168 85 0 168 85 0 0 0
83 0 0 83 0 0 83 0 0 83 0 0 83 0 0 83 0 0 82 0 0 82 0 0 82
182 81 0 182 81 0 182 81 0 182 81 0 182 81 0 182 81 0 182 81 0 182 81
0 182 81 0 182 81 0 182 81 0 0 0 101 0 0 101 0 0 101 0 0 101 0 0 101 0
0 101 0 0 101 0 0 101 0 0 101 0 0 101 182 82 0 182 82 0 183 82 0 183
82 0 183 82 0 183 82 0 0 0 100 0 0 100 0 0 100 0 0 100 183 82 0 183 83
0 183 83 0 183 83 0 183 83 0 183 83 0 183 83 0 183 83 0 183 83 0 183
83 0 0 0 100 0 0 100 0 0 100 0 0 100 0 0 100 0 0 100 0 0 100 0 0 100 0
0 99 0 0 99 0 0 99 0 0 99 0 0 99 0 0 99 0 0 99 0 0 99 0 0 99 0 0 99 0
0 99 0 0 99 183 84 0 183 84 0 183 84 0 183 84 0 183 84 0 183 84 0 183
84 0 183 84 0 183 84 0 0 0 98 0 0 98 0 0 98 0 0 98 0 0 98 0 0 98 183
85 0 183 85 0 182 85 0 182 85 0 0 0 98 0 0 97 0 0 97 0 0 97 0 0 97 0 0
97 0 0 97 0 0 97 0 0 97 0 0 97 182 85 0 182 85 0 182 85 0 182 85 0 182
85 0 182 85 0 182 85 0 182 86 0 182 86 0 182 86 0 0 0 96 182 86 0 181
86 0 181 86 0 181 86 0 181 86 0 181 86 0 181 86 0 181 86 0 181 86 0 0
0 95 0 0 95 0 0 95 0 0 95 0 0 95 0 0 95 0 0 95 0 0 94 0 0 94 0 0 94
180 86 0 180 86 0 180 86 0 180 86 0 180 86 0 0 0 94 0 0 94 0 0 94 0 0
93 180 86 0 180 86 0 179 86 0 179 86 0 179 86 0 179 86 0 179 86 0 179
86 0 179 86 0 179 86 0 0 0 92 0 0 92 0 0 92 0 0 92 0 0 92 0 0 92 0 0
92 0 0 92 0 0 92 0 0 91 178 87 0 0 0 91 0 0 91 0 0 91 0 0 91 0 0 91 0
0 91 0 0 91 0 0 91 0 0 90 177 87 0 177 87 0 177 87 0 177 87 0 177 87 0
176 87 0 176 87 0 176 87 0 176 87 0 176 87 0 0 0 89 0 0 89 0 0 89 0 0
89 0 0 89 175 87 0 175 87 0 175 87 0 175 87 0 0 0 88 0 0 88 0 0 88 0 0
88 0 0 88 0 0 88 0 0 88 0 0 88 0 0 88 0 0 87 174 86 0 174 86 0 174 86
0 173 86 0 173 86 0 173 86 0 173 86 0 173 86 0 173 86 0 173 86 0 0 0
86 172 86 0 172 86 0 172 86 0 172 86 0 172 86 0 172 86 0 172 86 0 172
86 0 172 86 0 0 0 85 0 0 85 0 0 85 0 0 85 0 0 85 0 0 85 0 0 85 0 0 85
0 0 84 0 0 84 170 86 0 170 86 0 170 86 0 170 86 0 170 86 0 0 0 84 0 0
84 0 0 83 0 0 83
0 0 103 0 0 103 0 0 103 0 0 103 0 0 103 0 0 103 185 82 0 185 82 0 185
82 0 185 82 0 185 82 0 185 82 0 185 82 0 185 83 0 185 83 0 185 83 0 0
0 102 185 83 0 185 83 0 185 83 0 185 83 0 185 83 0 185 83 0 185 83 0
185 83 0 185 83 0 0 0 102 0 0 102 0 0 102 0 0 102 0 0 102 0 0 102 0 0
102 0 0 102 0 0 102 0 0 102 186 84 0 186 84 0 186 84 0 186 84 0 186 84
0 186 84 0 0 0 101 0 0 101 0 0 101 0 0 101 186 84 0 186 84 0 186 85 0
186 85 0 186 85 0 186 85 0 186 85 0 186 85 0 186 85 0 186 85 0 0 0 101
0 0 101 0 0 101 0 0 100 0 0 100 0 0 100 0 0 100 0 0 100 0 0 100 0 0
100 185 85 0 0 0 100 0 0 100 0 0 100 0 0 100 0 0 100 0 0 100 0 0 100 0
0 99 0 0 99 0 0 99 185 86 0 185 86 0 185 86 0 185 86 0 185 86 0 185 86
0 185 86 0 185 86 0 185 86 0 185 86 0 0 0 98 0 0 98 0 0 98 0 0 98 0 0
98 0 0 98 185 87 0 184 87 0 184 87 0 184 87 0 0 0 98 0 0 98 0 0 97 0 0
97 0 0 97 0 0 97 0 0 97 0 0 97 0 0 97 0 0 97 184 87 0 184 87 0 184 87
0 184 87 0 183 87 0 183 87 0 183 87 0 183 87 0 183 87 0 183 87 0 0 0
96 183 87 0 183 87 0 183 87 0 183 87 0 183 87 0 183 87 0 183 87 0 182
87 0 182 87 0 0 0 95 0 0 95 0 0 95 0 0 95 0 0 94 0 0 94 0 0 94 0 0 94
0 0 94 0 0 94 182 88 0 181 88 0 181 88 0 181 88 0 181 88 0 181 88 0 0
0 93 0 0 93 0 0 93 0 0 93 181 88 0 181 88 0 180 88 0 180 88 0 180 88 0
180 88 0 180 88 0 180 88 0 180 88 0 180 88 0 0 0 92 0 0 92 0 0 92 0 0
92 0 0 91 0 0 91 0 0 91 0 0 91 0 0 91 0 0 91 179 88 0 0 0 91 0 0 91 0
0 90 0 0 90 0 0 90 0 0 90 0 0 90 0 0 90 0 0 90 177 88 0 177 88 0 177
88 0 177 88 0 177 88 0 177 88 0 177 88 0 177 88 0 177 88 0 176 88 0 0
0 89 0 0 89 0 0 88 0 0 88 0 0 88 0 0 88 176 88 0 176 88 0 175 88 0 175
88 0 0 0 88 0 0 87 0 0 87 0 0 87 0 0 87 0 0 87 0 0 87 0 0 87 0 0 87 0
0 87 174 87 0 174 87 0 174 87 0 173 87 0 173 87 0 173 87 0 173 87 0
173 87 0 173 87 0 173 87 0 173 87 0 0 0 85 172 87 0 172 87 0 172 87 0
172 87 0 172 87 0 172 87 0 172 87 0 171 87 0
187 83 0 0 0 104 0 0 104 0 0 104 0 0 104 0 0 104 187 83 0 187 83 0 188
83 0 188 83 0 188 83 0 0 0 104 0 0 104 0 0 104 0 0 104 0 0 104 0 0 104
0 0 104 0 0 104 0 0 104 0 0 104 188 84 0 188 84 0 188 84 0 188 84 0
188 84 0 188 84 0 188 84 0 188 84 0 188 85 0 188 85 0 188 85 0 188 85
0 188 85 0 188 85 0 188 85 0 188 85 0 188 85 0 188 85 0 188 85 0 188
85 0 188 85 0 0 0 103 0 0 103 0 0 103 0 0 103 0 0 103 0 0 103 0 0 103
0 0 103 0 0 103 0 0 103 188 86 0 188 86 0 188 86 0 188 86 0 188 86 0
188 86 0 0 0 102 0 0 102 0 0 102 0 0 102 0 0 102 188 86 0 188 86 0 188
86 0 188 87 0 188 87 0 188 87 0 188 87 0 188 87 0 188 87 0 188 87 0 0
0 101 0 0 101 0 0 101 0 0 101 0 0 101 0 0 101 0 0 101 0 0 101 0 0 100
0 0 100 0 0 100 0 0 100 0 0 100 0 0 100 0 0 100 0 0 100 0 0 100 0 0
100 0 0 100 0 0 100 0 0 99 187 88 0 187 88 0 187 88 0 187 88 0 187 88
0 187 88 0 187 88 0 187 88 0 187 88 0 187 88 0 0 0 98 0 0 98 0 0 98 0
0 98 0 0 98 186 88 0 186 88 0 186 88 0 186 88 0 186 88 0 0 0 97 0 0 97
0 0 97 0 0 97 0 0 97 0 0 97 0 0 97 0 0 97 0 0 97 0 0 97 185 89 0 185
89 0 185 89 0 185 89 0 185 89 0 185 89 0 185 89 0 184 89 0 184 89 0
184 89 0 184 89 0 184 89 0 184 89 0 184 89 0 184 89 0 184 89 0 184 89
0 184 89 0 184 89 0 183 89 0 183 89 0 0 0 94 0 0 94 0 0 94 0 0 94 0 0
94 0 0 94 0 0 94 0 0 94 0 0 93 0 0 93 182 89 0 182 89 0 182 89 0 182
89 0 182 89 0 182 89 0 0 0 93 0 0 93 0 0 92 0 0 92 0 0 92 181 89 0 181
89 0 181 89 0 181 89 0 181 89 0 181 89 0 180 89 0 180 89 0 180 89 0
180 89 0 0 0 91 0 0 91 0 0 91 0 0 91 0 0 91 0 0 90 0 0 90 0 0 90 0 0
90 0 0 90 179 89 0 0 0 90 0 0 90 0 0 90 0 0 89 0 0 89 0 0 89 0 0 89 0
0 89 0 0 89 0 0 89 177 89 0 177 89 0 177 89 0 177 89 0 177 89 0 177 89
0 177 89 0 177 89 0 176 89 0 176 89 0 0 0 88 0 0 88 0 0 87 0 0 87 0 0
87 0 0 87 175 88 0 175 88 0 175 88 0 175 88 0 0 0 87 0 0 86 0 0 86 0 0
86 0 0 86 0 0 86 0 0 86 0 0 86 0 0 86 0 0 86
0 0 106 0 0 106 0 0 106 0 0 106 0 0 106 0 0 106 190 84 0 190 84 0 190
84 0 190 84 0 190 84 0 190 85 0 190 85 0 190 85 0 191 85 0 191 85 0 0
0 106 0 0 106 0 0 106 0 0 106 191 85 0 191 85 0 191 85 0 191 85 0 191
85 0 191 85 0 191 85 0 0 0 105 0 0 105 0 0 105 0 0 105 0 0 105 0 0 105
0 0 105 0 0 105 0 0 105 0 0 105 191 86 0 191 86 0 191 86 0 191 86 0
191 86 0 191 86 0 191 86 0 191 86 0 191 87 0 191 87 0 0 0 104 191 87 0
191 87 0 191 87 0 191 87 0 191 87 0 191 87 0 191 87 0 191 87 0 191 87
0 191 87 0 191 87 0 0 0 104 0 0 104 0 0 103 0 0 103 0 0 103 0 0 103 0
0 103 0 0 103 0 0 103 0 0 103 191 88 0 191 88 0 191 88 0 191 88 0 0 0
103 0 0 102 0 0 102 0 0 102 0 0 102 0 0 102 0 0 102 190 88 0 190 88 0
190 88 0 190 88 0 190 88 0 190 88 0 190 88 0 190 89 0 190 89 0 190 89
0 0 0 101 0 0 101 0 0 101 0 0 101 0 0 101 0 0 101 0 0 101 0 0 100 0 0
100 189 89 0 189 89 0 0 0 100 0 0 100 0 0 100 0 0 100 0 0 100 0 0 100
0 0 100 0 0 99 0 0 99 0 0 99 0 0 99 188 89 0 188 89 0 188 89 0 188 89
0 188 89 0 188 90 0 188 90 0 188 90 0 188 90 0 188 90 0 0 0 98 0 0 98
0 0 98 0 0 98 187 90 0 187 90 0 187 90 0 187 90 0 187 90 0 187 90 0
187 90 0 0 0 97 0 0 97 0 0 97 0 0 97 0 0 96 0 0 96 0 0 96 0 0 96 0 0
96 0 0 96 186 90 0 186 90 0 186 90 0 186 90 0 185 90 0 185 90 0 185 90
0 185 90 0 185 90 0 0 0 95 0 0 95 185 90 0 185 90 0 185 90 0 184 90 0
184 90 0 184 90 0 184 90 0 184 90 0 184 90 0 184 90 0 0 0 94 0 0 93 0
0 93 0 0 93 0 0 93 0 0 93 0 0 93 0 0 93 0 0 93 0 0 93 0 0 92 182 90 0
182 90 0 182 90 0 182 90 0 0 0 92 0 0 92 0 0 92 0 0 92 0 0 91 0 0 91 0
0 91 181 90 0 181 90 0 181 90 0 181 90 0 181 90 0 181 90 0 180 90 0
180 90 0 180 90 0 180 90 0 0 0 90 0 0 90 0 0 90 0 0 90 0 0 90 0 0 89 0
0 89 0 0 89 0 0 89 179 90 0 179 90 0 0 0 89 0 0 89 0 0 89 0 0 88 0 0
88 0 0 88 0 0 88 0 0 88 0 0 88 0 0 88 177 90 0 177 90 0 177 90 0 177
89 0 177 89 0 177 89 0 176 89 0 176 89 0 176 89 0 176 89 0
193 85 0 0 0 108 0 0 108 0 0 108 0 0 108 0 0 108 0 0 108 193 85 0 193
85 0 193 85 0 193 85 0 0 0 108 0 0 108 0 0 108 0 0 107 0 0 107 0 0 107
0 0 107 0 0 107 0 0 107 0 0 107 0 0 107 193 86 0 193 86 0 193 86 0 193
86 0 193 86 0 194 87 0 194 87 0 194 87 0 194 87 0 194 87 0 194 87 0 0
0 107 194 87 0 194 87 0 194 87 0 194 87 0 194 87 0 194 87 0 194 87 0
194 87 0 194 87 0 194 87 0 0 0 106 0 0 106 0 0 106 0 0 106 0 0 106 0 0
106 0 0 106 0 0 106 0 0 106 0 0 105 0 0 105 193 88 0 193 88 0 193 88 0
193 88 0 193 88 0 193 88 0 0 0 105 0 0 105 0 0 105 0 0 105 0 0 105 193
89 0 193 89 0 193 89 0 193 89 0 193 89 0 193 89 0 193 89 0 193 89 0
193 89 0 193 89 0 0 0 104 0 0 104 0 0 104 0 0 103 0 0 103 0 0 103 0 0
103 0 0 103 0 0 103 0 0 103 0 0 103 192 90 0 0 0 103 0 0 103 0 0 102 0
0 102 0 0 102 0 0 102 0 0 102 0 0 102 0 0 102 0 0 102 192 90 0 192 90
0 192 90 0 192 90 0 192 90 0 191 90 0 191 90 0 191 90 0 191 90 0 191
90 0 191 90 0 0 0 101 0 0 101 0 0 100 0 0 100 0 0 100 0 0 100 0 0 100
191 91 0 190 91 0 190 91 0 190 91 0 0 0 100 0 0 99 0 0 99 0 0 99 0 0
99 0 0 99 0 0 99 0 0 99 0 0 99 0 0 99 0 0 98 189 91 0 189 91 0 189 91
0 189 91 0 189 91 0 189 91 0 189 91 0 189 91 0 189 91 0 189 91 0 0 0
97 0 0 97 188 91 0 188 91 0 188 91 0 188 91 0 188 91 0 188 91 0 188 91
0 188 91 0 187 91 0 0 0 96 0 0 96 0 0 96 0 0 96 0 0 96 0 0 95 0 0 95 0
0 95 0 0 95 0 0 95 0 0 95 186 91 0 186 91 0 186 91 0 186 91 0 186 91 0
186 91 0 185 91 0 0 0 94 0 0 94 0 0 94 0 0 94 185 91 0 185 91 0 185 91
0 185 91 0 184 91 0 184 91 0 184 91 0 184 91 0 184 91 0 184 91 0 184
91 0 0 0 92 0 0 92 0 0 92 0 0 92 0 0 92 0 0 92 0 0 92 0 0 92 0 0 91 0
0 91 182 91 0 182 91 0 0 0 91 0 0 91 0 0 91 0 0 91 0 0 90 0 0 90 0 0
90 0 0 90 0 0 90 181 91 0 181 91 0 181 91 0 181 91 0 180 91 0 180 91 0
180 91 0 180 91 0 180 91 0 180 91 0 180 91 0 0 0 89 0 0 89 0 0 88 0 0
88 0 0 88 0 0 88 0 0 88 178 91 0 178 91 0 178 91 0
0 0 110 0 0 110 0 0 109 0 0 109 0 0 109 0 0 109 196 86 0 196 86 0 196
86 0 196 86 0 196 86 0 196 87 0 196 87 0 196 87 0 196 87 0 196 87 0
196 87 0 196 87 0 0 0 109 0 0 109 0 0 109 196 87 0 196 87 0 196 87 0
196 87 0 196 87 0 196 88 0 196 88 0 196 88 0 0 0 108 0 0 108 0 0 108 0
0 108 0 0 108 0 0 108 0 0 108 0 0 108 0 0 108 0 0 108 0 0 108 196 88 0
196 88 0 196 88 0 196 89 0 196 89 0 196 89 0 196 89 0 196 89 0 0 0 107
0 0 107 0 0 107 196 89 0 196 89 0 196 89 0 196 89 0 196 89 0 196 89 0
196 89 0 196 89 0 196 89 0 196 89 0 196 89 0 0 0 106 0 0 106 0 0 106 0
0 106 0 0 106 0 0 106 0 0 106 0 0 106 0 0 106 0 0 106 0 0 105 195 90 0
195 90 0 195 90 0 0 0 105 0 0 105 0 0 105 0 0 105 0 0 105 0 0 105 0 0
105 0 0 105 195 91 0 195 91 0 195 91 0 195 91 0 195 91 0 195 91 0 195
91 0 195 91 0 195 91 0 195 91 0 194 91 0 0 0 103 0 0 103 0 0 103 0 0
103 0 0 103 0 0 103 0 0 103 0 0 103 0 0 103 194 91 0 194 91 0 0 0 102
0 0 102 0 0 102 0 0 102 0 0 102 0 0 102 0 0 102 0 0 102 0 0 101 0 0
101 0 0 101 193 92 0 193 92 0 193 92 0 193 92 0 193 92 0 192 92 0 192
92 0 192 92 0 192 92 0 192 92 0 192 92 0 0 0 100 0 0 100 0 0 100 0 0
100 192 92 0 192 92 0 191 92 0 191 92 0 191 92 0 191 92 0 191 92 0 0 0
99 0 0 99 0 0 98 0 0 98 0 0 98 0 0 98 0 0 98 0 0 98 0 0 98 0 0 98 0 0
98 0 0 97 190 92 0 190 92 0 190 92 0 189 92 0 189 92 0 189 92 0 189 92
0 189 92 0 0 0 96 0 0 96 0 0 96 189 92 0 188 92 0 188 92 0 188 92 0
188 92 0 188 92 0 188 92 0 188 92 0 188 92 0 188 92 0 187 92 0 0 0 95
0 0 95 0 0 95 0 0 94 0 0 94 0 0 94 0 0 94 0 0 94 0 0 94 0 0 94 0 0 94
186 92 0 186 92 0 186 92 0 0 0 93 0 0 93 0 0 93 0 0 93 0 0 93 0 0 93 0
0 92 0 0 92 185 92 0 184 92 0 184 92 0 184 92 0 184 92 0 184 92 0 184
92 0 184 92 0 184 92 0 183 92 0 183 92 0 0 0 91 0 0 91 0 0 91 0 0 91 0
0 91 0 0 90 0 0 90 0 0 90 0 0 90 182 92 0 182 92 0 0 0 90 0 0 90 0 0
90 0 0 89 0 0 89 0 0 89 0 0 89 0 0 89 0 0 89 0 0 89
198 87 0 198 87 0 0 0 111 0 0 111 0 0 111 0 0 111 198 87 0 198 87 0
198 87 0 198 87 0 198 87 0 198 88 0 198 88 0 0 0 111 0 0 111 0 0 111 0
0 111 0 0 111 0 0 111 0 0 111 0 0 110 0 0 110 0 0 110 0 0 110 199 88 0
199 88 0 199 89 0 199 89 0 199 89 0 199 89 0 199 89 0 199 89 0 199 89
0 199 89 0 0 0 110 0 0 110 199 89 0 199 89 0 199 89 0 199 89 0 199 89
0 199 89 0 199 89 0 199 90 0 199 90 0 199 90 0 199 90 0 0 0 109 0 0
109 0 0 109 0 0 109 0 0 109 0 0 109 0 0 108 0 0 108 0 0 108 0 0 108 0
0 108 198 90 0 198 90 0 198 90 0 198 91 0 198 91 0 0 0 108 0 0 108 0 0
108 0 0 107 0 0 107 0 0 107 0 0 107 198 91 0 198 91 0 198 91 0 198 91
0 198 91 0 198 91 0 198 91 0 198 91 0 198 91 0 198 91 0 198 91 0 0 0
106 0 0 106 0 0 106 0 0 106 0 0 106 0 0 106 0 0 106 0 0 105 0 0 105 0
0 105 197 92 0 0 0 105 0 0 105 0 0 105 0 0 105 0 0 105 0 0 105 0 0 104
0 0 104 0 0 104 0 0 104 0 0 104 0 0 104 196 92 0 196 92 0 196 92 0 196
93 0 196 93 0 196 93 0 196 93 0 196 93 0 196 93 0 196 93 0 195 93 0 0
0 103 0 0 102 0 0 102 0 0 102 195 93 0 195 93 0 195 93 0 195 93 0 195
93 0 195 93 0 195 93 0 0 0 101 0 0 101 0 0 101 0 0 101 0 0 101 0 0 101
0 0 101 0 0 101 0 0 100 0 0 100 0 0 100 0 0 100 193 93 0 193 93 0 193
93 0 193 93 0 193 93 0 193 93 0 193 93 0 193 93 0 193 93 0 192 93 0 0
0 99 192 93 0 192 94 0 192 94 0 192 94 0 192 94 0 192 94 0 192 94 0
191 94 0 191 94 0 191 94 0 191 94 0 0 0 97 0 0 97 0 0 97 0 0 97 0 0 97
0 0 97 0 0 97 0 0 97 0 0 97 0 0 96 0 0 96 0 0 96 190 94 0 190 94 0 189
94 0 189 94 0 0 0 96 0 0 95 0 0 95 0 0 95 0 0 95 0 0 95 0 0 95 188 94
0 188 94 0 188 94 0 188 94 0 188 94 0 188 94 0 188 94 0 187 94 0 187
94 0 187 94 0 187 94 0 0 0 93 0 0 93 0 0 93 0 0 93 0 0 93 0 0 93 0 0
93 0 0 93 0 0 93 0 0 92 186 93 0 186 93 0 0 0 92 0 0 92 0 0 92 0 0 92
0 0 92 0 0 91 0 0 91 0 0 91 0 0 91 0 0 91 0 0 91 184 93 0 184 93 0 184
93 0 183 93 0 183 93 0 183 93 0 183 93 0 183 93 0 183 93 0 183 93 0
0 0 113 0 0 113 0 0 113 0 0 113 0 0 113 0 0 113 0 0 113 0 0 113 201 88
0 201 88 0 201 88 0 201 89 0 201 89 0 201 89 0 201 89 0 201 89 0 201
89 0 201 89 0 201 89 0 0 0 112 201 89 0 201 89 0 201 89 0 201 89 0 201
89 0 201 89 0 201 90 0 201 90 0 201 90 0 201 90 0 201 90 0 0 0 111 0 0
111 0 0 111 0 0 111 0 0 111 0 0 111 0 0 111 0 0 111 0 0 111 0 0 111 0
0 111 0 0 111 201 91 0 201 91 0 201 91 0 201 91 0 201 91 0 0 0 110 0 0
110 0 0 110 0 0 110 0 0 110 0 0 110 0 0 110 201 91 0 201 91 0 201 91 0
201 91 0 201 91 0 201 92 0 201 92 0 201 92 0 201 92 0 201 92 0 201 92
0 0 0 109 0 0 109 0 0 109 0 0 109 0 0 108 0 0 108 0 0 108 0 0 108 0 0
108 0 0 108 0 0 108 200 92 0 0 0 108 0 0 108 0 0 108 0 0 107 0 0 107 0
0 107 0 0 107 0 0 107 0 0 107 0 0 107 0 0 107 200 93 0 199 93 0 199 93
0 199 93 0 199 93 0 199 93 0 199 93 0 199 93 0 199 93 0 199 93 0 199
93 0 199 93 0 0 0 105 0 0 105 0 0 105 0 0 105 0 0 105 198 94 0 198 94
0 198 94 0 198 94 0 198 94 0 198 94 0 0 0 104 0 0 104 0 0 104 0 0 104
0 0 104 0 0 104 0 0 104 0 0 103 0 0 103 0 0 103 0 0 103 0 0 103 197 94
0 197 94 0 197 94 0 197 94 0 197 94 0 196 94 0 196 94 0 196 94 0 196
94 0 196 94 0 196 94 0 0 0 102 196 94 0 196 94 0 196 94 0 196 94 0 195
94 0 195 94 0 195 94 0 195 94 0 195 95 0 195 95 0 195 95 0 0 0 100 0 0
100 0 0 100 0 0 100 0 0 100 0 0 100 0 0 99 0 0 99 0 0 99 0 0 99 0 0 99
0 0 99 193 95 0 193 95 0 193 95 0 193 95 0 193 95 0 0 0 98 0 0 98 0 0
98 0 0 98 0 0 98 0 0 98 192 95 0 192 95 0 192 95 0 192 95 0 192 95 0
192 95 0 191 95 0 191 95 0 191 95 0 191 95 0 191 95 0 191 95 0 0 0 96
0 0 96 0 0 96 0 0 96 0 0 95 0 0 95 0 0 95 0 0 95 0 0 95 0 0 95 0 0 95
189 95 0 0 0 95 0 0 94 0 0 94 0 0 94 0 0 94 0 0 94 0 0 94 0 0 94 0 0
94 0 0 93 0 0 93 188 94 0 188 94 0 187 94 0 187 94 0 187 94 0 187 94 0
187 94 0 187 94 0 187 94 0 186 94 0 186 94 0 186 94 0 0 0 92 0 0 92 0
0 92 0 0 91 185 94 0 185 94 0 185 94 0 185 94 0 185 94 0 185 94 0
203 89 0 203 89 0 0 0 114 203 89 0 203 89 0 203 89 0 203 89 0 203 89 0
203 89 0 203 89 0 204 89 0 204 90 0 204 90 0 204 90 0 204 90 0 0 0 114
0 0 114 0 0 114 0 0 114 0 0 114 0 0 114 0 0 114 0 0 113 0 0 113 0 0
113 0 0 113 0 0 113 204 91 0 204 91 0 204 91 0 204 91 0 204 91 0 0 0
113 0 0 113 0 0 113 0 0 113 0 0 113 0 0 113 0 0 112 204 91 0 204 91 0
204 91 0 204 91 0 204 92 0 204 92 0 204 92 0 204 92 0 204 92 0 204 92
0 204 92 0 204 92 0 0 0 111 0 0 111 0 0 111 0 0 111 0 0 111 0 0 111 0
0 111 0 0 111 0 0 111 0 0 111 203 93 0 203 93 0 0 0 110 0 0 110 0 0
110 0 0 110 0 0 110 0 0 110 0 0 110 0 0 110 0 0 110 0 0 110 0 0 110 0
0 109 203 93 0 203 93 0 203 93 0 202 93 0 202 93 0 202 94 0 202 94 0
202 94 0 202 94 0 202 94 0 202 94 0 0 0 108 0 0 108 0 0 108 0 0 108 0
0 108 202 94 0 202 94 0 202 94 0 202 94 0 201 94 0 201 94 0 201 94 0 0
0 107 0 0 107 0 0 107 0 0 107 0 0 107 0 0 106 0 0 106 0 0 106 0 0 106
0 0 106 0 0 106 0 0 106 200 95 0 200 95 0 200 95 0 200 95 0 200 95 0
200 95 0 200 95 0 200 95 0 200 95 0 200 95 0 0 0 104 0 0 104 199 95 0
199 95 0 199 95 0 199 95 0 199 95 0 199 95 0 199 95 0 199 95 0 199 95
0 199 95 0 198 95 0 198 95 0 0 0 103 0 0 103 0 0 103 0 0 102 0 0 102 0
0 102 0 0 102 0 0 102 0 0 102 0 0 102 0 0 102 0 0 102 197 96 0 197 96
0 197 96 0 197 96 0 0 0 101 0 0 101 0 0 101 0 0 101 0 0 100 0 0 100 0
0 100 196 96 0 196 96 0 196 96 0 195 96 0 195 96 0 195 96 0 195 96 0
195 96 0 195 96 0 195 96 0 195 96 0 195 96 0 0 0 99 0 0 98 0 0 98 0 0
98 0 0 98 0 0 98 0 0 98 0 0 98 0 0 98 0 0 97 0 0 97 193 96 0 0 0 97 0
0 97 0 0 97 0 0 97 0 0 97 0 0 97 0 0 96 0 0 96 0 0 96 0 0 96 0 0 96 0
0 96 191 96 0 191 96 0 191 96 0 191 96 0 191 96 0 191 96 0 191 96 0
190 96 0 190 96 0 190 96 0 190 96 0 190 96 0 0 0 94 0 0 94 0 0 94 0 0
94 189 96 0 189 95 0 189 95 0 189 95 0 189 95 0 189 95 0 188 95 0 188
95 0 0 0 93 0 0 93 0 0 93 0 0 92 0 0 92 0 0 92 0 0 92 0 0 92 0 0 92 0
0 92
0 0 116 0 0 116 0 0 116 0 0 116 0 0 116 0 0 116 0 0 116 0 0 116 0 0
116 0 0 116 0 0 116 206 90 0 206 91 0 206 91 0 0 0 115 0 0 115 0 0 115
0 0 115 0 0 115 0 0 115 0 0 115 0 0 115 0 0 115 206 91 0 206 91 0 206
91 0 206 91 0 206 92 0 206 92 0 206 92 0 206 92 0 206 92 0 206 92 0
206 92 0 206 92 0 0 0 114 0 0 114 0 0 114 0 0 114 0 0 114 0 0 114 0 0
114 0 0 114 0 0 114 206 93 0 206 93 0 206 93 0 0 0 113 0 0 113 0 0 113
0 0 113 0 0 113 0 0 113 0 0 113 0 0 113 0 0 113 0 0 112 0 0 112 0 0
112 206 93 0 206 94 0 206 94 0 206 94 0 205 94 0 205 94 0 205 94 0 205
94 0 205 94 0 205 94 0 205 94 0 205 94 0 0 0 111 0 0 111 0 0 111 0 0
111 205 94 0 205 94 0 205 94 0 205 94 0 205 94 0 205 95 0 205 95 0 205
95 0 0 0 110 0 0 110 0 0 110 0 0 110 0 0 109 0 0 109 0 0 109 0 0 109 0
0 109 0 0 109 0 0 109 0 0 109 0 0 109 204 95 0 204 95 0 204 95 0 203
95 0 203 95 0 203 95 0 203 95 0 203 96 0 203 96 0 0 0 107 0 0 107 0 0
107 203 96 0 203 96 0 203 96 0 203 96 0 202 96 0 202 96 0 202 96 0 202
96 0 202 96 0 202 96 0 202 96 0 202 96 0 0 0 106 0 0 106 0 0 105 0 0
105 0 0 105 0 0 105 0 0 105 0 0 105 0 0 105 0 0 105 0 0 104 0 0 104
201 96 0 201 96 0 200 96 0 0 0 104 0 0 104 0 0 104 0 0 103 0 0 103 0 0
103 0 0 103 0 0 103 0 0 103 199 97 0 199 97 0 199 97 0 199 97 0 199 97
0 199 97 0 199 97 0 199 97 0 199 97 0 198 97 0 198 97 0 198 97 0 0 0
101 0 0 101 0 0 101 0 0 101 0 0 101 0 0 101 0 0 101 0 0 100 0 0 100
197 97 0 197 97 0 197 97 0 0 0 100 0 0 100 0 0 100 0 0 99 0 0 99 0 0
99 0 0 99 0 0 99 0 0 99 0 0 99 0 0 99 0 0 98 195 97 0 195 97 0 195 97
0 195 97 0 195 97 0 195 97 0 194 97 0 194 97 0 194 97 0 194 97 0 194
97 0 194 97 0 0 0 97 0 0 97 0 0 97 0 0 96 193 97 0 193 97 0 193 97 0
193 97 0 193 97 0 192 97 0 192 97 0 192 97 0 0 0 95 0 0 95 0 0 95 0 0
95 0 0 95 0 0 95 0 0 95 0 0 95 0 0 94 0 0 94 0 0 94 0 0 94 190 96 0
190 96 0 190 96 0 190 96 0 190 96 0 190 96 0 190 96 0 189 96 0 189 96
0 189 96 0 0 0 93
0 0 118 0 0 118 0 0 118 0 0 117 0 0 117 0 0 117 208 91 0 208 91 0 208
91 0 208 91 0 208 91 0 209 91 0 209 91 0 209 92 0 209 92 0 209 92 0
209 92 0 209 92 0 209 92 0 0 0 117 0 0 117 0 0 117 0 0 116 0 0 116 0 0
116 0 0 116 209 92 0 209 93 0 209 93 0 209 93 0 209 93 0 0 0 116 0 0
116 0 0 116 0 0 116 0 0 116 0 0 115 0 0 115 0 0 115 0 0 115 0 0 115 0
0 115 0 0 115 208 94 0 208 94 0 208 94 0 208 94 0 208 94 0 208 94 0
208 94 0 208 94 0 208 94 0 208 94 0 208 94 0 208 94 0 208 94 0 0 0 114
208 94 0 208 94 0 208 94 0 208 95 0 208 95 0 208 95 0 208 95 0 208 95
0 208 95 0 208 95 0 208 95 0 0 0 113 0 0 113 0 0 112 0 0 112 0 0 112 0
0 112 0 0 112 0 0 112 0 0 112 0 0 112 0 0 112 0 0 112 0 0 111 207 96 0
207 96 0 207 96 0 207 96 0 207 96 0 207 96 0 207 96 0 0 0 111 0 0 110
0 0 110 0 0 110 0 0 110 206 96 0 206 96 0 206 96 0 206 96 0 206 96 0
206 96 0 206 96 0 206 96 0 206 96 0 205 96 0 205 97 0 205 97 0 0 0 109
0 0 108 0 0 108 0 0 108 0 0 108 0 0 108 0 0 108 0 0 108 0 0 108 0 0
108 0 0 107 0 0 107 0 0 107 204 97 0 0 0 107 0 0 107 0 0 107 0 0 107 0
0 106 0 0 106 0 0 106 0 0 106 0 0 106 0 0 106 0 0 106 203 97 0 203 97
0 203 97 0 203 97 0 203 97 0 202 98 0 202 98 0 202 98 0 202 98 0 202
98 0 202 98 0 202 98 0 0 0 104 0 0 104 0 0 104 0 0 104 0 0 104 0 0 103
0 0 103 0 0 103 201 98 0 201 98 0 201 98 0 201 98 0 200 98 0 0 0 102 0
0 102 0 0 102 0 0 102 0 0 102 0 0 102 0 0 102 0 0 102 0 0 101 0 0 101
0 0 101 0 0 101 199 98 0 199 98 0 199 98 0 199 98 0 198 98 0 198 98 0
198 98 0 198 98 0 198 98 0 198 98 0 198 98 0 198 98 0 0 0 99 0 0 99
197 98 0 197 98 0 197 98 0 197 98 0 197 98 0 197 98 0 196 98 0 196 98
0 196 98 0 196 98 0 196 98 0 0 0 98 0 0 98 0 0 98 0 0 97 0 0 97 0 0 97
0 0 97 0 0 97 0 0 97 0 0 97 0 0 97 0 0 96 194 98 0 194 98 0 194 98 0
194 98 0 194 98 0 193 98 0 193 98 0 193 98 0 0 0 95 0 0 95 0 0 95 0 0
95 192 98 0 192 98 0 192 98 0 192 98 0 192 97 0 192 97 0 192 97 0 191
97 0 191 97 0 191 97 0 191 97 0
211 92 0 211 92 0 0 0 119 0 0 119 0 0 119 0 0 119 0 0 119 211 92 0 211
92 0 211 92 0 211 92 0 211 92 0 211 92 0 211 93 0 211 93 0 0 0 118 0 0
118 0 0 118 0 0 118 0 0 118 0 0 118 0 0 118 0 0 118 0 0 118 0 0 118 0
0 118 0 0 118 211 93 0 211 94 0 211 94 0 211 94 0 211 94 0 211 94 0
211 94 0 211 94 0 211 94 0 211 94 0 211 94 0 211 94 0 0 0 117 211 94 0
211 94 0 211 94 0 211 94 0 211 95 0 211 95 0 211 95 0 211 95 0 211 95
0 211 95 0 211 95 0 211 95 0 0 0 115 0 0 115 0 0 115 0 0 115 0 0 115 0
0 115 0 0 115 0 0 115 0 0 115 0 0 115 0 0 115 0 0 114 0 0 114 210 96 0
210 96 0 210 96 0 210 96 0 210 96 0 0 0 114 0 0 114 0 0 114 0 0 113 0
0 113 0 0 113 0 0 113 0 0 113 209 96 0 209 96 0 209 97 0 209 97 0 209
97 0 209 97 0 209 97 0 209 97 0 209 97 0 209 97 0 209 97 0 209 97 0 0
0 112 0 0 111 0 0 111 0 0 111 0 0 111 0 0 111 0 0 111 0 0 111 0 0 111
0 0 110 0 0 110 0 0 110 208 97 0 0 0 110 0 0 110 0 0 110 0 0 110 0 0
110 0 0 109 0 0 109 0 0 109 0 0 109 0 0 109 0 0 109 0 0 109 207 98 0
206 98 0 206 98 0 206 98 0 206 98 0 206 98 0 206 98 0 206 98 0 206 98
0 206 98 0 206 98 0 206 98 0 205 98 0 0 0 107 0 0 107 0 0 107 0 0 107
0 0 106 205 98 0 205 99 0 205 99 0 205 99 0 204 99 0 204 99 0 204 99 0
204 99 0 0 0 105 0 0 105 0 0 105 0 0 105 0 0 105 0 0 105 0 0 105 0 0
104 0 0 104 0 0 104 0 0 104 0 0 104 203 99 0 203 99 0 202 99 0 202 99
0 202 99 0 202 99 0 202 99 0 202 99 0 202 99 0 202 99 0 201 99 0 201
99 0 0 0 102 201 99 0 201 99 0 201 99 0 201 99 0 201 99 0 201 99 0 200
99 0 200 99 0 200 99 0 200 99 0 200 99 0 200 99 0 0 0 101 0 0 100 0 0
100 0 0 100 0 0 100 0 0 100 0 0 100 0 0 100 0 0 100 0 0 99 0 0 99 0 0
99 0 0 99 198 99 0 198 99 0 198 99 0 198 99 0 197 99 0 0 0 98 0 0 98 0
0 98 0 0 98 0 0 98 0 0 98 0 0 98 0 0 97 196 99 0 196 99 0 196 99 0 196
99 0 196 99 0 195 99 0 195 99 0 195 99 0 195 99 0 195 99 0 195 99 0
195 99 0 0 0 96 0 0 96 0 0 96 0 0 95 0 0 95 0 0 95 0 0 95 0 0 95 0 0
95 0 0 95 0 0 95
0 0 121 0 0 121 0 0 121 0 0 120 0 0 120 0 0 120 0 0 120 0 0 120 0 0
120 0 0 120 213 93 0 213 93 0 213 93 0 213 93 0 213 93 0 213 94 0 213
94 0 213 94 0 213 94 0 0 0 120 0 0 119 0 0 119 0 0 119 213 94 0 213 94
0 213 94 0 213 94 0 213 94 0 213 94 0 213 95 0 213 95 0 213 95 0 213
95 0 213 95 0 213 95 0 213 95 0 0 0 118 0 0 118 0 0 118 0 0 118 0 0
118 0 0 118 0 0 118 0 0 118 0 0 118 0 0 117 0 0 117 0 0 117 0 0 117
213 96 0 213 96 0 0 0 117 0 0 117 0 0 117 0 0 117 0 0 117 0 0 116 0 0
116 0 0 116 0 0 116 0 0 116 0 0 116 212 97 0 212 97 0 212 97 0 212 97
0 212 97 0 212 97 0 212 97 0 212 97 0 212 97 0 212 97 0 212 97 0 212
97 0 212 97 0 0 0 114 0 0 114 0 0 114 0 0 114 0 0 114 0 0 114 0 0 114
0 0 114 211 98 0 211 98 0 211 98 0 211 98 0 211 98 0 0 0 113 0 0 113 0
0 113 0 0 113 0 0 112 0 0 112 0 0 112 0 0 112 0 0 112 0 0 112 0 0 112
0 0 112 210 98 0 210 98 0 210 98 0 210 99 0 210 99 0 210 99 0 209 99 0
209 99 0 209 99 0 209 99 0 209 99 0 209 99 0 209 99 0 0 0 110 255 147
109 190 109 81 189 109 80 188 108 80 188 108 80 208 99 0 208 99 0 208
99 0 208 99 0 208 99 0 208 99 0 208 99 0 0 0 108 0 0 108 0 0 108 0 0
108 0 0 108 0 0 108 0 0 108 0 0 107 0 0 107 0 0 107 0 0 107 0 0 107 0
0 107 206 100 0 206 100 0 206 100 0 206 100 0 206 100 0 206 100 0 206
100 0 206 100 0 0 0 106 0 0 105 0 0 105 0 0 105 0 0 105 205 100 0 205
100 0 205 100 0 204 100 0 204 100 0 204 100 0 204 100 0 204 100 0 204
100 0 204 100 0 204 100 0 204 100 0 203 100 0 0 0 103 0 0 103 0 0 103
0 0 103 0 0 103 0 0 103 0 0 102 0 0 102 0 0 102 0 0 102 0 0 102 0 0
102 202 100 0 202 100 0 0 0 101 0 0 101 0 0 101 0 0 101 0 0 101 0 0
101 0 0 101 0 0 101 0 0 100 0 0 100 0 0 100 200 100 0 200 100 0 200
100 0 200 100 0 200 100 0 199 100 0 199 100 0 199 100 0 199 100 0 199
100 0 199 100 0 199 100 0 198 100 0 0 0 98 0 0 98 0 0 98 0 0 98 0 0 98
0 0 98 0 0 98 0 0 97 0 0 97 197 100 0 197 100 0 197 100 0 197 100 0 0
0 97 0 0 97 0 0 96 0 0 96 0 0 96 0 0 96 0 0 96 0 0 96 0 0 96 0 0 96 0
0 96
0 0 122 0 0 122 0 0 122 0 0 122 0 0 122 0 0 122 216 94 0 216 94 0 216
94 0 216 94 0 216 94 0 216 94 0 216 94 0 216 94 0 216 94 0 216 94 0
216 95 0 216 95 0 216 95 0 0 0 121 0 0 121 0 0 121 0 0 121 0 0 121 0 0
121 0 0 120 0 0 120 0 0 120 0 0 120 0 0 120 216 96 0 216 96 0 0 0 120
0 0 120 0 0 120 0 0 120 0 0 120 0 0 119 0 0 119 0 0 119 0 0 119 0 0
119 0 0 119 0 0 119 0 0 119 0 0 119 215 97 0 215 97 0 215 97 0 215 97
0 215 97 0 215 97 0 215 97 0 215 97 0 215 97 0 215 97 0 215 97 0 215
97 0 215 97 0 0 0 117 0 0 117 0 0 117 0 0 117 215 98 0 214 98 0 214 98
0 214 98 0 214 98 0 214 98 0 214 98 0 214 98 0 214 98 0 0 0 116 0 0
116 0 0 116 0 0 116 0 0 116 0 0 115 0 0 115 0 0 115 0 0 115 0 0 115 0
0 115 0 0 115 0 0 115 213 99 0 213 99 0 213 99 0 213 99 0 213 99 0 213
99 0 213 99 0 213 99 0 213 99 0 213 99 0 212 99 0 0 0 113 0 0 113 212
99 0 212 99 0 212 99 0 255 162 156 255 162 156 255 163 155 255 163 155
255 163 155 255 163 155 255 163 155 255 163 155 255 163 155 255 163
154 255 163 154 255 164 154 255 164 154 255 147 109 255 147 109 255
147 109 255 147 109 255 147 109 255 147 109 190 110 80 189 109 80 189
109 80 188 108 80 210 100 0 210 100 0 210 100 0 210 100 0 209 100 0 0
0 109 0 0 109 0 0 109 0 0 109 0 0 108 0 0 108 0 0 108 0 0 108 209 101
0 208 101 0 208 101 0 208 101 0 208 101 0 208 101 0 208 101 0 208 101
0 208 101 0 208 101 0 207 101 0 207 101 0 207 101 0 0 0 106 0 0 106 0
0 106 0 0 106 0 0 106 0 0 106 0 0 105 0 0 105 0 0 105 0 0 105 0 0 105
206 101 0 206 101 0 0 0 105 0 0 104 0 0 104 0 0 104 0 0 104 0 0 104 0
0 104 0 0 104 0 0 103 0 0 103 0 0 103 0 0 103 0 0 103 0 0 103 204 101
0 204 101 0 204 101 0 203 101 0 203 101 0 203 101 0 203 101 0 203 101
0 203 101 0 203 101 0 202 101 0 202 101 0 202 101 0 0 0 101 0 0 101 0
0 101 0 0 101 202 101 0 201 101 0 201 101 0 201 101 0 201 101 0 201
101 0 201 101 0 201 101 0 200 101 0 0 0 99 0 0 99 0 0 99 0 0 99 0 0 99
0 0 99 0 0 99 0 0 98 0 0 98 0 0 98 0 0 98 0 0 98 0 0 98 198 101 0 198
101 0 198 101 0 198 101 0 198 101 0 198 101 0 198 101 0 197 101 0 197
101 0 197 101 0 197 101 0
218 94 0 218 94 0 0 0 123 0 0 123 0 0 123 0 0 123 0 0 123 0 0 123 0 0
123 218 95 0 218 95 0 218 95 0 218 95 0 218 95 0 218 95 0 0 0 123 0 0
123 0 0 122 0 0 122 0 0 122 0 0 122 0 0 122 0 0 122 0 0 122 0 0 122 0
0 122 0 0 122 0 0 122 0 0 122 218 96 0 218 96 0 218 96 0 218 97 0 218
97 0 218 97 0 218 97 0 218 97 0 218 97 0 218 97 0 218 97 0 218 97 0
218 97 0 218 97 0 218 97 0 217 97 0 217 97 0 217 97 0 217 98 0 217 98
0 217 98 0 217 98 0 217 98 0 217 98 0 217 98 0 217 98 0 217 98 0 0 0
119 0 0 119 0 0 119 0 0 119 0 0 119 0 0 118 0 0 118 0 0 118 0 0 118 0
0 118 0 0 118 0 0 118 0 0 118 216 99 0 216 99 0 216 99 0 216 99 0 216
99 0 216 99 0 0 0 117 0 0 117 0 0 117 0 0 116 0 0 116 0 0 116 0 0 116
215 99 0 215 100 0 215 100 0 215 100 0 215 100 0 215 100 0 215 100 0
215 100 0 215 100 0 215 100 0 215 100 0 215 100 0 255 162 157 255 162
157 255 162 157 255 162 156 255 162 156 255 163 156 255 163 156 255
163 156 255 163 156 255 163 156 255 163 155 255 163 155 255 163 155
255 163 155 255 163 155 255 164 155 255 164 155 255 164 154 255 164
154 255 147 110 255 147 109 255 147 109 255 147 109 255 147 109 255
147 109 255 147 109 255 147 109 255 147 109 255 147 109 255 147 108
255 147 108 255 147 108 190 110 80 189 109 80 188 109 79 211 101 0 211
101 0 211 101 0 211 101 0 211 101 0 211 101 0 211 102 0 0 0 109 0 0
109 0 0 109 0 0 109 0 0 109 0 0 108 210 102 0 210 102 0 210 102 0 210
102 0 210 102 0 209 102 0 209 102 0 0 0 107 0 0 107 0 0 107 0 0 107 0
0 107 0 0 107 0 0 107 0 0 106 0 0 106 0 0 106 0 0 106 0 0 106 0 0 106
208 102 0 208 102 0 207 102 0 207 102 0 207 102 0 207 102 0 207 102 0
207 102 0 207 102 0 207 102 0 206 102 0 206 102 0 206 102 0 206 102 0
206 102 0 206 102 0 206 102 0 206 102 0 205 102 0 205 102 0 205 102 0
205 102 0 205 102 0 205 102 0 205 102 0 204 102 0 204 102 0 0 0 102 0
0 102 0 0 102 0 0 102 0 0 102 0 0 101 0 0 101 0 0 101 0 0 101 0 0 101
0 0 101 0 0 101 0 0 100 202 102 0 202 102 0 202 102 0 202 102 0 202
102 0 202 102 0 202 102 0 0 0 99 0 0 99 0 0 99 0 0 99 0 0 99 0 0 99 0
0 99 200 102 0 200 102 0 200 102 0 200 102 0 200 102 0 200 102 0 199
102 0 199 102 0 199 102 0 199 102 0 199 102 0
0 0 125 0 0 125 0 0 125 0 0 125 0 0 125 0 0 125 0 0 125 0 0 125 0 0
124 0 0 124 0 0 124 0 0 124 220 96 0 220 96 0 220 96 0 220 96 0 220 96
0 220 96 0 220 96 0 220 97 0 0 0 124 0 0 123 0 0 123 0 0 123 0 0 123
220 97 0 220 97 0 220 97 0 220 97 0 220 97 0 220 97 0 220 97 0 220 97
0 220 98 0 220 98 0 220 98 0 220 98 0 220 98 0 220 98 0 0 0 122 0 0
122 0 0 122 0 0 122 0 0 122 0 0 121 0 0 121 0 0 121 0 0 121 0 0 121 0
0 121 0 0 121 0 0 121 219 99 0 219 99 0 0 0 120 0 0 120 0 0 120 0 0
120 0 0 120 0 0 120 0 0 120 0 0 120 0 0 119 0 0 119 0 0 119 0 0 119
219 100 0 219 100 0 218 100 0 218 100 0 218 100 0 218 100 0 218 100 0
218 100 0 218 100 0 218 100 0 218 100 0 218 100 0 218 100 0 218 100 0
0 0 117 0 0 117 0 0 117 0 0 117 0 0 117 0 0 117 0 0 117 0 0 117 217
101 0 217 101 0 217 101 0 217 101 0 217 101 0 255 162 157 255 162 157
255 162 157 255 163 157 255 163 157 255 163 156 255 163 156 255 163
156 255 163 156 255 163 156 255 163 156 255 163 156 255 163 155 255
164 155 255 164 155 255 164 155 255 164 155 255 164 155 255 164 154
255 164 154 255 148 110 255 148 110 255 148 110 255 148 109 255 148
109 255 148 109 255 148 109 255 148 109 255 148 109 255 148 109 255
148 109 255 148 108 255 148 108 255 148 108 255 148 108 255 148 108
255 148 108 255 148 108 255 148 108 190 110 80 189 109 79 0 0 110 0 0
110 0 0 110 0 0 110 0 0 110 0 0 110 0 0 110 0 0 109 0 0 109 0 0 109 0
0 109 0 0 109 0 0 109 0 0 109 211 103 0 211 103 0 211 103 0 211 103 0
211 103 0 211 103 0 211 103 0 210 103 0 0 0 107 0 0 107 0 0 107 0 0
107 0 0 107 210 103 0 210 103 0 209 103 0 209 103 0 209 103 0 209 103
0 209 103 0 209 103 0 209 103 0 209 103 0 208 103 0 208 103 0 208 103
0 208 103 0 0 0 105 0 0 105 0 0 105 0 0 104 0 0 104 0 0 104 0 0 104 0
0 104 0 0 104 0 0 104 0 0 104 0 0 103 0 0 103 206 103 0 206 103 0 0 0
103 0 0 103 0 0 103 0 0 102 0 0 102 0 0 102 0 0 102 0 0 102 0 0 102 0
0 102 0 0 102 0 0 101 204 103 0 204 103 0 204 103 0 204 103 0 204 103
0 204 103 0 203 103 0 203 103 0 203 103 0 203 103 0 203 103 0 203 103
0 203 103 0 202 103 0 0 0 99 0 0 99 0 0 99 0 0 99 0 0 99 0 0 99 0 0 99
0 0 99 201 103 0 201 103 0 201 103 0
0 0 126 0 0 126 0 0 126 0 0 126 0 0 126 0 0 126 0 0 126 0 0 126 222 97
0 222 97 0 222 97 0 222 97 0 222 97 0 222 97 0 222 97 0 222 97 0 222
97 0 222 97 0 222 97 0 222 97 0 222 98 0 0 0 125 0 0 125 0 0 125 0 0
125 0 0 124 0 0 124 0 0 124 0 0 124 0 0 124 0 0 124 222 98 0 222 98 0
222 98 0 222 98 0 0 0 124 0 0 123 0 0 123 0 0 123 0 0 123 0 0 123 0 0
123 0 0 123 0 0 123 0 0 123 0 0 123 0 0 122 0 0 122 0 0 122 222 99 0
222 100 0 221 100 0 221 100 0 221 100 0 221 100 0 221 100 0 221 100 0
221 100 0 221 100 0 221 100 0 221 100 0 221 100 0 221 100 0 0 0 121 0
0 120 221 100 0 221 100 0 221 101 0 221 101 0 220 101 0 220 101 0 220
101 0 220 101 0 220 101 0 220 101 0 220 101 0 220 101 0 0 0 119 0 0
119 0 0 119 0 0 119 0 0 118 0 0 118 0 0 118 0 0 118 0 0 118 0 0 118 0
0 118 0 0 118 0 0 117 0 0 117 219 102 0 255 162 157 255 163 157 255
163 157 255 163 157 255 163 157 255 163 157 255 163 156 255 163 156
255 163 156 255 163 156 255 163 156 255 164 156 255 164 156 255 164
155 255 164 155 255 164 155 255 164 155 255 164 155 255 164 155 255
164 155 255 148 110 255 148 110 255 148 110 255 148 110 255 148 110
255 148 110 255 148 109 255 148 109 255 148 109 255 148 109 255 148
109 255 148 109 255 148 109 255 148 109 255 148 108 255 148 108 255
148 108 255 148 108 255 148 108 255 148 108 255 148 108 255 148 108
255 148 107 247 222 26 196 171 26 195 170 26 0 0 111 0 0 111 0 0 111 0
0 110 0 0 110 0 0 110 0 0 110 0 0 110 213 104 0 213 104 0 213 104 0
213 104 0 213 104 0 213 104 0 213 104 0 213 104 0 213 104 0 212 104 0
212 104 0 212 104 0 212 104 0 212 104 0 0 0 108 0 0 108 0 0 108 0 0
107 0 0 107 0 0 107 0 0 107 0 0 107 0 0 107 211 104 0 211 104 0 210
104 0 210 104 0 210 104 0 0 0 106 0 0 106 0 0 106 0 0 106 0 0 105 0 0
105 0 0 105 0 0 105 0 0 105 0 0 105 0 0 105 0 0 104 0 0 104 0 0 104
208 104 0 208 104 0 208 104 0 208 104 0 208 104 0 207 104 0 207 104 0
207 104 0 207 104 0 207 104 0 207 104 0 207 104 0 206 104 0 206 104 0
0 0 102 0 0 102 206 104 0 206 104 0 206 104 0 205 104 0 205 104 0 205
104 0 205 104 0 205 104 0 205 104 0 205 104 0 204 104 0 0 0 100 0 0
100 0 0 100 0 0 100 0 0 100 0 0 100 0 0 100 0 0 100 0 0 99 0 0 99 0 0
99 0 0 99
225 97 0 225 97 0 225 97 0 225 97 0 0 0 127 0 0 127 225 97 0 225 97 0
225 98 0 225 98 0 225 98 0 225 98 0 225 98 0 225 98 0 225 98 0 225 98
0 225 98 0 225 98 0 0 0 126 0 0 126 0 0 126 0 0 126 0 0 126 0 0 126 0
0 126 0 0 126 0 0 126 0 0 126 0 0 125 0 0 125 0 0 125 0 0 125 224 99 0
224 99 0 224 99 0 224 99 0 224 99 0 224 100 0 224 100 0 224 100 0 224
100 0 224 100 0 0 0 124 0 0 124 0 0 124 0 0 124 224 100 0 224 100 0
224 100 0 224 100 0 224 100 0 224 100 0 223 101 0 223 101 0 223 101 0
223 101 0 223 101 0 223 101 0 223 101 0 223 101 0 0 0 122 0 0 122 0 0
122 0 0 122 0 0 122 0 0 121 0 0 121 0 0 121 0 0 121 0 0 121 0 0 121 0
0 121 0 0 121 0 0 120 222 102 0 222 102 0 222 102 0 0 0 120 0 0 120 0
0 120 0 0 120 0 0 119 0 0 119 0 0 119 0 0 119 0 0 119 0 0 119 0 0 119
221 103 0 221 103 0 221 103 0 51 26 26 255 163 158 255 163 157 255 163
157 255 163 157 255 163 157 255 163 157 255 163 157 255 163 156 255
164 156 255 164 156 255 164 156 255 164 156 255 164 156 255 164 156
255 164 155 255 164 155 255 164 155 255 164 155 255 165 155 255 165
155 255 148 110 255 148 110 255 148 110 255 149 110 255 149 110 255
149 110 255 149 110 255 149 109 255 149 109 255 149 109 255 149 109
255 149 109 255 149 109 255 149 109 255 149 109 255 149 108 255 149
108 255 149 108 255 149 108 255 149 108 255 149 108 255 149 108 255
149 108 248 222 26 247 222 26 196 171 26 195 170 26 216 104 0 216 105
0 216 105 0 216 105 0 216 105 0 216 105 0 0 0 111 0 0 111 215 105 0
215 105 0 215 105 0 215 105 0 215 105 0 215 105 0 215 105 0 214 105 0
214 105 0 214 105 0 214 105 0 214 105 0 0 0 109 0 0 109 0 0 109 0 0
108 0 0 108 0 0 108 0 0 108 0 0 108 0 0 108 0 0 108 0 0 108 0 0 107 0
0 107 0 0 107 212 105 0 212 105 0 212 105 0 212 105 0 211 105 0 211
105 0 211 105 0 211 105 0 211 105 0 211 105 0 0 0 106 0 0 105 0 0 105
0 0 105 210 105 0 210 105 0 210 105 0 210 105 0 210 105 0 209 105 0
209 105 0 209 105 0 209 105 0 209 105 0 209 105 0 209 105 0 208 105 0
208 105 0 0 0 103 0 0 103 0 0 103 0 0 103 0 0 103 0 0 102 0 0 102 0 0
102 0 0 102 0 0 102 0 0 102 0 0 102 0 0 102 0 0 101 206 105 0 206 105
0 206 105 0 0 0 101 0 0 101 0 0 101 0 0 101 0 0 100 0 0 100 0 0 100 0
0 100 0 0 100
0 0 129 0 0 129 0 0 129 0 0 129 0 0 129 0 0 129 0 0 129 0 0 129 0 0
128 0 0 128 0 0 128 0 0 128 0 0 128 0 0 128 227 99 0 227 99 0 227 99 0
0 0 128 0 0 128 0 0 128 0 0 127 0 0 127 0 0 127 0 0 127 0 0 127 0 0
127 0 0 127 0 0 127 226 100 0 226 100 0 226 100 0 226 100 0 226 100 0
226 100 0 226 100 0 226 100 0 226 100 0 226 100 0 226 100 0 226 101 0
226 101 0 226 101 0 226 101 0 0 0 125 0 0 125 0 0 125 0 0 125 0 0 125
0 0 125 0 0 124 0 0 124 0 0 124 226 101 0 225 101 0 225 102 0 225 102
0 225 102 0 0 0 124 0 0 123 0 0 123 0 0 123 0 0 123 0 0 123 0 0 123 0
0 123 0 0 123 0 0 122 0 0 122 0 0 122 0 0 122 0 0 122 0 0 122 224 103
0 224 103 0 224 103 0 224 103 0 224 103 0 224 103 0 224 103 0 224 103
0 224 103 0 224 103 0 224 103 0 223 103 0 223 103 0 223 103 0 0 0 120
0 0 120 223 103 0 223 103 0 51 26 26 255 163 158 255 163 158 255 163
157 255 163 157 255 163 157 255 163 157 255 164 157 255 164 157 255
164 156 255 164 156 255 164 156 255 164 156 255 164 156 255 164 156
255 164 156 255 164 155 255 165 155 255 165 155 255 165 155 255 165
155 255 149 111 255 149 110 255 149 110 255 149 110 255 149 110 255
149 110 255 149 110 255 149 110 255 149 110 255 149 110 255 149 109
255 149 109 255 149 109 255 149 109 255 149 109 255 149 109 255 149
109 255 149 109 255 149 108 255 149 108 255 149 108 255 149 108 255
149 108 248 223 26 248 222 26 248 222 26 247 222 26 196 171 26 195 170
26 218 105 0 218 105 0 218 105 0 0 0 112 0 0 112 0 0 112 0 0 112 0 0
111 0 0 111 0 0 111 0 0 111 0 0 111 0 0 111 0 0 111 0 0 111 0 0 110 0
0 110 0 0 110 216 106 0 216 106 0 0 0 110 0 0 110 0 0 109 0 0 109 0 0
109 0 0 109 0 0 109 0 0 109 0 0 109 0 0 108 0 0 108 0 0 108 214 106 0
214 106 0 214 106 0 214 106 0 213 106 0 213 106 0 213 106 0 213 106 0
213 106 0 213 106 0 213 106 0 213 106 0 212 106 0 212 106 0 0 0 106 0
0 106 0 0 106 0 0 106 0 0 106 0 0 105 0 0 105 0 0 105 0 0 105 0 0 105
211 106 0 211 106 0 210 106 0 210 106 0 210 106 0 0 0 104 0 0 104 0 0
104 0 0 104 0 0 103 0 0 103 0 0 103 0 0 103 0 0 103 0 0 103 0 0 103 0
0 103 0 0 102 0 0 102 208 106 0 208 106 0 208 106 0 208 106 0 207 106
0 207 106 0 207 106 0 207 106 0 207 106 0 207 106 0 206 106 0 206 106
0
0 0 130 0 0 130 0 0 130 0 0 130 0 0 130 0 0 130 0 0 130 0 0 130 0 0
130 0 0 130 229 99 0 229 99 0 229 99 0 229 100 0 229 100 0 229 100 0
229 100 0 229 100 0 229 100 0 229 100 0 229 100 0 229 100 0 229 100 0
229 100 0 229 100 0 0 0 128 0 0 128 229 101 0 229 101 0 229 101 0 228
101 0 228 101 0 228 101 0 228 101 0 228 101 0 228 101 0 228 101 0 228
101 0 228 101 0 228 101 0 0 0 127 0 0 127 0 0 126 0 0 126 0 0 126 0 0
126 0 0 126 0 0 126 0 0 126 0 0 126 0 0 125 0 0 125 0 0 125 0 0 125
227 102 0 227 102 0 227 103 0 227 103 0 227 103 0 227 103 0 227 103 0
227 103 0 227 103 0 0 0 124 0 0 124 0 0 124 0 0 124 0 0 123 0 0 123
226 103 0 226 103 0 226 103 0 226 103 0 226 104 0 226 104 0 226 104 0
226 104 0 226 104 0 226 104 0 226 104 0 226 104 0 226 104 0 225 104 0
225 104 0 0 0 121 0 0 121 0 0 121 0 0 121 0 0 121 51 26 26 255 163 158
255 163 158 255 163 158 255 163 157 255 164 157 255 164 157 255 164
157 255 164 157 255 164 157 255 164 157 255 164 156 255 164 156 255
164 156 255 164 156 255 165 156 255 165 156 255 165 156 255 165 155
255 165 155 255 165 155 255 149 111 255 149 111 255 149 111 255 149
111 255 149 110 255 149 110 255 149 110 255 149 110 255 149 110 255
149 110 255 149 110 255 149 110 255 149 109 255 149 109 255 149 109
255 149 109 255 149 109 255 149 109 255 149 109 255 149 109 255 149
109 255 149 108 255 149 108 255 149 108 248 223 26 248 223 26 248 222
26 248 222 26 247 222 26 247 222 26 196 170 26 220 106 0 0 0 113 0 0
113 0 0 113 0 0 113 0 0 113 0 0 112 0 0 112 0 0 112 0 0 112 0 0 112 0
0 112 0 0 112 0 0 111 0 0 111 0 0 111 218 107 0 218 107 0 217 107 0
217 107 0 217 107 0 217 107 0 217 107 0 217 107 0 217 107 0 217 107 0
216 107 0 216 107 0 216 107 0 216 107 0 0 0 109 0 0 109 216 107 0 216
107 0 215 107 0 215 107 0 215 107 0 215 107 0 215 107 0 215 107 0 215
107 0 214 107 0 214 107 0 214 107 0 214 107 0 0 0 107 0 0 107 0 0 107
0 0 106 0 0 106 0 0 106 0 0 106 0 0 106 0 0 106 0 0 106 0 0 106 0 0
105 0 0 105 0 0 105 212 107 0 212 107 0 212 107 0 212 107 0 211 107 0
211 107 0 211 107 0 211 107 0 211 107 0 211 107 0 0 0 104 0 0 103 0 0
103 0 0 103 0 0 103 210 107 0 210 107 0 209 107 0 209 107 0 209 107 0
209 107 0 209 107 0 209 107 0 209 107 0 208 107 0 208 107 0 208 107 0
0 0 132 0 0 132 0 0 132 0 0 131 0 0 131 0 0 131 0 0 131 231 100 0 231
100 0 231 100 0 231 100 0 231 100 0 231 100 0 231 100 0 231 100 0 231
101 0 231 101 0 231 101 0 231 101 0 231 101 0 231 101 0 231 101 0 0 0
130 0 0 130 0 0 129 0 0 129 0 0 129 0 0 129 0 0 129 0 0 129 0 0 129 0
0 129 0 0 129 0 0 129 0 0 128 0 0 128 0 0 128 0 0 128 0 0 128 0 0 128
0 0 128 0 0 128 0 0 128 0 0 127 0 0 127 0 0 127 0 0 127 0 0 127 0 0
127 0 0 127 0 0 127 230 103 0 229 103 0 229 103 0 229 103 0 229 103 0
229 103 0 229 103 0 229 103 0 229 104 0 229 104 0 229 104 0 229 104 0
229 104 0 229 104 0 229 104 0 0 0 125 0 0 124 0 0 124 0 0 124 0 0 124
0 0 124 0 0 124 0 0 124 228 104 0 228 104 0 228 105 0 228 105 0 228
105 0 228 105 0 228 105 0 0 0 123 0 0 123 0 0 122 0 0 122 0 0 122 0 0
122 0 0 122 51 26 26 51 26 26 255 163 158 255 164 158 255 164 158 255
216 187 255 216 187 255 216 187 255 216 186 255 216 186 255 216 186
255 216 186 255 217 186 255 217 185 255 217 185 255 217 185 255 217
185 255 217 185 255 217 184 255 218 184 255 218 184 255 218 184 255
241 142 255 241 142 255 241 142 255 241 142 255 150 111 255 150 110
255 150 110 255 150 110 255 150 110 255 150 110 255 150 110 255 150
110 255 150 110 255 150 110 255 150 109 255 150 109 255 150 109 255
150 109 255 150 109 255 150 109 255 150 109 255 150 109 255 150 108
255 150 108 248 223 26 248 223 26 248 223 26 248 222 26 248 222 26 247
222 26 247 222 26 196 170 26 221 107 0 221 107 0 221 107 0 221 107 0
221 107 0 221 107 0 221 107 0 0 0 113 0 0 113 0 0 113 0 0 113 0 0 112
0 0 112 220 108 0 220 108 0 220 108 0 219 108 0 219 108 0 219 108 0
219 108 0 219 108 0 219 108 0 219 108 0 218 108 0 218 108 0 218 108 0
218 108 0 218 108 0 0 0 110 0 0 110 0 0 110 0 0 110 0 0 109 0 0 109 0
0 109 0 0 109 0 0 109 0 0 109 0 0 109 0 0 108 0 0 108 0 0 108 0 0 108
216 108 0 0 0 108 0 0 108 0 0 107 0 0 107 0 0 107 0 0 107 0 0 107 0 0
107 0 0 107 0 0 106 0 0 106 0 0 106 0 0 106 0 0 106 214 108 0 214 108
0 213 108 0 213 108 0 213 108 0 213 108 0 213 108 0 213 108 0 213 108
0 212 108 0 212 108 0 212 108 0 212 108 0 212 108 0 212 108 0 0 0 104
0 0 104 0 0 103 0 0 103 0 0 103 0 0 103 0 0 103 0 0 103 210 108 0 210
108 0 210 108 0 210 108 0
233 100 0 233 100 0 233 100 0 0 0 133 0 0 133 0 0 132 0 0 132 0 0 132
0 0 132 0 0 132 233 101 0 233 101 0 233 101 0 233 101 0 233 101 0 233
101 0 233 101 0 233 102 0 0 0 131 0 0 131 0 0 131 0 0 131 0 0 131 0 0
131 0 0 131 0 0 131 0 0 130 0 0 130 0 0 130 0 0 130 0 0 130 0 0 130 0
0 130 232 103 0 232 103 0 232 103 0 232 103 0 232 103 0 232 103 0 232
103 0 232 103 0 232 103 0 232 103 0 232 103 0 232 103 0 232 103 0 232
104 0 232 104 0 232 104 0 232 104 0 231 104 0 231 104 0 231 104 0 231
104 0 231 104 0 231 104 0 231 104 0 231 104 0 231 104 0 231 104 0 231
104 0 231 105 0 231 105 0 231 105 0 0 0 126 0 0 126 0 0 126 0 0 126 0
0 125 0 0 125 0 0 125 0 0 125 0 0 125 0 0 125 0 0 125 0 0 124 0 0 124
0 0 124 0 0 124 229 106 0 229 106 0 229 106 0 229 106 0 229 106 0 229
106 0 0 0 123 0 0 123 51 26 26 51 26 26 255 215 188 255 215 187 255
215 187 255 216 187 255 216 187 255 216 187 255 216 186 255 216 186
255 216 186 255 216 186 255 216 186 255 217 186 255 217 185 255 217
185 255 217 185 255 217 185 255 217 185 255 217 184 255 218 184 255
218 184 255 218 184 255 241 142 255 241 142 255 241 142 255 241 142
255 242 141 255 242 141 255 242 141 255 242 141 255 242 141 255 242
141 255 242 141 255 242 140 255 150 110 255 150 110 255 150 110 255
150 109 255 150 109 255 150 109 255 150 109 255 150 109 255 150 109
255 150 109 255 150 109 249 223 26 249 223 26 248 223 26 248 223 26
248 222 26 248 222 26 248 222 26 247 222 26 247 222 26 196 170 26 223
108 0 223 108 0 223 108 0 223 108 0 223 108 0 222 108 0 222 108 0 222
108 0 222 108 0 222 108 0 222 108 0 0 0 113 0 0 113 0 0 113 0 0 113 0
0 113 0 0 112 0 0 112 221 109 0 221 109 0 221 109 0 220 109 0 220 109
0 220 109 0 220 109 0 220 109 0 0 0 111 0 0 111 0 0 111 0 0 111 0 0
110 0 0 110 0 0 110 0 0 110 0 0 110 0 0 110 0 0 110 0 0 109 0 0 109 0
0 109 0 0 109 0 0 109 218 109 0 217 109 0 217 109 0 217 109 0 217 109
0 217 109 0 217 109 0 217 109 0 216 109 0 216 109 0 216 109 0 216 109
0 216 109 0 216 109 0 0 0 107 215 109 0 215 109 0 215 109 0 215 109 0
215 109 0 215 109 0 215 109 0 214 109 0 214 109 0 214 109 0 214 109 0
214 109 0 214 109 0 214 109 0 213 109 0 0 0 105 0 0 104 0 0 104 0 0
104 0 0 104 0 0 104 0 0 104 0 0 104 0 0 103 0 0 103 0 0 103 0 0 103
0 0 134 0 0 134 0 0 134 0 0 134 0 0 134 0 0 134 0 0 134 0 0 134 0 0
133 0 0 133 0 0 133 0 0 133 0 0 133 0 0 133 0 0 133 235 102 0 235 102
0 235 102 0 235 102 0 0 0 132 0 0 132 0 0 132 0 0 132 0 0 132 0 0 132
0 0 132 0 0 132 0 0 131 0 0 131 0 0 131 234 103 0 234 103 0 234 103 0
234 103 0 234 104 0 234 104 0 234 104 0 234 104 0 234 104 0 234 104 0
234 104 0 234 104 0 234 104 0 234 104 0 234 104 0 234 104 0 0 0 129 0
0 129 0 0 129 0 0 129 0 0 129 0 0 129 0 0 128 0 0 128 0 0 128 0 0 128
0 0 128 0 0 128 233 105 0 233 105 0 233 105 0 0 0 127 0 0 127 0 0 127
0 0 127 0 0 127 0 0 127 0 0 127 0 0 126 0 0 126 0 0 126 0 0 126 0 0
126 0 0 126 0 0 126 0 0 125 232 106 0 231 106 0 231 106 0 231 106 0
231 106 0 231 107 0 231 107 0 231 107 0 231 107 0 231 107 0 51 26 26
255 45 251 255 45 252 255 215 188 255 215 187 255 215 187 255 216 187
255 216 187 255 216 187 255 216 186 255 216 186 255 216 186 255 216
186 255 217 186 255 217 185 255 217 185 255 217 185 255 217 185 255
217 185 255 217 184 255 217 184 255 218 184 255 218 184 255 218 184
255 241 142 255 241 142 255 241 142 255 241 141 255 242 141 255 242
141 255 242 141 255 242 141 255 242 141 255 242 141 255 242 141 255
242 140 255 242 140 255 242 140 255 242 140 255 243 140 255 243 140
255 243 140 255 243 139 255 243 139 255 151 109 255 151 109 255 151
109 249 224 26 249 223 26 249 223 26 248 223 26 248 223 26 248 222 26
248 222 26 247 222 26 247 222 26 247 221 26 196 170 26 225 109 0 224
109 0 224 109 0 224 109 0 224 109 0 224 109 0 224 109 0 224 109 0 224
109 0 0 0 114 0 0 114 0 0 114 0 0 114 0 0 114 0 0 113 0 0 113 0 0 113
0 0 113 0 0 113 0 0 113 0 0 113 0 0 112 0 0 112 0 0 112 0 0 112 221
110 0 221 110 0 221 110 0 221 110 0 0 0 111 0 0 111 0 0 111 0 0 111 0
0 111 0 0 111 0 0 110 0 0 110 0 0 110 0 0 110 0 0 110 219 110 0 219
110 0 219 110 0 219 110 0 219 110 0 219 110 0 219 110 0 218 110 0 218
110 0 218 110 0 218 110 0 218 110 0 218 110 0 218 110 0 217 110 0 0 0
108 0 0 107 0 0 107 0 0 107 0 0 107 0 0 107 0 0 107 0 0 107 0 0 106 0
0 106 0 0 106 0 0 106 0 0 106 215 110 0 215 110 0 215 110 0 0 0 105 0
0 105 0 0 105 0 0 105 0 0 105 0 0 105 0 0 105 0 0 104 0 0 104 0 0 104
0 0 104 0 0 104
0 0 135 0 0 135 0 0 135 0 0 135 0 0 135 0 0 135 0 0 135 0 0 135 0 0
135 0 0 134 0 0 134 237 103 0 237 103 0 237 103 0 237 103 0 237 103 0
237 103 0 237 103 0 237 103 0 237 103 0 237 103 0 237 103 0 237 103 0
237 104 0 237 104 0 237 104 0 236 104 0 0 0 133 0 0 132 236 104 0 236
104 0 236 104 0 236 104 0 236 104 0 236 104 0 236 104 0 236 104 0 236
105 0 236 105 0 236 105 0 236 105 0 236 105 0 236 105 0 0 0 131 0 0
131 0 0 130 0 0 130 0 0 130 0 0 130 0 0 130 0 0 130 0 0 130 0 0 130 0
0 129 0 0 129 0 0 129 0 0 129 0 0 129 235 106 0 235 106 0 235 106 0
234 106 0 234 106 0 234 106 0 234 106 0 234 106 0 234 106 0 234 107 0
0 0 127 0 0 127 0 0 127 0 0 127 0 0 127 0 0 127 234 107 0 233 107 0
233 107 0 233 107 0 233 107 0 233 107 0 233 107 0 233 107 0 233 107 0
233 107 0 255 45 241 255 45 242 255 45 251 255 45 252 255 45 252 255
215 188 255 215 187 255 215 187 255 216 187 255 216 187 255 216 187
255 216 186 255 216 186 255 216 186 255 216 186 255 217 186 255 217
185 255 217 185 255 217 185 255 217 185 255 217 185 255 217 184 255
217 184 255 218 184 255 218 184 255 241 142 255 241 142 255 241 142
255 241 142 255 242 141 255 242 141 255 242 141 255 242 141 255 242
141 255 242 141 255 242 141 255 242 140 255 242 140 255 242 140 255
242 140 255 242 140 255 243 140 255 243 140 255 243 140 255 243 139
255 243 139 255 243 139 255 243 139 255 243 139 255 246 26 249 224 26
249 223 26 249 223 26 248 223 26 248 223 26 248 222 26 248 222 26 247
222 26 247 222 26 247 221 26 196 171 26 0 0 116 226 110 0 226 110 0
226 110 0 226 110 0 226 110 0 225 110 0 0 0 115 0 0 115 0 0 115 0 0
115 0 0 115 0 0 114 0 0 114 0 0 114 0 0 114 0 0 114 0 0 114 0 0 114 0
0 113 0 0 113 0 0 113 0 0 113 223 110 0 223 111 0 223 111 0 223 111 0
223 111 0 223 111 0 222 111 0 222 111 0 222 111 0 222 111 0 222 111 0
222 111 0 222 111 0 222 111 0 221 111 0 0 0 111 0 0 110 221 111 0 221
111 0 221 111 0 221 111 0 220 111 0 220 111 0 220 111 0 220 111 0 220
111 0 220 111 0 220 111 0 219 111 0 219 111 0 219 111 0 0 0 108 0 0
108 0 0 108 0 0 108 0 0 108 0 0 108 0 0 107 0 0 107 0 0 107 0 0 107 0
0 107 0 0 107 0 0 107 0 0 107 0 0 106 217 111 0 217 111 0 217 111 0
216 111 0 216 111 0 216 111 0 216 110 0 216 110 0 216 110 0 215 110 0
0 0 105 0 0 105 0 0 105
0 0 137 0 0 136 0 0 136 0 0 136 0 0 136 0 0 136 0 0 136 0 0 136 239
103 0 239 103 0 239 103 0 239 103 0 239 104 0 239 104 0 239 104 0 239
104 0 239 104 0 239 104 0 239 104 0 239 104 0 239 104 0 239 104 0 239
104 0 238 104 0 0 0 134 0 0 134 0 0 134 0 0 134 0 0 134 0 0 133 0 0
133 0 0 133 0 0 133 0 0 133 0 0 133 0 0 133 0 0 133 0 0 132 0 0 132
238 105 0 0 0 132 0 0 132 0 0 132 0 0 132 0 0 132 0 0 131 0 0 131 0 0
131 0 0 131 0 0 131 0 0 131 0 0 131 0 0 131 0 0 130 0 0 130 0 0 130
237 107 0 237 107 0 237 107 0 236 107 0 236 107 0 236 107 0 236 107 0
236 107 0 236 107 0 236 107 0 236 107 0 236 107 0 236 107 0 236 107 0
236 108 0 0 0 128 0 0 128 0 0 128 0 0 128 0 0 127 0 0 127 0 0 127 0 0
127 235 108 0 235 108 0 235 108 0 235 108 0 255 45 242 255 45 242 255
45 251 255 45 251 255 45 252 255 46 252 255 215 188 255 215 187 255
216 187 255 216 187 255 216 187 255 216 186 255 216 186 255 216 186
255 216 186 255 216 186 255 217 185 255 217 185 255 217 185 255 217
185 255 217 185 255 217 185 255 217 184 255 217 184 255 218 184 255
218 184 255 241 142 255 241 142 255 241 142 255 241 142 255 242 141
255 242 141 255 242 141 255 242 141 255 242 141 255 242 141 255 242
141 255 242 140 255 242 140 255 242 140 255 242 140 255 242 140 255
243 140 255 243 140 255 243 139 255 243 139 255 243 139 255 243 139
255 243 139 255 243 139 255 246 26 255 245 26 255 245 26 249 223 26
249 223 26 248 223 26 248 223 26 248 222 26 248 222 26 247 222 26 247
222 26 209 183 26 169 143 26 0 0 117 0 0 117 0 0 117 0 0 116 0 0 116
227 111 0 227 111 0 227 111 0 227 111 0 227 111 0 227 111 0 226 111 0
0 0 115 0 0 115 0 0 115 0 0 115 0 0 114 0 0 114 0 0 114 0 0 114 0 0
114 225 111 0 225 111 0 225 111 0 225 111 0 225 111 0 224 111 0 224
111 0 224 111 0 224 111 0 224 111 0 224 111 0 224 111 0 223 112 0 223
112 0 223 112 0 223 112 0 0 0 111 0 0 111 0 0 111 0 0 111 0 0 111 0 0
111 0 0 111 0 0 110 0 0 110 0 0 110 0 0 110 0 0 110 0 0 110 0 0 110 0
0 109 0 0 109 0 0 109 0 0 109 0 0 109 0 0 109 0 0 109 0 0 108 0 0 108
0 0 108 0 0 108 0 0 108 0 0 108 0 0 108 0 0 107 0 0 107 0 0 107 218
111 0 218 111 0 218 111 0 218 111 0 218 111 0 218 111 0 218 111 0 217
111 0 217 111 0 217 111 0 217 111 0 217 111 0 217 111 0
241 103 0 241 103 0 241 104 0 241 104 0 241 104 0 0 0 137 0 0 137 0 0
137 241 104 0 241 104 0 241 104 0 241 104 0 241 104 0 241 104 0 241
104 0 241 105 0 241 105 0 241 105 0 241 105 0 240 105 0 240 105 0 0 0
135 0 0 135 0 0 135 0 0 135 0 0 135 0 0 135 0 0 135 0 0 135 0 0 134 0
0 134 0 0 134 0 0 134 0 0 134 0 0 134 0 0 134 0 0 134 240 106 0 240
106 0 240 106 0 239 106 0 239 106 0 239 106 0 239 107 0 239 107 0 239
107 0 239 107 0 239 107 0 239 107 0 0 0 132 0 0 132 0 0 132 0 0 132
239 107 0 239 107 0 238 107 0 238 107 0 238 108 0 238 108 0 238 108 0
238 108 0 238 108 0 238 108 0 238 108 0 238 108 0 238 108 0 238 108 0
238 108 0 238 108 0 0 0 129 0 0 129 0 0 129 0 0 129 0 0 129 0 0 128 0
0 128 0 0 128 0 0 128 0 0 128 0 0 128 0 0 128 0 0 127 255 45 242 255
45 242 255 45 251 255 45 251 255 45 252 255 46 252 255 46 252 255 215
188 255 215 187 255 216 187 255 216 187 255 216 187 255 216 186 255
216 186 255 216 186 255 216 186 255 216 186 255 217 185 255 217 185
255 217 185 255 217 185 255 217 185 255 217 184 255 217 184 255 218
184 255 218 184 255 218 184 255 241 142 255 241 142 255 241 142 255
241 141 255 242 141 255 242 141 255 242 141 255 242 141 255 242 141
255 242 141 255 242 140 255 242 140 255 242 140 255 242 140 255 242
140 255 243 140 255 243 140 255 243 140 255 243 139 255 243 139 255
243 139 255 243 139 255 243 139 255 243 139 255 246 26 255 245 26 255
245 26 255 245 26 249 223 26 249 223 26 248 223 26 248 223 26 248 222
26 248 222 26 247 222 26 209 184 26 209 183 26 169 143 26 0 0 118 0 0
117 0 0 117 229 112 0 229 112 0 229 112 0 229 112 0 228 112 0 228 112
0 228 112 0 228 112 0 228 112 0 228 112 0 228 112 0 228 112 0 227 112
0 227 112 0 227 112 0 227 112 0 0 0 115 0 0 115 0 0 114 0 0 114 226
112 0 226 112 0 226 112 0 226 112 0 226 112 0 226 112 0 226 112 0 225
112 0 225 112 0 225 112 0 225 112 0 225 112 0 0 0 112 0 0 112 0 0 112
0 0 112 0 0 112 0 0 112 0 0 111 0 0 111 0 0 111 0 0 111 0 0 111 0 0
111 0 0 111 0 0 110 0 0 110 0 0 110 222 112 0 222 112 0 222 112 0 222
112 0 222 112 0 222 112 0 222 112 0 221 112 0 221 112 0 221 112 0 221
112 0 221 112 0 0 0 108 0 0 108 0 0 108 0 0 108 220 112 0 220 112 0
220 112 0 220 112 0 220 112 0 219 112 0 219 112 0 219 112 0 219 112 0
219 112 0 219 112 0 218 112 0 218 112 0
243 104 0 0 0 139 0 0 139 0 0 138 0 0 138 0 0 138 0 0 138 0 0 138 0 0
138 0 0 138 0 0 138 0 0 138 0 0 138 0 0 137 0 0 137 0 0 137 0 0 137 0
0 137 0 0 137 0 0 137 0 0 137 0 0 136 0 0 136 0 0 136 0 0 136 0 0 136
0 0 136 0 0 136 0 0 136 0 0 135 0 0 135 0 0 135 0 0 135 0 0 135 242
107 0 242 107 0 241 107 0 241 107 0 241 107 0 241 107 0 241 107 0 241
107 0 241 107 0 241 107 0 241 107 0 241 107 0 241 108 0 241 108 0 241
108 0 241 108 0 0 0 133 0 0 133 0 0 132 0 0 132 0 0 132 0 0 132 0 0
132 0 0 132 240 108 0 240 108 0 240 108 0 240 109 0 240 109 0 240 109
0 240 109 0 239 109 0 239 109 0 0 0 130 0 0 130 0 0 130 0 0 130 0 0
130 0 0 130 0 0 130 0 0 129 0 0 129 0 0 129 0 0 129 0 0 129 0 0 129 0
0 128 255 45 242 255 45 242 255 184 217 255 45 251 255 45 252 255 45
252 255 46 252 255 46 252 255 215 187 255 215 187 255 216 187 255 216
187 255 216 187 255 216 186 255 216 186 255 216 186 255 216 186 255
216 186 255 217 185 255 217 185 255 217 185 255 217 185 255 217 185
255 217 184 255 217 184 255 218 184 255 218 184 255 218 184 255 241
142 255 241 142 255 241 142 255 241 141 255 242 141 255 242 141 255
242 141 255 242 141 255 242 141 255 242 141 255 242 140 255 242 140
255 242 140 255 242 140 255 242 140 255 243 140 255 243 140 255 243
140 255 243 139 255 243 139 255 243 139 255 243 139 255 243 139 255
246 26 255 246 26 255 245 26 255 245 26 255 245 26 255 245 26 255 245
26 249 223 26 248 223 26 248 223 26 248 222 26 248 222 26 209 184 26
209 184 26 209 183 26 168 143 26 0 0 118 231 113 0 231 113 0 230 113 0
230 113 0 230 113 0 230 113 0 230 113 0 230 113 0 230 113 0 230 113 0
229 113 0 229 113 0 229 113 0 229 113 0 229 113 0 229 113 0 0 0 116 0
0 115 0 0 115 0 0 115 0 0 115 0 0 115 0 0 115 0 0 115 0 0 114 0 0 114
0 0 114 0 0 114 0 0 114 0 0 114 0 0 114 0 0 113 0 0 113 0 0 113 0 0
113 0 0 113 0 0 113 0 0 112 0 0 112 0 0 112 0 0 112 0 0 112 0 0 112 0
0 112 0 0 111 0 0 111 0 0 111 0 0 111 0 0 111 224 113 0 224 113 0 224
113 0 224 113 0 223 113 0 223 113 0 223 113 0 223 113 0 223 113 0 223
113 0 223 113 0 222 113 0 222 113 0 222 113 0 222 113 0 222 113 0 0 0
108 0 0 108 0 0 108 0 0 108 0 0 108 0 0 108 0 0 108 0 0 107 221 113 0
220 113 0 220 113 0 220 113 0 220 113 0
0 0 140 0 0 140 0 0 140 0 0 140 0 0 139 0 0 139 0 0 139 0 0 139 0 0
139 0 0 139 0 0 139 0 0 139 0 0 139 0 0 138 244 106 0 244 106 0 244
106 0 244 106 0 244 106 0 244 106 0 244 106 0 244 107 0 244 107 0 244
107 0 244 107 0 244 107 0 0 0 137 0 0 137 0 0 137 0 0 136 0 0 136 243
107 0 243 107 0 243 107 0 243 107 0 243 108 0 243 108 0 243 108 0 243
108 0 243 108 0 243 108 0 243 108 0 243 108 0 243 108 0 243 108 0 243
108 0 243 108 0 242 108 0 0 0 134 0 0 134 0 0 134 0 0 134 0 0 133 0 0
133 0 0 133 0 0 133 0 0 133 0 0 133 0 0 133 0 0 132 0 0 132 0 0 132 0
0 132 0 0 132 241 110 0 241 110 0 241 110 0 241 110 0 255 132 232 0 0
131 0 0 131 0 0 131 0 0 131 0 0 130 0 0 130 0 0 130 0 0 130 0 0 130 0
0 130 0 0 130 255 45 242 255 45 242 255 183 217 255 184 217 255 45 251
255 45 252 255 46 252 255 46 252 255 46 252 255 215 187 255 215 187
255 216 187 255 216 187 255 216 187 255 216 186 255 216 186 255 216
186 255 216 186 255 217 185 255 217 185 255 217 185 255 217 185 255
217 185 255 217 185 255 217 184 255 217 184 255 218 184 255 218 184
255 218 184 255 241 142 255 241 142 255 241 141 255 242 141 255 242
141 255 242 141 255 242 141 255 242 141 255 242 141 255 242 141 255
242 140 255 242 140 255 242 140 255 242 140 255 242 140 255 243 140
255 243 140 255 243 139 255 243 139 255 243 139 255 243 139 255 243
139 255 243 139 255 246 26 255 246 26 255 245 26 255 245 26 255 245 26
255 245 26 255 245 26 255 245 26 255 245 26 248 223 26 248 223 26 210
184 26 210 184 26 209 184 26 209 184 26 209 183 26 168 143 26 0 0 119
0 0 119 232 114 0 232 114 0 232 114 0 232 114 0 232 114 0 231 114 0
231 114 0 231 114 0 231 114 0 231 114 0 231 114 0 231 114 0 230 114 0
0 0 116 0 0 116 0 0 116 0 0 116 0 0 116 0 0 116 0 0 116 0 0 115 0 0
115 0 0 115 0 0 115 0 0 115 0 0 115 0 0 115 0 0 114 0 0 114 0 0 114
228 114 0 228 114 0 228 114 0 228 114 0 227 114 0 227 114 0 227 114 0
227 114 0 227 114 0 227 114 0 227 114 0 227 114 0 0 0 112 0 0 112 0 0
112 0 0 112 226 114 0 226 114 0 226 114 0 225 114 0 225 114 0 225 114
0 225 114 0 225 114 0 225 114 0 224 114 0 224 114 0 224 114 0 224 114
0 224 114 0 224 114 0 224 114 0 223 114 0 0 0 109 0 0 109 0 0 109 0 0
109 0 0 109 0 0 108 0 0 108 0 0 108 0 0 108 0 0 108 0 0 108 0 0 108 0
0 108
0 0 141 0 0 141 0 0 141 0 0 141 0 0 141 0 0 140 0 0 140 0 0 140 0 0
140 0 0 140 0 0 140 246 106 0 246 107 0 246 107 0 246 107 0 246 107 0
246 107 0 246 107 0 246 107 0 246 107 0 246 107 0 246 107 0 246 107 0
246 107 0 246 107 0 246 108 0 245 108 0 245 108 0 0 0 138 0 0 137 0 0
137 0 0 137 0 0 137 0 0 137 0 0 137 245 108 0 245 108 0 245 108 0 245
109 0 245 109 0 245 109 0 245 109 0 245 109 0 244 109 0 244 109 0 0 0
135 0 0 135 0 0 135 0 0 135 0 0 135 0 0 135 0 0 134 0 0 134 0 0 134 0
0 134 0 0 134 0 0 134 0 0 134 0 0 133 0 0 133 0 0 133 0 0 133 243 110
0 243 110 0 243 110 0 243 110 0 243 110 0 255 142 215 255 142 215 255
132 232 255 132 232 186 138 47 185 138 47 242 111 0 242 111 0 242 111
0 242 111 0 242 111 0 0 0 131 255 45 242 255 183 218 255 183 218 255
184 217 255 184 217 255 45 252 255 46 252 255 46 252 255 46 252 255
215 188 255 215 187 255 216 187 255 216 187 255 216 187 255 216 186
255 216 186 255 216 186 255 216 186 255 216 186 255 217 185 255 217
185 255 217 185 255 217 185 255 217 185 255 217 184 255 217 184 255
217 184 255 218 184 255 218 184 255 218 184 255 241 142 255 241 142
255 241 141 255 242 141 255 242 141 255 242 141 255 242 141 255 242
141 255 242 141 255 242 140 255 242 140 255 242 140 255 242 140 255
242 140 255 242 140 255 243 140 255 243 140 255 243 139 255 243 139
255 243 139 255 243 139 255 243 139 255 243 139 255 246 26 255 246 26
255 245 26 255 245 26 255 245 26 255 245 26 255 245 26 255 245 26 255
245 26 255 245 26 255 244 26 210 185 26 210 185 26 210 184 26 209 184
26 209 184 26 209 183 26 0 0 120 0 0 119 0 0 119 0 0 119 0 0 119 0 0
119 0 0 119 0 0 118 0 0 118 0 0 118 0 0 118 0 0 118 0 0 118 232 115 0
0 0 117 0 0 117 0 0 117 0 0 117 0 0 117 0 0 117 0 0 116 0 0 116 0 0
116 0 0 116 0 0 116 0 0 116 0 0 116 0 0 115 0 0 115 0 0 115 0 0 115
230 115 0 230 115 0 229 115 0 229 115 0 229 115 0 229 115 0 229 115 0
229 115 0 229 115 0 228 115 0 228 115 0 228 115 0 228 115 0 228 115 0
228 115 0 228 115 0 227 115 0 0 0 112 0 0 112 0 0 112 0 0 112 0 0 112
0 0 112 0 0 111 226 115 0 226 115 0 226 115 0 226 115 0 226 115 0 226
115 0 225 115 0 225 115 0 225 115 0 225 115 0 0 0 110 0 0 110 0 0 110
0 0 109 0 0 109 0 0 109 0 0 109 0 0 109 0 0 109 0 0 109 0 0 108 0 0
108 0 0 108
248 106 0 248 106 0 0 0 142 0 0 142 0 0 142 0 0 141 0 0 141 0 0 141
248 107 0 248 107 0 248 107 0 248 107 0 248 107 0 248 107 0 248 107 0
248 108 0 248 108 0 248 108 0 248 108 0 248 108 0 248 108 0 247 108 0
247 108 0 247 108 0 247 108 0 0 0 139 0 0 139 0 0 139 0 0 139 0 0 138
0 0 138 0 0 138 0 0 138 0 0 138 0 0 138 0 0 138 0 0 137 0 0 137 0 0
137 0 0 137 0 0 137 0 0 137 246 110 0 246 110 0 246 110 0 0 0 136 0 0
136 0 0 136 0 0 136 0 0 136 0 0 136 0 0 135 0 0 135 0 0 135 0 0 135 0
0 135 0 0 135 0 0 135 0 0 134 245 111 0 245 111 0 245 111 0 245 111 0
245 111 0 245 111 0 244 111 0 244 111 0 255 142 215 255 142 215 255
132 232 255 132 231 255 133 231 255 133 231 186 139 47 186 139 47 185
138 47 243 112 0 0 0 132 255 45 242 255 183 218 255 183 218 255 183
218 255 184 217 255 45 251 255 45 252 255 46 252 255 46 252 255 46 252
255 215 188 255 215 187 255 216 187 255 216 187 255 216 187 255 216
186 255 216 186 255 216 186 255 216 186 255 216 186 255 217 185 255
217 185 255 217 185 255 217 185 255 217 185 255 217 184 255 217 184
255 217 184 255 218 184 255 218 184 255 241 142 255 241 142 255 241
142 255 241 141 255 242 141 255 242 141 255 242 141 255 242 141 255
242 141 255 242 141 255 242 140 255 242 140 255 242 140 255 242 140
255 242 140 255 243 140 255 243 140 255 243 140 255 243 139 255 243
139 255 243 139 255 243 139 255 243 139 255 243 139 255 246 26 255 246
26 255 245 26 255 245 26 255 245 26 255 245 26 255 245 26 255 245 26
255 245 26 255 245 26 255 244 26 255 237 26 210 185 26 210 185 26 210
184 26 210 184 26 209 184 26 209 183 26 0 0 120 0 0 120 0 0 120 0 0
120 0 0 120 0 0 119 0 0 119 0 0 119 0 0 119 0 0 119 0 0 119 0 0 118
234 115 0 234 115 0 233 115 0 233 115 0 233 116 0 233 116 0 233 116 0
233 116 0 233 116 0 233 116 0 232 116 0 0 0 117 0 0 116 0 0 116 0 0
116 0 0 116 0 0 116 231 116 0 231 116 0 231 116 0 231 116 0 231 116 0
231 116 0 231 116 0 230 116 0 230 116 0 230 116 0 230 116 0 230 116 0
230 116 0 230 116 0 229 116 0 229 116 0 229 116 0 229 116 0 0 0 113 0
0 113 0 0 113 0 0 113 0 0 112 0 0 112 0 0 112 0 0 112 0 0 112 0 0 112
0 0 112 0 0 111 0 0 111 0 0 111 0 0 111 0 0 111 0 0 111 226 116 0 226
116 0 0 0 110 0 0 110 0 0 110 0 0 110 0 0 110 0 0 110 0 0 109 0 0 109
0 0 109 0 0 109 0 0 109
250 107 0 250 107 0 250 107 0 250 107 0 250 107 0 0 0 142 0 0 142 0 0
142 0 0 142 0 0 142 250 108 0 250 108 0 250 108 0 250 108 0 249 108 0
249 108 0 249 108 0 249 108 0 249 108 0 249 109 0 249 109 0 249 109 0
0 0 140 0 0 140 0 0 140 0 0 140 0 0 140 0 0 140 0 0 139 0 0 139 0 0
139 0 0 139 0 0 139 0 0 139 0 0 139 0 0 139 0 0 138 0 0 138 0 0 138 0
0 138 248 110 0 248 110 0 248 110 0 248 110 0 248 110 0 248 110 0 248
111 0 247 111 0 247 111 0 247 111 0 247 111 0 247 111 0 247 111 0 247
111 0 0 0 136 0 0 136 0 0 136 247 111 0 247 111 0 247 111 0 246 112 0
246 112 0 246 112 0 246 112 0 246 112 0 246 112 0 255 142 215 255 142
215 255 142 214 255 142 214 255 132 231 255 133 231 255 133 231 255
133 231 255 133 231 205 180 26 205 180 26 51 26 26 255 183 218 255 183
218 255 183 218 255 184 218 255 184 217 255 45 252 255 46 252 255 46
252 255 46 252 255 46 252 255 215 188 255 215 187 255 216 187 255 216
187 255 216 187 255 216 186 255 216 186 255 216 186 255 216 186 255
216 186 255 217 185 255 217 185 255 217 185 255 217 185 255 217 185
255 217 184 255 217 184 255 218 184 255 218 184 255 218 184 255 241
142 255 241 142 255 241 141 255 241 141 255 242 141 255 242 141 255
242 141 255 242 141 255 242 141 255 242 141 255 242 140 255 242 140
255 242 140 255 242 140 255 242 140 255 243 140 255 243 140 255 243
140 255 243 139 255 243 139 255 243 139 255 243 139 255 243 139 255
243 139 255 246 26 255 246 26 255 245 26 255 245 26 255 245 26 255 245
26 255 245 26 255 245 26 255 245 26 255 245 26 255 244 26 255 237 26
255 237 26 210 185 26 210 185 26 210 184 26 210 184 26 209 184 26 209
184 26 0 0 121 0 0 121 0 0 120 0 0 120 0 0 120 0 0 120 0 0 120 0 0 120
0 0 119 0 0 119 235 116 0 235 116 0 235 116 0 235 116 0 235 116 0 235
116 0 235 116 0 234 116 0 234 116 0 234 116 0 234 116 0 234 116 0 234
116 0 234 116 0 233 116 0 233 116 0 233 116 0 233 117 0 0 0 116 0 0
116 0 0 116 0 0 116 0 0 116 232 117 0 232 117 0 232 117 0 232 117 0
232 117 0 232 117 0 231 117 0 231 117 0 231 117 0 231 117 0 231 117 0
231 117 0 0 0 114 0 0 114 0 0 114 0 0 113 0 0 113 0 0 113 0 0 113 0 0
113 0 0 113 0 0 113 0 0 112 0 0 112 0 0 112 0 0 112 0 0 112 0 0 112 0
0 112 0 0 111 228 117 0 228 117 0 228 117 0 227 117 0 227 117 0 227
117 0 227 117 0 227 117 0 227 117 0 227 117 0 226 117 0 226 117 0 226
117 0
252 108 0 252 108 0 0 0 144 0 0 144 0 0 144 0 0 143 0 0 143 0 0 143 0
0 143 0 0 143 0 0 143 0 0 143 0 0 143 0 0 142 0 0 142 0 0 142 0 0 142
0 0 142 0 0 142 0 0 142 0 0 141 0 0 141 0 0 141 0 0 141 0 0 141 0 0
141 0 0 141 0 0 141 0 0 140 0 0 140 0 0 140 0 0 140 0 0 140 0 0 140 0
0 140 0 0 139 0 0 139 250 111 0 250 111 0 250 111 0 250 111 0 249 111
0 249 111 0 249 111 0 249 111 0 249 111 0 249 111 0 249 111 0 249 111
0 249 111 0 249 112 0 249 112 0 249 112 0 249 112 0 248 112 0 0 0 137
0 0 136 0 0 136 0 0 136 0 0 136 0 0 136 0 0 136 0 0 135 248 112 0 248
113 0 248 113 0 255 142 215 255 142 214 255 142 214 205 180 26 167 26
141 167 26 141 255 133 231 255 133 231 255 133 231 255 133 231 51 26
26 255 183 218 255 183 218 255 183 218 255 183 218 255 184 218 255 184
217 255 46 252 255 46 252 255 46 252 255 46 252 255 46 252 255 219 177
255 216 187 255 216 187 255 216 187 255 216 187 255 216 186 255 216
186 255 216 186 255 216 186 255 217 185 255 217 185 255 217 185 255
217 185 255 217 185 255 217 184 255 217 184 255 217 184 255 218 184
255 218 184 255 218 184 255 241 142 255 241 142 255 241 141 255 242
141 255 242 141 255 242 141 255 242 141 255 242 141 255 242 141 255
242 140 255 242 140 255 242 140 255 242 140 255 242 140 255 242 140
255 243 140 255 243 140 255 243 140 255 243 139 255 243 139 255 243
139 255 243 139 255 243 139 255 243 139 255 246 26 255 246 26 255 245
26 255 245 26 255 245 26 255 245 26 255 245 26 255 245 26 255 245 26
255 245 26 255 244 26 255 237 26 255 237 26 255 237 26 210 185 26 210
185 26 210 184 26 210 184 26 209 184 26 163 137 26 0 0 121 0 0 121 0 0
121 0 0 121 0 0 121 0 0 120 0 0 120 0 0 120 237 117 0 237 117 0 237
117 0 237 117 0 236 117 0 236 117 0 236 117 0 236 117 0 236 117 0 236
117 0 236 117 0 235 117 0 235 117 0 235 117 0 235 117 0 235 117 0 235
117 0 235 117 0 0 0 117 0 0 117 0 0 117 0 0 117 0 0 117 0 0 116 0 0
116 0 0 116 0 0 116 0 0 116 0 0 116 0 0 116 0 0 115 0 0 115 0 0 115 0
0 115 0 0 115 232 117 0 0 0 115 0 0 114 0 0 114 0 0 114 0 0 114 0 0
114 0 0 114 0 0 114 0 0 113 0 0 113 0 0 113 0 0 113 0 0 113 0 0 113 0
0 112 0 0 112 0 0 112 230 117 0 229 117 0 229 117 0 229 117 0 229 117
0 229 117 0 229 117 0 228 117 0 228 117 0 228 117 0 228 117 0 228 117
0 228 117 0 228 117 0
0 0 145 0 0 145 0 0 145 0 0 145 0 0 144 0 0 144 0 0 144 0 0 144 0 0
144 0 0 144 0 0 144 0 0 144 0 0 143 0 0 143 0 0 143 0 0 143 253 110 0
253 110 0 253 110 0 253 110 0 252 110 0 252 110 0 252 110 0 252 110 0
252 110 0 252 110 0 252 111 0 0 0 141 0 0 141 0 0 141 0 0 141 0 0 141
0 0 141 0 0 141 252 111 0 251 111 0 251 111 0 251 111 0 251 111 0 251
112 0 251 112 0 251 112 0 251 112 0 251 112 0 251 112 0 251 112 0 251
112 0 251 112 0 251 112 0 250 112 0 250 112 0 250 112 0 0 0 138 0 0
138 0 0 137 0 0 137 0 0 137 0 0 137 0 0 137 0 0 137 0 0 137 0 0 136 0
0 136 0 0 136 0 0 136 255 141 215 255 141 214 255 142 214 255 142 214
205 180 26 205 180 26 166 26 141 166 26 141 167 26 141 255 133 231 255
26 230 255 26 230 255 183 218 255 183 218 255 183 218 255 184 218 255
184 218 255 184 217 255 46 252 255 46 252 255 46 252 255 46 252 255
109 249 255 219 177 255 219 177 255 219 177 255 216 187 255 216 187
255 216 186 255 216 186 255 216 186 255 216 186 255 217 185 255 217
185 255 217 185 255 217 185 255 217 185 255 217 184 255 217 184 255
217 184 255 218 184 255 218 184 255 218 184 255 241 142 255 241 142
255 241 141 255 242 141 255 242 141 255 242 141 255 242 141 255 242
141 255 242 141 255 242 140 255 242 140 255 242 140 255 242 140 255
242 140 255 243 140 255 243 140 255 243 140 255 243 140 255 243 139
255 243 139 255 243 139 255 243 139 255 243 139 255 243 139 255 246 26
255 245 26 255 245 26 255 245 26 255 245 26 255 245 26 255 245 26 255
245 26 255 245 26 255 245 26 255 237 26 255 237 26 255 237 26 255 237
26 211 185 26 210 185 26 210 185 26 210 184 26 210 184 26 162 137 26
239 118 0 239 118 0 239 118 0 239 118 0 239 118 0 239 118 0 239 118 0
239 118 0 0 0 121 238 118 0 238 118 0 238 118 0 238 118 0 238 118 0
238 118 0 237 118 0 237 118 0 237 118 0 237 118 0 237 118 0 237 118 0
237 118 0 237 118 0 236 118 0 236 118 0 0 0 118 0 0 118 0 0 118 0 0
118 0 0 117 0 0 117 0 0 117 0 0 117 0 0 117 0 0 117 0 0 117 0 0 116 0
0 116 0 0 116 0 0 116 0 0 116 0 0 116 0 0 116 234 118 0 233 118 0 233
118 0 233 118 0 233 118 0 233 118 0 233 118 0 233 118 0 232 118 0 232
118 0 232 118 0 0 0 114 0 0 114 0 0 113 0 0 113 0 0 113 0 0 113 0 0
113 231 118 0 231 118 0 231 118 0 231 118 0 230 118 0 230 118 0 230
118 0 230 118 0 230 118 0 230 118 0 230 118 0 229 118 0 229 118 0 229
118 0
0 0 146 0 0 146 0 0 146 0 0 146 0 0 145 0 0 145 0 0 145 0 0 145 0 0
145 0 0 145 0 0 145 0 0 144 0 0 144 254 110 0 254 110 0 254 110 0 254
110 0 254 111 0 254 111 0 254 111 0 254 111 0 254 111 0 254 111 0 254
111 0 254 111 0 254 111 0 254 111 0 254 111 0 254 111 0 253 111 0 253
112 0 253 112 0 0 0 142 0 0 141 0 0 141 253 112 0 253 112 0 253 112 0
253 112 0 253 112 0 253 112 0 253 112 0 253 112 0 252 112 0 252 113 0
252 113 0 252 113 0 252 113 0 252 113 0 252 113 0 0 0 139 0 0 139 0 0
139 0 0 138 0 0 138 0 0 138 0 0 138 0 0 138 0 0 138 0 0 138 0 0 137 0
0 137 0 0 137 0 0 137 0 0 137 255 141 214 255 141 214 255 142 214 205
180 26 205 180 26 205 180 26 51 26 26 166 26 141 166 26 141 166 26 141
255 26 230 255 26 230 255 183 218 255 183 218 255 183 218 255 184 218
255 184 218 255 184 217 255 46 252 255 46 252 255 46 252 255 109 250
255 109 249 255 219 177 255 219 177 255 219 177 255 219 177 255 219
177 255 220 177 255 216 186 255 216 186 255 216 186 255 217 185 255
217 185 255 217 185 255 217 185 255 217 185 255 217 184 255 217 184
255 217 184 255 218 184 255 218 184 255 218 183 255 241 142 255 241
141 255 241 141 255 242 141 255 242 141 255 242 141 255 242 141 255
242 141 255 242 141 255 242 140 255 242 140 255 242 140 255 212 187
255 242 140 255 243 140 255 243 140 255 243 140 255 243 140 255 243
139 255 243 139 255 243 139 255 243 139 255 243 139 255 243 139 255
246 26 255 245 26 255 245 26 255 245 26 255 245 26 255 245 26 255 245
26 255 245 26 255 245 26 255 245 26 255 237 26 255 237 26 255 237 26
255 237 26 255 237 148 211 185 26 211 185 26 210 185 26 210 185 26 163
138 26 241 118 0 241 118 0 241 118 0 241 118 0 240 118 0 240 118 0 240
118 0 0 0 122 0 0 121 0 0 121 0 0 121 0 0 121 0 0 121 0 0 121 0 0 120
0 0 120 0 0 120 0 0 120 0 0 120 0 0 120 238 119 0 238 119 0 238 119 0
238 119 0 238 119 0 0 0 119 0 0 119 0 0 118 0 0 118 0 0 118 0 0 118 0
0 118 0 0 118 0 0 118 0 0 117 0 0 117 0 0 117 0 0 117 0 0 117 0 0 117
0 0 116 0 0 116 0 0 116 235 119 0 235 119 0 235 119 0 235 119 0 234
119 0 234 119 0 234 119 0 234 119 0 234 119 0 234 119 0 234 119 0 233
119 0 233 119 0 233 119 0 233 119 0 233 119 0 233 119 0 233 119 0 0 0
113 0 0 113 0 0 113 0 0 113 232 119 0 232 119 0 232 119 0 231 119 0
231 119 0 231 119 0 231 119 0 231 119 0 231 119 0 230 119 0
0 0 147 0 0 147 0 0 147 0 0 146 0 0 146 0 0 146 0 0 146 0 0 146 0 0
146 0 0 146 0 0 145 255 111 0 255 111 0 255 111 0 255 111 0 255 111 0
255 111 0 255 111 0 255 111 0 255 111 0 255 111 0 255 112 0 255 112 0
255 112 0 255 112 0 255 112 0 255 112 0 255 112 0 255 112 0 0 0 143 0
0 143 0 0 143 0 0 142 0 0 142 0 0 142 0 0 142 0 0 142 0 0 142 0 0 142
0 0 141 0 0 141 0 0 141 0 0 141 0 0 141 254 113 0 254 113 0 254 113 0
0 0 140 0 0 140 0 0 140 0 0 140 0 0 140 0 0 139 0 0 139 0 0 139 0 0
139 0 0 139 0 0 139 0 0 138 0 0 138 0 0 138 0 0 138 0 0 138 0 0 138
255 141 214 255 141 214 255 141 214 255 142 214 205 179 26 205 179 26
205 179 26 51 26 26 255 26 234 255 26 234 166 26 141 166 26 141 255 26
230 255 183 218 255 183 218 255 184 218 255 184 218 255 184 218 255 46
252 255 46 252 255 108 250 255 109 250 255 109 250 255 219 177 255 219
177 255 219 177 255 219 177 255 219 177 255 220 177 255 220 177 255
220 176 255 220 176 255 216 186 255 217 185 255 217 185 255 217 185
255 217 185 255 217 184 255 217 184 255 217 184 255 217 184 255 218
184 255 218 184 255 218 183 255 241 142 255 241 141 255 241 141 255
242 141 255 242 141 255 242 141 255 242 141 255 242 141 255 211 188
255 212 188 255 212 188 255 212 188 255 212 187 255 253 45 255 243 140
255 243 140 255 243 140 255 243 140 255 243 139 255 243 139 255 243
139 255 243 139 255 243 139 255 243 139 255 246 26 255 245 26 255 245
26 255 245 26 255 245 26 255 245 26 255 245 26 255 245 26 255 245 26
255 245 26 255 237 26 255 237 26 255 237 26 255 237 148 255 238 148
255 238 147 211 185 26 211 185 26 164 139 26 163 138 26 242 119 0 242
119 0 242 119 0 242 119 0 242 119 0 242 119 0 0 0 122 0 0 122 0 0 122
0 0 122 0 0 122 0 0 122 0 0 121 0 0 121 0 0 121 0 0 121 255 237 88 255
237 88 255 238 88 255 238 88 255 218 99 0 0 120 0 0 120 0 0 120 239
120 0 239 120 0 239 120 0 239 120 0 239 120 0 238 120 0 0 0 119 0 0
118 0 0 118 0 0 118 0 0 118 0 0 118 0 0 118 0 0 118 0 0 117 0 0 117 0
0 117 0 0 117 0 0 117 236 120 0 236 120 0 236 120 0 236 120 0 236 120
0 236 120 0 236 120 0 235 120 0 235 120 0 235 120 0 235 120 0 235 120
0 235 120 0 235 120 0 234 120 0 234 120 0 234 120 0 234 120 0 0 0 114
0 0 114 0 0 114 0 0 114 0 0 113 0 0 113 0 0 113 0 0 113 0 0 113 0 0
113 0 0 113 0 0 112 0 0 112 0 0 112
255 111 0 255 111 0 255 111 0 255 111 0 255 111 0 255 111 0 0 0 147 0
0 147 255 111 0 255 111 0 255 111 0 255 111 0 255 112 0 255 112 0 255
112 0 255 112 0 255 112 0 255 112 0 255 112 0 255 112 0 255 112 0 255
112 0 255 112 0 255 112 0 255 112 0 255 113 0 0 0 144 0 0 144 0 0 144
0 0 144 0 0 144 0 0 143 0 0 143 0 0 143 0 0 143 0 0 143 0 0 143 0 0
142 0 0 142 0 0 142 0 0 142 0 0 142 0 0 142 0 0 142 0 0 141 255 114 0
255 114 0 255 114 0 255 114 0 255 114 0 255 114 0 255 114 0 0 0 140 0
0 140 0 0 140 0 0 140 0 0 140 0 0 139 0 0 139 0 0 139 0 0 139 0 0 139
0 0 139 0 0 138 254 115 0 255 147 194 255 141 214 205 179 26 205 179
26 205 179 26 151 126 26 152 126 26 255 26 242 255 26 234 255 26 234
255 26 233 166 26 141 255 183 218 255 183 218 255 184 218 255 184 218
255 184 218 255 46 252 255 108 250 255 109 250 255 109 250 255 109 250
255 219 177 255 219 177 255 219 177 255 219 177 255 219 177 255 220
177 255 220 176 255 220 176 255 249 26 255 249 26 255 217 185 255 217
185 255 217 185 255 217 185 255 217 184 255 217 184 255 217 184 255
218 184 255 218 184 255 218 184 255 241 142 255 241 141 255 241 141
255 242 141 255 242 141 255 211 189 255 211 188 255 211 188 255 211
188 255 211 188 255 212 188 255 212 188 255 212 188 255 253 45 255 253
45 255 253 45 156 130 26 255 243 140 255 243 140 255 243 139 255 243
139 255 243 139 255 243 139 255 243 139 255 243 139 255 246 26 255 245
26 255 245 26 255 245 26 255 245 26 255 245 26 255 245 26 255 245 26
255 245 26 255 245 26 255 237 26 255 237 26 255 237 26 255 237 148 255
238 148 255 238 147 255 238 147 211 185 26 164 139 26 163 138 26 244
120 0 244 120 0 243 120 0 243 120 0 243 120 0 0 0 123 0 0 123 0 0 123
0 0 123 0 0 123 51 26 26 255 237 26 255 237 26 255 237 26 255 237 26
255 237 88 255 237 88 255 237 88 255 237 88 255 218 99 255 218 99 193
167 26 0 0 120 0 0 120 241 120 0 240 120 0 240 120 0 240 120 0 240 120
0 240 120 0 240 120 0 240 120 0 239 120 0 239 120 0 239 120 0 239 121
0 239 121 0 239 121 0 239 121 0 238 121 0 0 0 118 0 0 118 238 121 0
238 121 0 238 121 0 238 121 0 237 121 0 237 121 0 237 121 0 237 121 0
237 121 0 237 121 0 237 121 0 236 121 0 236 121 0 236 121 0 236 121 0
236 121 0 236 121 0 236 121 0 235 121 0 0 0 115 0 0 114 0 0 114 0 0
114 0 0 114 0 0 114 0 0 114 0 0 114 0 0 113 0 0 113 0 0 113 0 0 113 0
0 113 0 0 113
255 111 0 255 111 0 255 111 0 255 111 0 255 112 0 0 0 148 0 0 148 0 0
148 0 0 147 0 0 147 0 0 147 0 0 147 0 0 147 0 0 147 255 112 0 255 112
0 255 113 0 255 113 0 255 113 0 255 113 0 255 113 0 255 113 0 255 113
0 255 113 0 0 0 145 0 0 145 0 0 145 0 0 145 0 0 145 0 0 144 0 0 144 0
0 144 0 0 144 0 0 144 0 0 144 0 0 144 0 0 143 0 0 143 0 0 143 0 0 143
0 0 143 0 0 143 0 0 142 255 115 0 255 115 0 255 115 0 255 115 0 255
115 0 255 115 0 255 115 0 255 115 0 255 115 0 255 115 0 255 115 0 255
115 0 255 115 0 255 115 0 255 116 0 255 116 0 255 116 0 255 116 0 255
116 0 255 116 0 255 116 0 255 116 0 255 147 194 255 147 194 255 238 26
204 179 26 204 179 26 151 126 26 255 26 243 255 26 242 255 26 234 255
26 233 255 26 233 255 26 233 255 183 218 255 184 218 255 184 218 255
184 218 255 184 217 255 108 250 255 108 250 255 109 250 255 109 250
255 109 250 255 219 177 255 219 177 255 219 177 255 219 177 255 219
177 255 220 177 255 220 176 255 220 176 255 249 26 255 248 26 255 217
185 255 217 185 255 217 185 255 217 185 255 217 184 255 217 184 255
217 184 255 218 184 255 218 184 255 218 183 255 241 142 255 241 141
255 241 141 255 242 141 255 88 253 255 211 189 255 211 188 255 211 188
255 211 188 255 212 188 255 212 188 255 212 188 255 212 188 255 253 45
255 253 45 255 253 45 255 253 45 255 253 45 255 243 140 255 243 139
255 243 139 255 243 139 255 243 139 255 243 139 255 246 26 255 246 26
255 245 26 255 245 26 255 245 26 255 245 26 255 245 26 255 245 26 255
245 26 255 245 26 255 245 26 255 237 26 255 237 26 255 237 148 255 238
148 255 238 148 255 238 147 255 238 147 255 238 147 164 139 26 163 138
26 0 0 125 0 0 124 0 0 124 245 121 0 0 0 124 0 0 124 0 0 124 0 0 123
82 56 26 255 238 26 255 237 26 255 237 26 255 237 26 255 237 26 255
237 26 255 237 26 255 237 26 255 237 88 255 218 99 255 218 99 255 218
99 255 218 99 0 0 121 242 121 0 242 121 0 242 121 0 242 121 0 241 121
0 241 121 0 241 121 0 241 121 0 241 121 0 241 121 0 241 121 0 241 121
0 240 121 0 240 121 0 240 121 0 240 121 0 240 121 0 240 121 0 240 121
0 0 0 118 0 0 118 0 0 118 0 0 118 0 0 117 0 0 117 0 0 117 0 0 117 0 0
117 238 121 0 238 121 0 238 121 0 238 121 0 238 121 0 237 121 0 237
121 0 237 121 0 237 121 0 237 121 0 0 0 115 0 0 115 0 0 115 0 0 115 0
0 115 0 0 114 0 0 114 0 0 114 0 0 114 0 0 114 0 0 114 0 0 114 0 0 113
0 0 113
255 112 0 255 112 0 0 0 149 0 0 149 0 0 149 0 0 149 0 0 149 0 0 148 0
0 148 0 0 148 0 0 148 0 0 148 0 0 148 0 0 148 0 0 147 0 0 147 0 0 147
0 0 147 0 0 147 0 0 147 0 0 147 0 0 146 0 0 146 0 0 146 0 0 146 0 0
146 0 0 146 0 0 146 0 0 145 0 0 145 0 0 145 0 0 145 0 0 145 0 0 145 0
0 144 0 0 144 0 0 144 0 0 144 0 0 144 0 0 144 255 115 0 255 115 0 255
115 0 255 115 0 255 115 0 255 115 0 255 115 0 255 116 0 255 116 0 255
116 0 255 116 0 255 116 0 255 116 0 255 116 0 255 116 0 255 116 0 255
116 0 255 116 0 255 116 0 0 0 141 0 0 140 0 0 140 0 0 140 0 0 140 0 0
140 255 147 194 255 147 194 255 147 194 255 238 26 119 93 26 51 26 26
255 26 242 255 26 242 255 26 242 255 26 233 255 26 233 255 26 233 255
183 218 255 184 218 255 184 218 255 184 218 255 108 250 255 108 250
255 108 250 255 109 250 255 109 250 255 109 249 255 219 177 255 219
177 255 219 177 255 219 177 255 220 177 255 220 177 255 220 176 255
249 26 255 249 26 255 248 26 242 217 26 242 217 26 242 217 26 243 217
26 255 217 184 255 217 184 255 217 184 255 218 184 255 218 184 255 218
183 255 241 142 255 241 141 255 241 141 255 242 141 255 88 253 255 211
188 255 211 188 255 211 188 255 211 188 255 212 188 255 212 188 255
212 188 255 212 188 255 253 45 255 253 45 255 253 45 255 253 45 255
253 45 255 253 45 255 243 139 255 243 139 255 243 139 255 243 139 255
243 139 255 246 26 255 246 26 255 245 26 255 245 26 255 245 26 255 245
26 255 245 26 255 245 26 255 245 26 255 245 26 255 245 26 255 237 26
255 237 26 255 238 148 255 238 148 255 238 148 255 238 147 255 238 147
203 177 26 164 139 26 163 138 26 0 0 125 0 0 125 0 0 125 246 121 0 246
121 0 82 56 26 82 56 26 255 237 26 255 237 26 255 238 26 255 237 26
255 237 26 255 237 26 255 237 26 255 237 26 89 64 26 89 64 26 89 64 26
255 218 99 255 218 99 255 218 99 255 218 98 193 167 26 243 122 0 243
122 0 243 122 0 243 122 0 243 122 0 243 122 0 243 122 0 242 122 0 242
122 0 242 122 0 242 122 0 242 122 0 242 122 0 242 122 0 241 122 0 241
122 0 241 122 0 241 122 0 0 0 119 0 0 119 0 0 118 0 0 118 0 0 118 0 0
118 0 0 118 0 0 118 0 0 118 0 0 117 0 0 117 0 0 117 0 0 117 0 0 117 0
0 117 0 0 117 0 0 116 0 0 116 0 0 116 0 0 116 0 0 116 0 0 116 0 0 116
0 0 115 0 0 115 0 0 115 0 0 115 0 0 115 0 0 115 0 0 115 0 0 114 0 0
114 0 0 114 0 0 114
0 0 150 0 0 150 0 0 150 0 0 150 0 0 150 0 0 150 0 0 149 0 0 149 0 0
149 0 0 149 0 0 149 0 0 149 0 0 149 0 0 148 0 0 148 0 0 148 0 0 148 0
0 148 255 114 0 255 114 0 255 114 0 255 114 0 255 114 0 255 114 0 255
114 0 255 115 0 255 115 0 255 115 0 255 115 0 0 0 146 0 0 146 0 0 146
0 0 146 0 0 145 0 0 145 0 0 145 0 0 145 0 0 145 255 116 0 255 116 0
255 116 0 255 116 0 255 116 0 255 116 0 255 116 0 255 116 0 255 116 0
255 116 0 255 116 0 255 116 0 255 116 0 255 116 0 255 117 0 255 117 0
255 117 0 255 117 0 255 117 0 0 0 142 0 0 141 0 0 141 0 0 141 0 0 141
0 0 141 0 0 141 0 0 140 0 0 140 255 147 194 255 147 194 255 238 26 51
26 26 51 26 26 255 26 242 255 26 242 255 26 242 233 26 207 255 26 233
51 26 26 255 184 218 255 184 218 255 184 218 255 115 248 255 108 250
255 108 250 255 109 250 255 109 250 255 109 250 255 109 249 255 219
177 255 219 177 255 219 177 255 219 177 255 220 177 255 220 177 255
249 26 255 249 26 255 248 26 255 248 26 255 248 26 242 217 26 242 217
26 243 217 26 243 217 26 243 217 26 243 217 26 243 218 26 255 218 183
255 218 183 255 241 141 255 241 141 167 26 141 167 26 141 255 88 253
255 88 253 255 211 188 255 211 188 255 211 188 255 212 188 255 212 188
255 212 188 255 212 187 255 253 45 255 253 45 255 253 45 255 253 45
255 253 45 255 253 45 255 253 45 255 243 139 255 243 139 255 243 139
255 243 139 255 246 26 255 246 26 255 245 26 255 245 26 255 245 26 255
245 26 255 245 26 255 245 26 255 245 26 255 245 26 255 237 26 255 237
26 255 238 148 255 238 148 255 238 148 255 238 148 255 238 147 255 238
147 203 177 26 202 177 26 163 138 26 0 0 126 0 0 126 247 122 0 82 56
26 82 57 26 255 237 26 255 237 26 255 237 26 255 237 26 255 237 26 89
64 26 89 64 26 89 64 26 89 63 26 89 63 26 89 63 26 89 63 26 88 62 26
88 62 26 243 218 26 255 218 99 255 218 98 255 218 98 192 167 26 245
123 0 244 123 0 244 123 0 244 123 0 244 123 0 244 123 0 244 123 0 244
123 0 243 123 0 243 123 0 243 123 0 243 123 0 243 123 0 243 123 0 243
123 0 242 123 0 242 123 0 0 0 119 0 0 119 0 0 119 0 0 119 0 0 119 0 0
119 0 0 118 0 0 118 0 0 118 0 0 118 0 0 118 0 0 118 0 0 118 0 0 117 0
0 117 0 0 117 0 0 117 0 0 117 0 0 117 239 123 0 239 123 0 239 123 0
239 123 0 239 123 0 239 123 0 239 123 0 238 123 0 238 123 0 238 123 0
238 123 0 0 0 115 0 0 115 0 0 115 0 0 115
0 0 151 0 0 151 0 0 151 0 0 151 0 0 150 0 0 150 0 0 150 0 0 150 0 0
150 0 0 150 0 0 150 0 0 149 0 0 149 0 0 149 0 0 149 0 0 149 255 114 0
255 115 0 255 115 0 255 115 0 255 115 0 255 115 0 255 115 0 255 115 0
255 115 0 255 115 0 255 115 0 255 115 0 255 115 0 255 116 0 255 116 0
255 116 0 255 116 0 255 116 0 255 116 0 0 0 146 0 0 146 255 116 0 255
116 0 255 116 0 255 116 0 255 116 0 255 116 0 255 117 0 255 117 0 255
117 0 255 117 0 255 117 0 255 117 0 255 117 0 255 117 0 255 117 0 255
117 0 255 117 0 255 117 0 0 0 143 0 0 142 0 0 142 0 0 142 0 0 142 0 0
142 0 0 142 0 0 141 0 0 141 0 0 141 0 0 141 255 147 194 255 147 194 51
26 26 51 26 26 51 26 26 245 26 220 245 26 220 233 26 207 232 26 207
232 26 207 51 26 26 255 114 249 255 114 248 255 114 248 255 115 248
255 108 250 255 108 250 255 109 250 255 109 250 255 109 250 126 91 35
188 55 133 188 55 133 255 219 177 255 220 177 255 220 177 255 220 176
255 249 26 255 248 26 255 248 26 255 248 26 255 248 26 208 183 26 209
183 26 209 183 26 209 183 26 209 183 26 209 183 26 209 184 26 209 184
26 243 218 26 51 26 26 167 26 141 167 26 141 255 88 253 255 88 253 255
88 253 255 211 188 255 211 188 255 212 188 255 212 188 255 212 188 255
212 188 255 212 187 255 253 45 255 253 45 255 253 45 255 253 45 255
253 45 255 253 45 255 253 45 255 253 45 255 243 139 255 243 139 255
243 139 255 246 26 255 246 26 255 245 26 255 245 26 255 245 26 255 245
26 255 245 26 255 245 26 255 245 26 255 245 26 255 237 26 255 238 26
255 238 148 255 238 148 255 238 148 255 238 148 255 238 147 203 178 26
203 177 26 202 177 26 163 138 26 0 0 126 249 123 0 51 26 26 255 237 26
255 237 26 255 237 26 255 237 26 255 237 26 144 119 26 144 118 26 89
63 26 89 63 26 89 63 26 89 63 26 89 63 26 89 63 26 89 63 26 88 62 26
88 62 26 243 218 26 243 218 26 255 218 98 255 218 98 255 218 98 0 0
123 0 0 122 0 0 122 0 0 122 0 0 122 0 0 122 0 0 122 0 0 122 245 123 0
245 123 0 244 123 0 244 123 0 244 123 0 244 123 0 244 123 0 244 123 0
244 124 0 0 0 120 0 0 120 0 0 120 0 0 120 0 0 119 0 0 119 0 0 119 0 0
119 0 0 119 0 0 119 0 0 118 0 0 118 0 0 118 0 0 118 0 0 118 0 0 118 0
0 118 0 0 117 0 0 117 241 124 0 241 124 0 240 124 0 240 124 0 240 124
0 240 124 0 240 124 0 240 124 0 240 124 0 239 124 0 239 124 0 239 124
0 239 124 0 239 124 0 239 124 0
0 0 152 0 0 152 0 0 152 0 0 151 0 0 151 0 0 151 0 0 151 0 0 151 0 0
151 0 0 150 0 0 150 0 0 150 0 0 150 255 115 0 255 115 0 255 115 0 255
115 0 255 115 0 255 115 0 255 115 0 255 115 0 255 116 0 255 116 0 255
116 0 255 116 0 255 116 0 255 116 0 255 116 0 255 116 0 255 116 0 255
116 0 255 116 0 255 116 0 0 0 147 0 0 147 0 0 146 0 0 146 0 0 146 0 0
146 0 0 146 0 0 146 0 0 146 0 0 145 0 0 145 0 0 145 255 117 0 255 117
0 255 117 0 255 118 0 255 118 0 255 118 0 255 118 0 255 118 0 0 0 144
0 0 143 0 0 143 0 0 143 0 0 143 0 0 143 0 0 143 0 0 142 0 0 142 0 0
142 0 0 142 0 0 142 0 0 142 255 147 194 255 147 194 219 26 193 51 26
26 51 26 26 245 26 220 245 26 220 245 26 219 232 26 207 255 114 249
255 114 249 255 114 249 255 114 248 255 114 248 255 115 248 255 108
250 255 109 250 255 109 250 126 91 35 126 91 35 126 91 35 188 55 133
188 55 133 188 55 133 188 55 133 188 55 133 255 249 26 255 249 26 255
248 26 255 248 26 255 248 26 255 248 26 255 248 26 209 183 26 209 183
26 209 183 26 209 184 26 209 184 26 209 184 26 209 184 26 51 26 26 51
26 26 51 26 26 51 26 26 255 88 253 255 88 253 255 88 253 255 211 188
255 211 188 255 212 188 255 212 188 255 212 188 255 212 188 255 253 45
255 253 45 255 253 45 255 253 45 255 253 45 255 253 45 255 253 45 255
253 45 255 253 45 255 253 45 156 130 26 255 243 139 255 246 26 255 246
26 255 245 26 255 245 26 255 245 26 255 245 26 255 245 26 255 245 26
255 245 26 255 245 26 255 238 26 255 238 148 255 238 148 255 238 148
255 238 148 255 238 147 255 238 147 203 178 26 203 177 26 202 177 26
164 138 26 250 123 0 51 26 26 255 237 26 255 237 26 255 237 26 255 237
26 255 237 26 144 118 26 144 118 26 144 118 26 89 63 26 89 63 26 51 26
26 51 26 26 255 252 26 255 252 26 51 26 26 87 62 26 88 62 26 88 62 26
243 218 26 243 218 26 243 218 26 255 218 98 192 167 26 0 0 123 0 0 123
0 0 123 0 0 123 0 0 122 0 0 122 0 0 122 0 0 122 0 0 122 0 0 122 0 0
121 0 0 121 0 0 121 0 0 121 0 0 121 245 124 0 245 124 0 0 0 120 0 0
120 0 0 120 0 0 120 0 0 120 0 0 120 0 0 119 0 0 119 0 0 119 0 0 119 0
0 119 0 0 119 0 0 119 0 0 118 0 0 118 0 0 118 0 0 118 0 0 118 242 124
0 242 124 0 242 124 0 242 124 0 241 124 0 241 124 0 241 124 0 241 124
0 241 124 0 241 124 0 241 124 0 240 124 0 240 124 0 240 124 0 240 124
0
255 114 0 255 115 0 0 0 152 0 0 152 0 0 152 0 0 152 0 0 152 0 0 152 0
0 151 0 0 151 255 115 0 255 115 0 255 115 0 255 116 0 255 116 0 255
116 0 255 116 0 255 116 0 255 116 0 255 116 0 255 116 0 255 116 0 255
116 0 255 116 0 255 116 0 255 116 0 255 117 0 255 117 0 255 117 0 255
117 0 0 0 148 0 0 148 0 0 148 0 0 147 0 0 147 0 0 147 0 0 147 0 0 147
0 0 147 0 0 147 0 0 146 0 0 146 0 0 146 0 0 146 0 0 146 0 0 146 0 0
145 0 0 145 0 0 145 0 0 145 0 0 145 255 118 0 255 118 0 0 0 144 0 0
144 0 0 144 0 0 144 0 0 144 0 0 143 0 0 143 0 0 143 0 0 143 0 0 143 0
0 143 0 0 142 0 0 142 0 0 142 255 147 193 219 26 193 51 26 26 51 26 26
51 26 26 245 26 219 255 113 249 255 114 249 255 114 249 255 114 249
255 114 248 255 114 248 255 114 248 255 115 248 255 108 250 255 109
250 126 91 35 126 91 35 126 91 35 126 91 35 188 55 133 188 55 133 188
55 133 188 55 133 188 55 133 174 26 148 255 248 26 255 248 26 255 248
26 255 248 26 255 248 26 255 248 26 209 183 26 209 183 26 209 184 26
209 184 26 209 184 26 209 184 26 227 201 26 51 26 26 51 26 26 51 26 26
255 88 253 255 88 253 255 88 253 255 88 253 255 211 188 255 211 188
255 212 188 169 121 48 169 121 48 169 121 48 169 121 48 255 253 45 255
253 45 255 253 45 255 253 45 255 253 45 255 253 45 255 253 45 255 253
45 255 253 45 255 253 45 255 253 56 255 246 26 255 246 26 255 245 26
255 245 26 255 245 26 255 245 26 255 245 26 255 245 26 255 245 26 255
245 26 255 238 26 255 238 148 255 238 148 255 238 148 255 238 148 255
238 147 203 178 26 203 178 26 203 177 26 202 177 26 202 176 26 163 137
26 255 236 26 255 237 26 255 237 26 255 237 26 144 119 26 144 118 26
144 118 26 144 118 26 94 69 26 255 230 26 255 252 26 255 252 26 255
252 26 255 252 26 249 224 26 249 224 26 51 26 26 87 62 26 88 62 26 243
217 26 243 217 26 243 218 26 243 218 26 255 218 98 0 0 124 0 0 123 0 0
123 0 0 123 0 0 123 0 0 123 0 0 123 0 0 123 0 0 122 0 0 122 0 0 122 0
0 122 0 0 122 0 0 122 0 0 121 246 125 0 246 125 0 246 125 0 246 125 0
246 125 0 245 125 0 245 125 0 245 125 0 245 125 0 245 125 0 245 125 0
245 125 0 0 0 119 0 0 119 0 0 119 0 0 119 0 0 119 0 0 119 0 0 119 0 0
118 243 125 0 243 125 0 243 125 0 243 125 0 243 125 0 243 125 0 242
125 0 242 125 0 242 125 0 242 125 0 242 125 0 242 125 0 242 125 0 241
125 0 241 125 0
255 115 0 255 115 0 255 115 0 255 115 0 255 115 0 255 115 0 255 116 0
255 116 0 0 0 152 255 116 0 255 116 0 255 116 0 255 116 0 255 116 0
255 116 0 255 116 0 255 116 0 255 116 0 255 117 0 255 117 0 255 117 0
255 117 0 255 117 0 255 117 0 255 117 0 255 117 0 255 117 0 255 117 0
0 0 149 0 0 149 0 0 149 0 0 148 0 0 148 0 0 148 0 0 148 0 0 148 0 0
148 0 0 148 0 0 147 0 0 147 0 0 147 0 0 147 0 0 147 0 0 147 0 0 146 0
0 146 0 0 146 0 0 146 255 119 0 255 119 0 255 119 0 255 119 0 255 119
0 255 119 0 255 119 0 255 119 0 255 119 0 255 119 0 255 120 0 255 120
0 0 0 144 0 0 144 0 0 143 0 0 143 0 0 143 0 0 143 0 0 143 219 26 193
219 26 193 51 26 26 255 108 244 255 108 244 255 113 249 255 113 249
255 114 249 255 114 249 255 114 248 255 114 248 255 114 248 255 115
248 255 115 248 125 82 43 125 91 35 125 91 35 125 91 35 126 91 35 126
91 35 188 55 133 188 55 133 188 55 133 188 55 133 188 55 133 187 39
148 255 248 26 255 248 26 255 248 26 255 248 26 255 248 26 255 248 26
255 248 26 209 184 26 209 184 26 209 184 26 226 201 26 226 201 26 227
201 26 51 26 26 51 26 26 51 26 26 255 88 253 255 88 253 255 88 253 255
89 253 175 149 26 169 121 48 169 121 48 169 121 48 169 121 48 169 121
48 169 121 48 169 121 48 169 121 48 255 253 45 255 253 45 255 253 45
255 253 45 255 253 45 255 253 45 255 253 45 255 253 56 255 253 56 255
253 55 255 253 55 173 148 26 173 147 26 173 147 26 189 147 42 255 245
26 255 245 26 255 245 26 255 245 26 255 238 148 255 238 148 255 238
148 255 238 148 255 238 148 255 238 147 203 178 26 203 178 26 203 177
26 202 177 26 202 176 26 163 137 26 255 236 26 255 236 26 255 237 26
185 159 26 144 118 26 144 118 26 94 69 26 255 230 26 255 230 26 255
230 26 255 230 26 255 252 26 255 252 26 249 223 26 249 223 26 249 223
26 249 223 26 87 62 26 87 62 26 243 217 26 243 217 26 243 217 26 243
217 26 240 215 26 166 141 26 0 0 124 0 0 124 0 0 124 0 0 124 0 0 123 0
0 123 0 0 123 0 0 123 0 0 123 0 0 123 0 0 122 0 0 122 0 0 122 248 126
0 247 126 0 247 126 0 247 126 0 247 126 0 247 126 0 247 126 0 247 126
0 246 126 0 246 126 0 246 126 0 246 126 0 246 126 0 246 126 0 246 126
0 245 126 0 245 126 0 245 126 0 245 126 0 245 126 0 245 126 0 0 0 119
0 0 119 244 126 0 244 126 0 244 126 0 244 126 0 244 126 0 244 126 0
243 126 0 243 126 0 243 126 0 243 126 0 243 126 0 243 126 0 243 126 0
255 116 0 255 116 0 255 116 0 255 116 0 255 116 0 0 0 153 0 0 153 0 0
153 0 0 153 0 0 153 0 0 152 0 0 152 0 0 152 0 0 152 0 0 152 0 0 152 0
0 152 255 117 0 255 117 0 255 117 0 255 117 0 255 117 0 255 117 0 255
118 0 255 118 0 255 118 0 0 0 150 0 0 150 0 0 150 0 0 149 0 0 149 0 0
149 0 0 149 0 0 149 0 0 149 0 0 148 0 0 148 0 0 148 0 0 148 0 0 148 0
0 148 0 0 147 0 0 147 0 0 147 0 0 147 0 0 147 255 119 0 255 119 0 255
119 0 255 120 0 255 120 0 255 120 0 255 120 0 255 120 0 255 120 0 255
120 0 255 120 0 255 120 0 255 120 0 255 120 0 255 120 0 255 120 0 255
120 0 255 121 0 255 121 0 255 121 0 255 107 245 255 108 245 255 108
244 255 108 244 255 108 244 255 108 244 255 113 249 255 113 249 255
114 249 255 114 249 255 114 248 255 114 248 255 114 248 107 82 26 107
82 26 125 82 43 125 90 35 125 91 35 125 91 35 125 91 35 125 91 35 125
91 35 188 55 133 188 55 133 188 55 133 188 55 133 187 39 148 173 26
148 255 248 26 255 248 26 255 248 26 255 248 26 255 248 26 255 248 26
209 184 26 209 184 26 226 201 26 226 201 26 226 201 26 51 26 26 51 26
26 51 26 26 51 26 26 255 88 253 255 88 253 255 88 253 175 149 26 175
149 26 146 120 26 146 120 26 169 121 48 169 121 48 169 121 48 169 121
48 169 121 48 169 121 48 169 121 48 255 253 45 255 253 45 255 253 45
255 253 45 255 253 45 255 253 56 255 253 56 255 253 56 255 253 55 255
253 55 255 253 55 255 253 55 173 148 26 173 148 26 173 147 26 173 147
26 189 147 42 189 147 42 255 238 148 255 238 148 255 238 148 255 238
148 255 238 147 204 178 26 203 178 26 203 177 26 203 177 26 202 177 26
202 176 26 163 137 26 255 236 26 185 159 26 184 159 26 184 159 26 184
159 26 255 229 26 255 230 26 255 230 26 255 230 26 255 230 26 255 230
26 255 230 26 249 223 26 249 223 26 249 223 26 249 223 26 249 223 26
51 26 26 87 62 26 88 62 26 240 215 26 240 215 26 240 215 26 167 141 26
0 0 125 0 0 125 0 0 124 0 0 124 0 0 124 0 0 124 0 0 124 0 0 124 0 0
123 0 0 123 0 0 123 0 0 123 0 0 123 0 0 123 249 126 0 249 126 0 249
126 0 248 126 0 248 126 0 248 126 0 248 126 0 248 126 0 248 126 0 248
126 0 247 126 0 247 126 0 247 126 0 247 126 0 247 126 0 247 126 0 247
126 0 246 126 0 246 126 0 246 126 0 246 126 0 0 0 119 0 0 119 0 0 119
0 0 119 0 0 119 0 0 119 0 0 118 0 0 118 0 0 118 0 0 118 0 0 118 244
126 0 244 126 0 244 126 0 244 126 0
255 116 0 255 116 0 0 0 154 0 0 154 0 0 154 0 0 154 0 0 154 0 0 154 0
0 153 0 0 153 0 0 153 0 0 153 0 0 153 0 0 153 0 0 153 0 0 152 0 0 152
0 0 152 0 0 152 0 0 152 0 0 152 0 0 151 0 0 151 255 118 0 0 0 151 0 0
151 0 0 151 0 0 150 0 0 150 0 0 150 0 0 150 0 0 150 0 0 150 0 0 149 0
0 149 0 0 149 0 0 149 0 0 149 0 0 149 0 0 148 0 0 148 0 0 148 0 0 148
0 0 148 255 120 0 255 120 0 255 120 0 255 120 0 255 120 0 255 120 0
255 120 0 255 120 0 255 120 0 255 120 0 255 121 0 255 121 0 255 121 0
255 121 0 255 121 0 255 121 0 255 121 0 255 121 0 255 121 0 255 121 0
255 121 0 0 0 144 187 26 162 255 108 244 255 108 244 255 108 244 255
108 244 255 113 249 255 113 249 255 114 249 255 114 249 255 114 248
255 114 248 107 82 26 107 82 26 107 82 26 107 82 26 125 82 43 125 90
35 125 90 35 125 90 35 125 91 35 125 91 35 125 91 35 187 55 133 187 55
133 188 55 133 188 55 132 187 39 148 173 26 148 255 248 26 255 248 26
255 248 26 255 248 26 255 248 26 255 248 26 141 115 26 226 200 26 226
201 26 226 201 26 226 201 26 51 26 26 51 26 26 51 26 26 255 88 253 255
88 253 255 88 253 255 88 253 174 149 26 175 149 26 175 149 26 146 120
26 146 120 26 169 120 48 169 121 48 169 121 48 169 121 48 169 121 48
169 121 48 169 121 48 255 253 45 255 253 45 255 253 45 255 253 45 255
253 56 255 253 56 255 253 55 255 253 55 255 253 55 255 253 55 255 253
55 255 253 55 255 253 55 173 148 26 173 148 26 173 147 26 173 147 26
176 151 26 255 238 148 255 238 148 255 238 148 255 238 147 204 178 26
203 178 26 203 177 26 203 177 26 202 177 26 202 176 26 201 176 26 184
159 26 184 159 26 184 159 26 184 159 26 255 229 26 255 229 26 255 229
26 255 230 26 255 230 26 255 230 26 248 223 26 248 223 26 249 223 26
249 223 26 249 223 26 249 223 26 249 223 26 249 223 26 77 51 26 240
215 26 240 215 26 240 215 26 240 215 26 166 141 26 252 127 0 252 127 0
252 127 0 252 127 0 0 0 125 0 0 124 0 0 124 0 0 124 0 0 124 0 0 124 0
0 124 0 0 124 0 0 123 0 0 123 250 127 0 250 127 0 250 127 0 250 127 0
249 127 0 249 127 0 249 127 0 249 127 0 249 127 0 249 127 0 249 127 0
248 127 0 248 127 0 248 127 0 248 127 0 248 127 0 248 127 0 248 127 0
247 127 0 247 127 0 247 127 0 0 0 120 0 0 120 0 0 120 0 0 119 0 0 119
0 0 119 0 0 119 0 0 119 0 0 119 0 0 119 0 0 118 0 0 118 0 0 118 0 0
118 0 0 118
0 0 155 0 0 155 0 0 155 0 0 155 0 0 155 0 0 155 0 0 154 0 0 154 0 0
154 0 0 154 0 0 154 0 0 154 0 0 153 0 0 153 0 0 153 0 0 153 0 0 153 0
0 153 0 0 153 0 0 152 0 0 152 255 119 0 255 119 0 255 119 0 255 119 0
255 119 0 255 119 0 255 119 0 255 119 0 255 119 0 255 119 0 0 0 150 0
0 150 0 0 150 0 0 150 0 0 150 0 0 150 0 0 149 0 0 149 0 0 149 0 0 149
0 0 149 255 120 0 255 120 0 255 120 0 255 120 0 255 121 0 255 121 0
255 121 0 255 121 0 255 121 0 255 121 0 255 121 0 255 121 0 255 121 0
255 121 0 255 121 0 255 121 0 255 121 0 255 121 0 255 122 0 255 122 0
255 122 0 0 0 145 0 0 145 0 0 145 0 0 144 187 26 162 255 26 244 255
108 244 255 108 244 255 113 249 255 113 249 255 114 249 124 81 43 107
81 26 107 81 26 107 81 26 107 82 26 107 82 26 107 82 26 124 82 43 124
82 43 125 90 35 125 90 35 125 90 35 125 90 35 125 90 34 187 55 132 187
55 132 187 55 132 187 55 132 187 39 148 173 26 148 173 26 148 255 248
26 255 248 26 255 248 26 255 248 26 255 248 26 255 248 26 169 143 26
226 200 26 226 201 26 226 201 26 51 26 26 51 26 26 51 26 26 255 88 253
255 88 253 255 88 253 174 149 26 174 149 26 174 149 26 174 149 26 146
120 26 146 120 26 146 120 26 146 120 26 169 120 48 169 121 48 169 121
48 169 121 48 169 121 48 168 121 48 168 121 48 255 253 45 255 253 56
255 253 56 255 253 56 255 253 55 255 253 55 255 253 55 255 253 55 255
253 55 255 253 55 255 253 55 255 253 55 255 253 55 173 148 26 173 148
26 177 151 26 177 151 26 255 238 26 255 238 148 204 178 26 204 178 26
203 178 26 203 177 26 202 177 26 202 177 26 202 176 26 201 176 26 123
97 26 184 159 26 184 159 26 255 229 26 255 229 26 255 229 26 255 229
26 255 229 26 248 223 26 248 223 26 248 223 26 248 223 26 248 223 26
248 223 26 248 223 26 238 212 26 238 212 26 51 26 26 77 51 26 240 214
26 240 214 26 240 214 26 240 215 26 253 127 0 253 127 0 253 127 0 253
127 0 253 127 0 253 127 0 252 127 0 252 127 0 252 127 0 252 128 0 252
128 0 252 128 0 252 128 0 251 128 0 251 128 0 251 128 0 251 128 0 251
128 0 251 128 0 251 128 0 251 128 0 250 128 0 250 128 0 250 128 0 250
128 0 250 128 0 250 128 0 250 128 0 249 128 0 249 128 0 249 128 0 249
128 0 249 128 0 249 128 0 249 128 0 0 0 121 0 0 120 0 0 120 0 0 120 0
0 120 0 0 120 0 0 120 0 0 120 0 0 119 0 0 119 0 0 119 0 0 119 0 0 119
0 0 119 0 0 118 0 0 118
0 0 156 0 0 156 0 0 156 0 0 156 0 0 155 0 0 155 0 0 155 0 0 155 0 0
155 0 0 155 0 0 154 0 0 154 0 0 154 0 0 154 0 0 154 0 0 154 0 0 153 0
0 153 255 119 0 255 119 0 255 119 0 255 119 0 255 119 0 255 119 0 255
119 0 255 120 0 255 120 0 255 120 0 255 120 0 255 120 0 255 120 0 255
120 0 255 120 0 255 120 0 255 120 0 255 120 0 255 120 0 255 120 0 0 0
150 0 0 150 255 121 0 255 121 0 255 121 0 255 121 0 255 121 0 255 121
0 255 121 0 255 121 0 255 121 0 255 121 0 255 121 0 255 122 0 255 122
0 255 122 0 255 122 0 255 122 0 255 122 0 255 122 0 255 122 0 255 122
0 255 122 0 0 0 146 0 0 146 0 0 146 0 0 145 0 0 145 0 0 145 187 26 162
187 26 162 255 26 244 255 108 244 255 113 249 107 81 26 107 81 26 107
81 26 107 81 26 107 81 26 107 81 26 107 81 26 107 81 26 107 82 26 124
82 43 124 82 43 125 90 35 255 151 237 255 151 237 255 151 236 255 151
236 255 183 255 255 183 255 255 184 255 255 184 255 187 39 148 173 26
148 173 26 148 187 39 147 255 248 26 255 248 26 255 248 26 255 248 26
255 248 26 255 252 26 169 144 26 226 201 26 51 26 26 51 26 26 51 26 26
255 88 253 255 88 253 255 88 253 255 88 253 174 149 26 174 149 26 174
149 26 174 149 26 174 149 26 146 120 26 146 120 26 146 120 26 146 120
26 146 120 26 168 120 48 168 120 48 168 121 48 168 121 48 168 121 48
148 80 68 148 80 68 255 253 56 255 253 55 255 253 55 255 253 55 255
253 55 255 253 55 255 253 55 255 253 55 255 253 55 255 253 55 255 253
55 255 253 55 255 253 55 178 152 26 177 152 26 177 151 26 177 151 26
204 178 26 204 178 26 203 178 26 203 177 26 202 177 26 202 177 26 202
176 26 201 176 26 122 97 26 122 97 26 238 212 26 238 212 26 255 229 26
255 229 26 255 229 26 237 212 26 237 212 26 248 223 26 248 223 26 248
223 26 237 212 26 237 212 26 238 212 26 238 212 26 238 212 26 51 26 26
77 51 26 240 214 26 240 214 26 240 214 26 166 141 26 254 128 0 254 128
0 254 128 0 254 128 0 254 128 0 254 128 0 254 128 0 253 128 0 253 128
0 253 128 0 253 128 0 253 128 0 253 128 0 253 128 0 0 0 124 0 0 124 0
0 124 0 0 124 0 0 124 0 0 123 0 0 123 0 0 123 0 0 123 251 128 0 251
128 0 251 128 0 251 128 0 251 128 0 251 128 0 250 128 0 250 128 0 250
128 0 250 128 0 250 128 0 250 128 0 0 0 121 0 0 121 0 0 121 0 0 121 0
0 120 0 0 120 0 0 120 0 0 120 0 0 120 0 0 120 0 0 120 0 0 119 0 0 119
0 0 119 0 0 119 0 0 119
0 0 157 0 0 157 0 0 156 0 0 156 0 0 156 0 0 156 0 0 156 0 0 156 0 0
155 0 0 155 0 0 155 0 0 155 0 0 155 0 0 155 0 0 154 0 0 154 255 119 0
255 119 0 255 120 0 255 120 0 255 120 0 255 120 0 255 120 0 255 120 0
255 120 0 255 120 0 255 120 0 255 120 0 255 120 0 255 120 0 255 120 0
255 121 0 255 121 0 255 121 0 255 121 0 255 121 0 255 121 0 255 121 0
0 0 150 0 0 150 0 0 150 0 0 150 0 0 150 0 0 150 0 0 149 255 122 0 255
122 0 255 122 0 255 122 0 255 122 0 255 122 0 255 122 0 255 122 0 255
122 0 255 122 0 255 122 0 255 122 0 255 123 0 255 123 0 0 0 147 0 0
147 0 0 146 0 0 146 0 0 146 0 0 146 0 0 146 0 0 146 0 0 145 187 26 161
187 26 162 192 26 166 191 26 166 118 93 26 106 81 26 107 81 26 107 81
26 107 81 26 107 81 26 107 81 26 107 81 26 255 105 238 255 105 238 255
105 238 255 151 237 255 151 237 255 151 237 255 151 236 255 151 236
255 183 255 255 183 255 255 184 255 255 197 180 255 198 180 187 39 147
173 26 147 173 26 147 255 248 26 255 248 26 255 248 26 255 248 26 255
252 26 255 252 26 255 252 26 169 144 26 169 144 26 51 26 26 255 106
251 255 106 251 255 88 253 255 88 253 174 148 26 174 148 26 174 148 26
174 149 26 174 149 26 174 149 26 145 120 26 146 120 26 146 120 26 146
120 26 146 120 26 146 120 26 168 120 48 168 120 48 168 120 48 168 120
48 147 80 68 148 80 68 148 80 68 148 80 67 255 253 55 255 253 55 255
253 55 255 253 55 255 253 55 255 253 55 255 253 55 255 253 55 255 253
55 255 253 55 255 253 55 255 253 55 255 254 66 158 132 26 177 152 26
177 152 26 203 178 26 203 178 26 203 177 26 202 177 26 202 176 26 202
176 26 201 176 26 122 97 26 237 212 26 237 212 26 238 212 26 238 212
26 255 229 26 237 211 26 237 212 26 237 212 26 237 212 26 237 212 26
237 212 26 237 212 26 237 212 26 237 212 26 237 212 26 238 212 26 77
51 26 240 214 26 240 214 26 240 214 26 240 214 26 166 140 26 255 129 0
255 129 0 255 129 0 255 129 0 255 129 0 255 129 0 255 129 0 255 129 0
254 129 0 254 129 0 254 129 0 254 129 0 254 129 0 0 0 125 0 0 125 0 0
125 0 0 124 0 0 124 0 0 124 0 0 124 0 0 124 0 0 124 0 0 124 0 0 123 0
0 123 0 0 123 0 0 123 0 0 123 0 0 123 0 0 122 0 0 122 0 0 122 251 129
0 251 129 0 251 129 0 0 0 122 0 0 121 0 0 121 0 0 121 0 0 121 0 0 121
0 0 121 0 0 121 0 0 120 0 0 120 0 0 120 0 0 120 0 0 120 0 0 120 0 0
119 0 0 119
0 0 157 0 0 157 0 0 157 0 0 157 0 0 157 0 0 156 0 0 156 0 0 156 0 0
156 0 0 156 0 0 156 0 0 156 0 0 155 0 0 155 255 120 0 255 120 0 255
120 0 255 120 0 255 120 0 255 120 0 255 120 0 255 120 0 255 120 0 255
121 0 255 121 0 255 121 0 255 121 0 255 121 0 255 121 0 255 121 0 255
121 0 255 121 0 255 121 0 255 121 0 255 121 0 255 121 0 0 0 151 0 0
151 0 0 151 0 0 151 0 0 151 0 0 150 0 0 150 0 0 150 0 0 150 0 0 150 0
0 150 0 0 149 0 0 149 0 0 149 0 0 149 0 0 149 255 123 0 255 123 0 255
123 0 255 123 0 255 123 0 0 0 148 0 0 148 0 0 147 0 0 147 0 0 147 0 0
147 0 0 147 0 0 146 0 0 146 0 0 146 0 0 146 187 26 161 187 26 161 201
26 175 192 26 166 255 93 166 119 93 26 119 93 26 119 94 26 119 94 26
255 104 238 255 104 238 255 104 238 255 104 238 255 105 238 255 105
238 255 151 237 255 151 237 255 151 236 82 56 26 251 103 148 251 103
148 255 184 255 255 197 180 255 197 180 255 198 180 255 198 180 173 26
147 173 26 147 173 26 147 255 248 26 255 248 26 255 252 26 255 252 26
255 252 26 255 252 26 255 252 26 170 144 26 255 106 251 255 106 251
255 106 251 255 88 253 255 88 253 174 148 26 174 148 26 174 148 26 174
148 26 174 148 26 174 148 26 174 148 26 244 219 26 245 219 26 245 219
26 245 219 26 255 242 26 168 120 48 168 120 48 168 120 48 168 120 48
168 120 48 147 80 67 147 80 67 148 80 67 148 80 67 147 80 67 255 253
55 255 253 55 255 253 55 255 253 55 255 253 55 255 253 55 255 253 55
255 253 55 255 253 55 255 253 55 255 254 66 255 254 66 255 254 66 255
254 65 171 132 39 214 189 26 203 177 26 202 177 26 202 176 26 201 176
26 201 175 26 230 205 26 237 212 26 237 212 26 237 212 26 238 212 26
245 220 26 237 211 26 237 211 26 237 211 26 245 220 26 245 220 26 246
220 26 237 212 26 237 212 26 237 212 26 237 212 26 51 26 26 77 51 26
239 214 26 239 214 26 239 214 26 240 214 26 255 129 0 255 129 0 255
129 0 255 129 0 255 129 0 255 129 0 255 129 0 255 129 0 255 129 0 255
129 0 255 129 0 255 129 0 255 129 0 255 129 0 0 0 125 0 0 125 0 0 125
0 0 125 0 0 125 0 0 125 0 0 124 0 0 124 0 0 124 0 0 124 0 0 124 0 0
124 0 0 124 0 0 123 0 0 123 0 0 123 0 0 123 0 0 123 0 0 123 0 0 123 0
0 122 0 0 122 252 130 0 252 130 0 252 130 0 251 130 0 251 130 0 251
130 0 0 0 121 0 0 121 0 0 121 0 0 121 0 0 121 0 0 120 0 0 120 0 0 120
0 0 120 0 0 120
255 119 0 255 119 0 255 119 0 255 119 0 0 0 157 0 0 157 0 0 157 0 0
157 0 0 157 0 0 156 0 0 156 255 120 0 255 120 0 255 120 0 255 120 0
255 120 0 255 121 0 255 121 0 255 121 0 255 121 0 255 121 0 255 121 0
255 121 0 255 121 0 255 121 0 255 121 0 255 121 0 255 121 0 255 121 0
255 122 0 255 122 0 255 122 0 255 122 0 0 0 152 0 0 152 0 0 152 0 0
152 0 0 152 0 0 152 0 0 151 0 0 151 0 0 151 0 0 151 0 0 151 0 0 150 0
0 150 0 0 150 0 0 150 0 0 150 0 0 150 0 0 149 0 0 149 0 0 149 0 0 149
0 0 149 0 0 149 255 124 0 255 124 0 255 124 0 255 124 0 0 0 148 0 0
148 0 0 147 0 0 147 0 0 147 0 0 147 0 0 147 0 0 146 186 26 161 187 26
161 187 26 161 253 78 175 201 26 175 119 93 26 119 93 26 119 93 26 255
94 166 255 104 238 255 104 238 255 104 238 255 104 238 255 105 238 255
105 238 51 26 26 51 26 26 223 197 26 255 198 205 255 227 168 255 227
168 251 103 148 225 86 139 255 197 180 255 197 180 255 198 179 255 198
179 173 26 147 172 26 147 255 248 26 255 252 26 255 252 26 255 252 31
255 252 31 255 252 31 255 252 31 255 106 251 255 106 251 255 106 251
255 106 251 255 88 253 173 148 26 174 148 26 174 148 26 174 148 26 174
148 26 174 148 26 207 182 26 207 182 26 244 219 26 244 219 26 255 219
153 255 219 153 255 242 137 255 242 137 255 242 137 255 242 136 168
120 48 168 120 48 147 80 67 147 80 67 147 80 67 147 80 67 148 80 67
147 80 67 147 80 67 255 253 55 255 253 55 255 253 55 255 253 55 255
253 55 255 253 55 255 253 55 255 254 66 255 254 66 255 254 66 255 254
65 255 254 65 255 254 65 255 254 65 255 254 65 213 188 26 202 176 26
201 176 26 230 204 26 230 205 26 237 212 26 237 212 26 237 212 26 245
220 26 245 220 26 245 220 26 237 211 26 245 220 26 245 220 26 245 220
26 245 220 26 245 220 26 245 220 26 237 212 26 237 212 26 77 51 26 77
51 26 239 214 26 239 214 26 239 214 26 166 140 26 255 130 0 255 130 0
255 130 0 255 130 0 255 130 0 255 130 0 255 130 0 255 130 0 255 130 0
255 130 0 255 130 0 255 130 0 255 130 0 255 130 0 0 0 126 0 0 126 0 0
126 0 0 125 0 0 125 0 0 125 0 0 125 0 0 125 0 0 125 0 0 125 0 0 124 0
0 124 0 0 124 0 0 124 0 0 124 0 0 124 0 0 123 0 0 123 0 0 123 0 0 123
0 0 123 0 0 123 253 130 0 253 130 0 253 130 0 253 130 0 252 130 0 252
130 0 252 130 0 252 131 0 252 131 0 252 131 0 252 131 0 251 131 0 251
131 0 251 131 0 251 131 0 0 0 120
255 120 0 255 120 0 255 120 0 255 120 0 255 120 0 255 120 0 255 120 0
255 120 0 255 120 0 0 0 157 0 0 157 255 121 0 255 121 0 255 121 0 255
121 0 255 121 0 255 121 0 255 121 0 255 121 0 255 121 0 255 121 0 255
122 0 255 122 0 255 122 0 255 122 0 255 122 0 255 122 0 255 122 0 255
122 0 255 122 0 255 122 0 0 0 153 0 0 153 0 0 153 0 0 153 0 0 153 0 0
152 0 0 152 0 0 152 0 0 152 0 0 152 0 0 152 0 0 151 0 0 151 0 0 151 0
0 151 0 0 151 0 0 150 0 0 150 0 0 150 0 0 150 0 0 150 0 0 150 0 0 149
255 124 0 255 124 0 255 124 0 255 124 0 255 124 0 255 124 0 255 124 0
255 125 0 255 125 0 255 125 0 255 125 0 255 125 0 255 125 0 0 0 147 0
0 147 186 26 161 186 26 161 253 78 175 253 78 175 253 78 175 119 93 26
119 93 26 255 93 166 255 94 165 255 197 59 51 26 26 255 116 243 255
116 243 255 197 206 255 197 206 255 197 205 255 198 205 255 198 205
255 227 168 255 227 168 255 227 168 255 227 168 225 86 139 255 197 180
255 198 179 255 198 179 161 26 136 172 26 147 172 26 147 255 252 31
255 252 31 255 252 31 255 252 31 255 252 30 255 252 30 255 106 251 255
106 251 255 106 251 255 106 251 173 148 26 173 148 26 173 148 26 173
148 26 173 148 26 207 181 26 207 182 26 207 182 26 207 182 26 255 182
171 255 219 153 255 219 153 255 219 153 255 242 137 255 242 137 255
242 137 255 242 136 255 242 136 255 251 107 255 251 107 147 80 67 147
80 67 147 80 67 147 80 67 147 80 67 147 80 67 147 80 67 147 80 67 255
253 55 255 253 55 255 253 55 255 253 55 255 253 55 255 254 66 255 254
66 255 254 66 255 254 65 255 254 65 255 254 65 255 254 65 255 254 26
180 154 26 213 187 26 212 187 26 230 204 26 230 204 26 230 205 26 237
212 26 245 220 26 245 220 26 245 220 26 245 220 26 245 220 26 245 220
26 245 220 26 245 220 26 245 220 26 245 220 26 245 220 26 245 220 26
51 26 26 77 51 26 239 214 26 239 214 26 239 214 26 239 214 26 165 140
26 0 0 129 0 0 128 0 0 128 0 0 128 255 131 0 255 131 0 255 131 0 255
131 0 255 131 0 255 131 0 255 131 0 255 131 0 255 131 0 0 0 127 0 0
126 0 0 126 0 0 126 0 0 126 0 0 126 0 0 126 0 0 125 0 0 125 0 0 125 0
0 125 0 0 125 0 0 125 0 0 125 0 0 124 0 0 124 0 0 124 0 0 124 0 0 124
0 0 124 0 0 123 0 0 123 0 0 123 254 131 0 254 131 0 254 131 0 254 131
0 254 131 0 253 131 0 253 131 0 253 131 0 253 131 0 253 131 0 253 131
0 253 131 0 252 131 0 252 131 0 252 131 0 252 131 0
255 120 0 255 120 0 255 121 0 255 121 0 255 121 0 255 121 0 0 0 158 0
0 158 0 0 158 0 0 158 0 0 157 0 0 157 0 0 157 0 0 157 0 0 157 0 0 157
0 0 156 255 122 0 255 122 0 255 122 0 255 122 0 255 122 0 255 122 0
255 122 0 255 122 0 255 122 0 255 122 0 255 123 0 255 123 0 0 0 154 0
0 154 0 0 154 0 0 154 0 0 153 0 0 153 0 0 153 0 0 153 0 0 153 0 0 153
0 0 152 0 0 152 0 0 152 0 0 152 0 0 152 0 0 152 0 0 151 0 0 151 0 0
151 0 0 151 0 0 151 0 0 150 0 0 150 255 124 0 255 125 0 255 125 0 255
125 0 255 125 0 255 125 0 255 125 0 255 125 0 255 125 0 255 125 0 255
125 0 255 125 0 255 125 0 255 125 0 255 125 0 255 126 0 255 126 0 186
26 161 186 26 161 253 78 175 253 78 175 253 78 175 253 78 175 255 93
166 255 93 165 255 196 59 255 196 59 122 96 26 255 116 243 255 116 242
255 197 206 255 197 206 255 197 205 255 198 205 255 227 168 255 227
168 255 227 168 255 227 168 255 227 168 255 227 168 225 86 139 255 208
136 255 208 136 255 208 136 172 26 147 172 26 147 172 26 147 255 252
31 255 252 31 255 252 30 255 252 30 255 252 30 255 106 251 255 106 251
255 106 251 255 106 251 156 130 26 156 130 26 156 131 26 156 131 26
165 139 26 207 181 26 207 182 26 207 182 26 255 182 171 191 166 26 200
164 36 200 164 36 200 164 36 110 33 77 110 34 77 255 242 136 255 242
136 255 242 136 255 251 107 255 251 107 255 251 107 255 251 107 255
251 107 147 80 67 147 80 67 147 80 67 147 80 67 147 80 67 147 80 67
147 80 67 255 253 55 255 253 55 255 254 66 255 254 66 255 254 66 255
254 65 255 254 26 255 254 26 255 254 26 179 154 26 179 154 26 180 154
26 213 187 26 212 187 26 230 204 26 230 204 26 254 228 26 254 228 26
245 219 26 245 219 26 245 219 26 254 228 26 254 228 26 245 220 26 245
220 26 245 220 26 245 220 26 245 220 26 245 220 26 51 26 26 200 175 26
77 51 26 239 213 26 239 213 26 239 214 26 166 140 26 0 0 129 0 0 129 0
0 129 0 0 129 0 0 129 0 0 128 0 0 128 0 0 128 0 0 128 0 0 128 0 0 128
0 0 127 0 0 127 255 131 0 0 0 127 0 0 127 0 0 127 0 0 127 0 0 126 0 0
126 0 0 126 0 0 126 0 0 126 0 0 126 0 0 125 0 0 125 0 0 125 0 0 125 0
0 125 0 0 125 0 0 125 0 0 124 0 0 124 0 0 124 0 0 124 0 0 124 0 0 124
255 132 0 255 132 0 255 132 0 255 132 0 255 132 0 254 132 0 254 132 0
254 132 0 254 132 0 254 132 0 254 132 0 254 132 0 254 132 0 253 132 0
253 132 0 253 132 0
255 121 0 255 121 0 255 121 0 255 121 0 0 0 159 0 0 159 0 0 159 0 0
158 0 0 158 0 0 158 0 0 158 0 0 158 0 0 158 0 0 157 0 0 157 0 0 157 0
0 157 0 0 157 0 0 157 0 0 156 0 0 156 0 0 156 0 0 156 0 0 156 255 123
0 255 123 0 255 123 0 0 0 155 0 0 155 0 0 155 0 0 154 0 0 154 0 0 154
0 0 154 0 0 154 0 0 154 0 0 153 0 0 153 0 0 153 0 0 153 0 0 153 0 0
153 0 0 152 0 0 152 0 0 152 0 0 152 0 0 152 0 0 152 0 0 151 0 0 151
255 125 0 255 125 0 255 125 0 255 125 0 255 125 0 255 125 0 255 125 0
255 125 0 255 125 0 255 126 0 255 126 0 255 126 0 255 126 0 255 126 0
174 26 0 174 26 0 174 26 0 173 26 0 173 26 0 173 26 0 186 26 160 186
26 161 253 78 175 253 78 175 253 78 175 253 78 175 253 78 175 255 196
59 255 196 59 255 116 243 255 116 243 255 116 242 255 152 168 255 152
168 255 152 167 255 152 167 255 152 167 255 152 167 255 227 168 255
227 168 255 227 168 255 227 168 255 222 46 180 26 155 255 208 136 255
208 135 255 208 135 186 39 147 172 26 147 172 26 147 172 26 147 255
252 30 255 252 30 255 252 30 255 106 251 255 106 251 155 130 26 156
130 26 156 130 26 156 130 26 156 130 26 156 131 26 165 139 26 165 139
26 207 181 26 255 182 171 191 165 26 191 165 26 252 227 26 255 227 164
255 227 164 255 227 164 255 254 47 72 26 46 110 33 77 255 242 136 255
251 107 255 251 107 255 251 107 255 251 107 255 251 107 255 251 107
255 251 107 255 251 107 255 251 107 147 80 67 147 80 67 147 80 67 147
80 67 130 81 49 255 254 26 255 254 26 255 254 26 255 254 26 255 254 26
179 154 26 179 154 26 179 154 26 179 154 26 179 154 26 212 187 26 255
254 26 254 228 26 254 228 26 254 228 26 254 228 26 254 228 26 245 219
26 254 228 26 254 228 26 254 228 26 245 219 26 245 219 26 245 219 26
245 219 26 245 219 26 200 175 26 200 175 26 200 175 26 225 200 26 225
200 26 239 213 26 239 213 26 0 0 130 0 0 130 0 0 130 0 0 129 0 0 129 0
0 129 0 0 129 0 0 129 0 0 129 0 0 128 0 0 128 0 0 128 0 0 128 0 0 128
0 0 128 255 132 0 255 132 0 255 132 0 255 132 0 255 132 0 255 132 0
255 132 0 255 132 0 0 0 126 0 0 126 0 0 126 0 0 126 0 0 126 0 0 125 0
0 125 0 0 125 0 0 125 0 0 125 0 0 125 0 0 125 0 0 124 0 0 124 255 132
0 255 132 0 255 132 0 255 132 0 255 132 0 255 132 0 255 132 0 255 132
0 255 132 0 255 132 0 255 132 0 255 132 0 255 132 0 255 132 0 254 132
0 254 132 0 254 132 0
255 121 0 255 122 0 0 0 160 0 0 160 0 0 159 0 0 159 0 0 159 0 0 159 0
0 159 0 0 159 0 0 158 0 0 158 0 0 158 0 0 158 0 0 158 0 0 158 0 0 157
0 0 157 0 0 157 0 0 157 0 0 157 0 0 157 0 0 156 0 0 156 0 0 156 255
123 0 255 124 0 255 124 0 255 124 0 255 124 0 0 0 155 0 0 155 0 0 155
0 0 154 0 0 154 0 0 154 0 0 154 0 0 154 0 0 154 0 0 153 0 0 153 0 0
153 0 0 153 0 0 153 0 0 153 0 0 152 0 0 152 0 0 152 255 125 0 255 125
0 255 125 0 255 125 0 255 126 0 255 126 0 176 26 0 176 26 0 176 26 0
176 26 0 176 26 0 175 26 0 175 26 0 175 26 0 175 26 0 175 26 0 174 26
0 174 26 0 174 26 0 174 26 0 174 26 0 174 26 0 186 26 160 186 26 160
253 78 175 253 78 175 253 78 175 253 78 175 253 78 174 255 213 77 255
213 77 255 116 243 255 116 243 255 26 242 255 151 168 255 152 167 255
152 167 255 152 167 255 152 167 255 152 167 255 152 167 253 227 26 255
222 46 255 222 46 255 222 46 72 26 46 255 208 136 255 208 135 255 208
135 185 39 146 185 39 146 186 39 146 186 39 146 172 26 146 255 252 30
255 106 251 155 130 26 155 130 26 155 130 26 155 130 26 156 130 26 156
130 26 156 130 26 164 139 26 164 139 26 165 139 26 218 192 26 191 165
26 252 227 26 255 227 164 255 227 164 255 227 164 255 227 164 255 227
164 255 254 47 255 254 46 255 254 46 255 254 46 51 26 26 51 26 26 51
26 26 255 251 107 255 251 107 255 251 107 255 251 107 255 251 107 255
251 107 255 253 61 130 81 49 130 81 49 130 81 49 130 81 49 106 81 26
106 81 26 107 81 26 179 153 26 179 153 26 179 154 26 179 154 26 179
154 26 179 154 26 179 154 26 51 26 26 255 254 26 213 187 26 253 228 26
253 228 26 253 228 26 194 168 26 253 228 26 254 228 26 254 228 26 254
228 26 254 228 26 245 219 26 245 219 26 51 26 26 200 175 26 200 175 26
200 175 26 225 200 26 225 200 26 225 200 26 225 200 26 0 0 130 0 0 130
0 0 130 0 0 130 0 0 130 0 0 130 0 0 129 0 0 129 0 0 129 0 0 129 0 0
129 0 0 129 0 0 129 0 0 128 0 0 128 255 133 0 255 133 0 255 133 0 255
133 0 255 133 0 255 133 0 255 133 0 255 133 0 255 133 0 255 133 0 255
133 0 255 133 0 255 133 0 255 133 0 255 133 0 255 133 0 255 133 0 0 0
125 0 0 125 0 0 125 0 0 125 0 0 125 0 0 125 255 133 0 255 133 0 255
133 0 255 133 0 255 133 0 255 133 0 255 133 0 255 133 0 255 133 0 255
133 0 255 133 0 255 133 0 255 133 0 255 133 0 255 133 0 255 133 0 255
133 0
0 0 161 0 0 160 0 0 160 0 0 160 0 0 160 0 0 160 0 0 160 0 0 159 0 0
159 0 0 159 0 0 159 0 0 159 0 0 159 0 0 158 0 0 158 0 0 158 0 0 158 0
0 158 0 0 158 0 0 157 0 0 157 0 0 157 0 0 157 255 124 0 255 124 0 255
124 0 255 124 0 255 124 0 255 124 0 255 124 0 255 124 0 255 125 0 255
125 0 255 125 0 255 125 0 255 125 0 255 125 0 0 0 154 0 0 154 0 0 154
0 0 154 0 0 154 0 0 153 0 0 153 0 0 153 0 0 153 255 126 0 255 126 0
255 126 0 255 126 0 255 126 0 177 26 0 177 26 0 177 26 0 177 26 0 177
26 0 176 26 0 176 26 0 176 26 0 176 26 0 176 26 0 175 26 0 175 26 0
175 26 0 175 26 0 175 26 0 175 26 0 174 26 0 174 26 0 0 0 149 0 0 148
186 26 160 252 78 175 252 78 174 252 78 174 253 78 174 253 78 174 255
213 77 255 213 77 255 116 243 255 26 242 255 151 168 255 151 168 255
151 167 255 152 167 255 152 167 255 152 167 255 152 167 255 152 167
255 152 167 247 222 26 247 222 26 255 222 46 255 222 46 255 208 136
255 208 135 255 208 135 255 208 135 185 39 146 185 39 146 185 39 146
186 39 146 229 93 136 255 151 110 219 129 90 155 130 26 155 130 26 155
130 26 155 130 26 156 130 26 156 130 26 164 139 26 255 139 181 255 139
181 217 192 26 110 85 26 255 227 165 255 227 164 255 227 164 255 227
164 255 227 164 255 197 143 255 254 47 255 254 46 255 254 46 255 254
46 255 254 46 255 254 46 242 216 26 242 216 26 241 216 26 51 26 26 51
26 26 51 26 26 255 253 61 255 253 61 255 253 61 130 81 49 130 81 49
106 81 26 106 81 26 106 81 26 179 153 26 179 153 26 179 153 26 179 153
26 179 153 26 179 153 26 179 153 26 179 153 26 255 254 26 255 254 26
213 187 26 253 228 26 193 168 26 194 168 26 253 228 26 253 228 26 253
228 26 253 228 26 253 228 26 253 228 26 51 26 26 200 174 26 200 175 26
200 175 26 225 200 26 225 200 26 225 199 26 225 199 26 0 0 131 0 0 131
0 0 131 0 0 131 0 0 131 0 0 130 0 0 130 0 0 130 0 0 130 0 0 130 0 0
130 0 0 129 0 0 129 0 0 129 0 0 129 0 0 129 0 0 129 255 133 0 255 133
0 255 133 0 255 133 0 255 133 0 255 133 0 255 133 0 255 133 0 255 133
0 255 133 0 255 133 0 255 133 0 255 133 0 255 133 0 255 133 0 255 133
0 255 133 0 255 133 0 255 133 0 255 133 0 255 133 0 255 133 0 255 134
0 0 0 125 0 0 125 0 0 125 255 134 0 255 134 0 255 134 0 255 134 0 255
134 0 255 134 0 255 134 0 255 134 0 255 134 0 255 134 0 255 134 0 255
134 0 255 134 0 255 134 0
0 0 161 0 0 161 0 0 161 0 0 161 0 0 160 0 0 160 0 0 160 0 0 160 0 0
160 0 0 160 0 0 159 0 0 159 0 0 159 0 0 159 0 0 159 0 0 159 0 0 158 0
0 158 0 0 158 0 0 158 255 124 0 255 124 0 255 124 0 255 124 0 255 124
0 255 125 0 255 125 0 255 125 0 255 125 0 255 125 0 255 125 0 255 125
0 255 125 0 255 125 0 255 125 0 255 125 0 255 125 0 255 126 0 255 126
0 255 126 0 255 126 0 255 126 0 255 126 0 0 0 154 255 126 0 255 126 0
255 126 0 255 126 0 255 126 0 178 26 0 178 26 0 178 26 0 178 26 0 177
26 0 177 26 0 177 26 0 177 26 0 177 26 0 176 26 0 176 26 0 176 26 0
176 26 0 176 26 0 176 26 0 175 26 0 175 26 0 175 26 0 175 26 0 0 0 149
0 0 149 0 0 149 0 0 149 143 26 117 199 54 145 252 78 174 252 78 174
252 78 174 255 213 77 255 213 77 255 48 220 255 26 242 255 151 168 255
151 167 255 151 167 255 151 167 255 152 167 255 152 167 255 152 167
255 152 167 255 152 167 255 152 167 247 221 26 247 222 26 247 222 26
72 26 46 255 210 85 255 210 85 255 211 84 228 92 136 228 92 136 228 92
136 228 92 136 228 93 136 255 151 110 255 152 110 255 152 110 255 152
110 255 152 110 219 130 90 220 130 90 220 130 90 255 139 181 255 139
181 255 139 181 217 192 26 255 85 244 255 85 244 255 227 164 255 227
164 255 196 143 255 196 143 255 197 143 255 222 116 255 222 116 255
222 116 255 254 46 255 254 46 242 216 26 241 216 26 241 216 26 241 216
26 241 216 26 122 97 26 122 97 26 255 253 61 255 253 61 255 253 61 130
80 49 129 80 49 106 81 26 179 153 26 179 153 26 179 153 26 179 153 26
179 153 26 179 153 26 179 153 26 179 153 26 179 153 26 51 26 26 238
212 26 238 212 26 193 168 26 193 168 26 193 168 26 253 228 26 253 228
26 253 228 26 253 228 26 171 145 26 171 145 26 255 250 26 200 174 26
200 174 26 200 175 26 225 199 26 225 199 26 225 199 26 225 199 26 0 0
132 0 0 132 0 0 131 0 0 131 0 0 131 0 0 131 0 0 131 0 0 131 0 0 131 0
0 130 0 0 130 0 0 130 0 0 130 0 0 130 0 0 130 0 0 129 0 0 129 255 134
0 255 134 0 255 134 0 255 134 0 255 134 0 255 134 0 255 134 0 255 134
0 255 134 0 255 134 0 255 134 0 255 134 0 255 134 0 255 134 0 255 134
0 255 134 0 255 134 0 255 134 0 255 134 0 255 134 0 255 134 0 255 134
0 255 134 0 255 134 0 0 0 125 0 0 125 0 0 125 0 0 125 0 0 125 0 0 125
0 0 125 0 0 124 0 0 124 0 0 124 0 0 124 255 134 0 255 134 0 255 134 0
255 134 0 255 134 0 255 134 0
0 0 162 0 0 161 0 0 161 0 0 161 0 0 161 0 0 161 0 0 161 0 0 160 0 0
160 0 0 160 0 0 160 0 0 160 0 0 160 0 0 159 0 0 159 0 0 159 0 0 159 0
0 159 255 125 0 255 125 0 255 125 0 255 125 0 255 125 0 255 125 0 255
125 0 255 125 0 255 125 0 255 125 0 255 125 0 255 125 0 255 125 0 255
126 0 255 126 0 255 126 0 255 126 0 255 126 0 255 126 0 255 126 0 255
126 0 255 126 0 255 126 0 255 126 0 0 0 154 0 0 154 0 0 154 0 0 154 0
0 154 0 0 153 0 0 153 0 0 153 178 26 0 178 26 0 178 26 0 178 26 0 178
26 0 177 26 0 177 26 0 177 26 0 177 26 0 177 26 0 177 26 0 176 26 0
176 26 0 176 26 0 176 26 0 176 26 0 0 0 150 0 0 150 0 0 150 0 0 149 0
0 149 0 0 149 142 26 117 199 54 145 199 54 145 199 54 145 252 78 174
252 78 174 255 213 77 245 26 219 245 26 219 255 151 167 255 151 167
255 151 167 255 151 167 255 152 167 255 152 167 255 152 167 255 152
167 255 152 167 255 152 166 247 221 26 247 221 26 247 221 26 247 221
26 255 210 85 255 210 84 255 210 84 228 92 136 228 92 136 228 92 136
228 92 136 228 92 136 228 93 136 255 151 110 255 152 110 255 152 110
255 152 110 255 152 110 255 152 110 255 91 182 255 139 181 255 139 181
217 192 26 110 85 26 255 85 244 255 26 244 255 196 143 255 196 143 255
196 143 255 196 143 255 222 116 255 222 116 255 222 116 255 222 116
255 222 116 255 227 81 241 216 26 241 216 26 241 216 26 241 216 26 241
216 26 255 234 26 253 97 156 255 253 61 255 253 61 255 253 61 255 253
61 178 153 26 178 153 26 178 153 26 178 153 26 178 153 26 178 153 26
178 153 26 179 153 26 179 153 26 179 153 26 179 153 26 238 212 26 238
212 26 174 148 26 174 148 26 193 168 26 194 168 26 253 228 26 171 145
26 171 145 26 255 250 26 255 250 26 255 250 26 200 174 26 200 174 26
225 199 26 225 199 26 225 199 26 225 199 26 255 134 0 255 134 0 255
134 0 0 0 132 0 0 132 0 0 132 0 0 132 0 0 131 0 0 131 0 0 131 0 0 131
0 0 131 0 0 131 0 0 130 0 0 130 0 0 130 0 0 130 0 0 130 0 0 130 255
134 0 255 134 0 255 134 0 255 134 0 255 134 0 255 134 0 255 134 0 255
134 0 255 134 0 255 134 0 255 134 0 255 134 0 255 134 0 255 135 0 255
135 0 255 135 0 255 135 0 255 135 0 255 135 0 255 135 0 255 135 0 255
135 0 255 135 0 255 135 0 0 0 126 0 0 126 0 0 126 0 0 125 0 0 125 0 0
125 0 0 125 0 0 125 0 0 125 0 0 125 0 0 124 0 0 124 0 0 124 0 0 124 0
0 124 0 0 124 0 0 124
0 0 162 0 0 162 0 0 162 0 0 162 0 0 161 0 0 161 0 0 161 0 0 161 0 0
161 0 0 161 0 0 160 0 0 160 0 0 160 0 0 160 0 0 160 0 0 160 255 125 0
255 125 0 255 125 0 255 125 0 255 125 0 255 125 0 255 125 0 255 125 0
255 126 0 255 126 0 255 126 0 255 126 0 255 126 0 255 126 0 255 126 0
255 126 0 255 126 0 255 126 0 255 126 0 255 126 0 255 126 0 255 127 0
255 127 0 181 26 0 0 0 155 0 0 155 0 0 155 0 0 155 0 0 154 0 0 154 0 0
154 0 0 154 0 0 154 0 0 153 0 0 153 0 0 153 0 0 153 0 0 153 0 0 153 0
0 152 0 0 152 178 26 0 177 26 0 177 26 0 177 26 0 177 26 0 177 26 0
176 26 0 176 26 0 0 0 151 0 0 150 0 0 150 0 0 150 0 0 150 0 0 150 0 0
150 0 0 149 142 26 117 198 54 144 198 54 144 198 54 144 198 54 144 255
225 172 197 26 172 245 26 219 255 151 167 255 151 167 255 151 167 255
151 167 255 151 167 255 152 167 255 152 167 255 152 166 255 152 166
255 152 166 255 152 166 247 221 26 247 221 26 247 221 26 255 210 85
255 210 84 255 210 84 228 92 136 228 92 136 228 92 136 228 92 136 228
92 136 228 92 136 255 151 110 255 151 110 255 152 110 255 152 110 255
152 110 255 152 110 255 152 110 255 91 181 255 91 181 244 219 26 255
85 244 255 26 244 255 174 147 255 174 146 255 196 143 255 196 143 255
196 143 255 222 116 255 222 116 255 222 116 255 222 116 255 227 81 255
227 81 241 216 26 241 216 26 241 216 26 241 216 26 241 215 26 241 215
26 141 116 26 253 97 156 251 225 26 251 225 26 251 225 26 178 153 26
178 153 26 178 153 26 178 153 26 178 153 26 178 153 26 178 153 26 178
153 26 178 153 26 178 153 26 178 153 26 199 173 26 199 173 26 199 173
26 199 173 26 174 149 26 171 145 26 171 145 26 255 250 26 255 250 26
255 250 26 255 250 26 255 250 26 225 199 26 225 199 26 225 199 26 225
199 26 255 134 0 255 134 0 255 134 0 255 134 0 255 134 0 255 134 0 255
134 0 255 134 0 255 134 0 255 134 0 255 134 0 255 135 0 255 135 0 0 0
131 0 0 131 0 0 131 0 0 131 0 0 131 0 0 130 0 0 130 0 0 130 255 135 0
255 135 0 255 135 0 255 135 0 255 135 0 255 135 0 255 135 0 255 135 0
255 135 0 255 135 0 255 135 0 255 135 0 255 135 0 255 135 0 255 135 0
255 135 0 255 135 0 255 135 0 255 135 0 255 135 0 255 135 0 255 135 0
255 135 0 255 135 0 0 0 126 0 0 126 0 0 126 0 0 126 0 0 126 0 0 126 0
0 125 0 0 125 0 0 125 0 0 125 0 0 125 0 0 125 0 0 125 0 0 124 0 0 124
0 0 124 0 0 124
255 124 0 255 124 0 0 0 162 0 0 162 0 0 162 0 0 162 0 0 162 0 0 161 0
0 161 0 0 161 0 0 161 0 0 161 0 0 160 0 0 160 255 125 0 255 125 0 255
125 0 255 125 0 255 126 0 255 126 0 255 126 0 255 126 0 255 126 0 255
126 0 255 126 0 255 126 0 255 126 0 255 126 0 255 126 0 255 126 0 255
127 0 255 127 0 255 127 0 255 127 0 255 127 0 255 127 0 255 127 0 255
127 0 0 0 156 0 0 156 0 0 156 0 0 155 0 0 155 0 0 155 0 0 155 0 0 155
0 0 154 0 0 154 0 0 154 0 0 154 0 0 154 0 0 154 0 0 153 0 0 153 0 0
153 0 0 153 0 0 153 0 0 152 0 0 152 0 0 152 0 0 152 0 0 152 0 0 152 0
0 151 0 0 151 0 0 151 0 0 151 0 0 151 0 0 150 0 0 150 0 0 150 0 0 150
0 0 150 0 0 150 142 26 117 198 54 144 198 54 144 198 54 144 170 26 144
197 26 172 245 26 219 255 151 167 255 151 167 255 151 167 255 151 167
255 125 148 255 151 166 255 152 166 255 152 166 255 152 166 255 152
166 255 152 166 221 196 26 221 196 26 221 196 26 255 210 84 255 210 84
255 210 84 227 92 136 228 92 136 228 92 136 228 92 136 228 92 136 228
92 136 255 151 110 255 151 110 255 151 110 255 152 110 255 152 110 255
152 110 255 152 110 255 91 181 255 91 181 244 219 26 255 85 244 255 26
244 255 174 146 255 174 146 255 174 146 255 196 143 255 196 143 255
221 116 255 222 116 255 222 116 255 227 81 255 227 81 255 227 81 241
216 26 241 216 26 241 216 26 241 215 26 241 215 26 241 215 26 141 116
26 255 116 174 251 225 26 251 225 26 251 225 26 178 152 26 178 152 26
178 152 26 178 152 26 178 152 26 178 153 26 178 153 26 178 153 26 178
153 26 178 153 26 178 153 26 199 173 26 199 173 26 199 174 26 199 174
26 199 174 26 255 251 26 255 251 26 255 250 26 255 250 26 255 250 26
203 177 26 203 177 26 224 199 26 224 199 26 224 199 26 255 135 0 255
135 0 255 135 0 255 135 0 255 135 0 255 135 0 255 135 0 255 135 0 255
135 0 255 135 0 255 135 0 255 135 0 255 135 0 255 135 0 255 135 0 255
135 0 255 135 0 255 135 0 255 135 0 255 135 0 255 135 0 255 135 0 255
135 0 255 135 0 255 135 0 255 135 0 255 135 0 255 135 0 255 135 0 255
136 0 255 136 0 255 136 0 255 136 0 255 136 0 255 136 0 255 136 0 255
136 0 255 136 0 255 136 0 255 136 0 255 136 0 255 136 0 255 136 0 255
136 0 255 136 0 255 136 0 0 0 127 0 0 127 0 0 126 0 0 126 0 0 126 0 0
126 0 0 126 0 0 126 0 0 126 0 0 125 0 0 125 0 0 125 0 0 125 0 0 125 0
0 125 0 0 124 0 0 124
255 125 0 255 125 0 255 125 0 255 125 0 255 125 0 255 125 0 255 125 0
255 125 0 0 0 162 0 0 161 0 0 161 0 0 161 255 126 0 255 126 0 255 126
0 255 126 0 255 126 0 255 126 0 255 126 0 255 126 0 255 126 0 255 126
0 255 126 0 255 126 0 255 127 0 255 127 0 255 127 0 255 127 0 255 127
0 255 127 0 255 127 0 255 127 0 255 127 0 255 127 0 255 127 0 255 127
0 0 0 157 0 0 156 0 0 156 0 0 156 0 0 156 0 0 156 0 0 156 0 0 155 0 0
155 0 0 155 0 0 155 0 0 155 0 0 154 0 0 154 0 0 154 0 0 154 0 0 154 0
0 154 0 0 153 0 0 153 0 0 153 0 0 153 0 0 153 0 0 152 0 0 152 178 26 0
177 26 0 177 26 0 177 26 0 177 26 0 177 26 0 177 26 0 176 26 0 176 26
0 0 0 151 0 0 150 0 0 150 0 0 150 142 26 116 198 54 144 198 54 144 198
54 144 198 54 144 169 26 144 197 26 172 245 26 219 255 151 167 255 151
167 255 125 148 255 125 148 255 151 166 255 152 166 255 152 166 255
152 166 255 152 166 255 152 166 221 195 26 221 195 26 221 195 26 232
199 33 232 200 33 232 200 33 227 92 136 227 92 136 227 92 136 228 92
136 228 92 136 228 92 136 255 151 110 255 151 110 255 151 110 255 151
110 255 152 110 255 152 110 255 152 110 255 91 181 255 91 181 78 52 26
255 26 244 255 174 146 255 174 146 255 174 146 255 174 146 255 174 146
255 196 143 255 221 116 255 221 116 255 227 81 255 227 81 255 227 81
255 227 81 255 227 81 241 215 26 241 215 26 241 215 26 241 215 26 241
215 26 161 135 26 255 116 174 251 225 26 251 225 26 251 225 26 178 152
26 178 152 26 178 152 26 178 152 26 178 152 26 178 152 26 178 152 26
178 152 26 178 152 26 178 153 26 178 153 26 199 174 26 199 174 26 199
174 26 199 174 26 255 251 26 255 251 26 255 251 26 203 177 26 203 177
26 203 177 26 203 177 26 203 177 26 224 199 26 255 135 0 255 135 0 255
135 0 255 135 0 255 135 0 255 135 0 255 135 0 255 135 0 255 135 0 255
135 0 255 135 0 255 135 0 255 136 0 255 136 0 255 136 0 255 136 0 255
136 0 255 136 0 255 136 0 255 136 0 255 136 0 255 136 0 255 136 0 0 0
131 0 0 131 0 0 131 0 0 130 0 0 130 0 0 130 0 0 130 0 0 130 255 136 0
255 136 0 255 136 0 255 136 0 255 136 0 255 136 0 255 136 0 255 136 0
255 136 0 255 136 0 255 136 0 255 136 0 255 136 0 255 136 0 255 136 0
255 136 0 0 0 127 0 0 127 0 0 127 0 0 127 0 0 127 0 0 127 0 0 126 0 0
126 0 0 126 0 0 126 0 0 126 0 0 126 0 0 125 0 0 125 0 0 125 0 0 125 0
0 125 0 0 125
255 125 0 255 125 0 255 125 0 255 125 0 255 125 0 255 125 0 255 126 0
255 126 0 255 126 0 255 126 0 0 0 162 0 0 162 0 0 161 0 0 161 255 126
0 255 126 0 255 126 0 255 126 0 255 127 0 255 127 0 255 127 0 255 127
0 255 127 0 255 127 0 255 127 0 255 127 0 255 127 0 255 127 0 255 127
0 255 127 0 255 128 0 255 128 0 255 128 0 255 128 0 255 128 0 0 0 157
0 0 157 0 0 157 0 0 157 0 0 157 0 0 156 0 0 156 0 0 156 0 0 156 0 0
156 0 0 155 0 0 155 0 0 155 0 0 155 0 0 155 0 0 155 0 0 154 0 0 154 0
0 154 0 0 154 0 0 154 0 0 153 0 0 153 0 0 153 0 0 153 178 26 0 178 26
0 178 26 0 178 26 0 177 26 0 177 26 0 177 26 0 177 26 0 177 26 0 177
26 0 176 26 0 176 26 0 176 26 0 176 26 0 176 26 0 142 26 116 198 54
144 198 54 144 198 54 144 169 26 144 197 26 172 244 26 219 255 151 167
255 125 148 255 125 148 255 125 148 255 151 166 255 151 166 255 152
166 255 152 166 255 152 166 221 195 26 221 195 26 221 195 26 221 195
26 225 199 26 225 199 26 213 187 26 255 187 146 255 187 146 255 188
146 255 188 146 255 188 146 255 188 146 255 162 96 255 162 96 255 162
96 255 162 96 255 162 96 255 151 109 255 152 109 255 91 181 255 91 181
255 248 26 246 26 221 255 173 146 255 174 146 255 174 146 255 174 146
255 174 146 255 174 146 255 221 116 255 227 81 255 227 81 255 227 81
255 227 81 255 227 81 255 227 81 161 135 26 161 135 26 161 135 26 161
135 26 160 135 26 141 116 26 141 116 26 250 225 26 250 225 26 178 152
26 178 152 26 178 152 26 178 152 26 178 152 26 178 152 26 178 152 26
178 152 26 178 152 26 178 152 26 178 152 26 178 152 26 217 192 26 199
174 26 200 174 26 255 251 26 203 177 26 203 177 26 203 177 26 203 177
26 203 177 26 202 177 26 202 177 26 255 136 0 255 136 0 255 136 0 255
136 0 255 136 0 255 136 0 255 136 0 255 136 0 255 136 0 255 136 0 255
136 0 255 136 0 255 136 0 255 136 0 255 136 0 255 136 0 255 136 0 255
136 0 255 136 0 255 136 0 255 136 0 255 136 0 255 136 0 255 136 0 0 0
132 0 0 131 0 0 131 0 0 131 0 0 131 0 0 131 0 0 131 0 0 130 0 0 130 0
0 130 0 0 130 0 0 130 0 0 130 0 0 129 0 0 129 0 0 129 0 0 129 255 137
0 255 137 0 255 137 0 255 137 0 255 137 0 255 137 0 255 137 0 255 137
0 0 0 128 0 0 128 0 0 127 0 0 127 0 0 127 0 0 127 0 0 127 0 0 127 0 0
126 0 0 126 0 0 126 0 0 126 0 0 126 0 0 126 0 0 126 0 0 125 0 0 125 0
0 125
255 126 0 255 126 0 255 126 0 255 126 0 255 126 0 255 126 0 255 126 0
0 0 163 0 0 162 0 0 162 0 0 162 0 0 162 0 0 162 0 0 162 0 0 161 0 0
161 0 0 161 0 0 161 0 0 161 0 0 161 255 127 0 255 127 0 255 127 0 255
127 0 255 128 0 255 128 0 255 128 0 255 128 0 255 128 0 255 128 0 255
128 0 255 128 0 255 128 0 0 0 158 0 0 158 0 0 158 0 0 157 0 0 157 0 0
157 0 0 157 0 0 157 0 0 157 0 0 156 0 0 156 0 0 156 0 0 156 0 0 156 0
0 155 0 0 155 0 0 155 0 0 155 0 0 155 0 0 155 0 0 154 0 0 154 0 0 154
0 0 154 0 0 154 179 26 0 179 26 0 179 26 0 178 26 0 178 26 0 178 26 0
178 26 0 178 26 0 178 26 0 177 26 0 177 26 0 177 26 0 177 26 0 177 26
0 176 26 0 176 26 0 176 26 0 176 26 0 141 26 116 197 54 144 197 54 144
169 26 144 169 26 144 197 26 171 180 26 155 255 125 148 255 125 148
255 125 148 255 151 166 255 151 166 255 152 166 255 152 166 255 152
166 221 195 26 221 195 26 221 195 26 115 89 26 225 199 26 225 199 26
213 187 26 255 187 146 255 187 146 255 188 146 255 188 146 255 188 146
255 188 146 255 162 96 255 162 96 255 162 96 255 162 96 255 162 96 255
162 96 255 162 96 190 33 157 190 33 157 51 26 26 246 26 221 255 170
121 255 170 121 255 170 121 255 170 120 255 171 120 255 171 120 255
217 59 255 217 59 255 217 59 255 217 59 255 218 59 255 218 59 255 218
59 161 135 26 160 135 26 160 135 26 160 135 26 160 135 26 228 203 26
250 225 26 250 225 26 250 225 26 177 152 26 177 152 26 200 174 26 200
174 26 200 174 26 200 174 26 200 174 26 200 174 26 200 174 26 200 174
26 200 174 26 217 192 26 217 192 26 217 192 26 203 177 26 203 177 26
203 177 26 203 177 26 202 177 26 0 0 136 0 0 136 0 0 136 255 136 0 255
136 0 255 136 0 255 136 0 255 136 0 255 136 0 255 136 0 255 136 0 255
136 0 255 136 0 255 136 0 255 136 0 255 136 0 255 137 0 255 137 0 255
137 0 255 137 0 255 137 0 255 137 0 255 137 0 255 137 0 255 137 0 255
137 0 255 137 0 255 137 0 0 0 132 0 0 132 0 0 132 0 0 131 0 0 131 0 0
131 0 0 131 0 0 131 0 0 131 0 0 131 0 0 130 0 0 130 0 0 130 0 0 130 0
0 130 0 0 130 0 0 129 0 0 129 0 0 129 0 0 129 0 0 129 0 0 129 0 0 129
0 0 128 0 0 128 0 0 128 0 0 128 0 0 128 0 0 128 0 0 127 0 0 127 0 0
127 0 0 127 0 0 127 0 0 127 0 0 127 0 0 126 0 0 126 0 0 126 0 0 126 0
0 126 0 0 126 0 0 126
255 126 0 255 126 0 255 126 0 255 126 0 255 126 0 0 0 163 0 0 163 0 0
163 0 0 163 0 0 163 0 0 163 0 0 162 0 0 162 0 0 162 0 0 162 0 0 162 0
0 161 0 0 161 0 0 161 0 0 161 0 0 161 0 0 161 0 0 160 0 0 160 0 0 160
0 0 160 255 128 0 255 128 0 255 128 0 255 128 0 255 129 0 0 0 159 0 0
159 0 0 158 0 0 158 0 0 158 0 0 158 0 0 158 0 0 157 0 0 157 0 0 157 0
0 157 0 0 157 0 0 157 0 0 156 0 0 156 0 0 156 0 0 156 0 0 156 0 0 155
0 0 155 0 0 155 0 0 155 0 0 155 0 0 155 0 0 154 180 26 0 180 26 0 179
26 0 179 26 0 179 26 0 179 26 0 179 26 0 178 26 0 178 26 0 178 26 0
178 26 0 178 26 0 178 26 0 177 26 0 177 26 0 177 26 0 177 26 0 177 26
0 176 26 0 176 26 0 176 26 0 86 26 61 197 54 143 169 26 143 169 26 143
169 26 143 253 26 227 180 26 155 255 125 148 255 125 147 255 151 166
255 151 166 255 151 166 255 152 166 100 75 26 220 195 26 220 195 26
115 89 26 190 165 26 190 165 26 212 187 26 213 187 26 255 187 146 255
187 146 255 187 146 255 188 146 255 188 146 255 188 146 255 162 96 255
162 96 255 162 96 255 162 96 255 162 96 255 162 96 255 162 95 255 162
95 190 33 157 255 247 26 246 26 221 246 26 221 255 170 121 255 170 120
255 170 120 255 170 120 255 180 77 255 201 102 255 201 102 255 217 59
255 217 59 255 217 59 255 217 59 255 217 59 160 135 26 160 135 26 160
135 26 160 135 26 228 203 26 228 203 26 208 182 26 208 182 26 200 174
26 200 174 26 200 174 26 200 174 26 200 174 26 199 174 26 199 174 26
199 174 26 199 174 26 199 174 26 199 174 26 217 191 26 217 192 26 217
192 26 203 177 26 203 177 26 202 177 26 0 0 137 0 0 137 0 0 137 0 0
137 0 0 137 255 137 0 255 137 0 255 137 0 255 137 0 255 137 0 255 137
0 255 137 0 255 137 0 255 137 0 255 137 0 255 137 0 255 137 0 255 137
0 255 137 0 255 137 0 255 137 0 255 137 0 255 137 0 255 137 0 255 137
0 255 137 0 255 137 0 255 137 0 255 137 0 255 137 0 255 137 0 0 0 132
0 0 132 0 0 132 0 0 132 0 0 132 0 0 132 0 0 131 0 0 131 0 0 131 0 0
131 0 0 131 0 0 131 0 0 130 0 0 130 0 0 130 0 0 130 0 0 130 0 0 130 0
0 130 0 0 129 0 0 129 0 0 129 0 0 129 0 0 129 0 0 129 255 138 0 255
138 0 255 138 0 255 138 0 255 138 0 255 138 0 255 138 0 255 138 0 0 0
127 0 0 127 0 0 127 0 0 127 0 0 127 0 0 127 0 0 126 0 0 126 0 0 126 0
0 126
255 127 0 255 127 0 255 127 0 0 0 164 0 0 164 0 0 164 0 0 164 0 0 163
0 0 163 0 0 163 0 0 163 0 0 163 0 0 163 0 0 162 0 0 162 0 0 162 0 0
162 0 0 162 0 0 161 0 0 161 0 0 161 0 0 161 0 0 161 0 0 161 0 0 160 0
0 160 0 0 160 0 0 160 0 0 160 255 129 0 255 129 0 255 129 0 0 0 159 0
0 159 0 0 159 0 0 158 0 0 158 0 0 158 0 0 158 0 0 158 0 0 157 0 0 157
0 0 157 0 0 157 0 0 157 0 0 157 0 0 156 0 0 156 0 0 156 0 0 156 0 0
156 0 0 155 0 0 155 0 0 155 0 0 155 180 26 0 180 26 0 180 26 0 180 26
0 180 26 0 179 26 0 179 26 0 179 26 0 179 26 0 179 26 0 178 26 0 178
26 0 178 26 0 178 26 0 178 26 0 178 26 0 177 26 0 177 26 0 177 26 0
177 26 0 177 26 0 176 26 0 141 26 116 86 26 61 249 84 164 190 26 164
190 26 164 189 26 164 189 26 164 253 26 227 180 26 155 255 151 166 51
26 26 100 74 26 100 74 26 100 75 26 100 75 26 167 141 26 115 89 26 190
164 26 245 220 26 245 220 26 246 220 26 255 187 146 255 187 146 255
187 146 255 188 146 255 188 146 255 188 146 255 161 96 255 161 96 255
162 96 255 162 96 255 162 96 255 162 95 255 162 95 255 162 95 189 32
157 255 247 26 51 26 26 246 26 220 255 170 120 255 170 120 255 170 120
255 180 77 255 180 77 255 201 102 255 201 102 255 201 102 255 217 59
255 217 59 255 217 59 160 135 26 160 135 26 160 135 26 160 134 26 228
202 26 228 203 26 208 182 26 208 182 26 199 174 26 199 174 26 199 174
26 199 174 26 199 174 26 199 174 26 199 174 26 199 174 26 199 174 26
199 174 26 199 174 26 255 137 0 217 191 26 217 191 26 202 177 26 255
137 0 255 137 0 255 137 0 255 137 0 255 137 0 255 137 0 255 137 0 0 0
137 0 0 137 0 0 137 255 137 0 255 137 0 255 137 0 255 137 0 255 137 0
255 137 0 255 137 0 255 137 0 255 137 0 255 137 0 255 137 0 255 138 0
255 138 0 255 138 0 255 138 0 255 138 0 255 138 0 255 138 0 255 138 0
255 138 0 255 138 0 255 138 0 255 138 0 0 0 133 0 0 133 0 0 133 0 0
132 0 0 132 0 0 132 0 0 132 0 0 132 0 0 132 0 0 131 0 0 131 0 0 131 0
0 131 0 0 131 0 0 131 0 0 131 0 0 130 0 0 130 0 0 130 0 0 130 0 0 130
0 0 130 0 0 129 0 0 129 0 0 129 0 0 129 255 139 0 255 139 0 255 139 0
255 139 0 255 139 0 255 139 0 255 139 0 255 139 0 255 139 0 255 139 0
255 139 0 255 139 0 255 139 0 255 139 0 255 139 0 0 0 127 0 0 126 0 0
126
255 127 0 0 0 165 0 0 165 0 0 165 0 0 164 0 0 164 0 0 164 0 0 164 0 0
164 0 0 163 0 0 163 0 0 163 0 0 163 0 0 163 0 0 163 0 0 162 0 0 162 0
0 162 0 0 162 0 0 162 0 0 161 0 0 161 0 0 161 0 0 161 0 0 161 0 0 161
0 0 160 255 129 0 255 129 0 255 129 0 255 129 0 255 130 0 255 130 0
255 130 0 255 130 0 255 130 0 255 130 0 0 0 158 0 0 158 0 0 158 0 0
158 0 0 158 0 0 157 0 0 157 0 0 157 0 0 157 0 0 157 0 0 157 0 0 156 0
0 156 0 0 156 0 0 156 0 0 156 181 26 0 181 26 0 181 26 0 180 26 0 180
26 0 180 26 0 180 26 0 180 26 0 180 26 0 179 26 0 179 26 0 179 26 0
179 26 0 179 26 0 178 26 0 178 26 0 178 26 0 178 26 0 178 26 0 178 26
0 177 26 0 177 26 0 177 26 0 177 26 0 177 26 0 86 26 61 86 26 61 248
84 164 248 85 164 189 26 164 189 26 164 189 26 164 253 26 228 255 188
227 153 74 79 255 141 242 166 141 26 166 141 26 51 26 26 51 26 26 51
26 26 152 127 26 245 220 26 245 220 26 246 220 26 255 220 142 255 220
142 255 187 146 255 187 146 255 188 146 255 188 146 255 188 146 255
161 96 255 161 96 255 162 96 255 162 96 255 162 95 255 162 95 255 189
145 255 189 145 109 26 84 255 253 98 246 26 220 246 26 220 255 170 120
255 180 77 255 180 77 255 180 77 255 201 102 255 201 102 255 201 102
255 201 102 255 201 102 255 217 59 160 134 26 160 134 26 160 134 26
228 202 26 207 182 26 207 182 26 207 182 26 199 174 26 199 174 26 199
174 26 199 174 26 199 174 26 199 174 26 199 174 26 199 174 26 199 174
26 199 174 26 199 174 26 255 137 0 255 137 0 255 137 0 255 137 0 255
137 0 255 137 0 255 137 0 255 137 0 255 137 0 255 137 0 255 137 0 255
137 0 0 0 137 0 0 137 0 0 137 0 0 137 0 0 137 0 0 137 0 0 136 0 0 136
0 0 136 0 0 136 255 138 0 255 138 0 255 138 0 255 138 0 255 138 0 255
138 0 255 138 0 255 138 0 255 138 0 255 138 0 255 138 0 255 138 0 255
138 0 255 138 0 255 138 0 255 138 0 0 0 133 0 0 133 0 0 133 0 0 133 0
0 133 0 0 132 0 0 132 0 0 132 0 0 132 0 0 132 0 0 132 0 0 131 0 0 131
0 0 131 0 0 131 0 0 131 0 0 131 0 0 131 0 0 130 0 0 130 0 0 130 0 0
130 0 0 130 0 0 130 0 0 130 0 0 129 255 139 0 255 139 0 255 139 0 255
139 0 255 139 0 255 139 0 255 139 0 255 139 0 255 139 0 255 139 0 255
139 0 255 139 0 255 139 0 255 139 0 255 139 0 255 139 0 255 139 0 255
139 0
0 0 165 0 0 165 0 0 165 0 0 165 0 0 165 0 0 165 0 0 164 0 0 164 0 0
164 0 0 164 0 0 164 0 0 163 0 0 163 0 0 163 0 0 163 0 0 163 0 0 163 0
0 162 0 0 162 0 0 162 0 0 162 0 0 162 0 0 161 0 0 161 0 0 161 255 130
0 255 130 0 255 130 0 255 130 0 255 130 0 255 130 0 255 130 0 255 130
0 255 130 0 255 130 0 255 130 0 255 130 0 255 131 0 255 131 0 255 131
0 255 131 0 255 131 0 183 26 0 0 0 158 0 0 157 0 0 157 0 0 157 0 0 157
0 0 157 0 0 157 0 0 156 182 26 0 182 26 0 181 26 0 181 26 0 181 26 0
181 26 0 181 26 0 180 26 0 180 26 0 180 26 0 180 26 0 180 26 0 180 26
0 179 26 0 179 26 0 179 26 0 179 26 0 179 26 0 178 26 0 178 26 0 178
26 0 178 26 0 178 26 0 178 26 0 177 26 0 177 26 0 177 26 0 0 0 151 86
26 60 86 26 61 86 26 61 248 85 164 189 26 164 248 85 164 189 26 164
189 26 163 130 104 26 100 74 26 100 74 26 100 74 26 152 126 26 152 126
26 152 127 26 152 127 26 255 220 142 255 220 142 255 220 142 255 220
142 255 220 142 255 220 142 255 220 142 255 187 146 255 188 146 255
188 146 255 161 96 255 161 96 255 161 96 255 161 95 255 188 145 255
188 145 255 189 145 255 189 145 170 26 145 109 26 84 123 26 97 72 26
47 72 26 47 255 180 77 255 180 77 255 180 76 255 201 102 255 201 102
255 201 102 255 201 102 255 201 102 77 52 26 78 52 26 160 134 26 228
202 26 207 182 26 207 182 26 207 182 26 199 174 26 199 174 26 199 174
26 199 174 26 199 174 26 199 173 26 199 173 26 199 173 26 199 173 26
199 173 26 199 173 26 255 137 0 255 137 0 255 138 0 255 138 0 255 138
0 255 138 0 255 138 0 255 138 0 255 138 0 255 138 0 255 138 0 255 138
0 0 0 138 0 0 138 0 0 138 0 0 137 0 0 137 0 0 137 0 0 137 0 0 137 0 0
137 0 0 136 0 0 136 0 0 136 0 0 136 0 0 136 0 0 136 0 0 135 0 0 135 0
0 135 0 0 135 255 139 0 255 139 0 255 139 0 255 139 0 255 139 0 255
139 0 255 139 0 0 0 134 0 0 134 0 0 133 0 0 133 0 0 133 0 0 133 0 0
133 0 0 133 0 0 132 0 0 132 0 0 132 0 0 132 0 0 132 0 0 132 0 0 132 0
0 131 0 0 131 0 0 131 0 0 131 0 0 131 0 0 131 0 0 130 0 0 130 0 0 130
0 0 130 0 0 130 0 0 130 255 140 0 255 140 0 255 140 0 255 140 0 255
140 0 255 140 0 255 140 0 255 140 0 255 140 0 255 140 0 255 140 0 255
140 0 255 140 0 255 140 0 255 140 0 255 140 0 255 140 0 255 140 0
0 0 166 0 0 166 0 0 165 0 0 165 0 0 165 0 0 165 0 0 165 0 0 165 0 0
164 0 0 164 0 0 164 0 0 164 0 0 164 0 0 163 0 0 163 0 0 163 0 0 163 0
0 163 0 0 163 0 0 162 0 0 162 0 0 162 0 0 162 255 130 0 255 130 0 255
130 0 255 130 0 255 130 0 255 130 0 255 130 0 255 130 0 255 131 0 255
131 0 255 131 0 255 131 0 255 131 0 255 131 0 255 131 0 255 131 0 255
131 0 255 131 0 255 131 0 184 26 0 184 26 0 183 26 0 183 26 0 183 26 0
183 26 0 183 26 0 0 0 157 182 26 0 182 26 0 182 26 0 182 26 0 181 26 0
181 26 0 181 26 0 181 26 0 181 26 0 181 26 0 180 26 0 180 26 0 180 26
0 180 26 0 180 26 0 180 26 0 179 26 0 179 26 0 179 26 0 179 26 0 179
26 0 178 26 0 178 26 0 178 26 0 178 26 0 178 26 0 0 0 152 0 0 152 0 0
152 0 0 151 0 0 151 86 26 60 86 26 60 248 85 164 248 85 163 248 85 163
248 85 163 255 126 199 255 126 199 151 126 26 255 126 199 255 126 199
255 126 198 255 127 198 255 127 198 255 220 142 255 220 142 255 220
142 255 220 142 255 220 142 255 220 142 255 220 142 255 220 142 255
188 146 255 188 146 255 161 96 255 161 96 255 188 145 255 188 145 255
188 145 255 188 145 255 188 145 255 189 145 255 189 145 170 26 144 51
26 26 255 236 156 182 26 156 182 26 156 72 26 47 255 179 76 255 201
102 255 201 102 77 52 26 77 52 26 77 52 26 77 52 26 77 52 26 236 211
26 207 182 26 207 182 26 199 174 26 199 174 26 199 173 26 199 173 26
199 173 26 199 173 26 199 173 26 199 173 26 199 173 26 199 173 26 199
173 26 199 173 26 255 138 0 255 138 0 255 138 0 255 138 0 255 138 0
255 138 0 255 138 0 255 138 0 255 138 0 255 138 0 255 138 0 255 138 0
255 138 0 0 0 138 0 0 138 0 0 138 0 0 138 0 0 138 0 0 137 0 0 137 0 0
137 0 0 137 0 0 137 0 0 137 0 0 136 0 0 136 0 0 136 0 0 136 0 0 136 0
0 136 0 0 135 0 0 135 0 0 135 0 0 135 0 0 135 0 0 135 0 0 135 0 0 134
0 0 134 0 0 134 0 0 134 0 0 134 0 0 134 0 0 133 0 0 133 0 0 133 0 0
133 0 0 133 0 0 133 0 0 133 0 0 132 0 0 132 0 0 132 0 0 132 0 0 132 0
0 132 0 0 131 0 0 131 0 0 131 0 0 131 0 0 131 0 0 131 0 0 131 0 0 130
0 0 130 255 140 0 255 140 0 255 140 0 255 140 0 255 140 0 255 140 0
255 140 0 255 140 0 255 140 0 255 140 0 255 140 0 255 140 0 255 140 0
255 140 0 255 140 0 255 140 0 255 140 0 255 140 0 255 140 0
0 0 166 0 0 166 0 0 166 0 0 166 0 0 165 0 0 165 0 0 165 0 0 165 0 0
165 0 0 165 0 0 164 0 0 164 0 0 164 0 0 164 0 0 164 0 0 163 0 0 163 0
0 163 0 0 163 0 0 163 0 0 163 255 130 0 255 130 0 255 130 0 255 130 0
255 130 0 255 131 0 255 131 0 255 131 0 255 131 0 255 131 0 255 131 0
255 131 0 255 131 0 255 131 0 255 131 0 255 131 0 255 131 0 255 132 0
255 132 0 255 132 0 255 132 0 184 26 0 184 26 0 184 26 0 183 26 0 183
26 0 183 26 0 0 0 157 0 0 157 0 0 157 0 0 157 0 0 157 0 0 157 0 0 156
182 26 0 181 26 0 181 26 0 181 26 0 181 26 0 181 26 0 181 26 0 180 26
0 180 26 0 180 26 0 180 26 0 180 26 0 179 26 0 179 26 0 179 26 0 179
26 0 179 26 0 179 26 0 178 26 0 178 26 0 0 0 153 0 0 152 0 0 152 0 0
152 0 0 152 0 0 152 0 0 151 0 0 151 86 26 60 86 26 60 248 85 163 248
85 163 255 126 199 255 126 199 255 126 199 255 126 199 255 126 198 255
126 198 255 126 198 255 127 198 255 220 142 255 220 142 255 220 142
255 220 142 255 220 142 255 220 142 255 220 142 255 220 142 255 221
141 255 221 141 255 188 145 255 188 145 255 188 145 255 188 145 255
188 145 255 188 145 255 188 145 255 188 145 255 189 144 156 131 26 156
131 26 156 131 26 51 26 26 51 26 26 255 236 156 255 236 156 72 26 47
77 51 26 77 51 26 77 52 26 236 210 26 159 133 26 159 133 26 159 133 26
159 133 26 199 173 26 199 173 26 199 173 26 199 173 26 199 173 26 199
173 26 199 173 26 199 173 26 199 173 26 199 173 26 199 173 26 255 138
0 255 138 0 255 138 0 255 138 0 255 138 0 255 138 0 255 139 0 255 139
0 255 139 0 255 139 0 255 139 0 255 139 0 255 139 0 255 139 0 0 0 139
0 0 139 0 0 138 0 0 138 0 0 138 0 0 138 0 0 138 0 0 138 0 0 137 0 0
137 0 0 137 0 0 137 0 0 137 0 0 137 0 0 136 0 0 136 0 0 136 0 0 136 0
0 136 0 0 136 0 0 136 0 0 135 0 0 135 0 0 135 0 0 135 0 0 135 0 0 135
255 140 0 255 140 0 255 140 0 255 140 0 255 140 0 255 140 0 255 140 0
0 0 133 0 0 133 0 0 133 0 0 133 0 0 133 0 0 133 0 0 132 0 0 132 0 0
132 0 0 132 0 0 132 0 0 132 0 0 132 0 0 131 0 0 131 0 0 131 0 0 131 0
0 131 0 0 131 255 141 0 255 141 0 255 141 0 255 141 0 255 141 0 255
141 0 255 141 0 255 141 0 255 141 0 255 141 0 255 141 0 255 141 0 255
141 0 255 141 0 255 141 0 255 141 0 255 141 0 255 141 0 255 141 0
0 0 166 0 0 166 0 0 166 0 0 166 0 0 166 0 0 166 0 0 165 0 0 165 0 0
165 0 0 165 0 0 165 0 0 165 0 0 164 0 0 164 0 0 164 0 0 164 0 0 164 0
0 163 0 0 163 255 130 0 255 131 0 255 131 0 255 131 0 255 131 0 255
131 0 255 131 0 255 131 0 255 131 0 255 131 0 255 131 0 255 131 0 255
131 0 255 132 0 255 132 0 255 132 0 255 132 0 255 132 0 255 132 0 255
132 0 255 132 0 255 132 0 255 132 0 184 26 0 184 26 0 184 26 0 184 26
0 0 0 158 0 0 158 0 0 158 0 0 158 0 0 157 0 0 157 0 0 157 0 0 157 0 0
157 0 0 156 0 0 156 0 0 156 0 0 156 0 0 156 0 0 156 181 26 0 181 26 0
181 26 0 180 26 0 180 26 0 180 26 0 180 26 0 180 26 0 179 26 0 179 26
0 179 26 0 179 26 0 0 0 153 0 0 153 0 0 153 0 0 153 0 0 153 0 0 152 0
0 152 0 0 152 0 0 152 0 0 152 0 0 151 0 0 151 86 26 60 248 85 163 255
126 199 255 126 199 255 126 199 255 126 198 255 126 198 255 126 198
255 126 198 255 127 198 255 127 198 255 220 142 255 220 142 255 220
142 255 220 142 255 220 142 255 220 142 255 220 142 255 220 141 231
198 33 255 188 145 255 188 145 255 188 145 255 188 145 255 188 145 255
188 145 255 188 145 255 188 144 255 188 144 156 130 26 156 130 26 156
130 26 156 130 26 156 130 26 156 130 26 72 26 46 72 26 46 51 26 26 159
133 26 159 133 26 159 133 26 158 133 26 158 133 26 184 158 26 184 158
26 184 158 26 184 158 26 184 158 26 184 158 26 184 158 26 184 158 26
184 158 26 198 173 26 198 173 26 198 173 26 255 139 0 255 139 0 255
139 0 255 139 0 255 139 0 255 139 0 255 139 0 255 139 0 255 139 0 255
139 0 255 139 0 255 139 0 255 139 0 255 139 0 0 0 139 0 0 139 0 0 139
0 0 139 0 0 139 0 0 138 0 0 138 0 0 138 0 0 138 0 0 138 0 0 138 0 0
137 0 0 137 0 0 137 0 0 137 0 0 137 0 0 137 0 0 137 0 0 136 0 0 136 0
0 136 0 0 136 0 0 136 0 0 136 0 0 135 0 0 135 0 0 135 255 140 0 255
140 0 255 140 0 255 140 0 255 140 0 255 140 0 255 141 0 255 141 0 255
141 0 255 141 0 255 141 0 255 141 0 255 141 0 255 141 0 255 141 0 0 0
133 0 0 132 0 0 132 0 0 132 0 0 132 0 0 132 0 0 132 0 0 132 0 0 131 0
0 131 0 0 131 0 0 131 255 141 0 255 141 0 255 141 0 255 141 0 255 141
0 255 141 0 255 141 0 255 141 0 255 141 0 255 141 0 255 141 0 255 141
0 255 141 0 255 141 0 255 141 0 255 141 0 255 141 0 255 141 0 255 141
0
0 0 167 0 0 167 0 0 166 0 0 166 0 0 166 0 0 166 0 0 166 0 0 166 0 0
165 0 0 165 0 0 165 0 0 165 0 0 165 0 0 164 0 0 164 0 0 164 0 0 164
255 131 0 255 131 0 255 131 0 255 131 0 255 131 0 255 131 0 255 131 0
255 131 0 255 131 0 255 131 0 255 132 0 255 132 0 255 132 0 255 132 0
255 132 0 255 132 0 255 132 0 255 132 0 255 132 0 255 132 0 255 132 0
255 132 0 255 133 0 255 133 0 255 133 0 185 26 0 184 26 0 184 26 0 0 0
159 0 0 158 0 0 158 0 0 158 0 0 158 0 0 158 0 0 158 0 0 157 0 0 157 0
0 157 0 0 157 0 0 157 0 0 156 0 0 156 0 0 156 0 0 156 0 0 156 0 0 156
0 0 155 0 0 155 0 0 155 0 0 155 180 26 0 180 26 0 180 26 0 180 26 0
179 26 0 0 0 154 0 0 154 0 0 153 0 0 153 0 0 153 0 0 153 0 0 153 0 0
152 0 0 152 0 0 152 0 0 152 0 0 152 0 0 152 0 0 151 86 26 60 51 26 26
255 126 198 255 126 198 255 126 198 255 126 198 255 126 198 255 126
198 255 126 198 255 127 198 255 220 142 255 220 142 255 220 142 255
220 142 255 220 142 255 220 142 255 220 141 230 198 33 230 198 33 247
87 160 255 188 145 255 188 145 255 188 145 255 188 145 255 188 144 255
188 144 255 188 144 156 130 26 156 130 26 156 130 26 156 130 26 156
130 26 156 130 26 156 130 26 156 130 26 156 130 26 51 26 26 60 26 34
158 133 26 184 158 26 184 158 26 184 158 26 184 158 26 184 158 26 184
158 26 184 158 26 184 158 26 184 158 26 184 158 26 183 158 26 183 158
26 198 173 26 198 173 26 255 139 0 255 139 0 255 139 0 255 139 0 255
139 0 255 139 0 255 139 0 255 139 0 255 139 0 255 139 0 255 140 0 255
140 0 255 140 0 255 140 0 255 140 0 0 0 140 0 0 139 0 0 139 0 0 139 0
0 139 0 0 139 0 0 139 0 0 138 0 0 138 0 0 138 0 0 138 0 0 138 0 0 138
0 0 137 0 0 137 0 0 137 0 0 137 0 0 137 0 0 137 0 0 137 0 0 136 0 0
136 0 0 136 0 0 136 0 0 136 0 0 136 0 0 135 255 141 0 255 141 0 255
141 0 255 141 0 255 141 0 255 141 0 255 141 0 255 141 0 255 141 0 255
141 0 255 141 0 255 141 0 255 141 0 255 141 0 255 141 0 255 141 0 255
141 0 255 141 0 255 141 0 255 141 0 255 141 0 255 141 0 0 0 132 0 0
132 0 0 132 0 0 131 0 0 131 255 142 0 255 142 0 255 142 0 255 142 0
255 142 0 255 142 0 255 142 0 255 142 0 255 142 0 255 142 0 255 142 0
255 142 0 255 142 0 255 142 0 255 142 0 255 142 0 255 142 0 255 142 0
255 142 0
255 130 0 255 130 0 255 130 0 255 130 0 0 0 166 0 0 166 0 0 166 0 0
166 0 0 166 0 0 166 0 0 165 0 0 165 0 0 165 0 0 165 0 0 165 0 0 164
255 131 0 255 131 0 255 131 0 255 131 0 255 131 0 255 132 0 255 132 0
255 132 0 255 132 0 255 132 0 255 132 0 255 132 0 255 132 0 255 132 0
255 132 0 255 132 0 255 132 0 255 132 0 255 133 0 255 133 0 255 133 0
255 133 0 255 133 0 255 133 0 255 133 0 185 26 0 185 26 0 0 0 159 0 0
159 0 0 159 0 0 159 0 0 159 0 0 158 0 0 158 0 0 158 0 0 158 0 0 158 0
0 157 0 0 157 0 0 157 0 0 157 0 0 157 0 0 157 0 0 156 0 0 156 0 0 156
0 0 156 0 0 156 0 0 155 0 0 155 0 0 155 0 0 155 0 0 155 0 0 155 0 0
154 180 26 0 180 26 0 0 0 154 0 0 154 0 0 153 0 0 153 0 0 153 0 0 153
0 0 153 0 0 153 0 0 152 0 0 152 0 0 152 0 0 152 0 0 152 0 0 152 0 0
151 51 26 26 51 26 26 255 126 198 255 126 198 255 126 198 255 126 198
255 126 198 255 127 198 255 219 142 255 220 142 255 220 142 255 220
142 255 220 142 255 220 141 230 197 33 230 197 33 230 197 33 246 87
160 246 87 159 255 188 145 255 188 145 255 188 144 255 188 144 255 188
144 255 188 144 155 130 26 155 130 26 155 130 26 155 130 26 155 130 26
155 130 26 155 130 26 155 130 26 155 130 26 155 130 26 155 130 26 184
158 26 184 158 26 183 158 26 183 158 26 183 158 26 183 158 26 183 158
26 183 158 26 183 158 26 183 158 26 183 158 26 183 158 26 183 158 26
183 158 26 0 0 143 0 0 142 0 0 142 0 0 142 255 140 0 255 140 0 255 140
0 255 140 0 255 140 0 255 140 0 255 140 0 255 140 0 255 140 0 255 140
0 255 140 0 0 0 140 0 0 140 0 0 140 0 0 140 0 0 139 0 0 139 0 0 139 0
0 139 0 0 139 0 0 139 0 0 138 0 0 138 0 0 138 0 0 138 0 0 138 0 0 138
0 0 138 0 0 137 0 0 137 0 0 137 0 0 137 0 0 137 0 0 137 0 0 136 0 0
136 0 0 136 0 0 136 255 141 0 255 141 0 255 141 0 255 141 0 255 141 0
255 141 0 255 141 0 255 141 0 255 142 0 255 142 0 255 142 0 255 142 0
255 142 0 255 142 0 255 142 0 255 142 0 255 142 0 255 142 0 255 142 0
255 142 0 255 142 0 255 142 0 255 142 0 255 142 0 255 142 0 255 142 0
255 142 0 255 142 0 0 0 132 0 0 131 255 142 0 255 142 0 255 142 0 255
142 0 255 142 0 255 142 0 255 142 0 255 142 0 255 142 0 255 142 0 255
142 0 255 142 0 255 142 0 255 142 0 255 142 0 255 142 0 255 142 0
255 130 0 255 130 0 255 130 0 255 130 0 255 131 0 255 131 0 255 131 0
255 131 0 255 131 0 255 131 0 0 0 166 0 0 165 0 0 165 0 0 165 255 131
0 255 131 0 255 132 0 255 132 0 255 132 0 255 132 0 255 132 0 255 132
0 255 132 0 255 132 0 255 132 0 255 132 0 255 132 0 255 132 0 255 133
0 255 133 0 255 133 0 255 133 0 255 133 0 255 133 0 255 133 0 255 133
0 255 133 0 255 133 0 186 26 0 186 26 0 186 26 0 0 0 160 0 0 160 0 0
160 0 0 159 0 0 159 0 0 159 0 0 159 0 0 159 0 0 159 0 0 158 0 0 158 0
0 158 0 0 158 0 0 158 0 0 157 0 0 157 0 0 157 0 0 157 0 0 157 0 0 156
0 0 156 0 0 156 0 0 156 0 0 156 0 0 156 0 0 155 0 0 155 0 0 155 180 26
0 180 26 0 180 26 0 180 26 0 180 26 0 179 26 0 179 26 0 179 26 0 179
26 0 179 26 0 0 0 153 0 0 153 0 0 153 0 0 153 0 0 152 0 0 152 0 0 152
0 0 152 0 0 152 0 0 151 0 0 151 0 0 151 255 126 198 255 126 198 255
126 198 255 126 198 255 126 197 255 127 197 255 220 142 255 220 142
255 220 142 255 220 141 230 197 33 230 197 33 230 197 33 230 197 33
246 87 159 246 87 159 255 187 145 255 188 144 255 188 144 255 188 144
255 188 144 155 130 26 155 130 26 155 130 26 155 130 26 155 130 26 155
130 26 155 130 26 155 130 26 155 130 26 155 130 26 155 130 26 155 130
26 155 130 26 183 158 26 183 158 26 183 158 26 183 158 26 183 158 26
183 158 26 183 158 26 183 158 26 183 158 26 183 158 26 0 0 143 0 0 143
0 0 143 0 0 143 0 0 143 0 0 143 0 0 142 0 0 142 0 0 142 0 0 142 0 0
142 0 0 142 0 0 141 255 140 0 255 140 0 255 141 0 255 141 0 0 0 141 0
0 140 0 0 140 0 0 140 0 0 140 0 0 140 0 0 140 0 0 139 0 0 139 0 0 139
0 0 139 0 0 139 0 0 139 0 0 138 0 0 138 0 0 138 0 0 138 0 0 138 0 0
138 0 0 138 0 0 137 0 0 137 0 0 137 0 0 137 0 0 137 0 0 137 0 0 136 0
0 136 255 142 0 255 142 0 255 142 0 255 142 0 255 142 0 255 142 0 255
142 0 255 142 0 255 142 0 255 142 0 255 142 0 255 142 0 255 142 0 255
142 0 255 142 0 255 142 0 255 142 0 255 142 0 255 142 0 255 142 0 255
142 0 255 142 0 255 142 0 255 142 0 255 142 0 255 142 0 255 142 0 255
142 0 0 0 132 0 0 132 0 0 132 0 0 131 0 0 131 0 0 131 0 0 131 0 0 131
0 0 131 0 0 131 255 143 0 255 143 0 255 143 0 255 143 0 255 143 0 255
143 0 255 143 0 255 143 0 255 143 0
255 131 0 255 131 0 255 131 0 255 131 0 255 131 0 255 131 0 255 131 0
255 131 0 255 131 0 255 131 0 255 131 0 255 132 0 0 0 166 0 0 165 0 0
165 255 132 0 255 132 0 255 132 0 255 132 0 255 132 0 255 132 0 255
132 0 255 132 0 255 133 0 255 133 0 255 133 0 255 133 0 255 133 0 255
133 0 255 133 0 255 133 0 255 133 0 255 133 0 255 133 0 187 26 0 187
26 0 187 26 0 186 26 0 186 26 0 186 26 0 0 0 160 0 0 160 0 0 160 0 0
160 0 0 160 0 0 160 0 0 159 0 0 159 0 0 159 0 0 159 0 0 159 0 0 158 0
0 158 0 0 158 0 0 158 0 0 158 0 0 158 0 0 157 0 0 157 0 0 157 0 0 157
0 0 157 0 0 156 0 0 156 0 0 156 0 0 156 0 0 156 0 0 156 181 26 0 181
26 0 180 26 0 180 26 0 180 26 0 180 26 0 180 26 0 180 26 0 179 26 0
179 26 0 179 26 0 179 26 0 179 26 0 179 26 0 178 26 0 178 26 0 178 26
0 0 0 152 0 0 152 0 0 152 0 0 152 0 0 152 0 0 151 0 0 151 0 0 151 255
126 198 255 126 197 255 126 197 255 126 197 255 219 142 255 220 142
255 220 141 230 197 33 230 197 33 230 197 33 230 197 33 230 197 33 246
86 159 246 86 159 246 87 159 255 187 144 255 188 144 255 188 144 255
188 144 155 129 26 155 129 26 155 129 26 155 129 26 155 129 26 155 129
26 155 129 26 155 129 26 155 129 26 155 129 26 155 129 26 155 129 26
155 129 26 183 158 26 183 158 26 183 158 26 183 158 26 183 158 26 183
158 26 183 158 26 183 158 26 0 0 144 0 0 144 0 0 144 0 0 144 0 0 143 0
0 143 0 0 143 0 0 143 0 0 143 0 0 143 0 0 142 0 0 142 0 0 142 0 0 142
0 0 142 0 0 142 0 0 141 0 0 141 0 0 141 255 141 0 255 141 0 255 141 0
0 0 140 0 0 140 0 0 140 0 0 140 0 0 140 0 0 140 0 0 139 0 0 139 0 0
139 0 0 139 0 0 139 0 0 139 0 0 138 0 0 138 0 0 138 0 0 138 0 0 138 0
0 138 0 0 138 0 0 137 0 0 137 0 0 137 0 0 137 0 0 137 0 0 137 255 142
0 255 142 0 255 142 0 255 142 0 255 142 0 255 142 0 255 142 0 255 142
0 255 142 0 255 142 0 255 143 0 255 143 0 255 143 0 255 143 0 255 143
0 255 143 0 255 143 0 255 143 0 255 143 0 255 143 0 255 143 0 255 143
0 255 143 0 255 143 0 255 143 0 255 143 0 255 143 0 255 143 0 0 0 132
0 0 132 0 0 132 0 0 132 0 0 132 0 0 131 0 0 131 0 0 131 0 0 131 0 0
131 0 0 131 0 0 131 0 0 130 0 0 130 0 0 130 0 0 130 0 0 130 255 143 0
255 143 0
255 131 0 255 131 0 255 131 0 255 131 0 255 131 0 255 132 0 255 132 0
255 132 0 255 132 0 255 132 0 0 0 166 0 0 166 0 0 166 0 0 166 0 0 165
0 0 165 0 0 165 0 0 165 0 0 165 0 0 165 255 133 0 255 133 0 255 133 0
255 133 0 255 133 0 255 133 0 255 133 0 255 133 0 255 133 0 255 133 0
255 134 0 255 134 0 255 134 0 255 134 0 255 134 0 187 26 0 187 26 0
187 26 0 0 0 161 0 0 161 0 0 161 0 0 161 0 0 160 0 0 160 0 0 160 0 0
160 0 0 160 0 0 159 0 0 159 0 0 159 0 0 159 0 0 159 0 0 159 0 0 158 0
0 158 0 0 158 0 0 158 0 0 158 0 0 157 0 0 157 0 0 157 0 0 157 0 0 157
0 0 157 0 0 156 0 0 156 181 26 0 181 26 0 181 26 0 181 26 0 181 26 0
181 26 0 180 26 0 180 26 0 180 26 0 180 26 0 180 26 0 180 26 0 179 26
0 179 26 0 179 26 0 179 26 0 179 26 0 178 26 0 178 26 0 178 26 0 178
26 0 178 26 0 178 26 0 177 26 0 177 26 0 0 0 152 0 0 151 0 0 151 0 0
151 255 126 197 255 126 197 255 219 142 255 219 141 229 197 33 229 197
33 229 197 33 229 197 33 229 197 33 229 197 33 245 86 159 245 86 159
245 86 159 255 187 144 255 187 144 255 187 144 155 129 26 155 129 26
155 129 26 155 129 26 155 129 26 155 129 26 155 129 26 155 129 26 155
129 26 155 129 26 155 129 26 155 129 26 155 129 26 155 129 26 155 129
26 155 129 26 183 157 26 183 157 26 183 157 26 0 0 145 0 0 145 0 0 144
0 0 144 0 0 144 0 0 144 0 0 144 0 0 144 0 0 143 0 0 143 0 0 143 0 0
143 0 0 143 0 0 143 0 0 142 0 0 142 0 0 142 0 0 142 0 0 142 0 0 142 0
0 142 255 141 0 255 141 0 255 142 0 255 142 0 255 142 0 255 142 0 255
142 0 255 142 0 255 142 0 255 142 0 0 0 140 0 0 140 0 0 139 0 0 139 0
0 139 0 0 139 0 0 139 0 0 139 0 0 138 0 0 138 0 0 138 0 0 138 0 0 138
0 0 138 0 0 138 0 0 137 0 0 137 0 0 137 255 143 0 255 143 0 255 143 0
255 143 0 255 143 0 255 143 0 255 143 0 255 143 0 255 143 0 255 143 0
255 143 0 255 143 0 255 143 0 255 143 0 255 143 0 255 143 0 255 143 0
255 143 0 255 143 0 255 143 0 255 143 0 255 143 0 255 143 0 255 143 0
255 143 0 255 143 0 255 143 0 255 143 0 255 143 0 0 0 133 0 0 132 0 0
132 0 0 132 0 0 132 0 0 132 0 0 132 0 0 131 0 0 131 0 0 131 0 0 131 0
0 131 0 0 131 0 0 131 0 0 130 0 0 130 0 0 130 0 0 130 0 0 130
255 132 0 255 132 0 255 132 0 255 132 0 255 132 0 255 132 0 255 132 0
255 132 0 0 0 167 0 0 167 0 0 166 0 0 166 0 0 166 0 0 166 0 0 166 0 0
166 0 0 165 0 0 165 0 0 165 0 0 165 0 0 165 0 0 164 0 0 164 0 0 164 0
0 164 255 134 0 255 134 0 255 134 0 255 134 0 255 134 0 255 134 0 255
134 0 255 134 0 255 134 0 255 134 0 255 134 0 0 0 162 0 0 162 0 0 161
0 0 161 0 0 161 0 0 161 0 0 161 0 0 160 0 0 160 0 0 160 0 0 160 0 0
160 0 0 160 0 0 159 0 0 159 0 0 159 0 0 159 0 0 159 0 0 158 0 0 158 0
0 158 0 0 158 0 0 158 0 0 158 0 0 157 0 0 157 0 0 157 0 0 157 0 0 157
182 26 0 182 26 0 182 26 0 181 26 0 181 26 0 181 26 0 181 26 0 181 26
0 181 26 0 180 26 0 180 26 0 180 26 0 180 26 0 180 26 0 179 26 0 179
26 0 179 26 0 179 26 0 179 26 0 179 26 0 178 26 0 178 26 0 178 26 0
178 26 0 178 26 0 178 26 0 177 26 0 177 26 0 0 0 151 0 0 151 0 0 151
255 126 197 255 219 141 229 197 32 229 197 32 229 197 32 229 197 32
229 197 32 229 197 33 229 197 33 245 86 159 245 86 159 245 86 159 245
86 159 255 187 144 255 187 144 154 129 26 154 129 26 154 129 26 154
129 26 154 129 26 154 129 26 154 129 26 155 129 26 155 129 26 155 129
26 155 129 26 155 129 26 155 129 26 155 129 26 155 129 26 0 0 146 0 0
146 0 0 145 0 0 145 0 0 145 0 0 145 0 0 145 0 0 145 0 0 144 0 0 144 0
0 144 0 0 144 0 0 144 0 0 144 0 0 143 0 0 143 0 0 143 0 0 143 0 0 143
0 0 143 0 0 142 0 0 142 0 0 142 0 0 142 255 142 0 255 142 0 255 142 0
255 142 0 255 142 0 255 142 0 255 142 0 255 142 0 255 142 0 255 142 0
255 142 0 255 142 0 255 142 0 255 142 0 255 142 0 255 143 0 255 143 0
255 143 0 0 0 139 0 0 139 0 0 139 0 0 138 0 0 138 0 0 138 0 0 138 0 0
138 0 0 138 0 0 138 0 0 137 255 143 0 255 143 0 255 143 0 255 143 0
255 143 0 255 143 0 255 143 0 255 143 0 255 143 0 255 143 0 255 143 0
255 143 0 255 143 0 255 143 0 255 144 0 255 144 0 255 144 0 255 144 0
255 144 0 255 144 0 255 144 0 255 144 0 255 144 0 255 144 0 255 144 0
255 144 0 255 144 0 255 144 0 0 0 133 0 0 133 0 0 133 0 0 133 0 0 132
0 0 132 0 0 132 0 0 132 0 0 132 0 0 132 0 0 132 0 0 131 0 0 131 0 0
131 0 0 131 0 0 131 0 0 131 0 0 131 0 0 130 0 0 130
255 132 0 255 132 0 255 132 0 255 132 0 255 132 0 255 132 0 0 0 168 0
0 167 0 0 167 0 0 167 0 0 167 0 0 167 0 0 166 0 0 166 0 0 166 0 0 166
0 0 166 0 0 165 0 0 165 0 0 165 0 0 165 0 0 165 0 0 165 0 0 164 0 0
164 0 0 164 0 0 164 0 0 164 0 0 163 0 0 163 0 0 163 255 134 0 255 135
0 255 135 0 255 135 0 0 0 162 0 0 162 0 0 162 0 0 162 0 0 161 0 0 161
0 0 161 0 0 161 0 0 161 0 0 161 0 0 160 0 0 160 0 0 160 0 0 160 0 0
160 0 0 159 0 0 159 0 0 159 0 0 159 0 0 159 0 0 159 0 0 158 0 0 158 0
0 158 0 0 158 0 0 158 0 0 157 0 0 157 183 26 0 182 26 0 182 26 0 182
26 0 182 26 0 182 26 0 182 26 0 181 26 0 181 26 0 181 26 0 181 26 0
181 26 0 180 26 0 180 26 0 180 26 0 180 26 0 180 26 0 180 26 0 179 26
0 179 26 0 179 26 0 179 26 0 179 26 0 178 26 0 178 26 0 178 26 0 178
26 0 178 26 0 178 26 0 0 0 152 0 0 152 0 0 152 0 0 151 0 0 151 51 26
26 51 26 26 229 196 32 229 196 32 229 196 32 229 197 32 229 197 32 229
197 32 245 86 159 245 86 159 245 86 159 245 86 158 255 187 144 154 129
26 154 129 26 154 129 26 154 129 26 154 129 26 154 129 26 155 129 26
155 129 26 51 26 26 51 26 26 51 26 26 51 26 26 0 0 147 0 0 147 0 0 146
0 0 146 0 0 146 0 0 146 0 0 146 0 0 146 0 0 145 0 0 145 0 0 145 0 0
145 0 0 145 0 0 145 0 0 144 0 0 144 0 0 144 0 0 144 0 0 144 0 0 144 0
0 143 0 0 143 0 0 143 0 0 143 0 0 143 0 0 143 0 0 142 0 0 142 255 142
0 255 142 0 255 142 0 255 142 0 255 142 0 255 143 0 255 143 0 255 143
0 255 143 0 255 143 0 255 143 0 255 143 0 255 143 0 255 143 0 255 143
0 255 143 0 255 143 0 255 143 0 255 143 0 255 143 0 255 143 0 255 143
0 255 143 0 255 143 0 0 0 138 0 0 138 0 0 138 0 0 138 255 143 0 255
143 0 255 144 0 255 144 0 255 144 0 255 144 0 255 144 0 255 144 0 255
144 0 255 144 0 255 144 0 255 144 0 255 144 0 255 144 0 255 144 0 255
144 0 255 144 0 255 144 0 255 144 0 255 144 0 255 144 0 255 144 0 255
144 0 255 144 0 255 144 0 255 144 0 255 144 0 255 144 0 255 144 0 0 0
133 0 0 133 0 0 133 0 0 133 0 0 133 0 0 133 0 0 132 0 0 132 0 0 132 0
0 132 0 0 132 0 0 132 0 0 132 0 0 131 0 0 131 0 0 131 0 0 131 0 0 131
0 0 131 0 0 131
255 132 0 255 132 0 255 133 0 255 133 0 0 0 168 0 0 168 0 0 168 0 0
168 0 0 167 0 0 167 0 0 167 0 0 167 0 0 167 0 0 166 0 0 166 0 0 166 0
0 166 0 0 166 0 0 166 0 0 165 0 0 165 0 0 165 0 0 165 0 0 165 0 0 164
0 0 164 0 0 164 0 0 164 0 0 164 0 0 164 0 0 163 0 0 163 0 0 163 255
135 0 255 135 0 255 135 0 0 0 162 0 0 162 0 0 162 0 0 162 0 0 162 0 0
161 0 0 161 0 0 161 0 0 161 0 0 161 0 0 160 0 0 160 0 0 160 0 0 160 0
0 160 0 0 160 0 0 159 0 0 159 0 0 159 0 0 159 0 0 159 0 0 158 0 0 158
0 0 158 0 0 158 0 0 158 183 26 0 183 26 0 183 26 0 183 26 0 182 26 0
182 26 0 182 26 0 182 26 0 182 26 0 181 26 0 181 26 0 181 26 0 181 26
0 181 26 0 181 26 0 180 26 0 180 26 0 180 26 0 180 26 0 180 26 0 179
26 0 179 26 0 179 26 0 179 26 0 179 26 0 179 26 0 178 26 0 178 26 0
178 26 0 0 0 152 0 0 152 0 0 152 0 0 152 0 0 152 51 26 26 51 26 26 51
26 26 255 198 203 255 198 203 255 198 203 249 223 26 249 223 26 249
223 26 255 44 253 51 26 26 51 26 26 51 26 26 51 26 26 240 214 26 240
214 26 239 214 26 239 214 26 239 213 26 239 213 26 238 213 26 180 154
26 81 55 26 81 55 26 51 26 26 0 0 147 0 0 147 0 0 147 0 0 147 0 0 147
0 0 146 0 0 146 0 0 146 0 0 146 0 0 146 0 0 146 0 0 145 0 0 145 0 0
145 0 0 145 0 0 145 0 0 145 0 0 144 0 0 144 0 0 144 0 0 144 0 0 144 0
0 144 0 0 143 0 0 143 0 0 143 0 0 143 0 0 143 255 143 0 255 143 0 255
143 0 255 143 0 255 143 0 255 143 0 255 143 0 255 143 0 255 143 0 255
143 0 255 143 0 255 143 0 255 143 0 255 143 0 255 143 0 255 143 0 255
143 0 255 143 0 255 143 0 255 144 0 255 144 0 255 144 0 255 144 0 255
144 0 255 144 0 255 144 0 255 144 0 255 144 0 255 144 0 0 0 138 0 0
138 0 0 138 255 144 0 255 144 0 255 144 0 255 144 0 255 144 0 255 144
0 255 144 0 255 144 0 255 144 0 255 144 0 255 144 0 255 144 0 255 144
0 255 144 0 255 144 0 255 144 0 255 145 0 255 145 0 255 145 0 255 145
0 255 145 0 255 145 0 255 145 0 255 145 0 255 145 0 255 145 0 0 0 134
0 0 133 0 0 133 0 0 133 0 0 133 0 0 133 0 0 133 0 0 133 0 0 132 0 0
132 0 0 132 0 0 132 0 0 132 0 0 132 0 0 132 0 0 131 0 0 131 0 0 131 0
0 131 0 0 131
255 133 0 255 133 0 0 0 169 0 0 169 0 0 168 0 0 168 0 0 168 0 0 168 0
0 168 0 0 167 0 0 167 0 0 167 0 0 167 0 0 167 0 0 167 0 0 166 0 0 166
0 0 166 0 0 166 0 0 166 0 0 165 0 0 165 0 0 165 0 0 165 0 0 165 0 0
165 0 0 164 0 0 164 0 0 164 0 0 164 0 0 164 255 135 0 255 135 0 255
135 0 255 136 0 255 136 0 255 136 0 255 136 0 255 136 0 255 136 0 187
26 0 0 0 162 0 0 161 0 0 161 0 0 161 0 0 161 0 0 161 0 0 161 0 0 160 0
0 160 0 0 160 0 0 160 0 0 160 0 0 159 0 0 159 0 0 159 0 0 159 0 0 159
0 0 159 0 0 158 0 0 158 183 26 0 183 26 0 183 26 0 183 26 0 183 26 0
183 26 0 182 26 0 182 26 0 182 26 0 182 26 0 182 26 0 182 26 0 181 26
0 181 26 0 181 26 0 181 26 0 181 26 0 180 26 0 180 26 0 180 26 0 180
26 0 180 26 0 180 26 0 179 26 0 179 26 0 179 26 0 179 26 0 179 26 0
178 26 0 0 0 153 0 0 153 0 0 152 0 0 152 0 0 152 0 0 152 255 26 246
192 166 26 255 54 248 255 198 203 255 198 203 255 198 203 255 241 26
249 223 26 249 223 26 255 86 254 255 225 168 255 225 168 255 225 167
255 242 26 132 26 107 240 214 26 239 214 26 239 214 26 239 213 26 239
213 26 238 213 26 238 213 26 179 154 26 132 107 26 131 106 26 0 0 147
0 0 147 0 0 147 0 0 147 0 0 147 0 0 147 0 0 146 0 0 146 0 0 146 0 0
146 0 0 146 0 0 146 0 0 145 0 0 145 0 0 145 0 0 145 0 0 145 0 0 145 0
0 144 0 0 144 0 0 144 0 0 144 0 0 144 0 0 144 0 0 144 0 0 143 0 0 143
255 143 0 255 143 0 255 143 0 255 143 0 255 143 0 255 143 0 255 143 0
255 143 0 255 143 0 255 143 0 255 143 0 255 144 0 255 144 0 255 144 0
255 144 0 255 144 0 255 144 0 255 144 0 255 144 0 255 144 0 255 144 0
255 144 0 255 144 0 255 144 0 255 144 0 255 144 0 255 144 0 255 144 0
255 144 0 255 144 0 0 0 138 0 0 138 0 0 138 0 0 138 0 0 138 0 0 138 0
0 137 0 0 137 0 0 137 0 0 137 255 145 0 255 145 0 255 145 0 255 145 0
255 145 0 255 145 0 255 145 0 255 145 0 255 145 0 255 145 0 255 145 0
255 145 0 255 145 0 255 145 0 255 145 0 255 145 0 255 145 0 255 145 0
255 145 0 0 0 134 0 0 134 0 0 134 0 0 133 0 0 133 0 0 133 0 0 133 0 0
133 0 0 133 0 0 133 0 0 132 0 0 132 0 0 132 0 0 132 0 0 132 0 0 132 0
0 132 0 0 131 0 0 131 0 0 131
0 0 169 0 0 169 0 0 169 0 0 169 0 0 169 0 0 168 0 0 168 0 0 168 0 0
168 0 0 168 0 0 168 0 0 167 0 0 167 0 0 167 0 0 167 0 0 167 0 0 166 0
0 166 0 0 166 0 0 166 0 0 166 0 0 166 0 0 165 0 0 165 0 0 165 0 0 165
0 0 165 0 0 164 0 0 164 0 0 164 255 136 0 255 136 0 255 136 0 255 136
0 255 136 0 255 136 0 255 136 0 255 136 0 255 136 0 255 136 0 255 136
0 187 26 0 187 26 0 187 26 0 187 26 0 187 26 0 186 26 0 0 0 161 0 0
161 0 0 160 0 0 160 0 0 160 0 0 160 0 0 160 0 0 159 0 0 159 0 0 159 0
0 159 0 0 159 184 26 0 184 26 0 184 26 0 184 26 0 183 26 0 183 26 0
183 26 0 183 26 0 183 26 0 182 26 0 182 26 0 182 26 0 182 26 0 182 26
0 182 26 0 181 26 0 181 26 0 181 26 0 181 26 0 181 26 0 181 26 0 180
26 0 180 26 0 180 26 0 180 26 0 180 26 0 179 26 0 179 26 0 179 26 0
179 26 0 0 0 153 0 0 153 0 0 153 0 0 153 0 0 153 0 0 152 255 26 246
255 26 246 51 26 26 255 54 248 255 195 168 255 195 168 255 195 168 255
241 26 249 223 26 51 26 26 255 87 254 255 207 152 255 225 167 255 225
167 255 242 26 51 26 26 240 214 26 239 214 26 239 214 26 239 213 26
239 213 26 238 213 26 238 213 26 179 154 26 132 107 26 0 0 148 0 0 148
0 0 148 0 0 147 0 0 147 0 0 147 0 0 147 0 0 147 0 0 147 0 0 146 0 0
146 0 0 146 0 0 146 0 0 146 0 0 146 0 0 145 0 0 145 0 0 145 0 0 145 0
0 145 0 0 145 0 0 144 0 0 144 0 0 144 0 0 144 0 0 144 0 0 144 0 0 143
255 143 0 255 143 0 255 144 0 255 144 0 255 144 0 255 144 0 255 144 0
255 144 0 255 144 0 255 144 0 255 144 0 255 144 0 255 144 0 255 144 0
255 144 0 255 144 0 255 144 0 255 144 0 255 144 0 255 144 0 255 144 0
255 144 0 255 144 0 255 144 0 255 145 0 255 145 0 255 145 0 255 145 0
255 145 0 0 0 139 0 0 139 0 0 138 0 0 138 0 0 138 0 0 138 0 0 138 0 0
138 0 0 137 0 0 137 0 0 137 0 0 137 0 0 137 0 0 137 0 0 137 0 0 136 0
0 136 255 145 0 255 145 0 255 145 0 255 145 0 255 145 0 255 145 0 255
145 0 255 146 0 255 146 0 255 146 0 255 146 0 255 146 0 255 146 0 0 0
134 0 0 134 0 0 134 0 0 134 0 0 134 0 0 133 0 0 133 0 0 133 0 0 133 0
0 133 0 0 133 0 0 133 0 0 132 0 0 132 0 0 132 0 0 132 0 0 132 0 0 132
0 0 132 0 0 131
0 0 170 0 0 169 0 0 169 0 0 169 0 0 169 0 0 169 0 0 169 0 0 168 0 0
168 0 0 168 0 0 168 0 0 168 0 0 167 0 0 167 0 0 167 0 0 167 0 0 167 0
0 166 0 0 166 0 0 166 0 0 166 0 0 166 0 0 166 0 0 165 0 0 165 0 0 165
0 0 165 0 0 165 255 136 0 255 136 0 255 136 0 255 136 0 255 136 0 255
136 0 255 136 0 255 136 0 255 137 0 255 137 0 255 137 0 255 137 0 255
137 0 255 137 0 187 26 0 187 26 0 187 26 0 187 26 0 187 26 0 187 26 0
186 26 0 186 26 0 186 26 0 186 26 0 0 0 160 0 0 160 0 0 160 0 0 160 0
0 159 0 0 159 185 26 0 184 26 0 184 26 0 184 26 0 184 26 0 184 26 0
183 26 0 183 26 0 183 26 0 183 26 0 183 26 0 183 26 0 182 26 0 182 26
0 182 26 0 182 26 0 182 26 0 181 26 0 181 26 0 181 26 0 181 26 0 181
26 0 181 26 0 180 26 0 180 26 0 180 26 0 180 26 0 180 26 0 180 26 0
179 26 0 0 0 154 0 0 154 0 0 153 0 0 153 0 0 153 0 0 153 0 0 153 255
26 241 255 26 246 206 26 180 255 54 248 255 195 168 255 195 168 255
195 168 255 195 168 255 241 26 255 86 254 255 207 152 255 207 152 255
207 152 255 242 26 255 242 26 107 81 26 51 26 26 239 214 26 239 214 26
239 213 26 239 213 26 238 213 26 238 213 26 238 212 26 165 140 26 255
142 0 255 142 0 255 142 0 255 143 0 255 143 0 255 143 0 0 0 147 0 0
147 0 0 147 0 0 147 0 0 147 0 0 146 0 0 146 0 0 146 0 0 146 0 0 146 0
0 146 0 0 145 0 0 145 0 0 145 0 0 145 0 0 145 0 0 145 0 0 144 0 0 144
0 0 144 0 0 144 255 144 0 255 144 0 255 144 0 255 144 0 255 144 0 255
144 0 255 144 0 255 144 0 255 144 0 255 144 0 255 144 0 255 144 0 255
144 0 255 144 0 255 144 0 255 145 0 255 145 0 255 145 0 255 145 0 255
145 0 255 145 0 255 145 0 255 145 0 255 145 0 255 145 0 255 145 0 255
145 0 255 145 0 255 145 0 255 145 0 0 0 139 0 0 139 0 0 139 0 0 139 0
0 138 0 0 138 0 0 138 0 0 138 0 0 138 0 0 138 0 0 137 0 0 137 0 0 137
0 0 137 0 0 137 0 0 137 0 0 137 0 0 136 0 0 136 0 0 136 0 0 136 0 0
136 0 0 136 0 0 136 255 146 0 255 146 0 255 146 0 255 146 0 255 146 0
255 146 0 0 0 135 0 0 134 0 0 134 0 0 134 0 0 134 0 0 134 0 0 134 0 0
133 0 0 133 0 0 133 0 0 133 0 0 133 0 0 133 0 0 133 0 0 132 0 0 132 0
0 132 0 0 132 0 0 132 0 0 132
0 0 170 0 0 170 0 0 169 0 0 169 0 0 169 0 0 169 0 0 169 0 0 169 0 0
168 0 0 168 0 0 168 0 0 168 0 0 168 0 0 167 0 0 167 0 0 167 0 0 167 0
0 167 0 0 167 0 0 166 0 0 166 0 0 166 0 0 166 0 0 166 0 0 165 0 0 165
255 136 0 255 136 0 255 136 0 255 136 0 255 136 0 255 137 0 255 137 0
255 137 0 255 137 0 255 137 0 255 137 0 255 137 0 255 137 0 255 137 0
255 137 0 255 137 0 255 137 0 187 26 0 187 26 0 187 26 0 187 26 0 187
26 0 187 26 0 186 26 0 186 26 0 186 26 0 186 26 0 186 26 0 185 26 0
185 26 0 0 0 160 185 26 0 185 26 0 185 26 0 184 26 0 184 26 0 184 26 0
184 26 0 184 26 0 184 26 0 183 26 0 183 26 0 183 26 0 183 26 0 183 26
0 182 26 0 182 26 0 182 26 0 182 26 0 182 26 0 182 26 0 181 26 0 181
26 0 181 26 0 181 26 0 181 26 0 180 26 0 180 26 0 180 26 0 180 26 0
180 26 0 0 0 154 0 0 154 0 0 154 0 0 154 0 0 153 0 0 153 0 0 153 0 0
153 255 26 241 255 26 246 205 26 180 255 195 168 255 195 168 255 195
168 255 195 168 255 195 168 255 241 26 255 207 152 255 207 152 255 207
152 255 207 152 255 208 152 255 242 26 161 136 26 107 81 26 51 26 26
239 213 26 239 213 26 239 213 26 238 213 26 238 213 26 238 212 26 166
140 26 255 143 0 255 143 0 255 143 0 255 143 0 255 143 0 255 143 0 255
143 0 255 143 0 255 143 0 255 143 0 255 143 0 255 143 0 0 0 146 0 0
146 0 0 146 0 0 146 0 0 146 0 0 146 0 0 145 0 0 145 0 0 145 0 0 145 0
0 145 0 0 145 0 0 144 0 0 144 0 0 144 255 144 0 255 144 0 255 144 0
255 144 0 255 144 0 255 144 0 255 145 0 255 145 0 255 145 0 255 145 0
255 145 0 255 145 0 255 145 0 255 145 0 255 145 0 255 145 0 255 145 0
255 145 0 255 145 0 255 145 0 255 145 0 255 145 0 255 145 0 255 145 0
255 145 0 255 145 0 255 145 0 255 145 0 255 145 0 255 146 0 0 0 139 0
0 139 0 0 139 0 0 139 0 0 139 0 0 139 0 0 138 0 0 138 0 0 138 0 0 138
0 0 138 0 0 138 0 0 137 0 0 137 0 0 137 0 0 137 0 0 137 0 0 137 0 0
137 0 0 136 0 0 136 0 0 136 0 0 136 0 0 136 0 0 136 0 0 136 0 0 135 0
0 135 0 0 135 0 0 135 0 0 135 0 0 135 0 0 135 0 0 134 0 0 134 0 0 134
0 0 134 0 0 134 0 0 134 0 0 134 0 0 133 0 0 133 0 0 133 0 0 133 0 0
133 0 0 133 0 0 133 0 0 132 0 0 132 0 0 132
0 0 170 0 0 170 0 0 170 0 0 170 0 0 169 0 0 169 0 0 169 0 0 169 0 0
169 0 0 168 0 0 168 0 0 168 0 0 168 0 0 168 0 0 167 0 0 167 0 0 167 0
0 167 0 0 167 0 0 167 0 0 166 0 0 166 0 0 166 0 0 166 0 0 166 255 136
0 255 137 0 255 137 0 255 137 0 255 137 0 255 137 0 255 137 0 255 137
0 255 137 0 255 137 0 255 137 0 255 137 0 255 137 0 255 137 0 255 138
0 255 138 0 255 138 0 255 138 0 255 138 0 188 26 0 187 26 0 187 26 0
187 26 0 187 26 0 187 26 0 186 26 0 186 26 0 186 26 0 186 26 0 186 26
0 0 0 160 0 0 160 0 0 160 0 0 159 0 0 159 0 0 159 0 0 159 184 26 0 184
26 0 184 26 0 184 26 0 184 26 0 183 26 0 183 26 0 183 26 0 183 26 0
183 26 0 182 26 0 182 26 0 182 26 0 182 26 0 182 26 0 182 26 0 181 26
0 181 26 0 181 26 0 181 26 0 181 26 0 181 26 0 180 26 0 0 0 155 0 0
155 0 0 154 0 0 154 0 0 154 0 0 154 0 0 154 0 0 153 0 0 153 255 26 240
255 26 241 255 26 246 205 26 180 205 26 180 142 117 26 142 117 26 142
117 26 196 117 79 196 117 79 132 107 26 132 107 26 255 207 152 255 207
152 255 207 152 255 242 26 161 136 26 236 210 26 236 210 26 239 213 26
239 213 26 238 213 26 238 213 26 238 213 26 238 212 26 166 140 26 255
143 0 255 143 0 255 143 0 255 143 0 255 143 0 255 143 0 255 144 0 255
144 0 255 144 0 255 144 0 255 144 0 255 144 0 255 144 0 255 144 0 255
144 0 255 144 0 255 144 0 255 144 0 0 0 146 0 0 146 0 0 145 0 0 145 0
0 145 0 0 145 0 0 145 0 0 145 255 145 0 255 145 0 255 145 0 255 145 0
255 145 0 255 145 0 255 145 0 255 145 0 255 145 0 255 145 0 255 145 0
255 145 0 255 145 0 255 145 0 255 145 0 255 145 0 255 145 0 255 145 0
255 145 0 255 145 0 255 146 0 255 146 0 255 146 0 255 146 0 255 146 0
255 146 0 255 146 0 255 146 0 255 146 0 255 146 0 0 0 140 0 0 140 0 0
139 0 0 139 0 0 139 0 0 139 0 0 139 0 0 139 0 0 139 0 0 138 0 0 138 0
0 138 0 0 138 0 0 138 0 0 26 0 0 26 0 0 26 0 0 26 0 0 137 0 0 137 0 0
137 0 0 137 0 0 136 0 0 136 0 0 136 0 0 136 0 0 136 0 0 136 0 0 136 0
0 135 255 147 0 255 147 0 255 147 0 255 147 0 255 147 0 255 147 0 255
147 0 255 147 0 0 0 134 0 0 134 0 0 134 0 0 134 0 0 134 0 0 133 0 0
133 0 0 133 0 0 133 0 0 133 0 0 133 0 0 133 0 0 26
0 0 170 0 0 170 0 0 170 0 0 170 0 0 170 0 0 169 0 0 169 0 0 169 0 0
169 0 0 169 0 0 168 0 0 168 0 0 168 0 0 168 0 0 168 0 0 168 0 0 167 0
0 167 0 0 167 0 0 167 0 0 167 0 0 166 0 0 166 255 137 0 255 137 0 255
137 0 255 137 0 255 137 0 255 137 0 255 137 0 255 137 0 255 137 0 255
137 0 255 137 0 255 138 0 255 138 0 255 138 0 255 138 0 255 138 0 255
138 0 255 138 0 255 138 0 255 138 0 255 138 0 255 138 0 255 138 0 187
26 0 187 26 0 187 26 0 187 26 0 187 26 0 186 26 0 186 26 0 186 26 0 0
0 160 0 0 160 0 0 160 0 0 160 0 0 160 0 0 160 0 0 159 0 0 159 0 0 159
0 0 159 0 0 159 0 0 158 0 0 158 0 0 158 183 26 0 183 26 0 183 26 0 183
26 0 183 26 0 183 26 0 182 26 0 182 26 0 182 26 0 182 26 0 182 26 0
181 26 0 181 26 0 181 26 0 181 26 0 181 26 0 0 0 155 0 0 155 0 0 155 0
0 155 0 0 154 0 0 154 0 0 154 0 0 154 0 0 154 0 0 154 255 26 240 255
26 240 255 26 241 200 26 174 200 26 174 200 26 174 126 38 89 196 117
79 196 117 79 196 117 79 132 106 26 132 106 26 132 106 26 132 106 26
132 106 26 132 107 26 236 210 26 236 210 26 236 210 26 239 213 26 239
213 26 238 213 26 238 213 26 255 230 26 255 230 26 255 230 26 255 144
0 255 144 0 255 144 0 255 144 0 255 144 0 255 144 0 255 144 0 255 144
0 255 144 0 255 144 0 255 144 0 255 144 0 255 144 0 255 144 0 255 144
0 255 144 0 255 144 0 255 145 0 255 145 0 255 145 0 255 145 0 255 145
0 255 145 0 255 145 0 0 0 145 255 145 0 255 145 0 255 145 0 255 145 0
255 145 0 255 145 0 255 145 0 255 145 0 255 145 0 255 145 0 255 145 0
255 145 0 255 146 0 255 146 0 255 146 0 255 146 0 255 146 0 255 146 0
255 146 0 255 146 0 255 146 0 255 146 0 255 146 0 255 146 0 255 146 0
255 146 0 255 146 0 255 146 0 255 146 0 255 146 0 255 146 0 0 0 140 0
0 140 0 0 140 0 0 140 0 0 139 0 0 139 0 0 139 0 0 139 0 0 139 0 0 26 0
0 26 0 0 26 0 0 26 0 0 26 0 0 26 0 0 26 0 0 26 0 0 26 0 0 26 0 0 26 0
0 26 0 0 137 0 0 137 0 0 137 0 0 136 0 0 136 0 0 136 0 0 136 0 0 136 0
0 136 255 147 0 255 147 0 255 147 0 255 147 0 255 147 0 255 147 0 255
147 0 255 148 0 255 148 0 255 148 0 255 148 0 255 148 0 255 148 0 173
148 0 0 0 26 0 0 26 0 0 26 0 0 26 0 0 26 0 0 26 0 0 26
0 0 170 0 0 170 0 0 170 0 0 170 0 0 170 0 0 170 0 0 169 0 0 169 0 0
169 0 0 169 0 0 169 0 0 168 0 0 168 0 0 168 0 0 168 0 0 168 0 0 168 0
0 167 0 0 167 0 0 167 0 0 167 0 0 167 255 137 0 255 137 0 255 137 0
255 137 0 255 137 0 255 137 0 255 137 0 255 138 0 255 138 0 255 138 0
255 138 0 255 138 0 255 138 0 255 138 0 255 138 0 255 138 0 255 138 0
255 138 0 255 138 0 255 138 0 255 139 0 255 139 0 255 139 0 255 139 0
255 139 0 187 26 0 187 26 0 187 26 0 187 26 0 187 26 0 0 0 161 0 0 161
0 0 161 0 0 160 0 0 160 0 0 160 0 0 160 0 0 160 0 0 160 0 0 159 0 0
159 0 0 159 0 0 159 0 0 159 0 0 159 0 0 158 0 0 158 0 0 158 0 0 158 0
0 158 0 0 157 183 26 0 183 26 0 182 26 0 182 26 0 182 26 0 182 26 0
182 26 0 182 26 0 181 26 0 181 26 0 0 0 156 0 0 155 0 0 155 0 0 155 0
0 155 0 0 155 0 0 154 0 0 154 0 0 154 0 0 154 255 26 240 255 35 240
255 35 240 255 138 174 255 138 174 255 139 174 200 26 174 200 26 174
126 38 88 126 38 88 195 117 79 132 106 26 132 106 26 132 106 26 132
106 26 132 106 26 235 209 26 235 210 26 235 210 26 235 210 26 236 210
26 239 213 26 255 230 26 255 230 26 255 230 26 255 230 26 255 230 26
166 140 26 255 144 0 255 144 0 255 144 0 255 144 0 255 144 0 255 144 0
255 144 0 255 144 0 255 144 0 255 145 0 255 145 0 255 145 0 255 145 0
255 145 0 255 145 0 255 145 0 255 145 0 255 145 0 255 145 0 255 145 0
255 145 0 255 145 0 255 145 0 255 145 0 0 0 145 0 0 145 0 0 145 0 0
145 0 0 144 255 146 0 255 146 0 255 146 0 255 146 0 255 146 0 255 146
0 255 146 0 255 146 0 255 146 0 255 146 0 255 146 0 255 146 0 255 146
0 255 146 0 255 146 0 255 146 0 255 146 0 255 146 0 255 146 0 255 146
0 255 146 0 255 147 0 255 147 0 255 147 0 255 147 0 0 0 140 0 0 140 0
0 140 0 0 140 0 0 140 0 0 26 0 0 26 0 0 26 0 0 26 0 0 26 0 0 26 0 0 26
0 0 26 0 0 26 0 0 26 0 0 26 0 0 26 0 0 26 0 0 26 0 0 26 0 0 26 0 0 26
0 0 26 0 0 26 0 0 26 0 0 137 0 0 137 0 0 136 0 0 136 0 0 136 0 0 136
255 148 0 255 148 0 255 148 0 255 148 0 255 148 0 255 148 0 255 148 0
255 148 0 255 148 0 173 148 0 174 148 0 174 148 0 174 148 0 174 148 0
174 148 0 174 148 0 174 148 0 174 148 0 174 148 0 174 148 0 174 148 0
255 136 0 0 0 171 0 0 170 0 0 170 0 0 170 0 0 170 0 0 170 0 0 169 0 0
169 0 0 169 0 0 169 0 0 169 0 0 169 0 0 168 0 0 168 0 0 168 0 0 168 0
0 168 0 0 167 0 0 167 255 137 0 255 137 0 255 137 0 255 137 0 255 138
0 255 138 0 255 138 0 255 138 0 255 138 0 255 138 0 255 138 0 255 138
0 255 138 0 255 138 0 255 138 0 255 138 0 255 138 0 255 139 0 255 139
0 255 139 0 255 139 0 255 139 0 255 139 0 255 139 0 255 139 0 255 139
0 255 139 0 255 139 0 255 139 0 187 26 0 187 26 0 0 0 161 0 0 161 0 0
161 0 0 161 0 0 161 0 0 161 0 0 160 0 0 160 0 0 160 0 0 160 0 0 160 0
0 159 0 0 159 0 0 159 0 0 159 0 0 159 0 0 159 0 0 158 0 0 158 0 0 158
0 0 158 0 0 158 0 0 158 0 0 157 0 0 157 0 0 157 0 0 157 182 26 0 182
26 0 182 26 0 182 26 0 0 0 156 0 0 156 0 0 156 0 0 155 0 0 155 0 0 155
0 0 155 0 0 155 0 0 155 0 0 154 0 0 154 255 35 240 255 35 240 255 35
240 255 138 174 255 138 174 255 138 174 255 139 174 255 139 174 255
139 174 199 26 174 126 38 88 131 106 26 132 106 26 203 178 26 203 178
26 203 178 26 235 209 26 235 209 26 235 209 26 235 209 26 235 209 26
255 231 26 255 230 26 255 230 26 255 230 26 255 230 26 255 230 26 255
230 26 255 144 0 255 144 0 255 144 0 255 145 0 255 145 0 255 145 0 255
145 0 255 145 0 255 145 0 255 145 0 255 145 0 255 145 0 255 145 0 255
145 0 255 145 0 255 145 0 255 145 0 255 145 0 255 145 0 255 145 0 255
145 0 255 146 0 255 146 0 0 0 146 0 0 145 0 0 145 0 0 145 0 0 145 0 0
145 0 0 145 0 0 144 0 0 144 0 0 144 0 0 144 0 0 144 255 146 0 255 146
0 255 146 0 255 146 0 255 146 0 255 146 0 255 147 0 255 147 0 255 147
0 255 147 0 255 147 0 255 147 0 255 147 0 255 147 0 255 147 0 255 147
0 255 147 0 255 147 0 255 147 0 0 0 141 0 0 141 0 0 26 0 0 26 0 0 26 0
0 26 0 0 26 0 0 26 0 0 26 0 0 26 0 0 26 0 0 26 0 0 26 0 0 26 0 0 26 0
0 26 0 0 26 0 0 26 0 0 26 0 0 26 0 0 26 0 0 26 0 0 26 0 0 26 0 0 26 0
0 26 0 0 137 0 0 137 0 0 137 0 0 136 0 0 136 255 148 0 255 148 0 255
148 0 255 148 0 255 148 0 174 148 0 174 148 0 174 148 0 174 148 0 174
148 0 174 148 0 174 148 0 174 148 0 174 148 0 174 149 0 174 149 0 174
149 0 174 149 0 174 149 0 174 149 0 174 149 0
255 136 0 255 136 0 255 136 0 255 136 0 255 136 0 0 0 170 0 0 170 0 0
170 0 0 169 0 0 169 0 0 169 0 0 169 0 0 169 0 0 169 0 0 168 0 0 168 0
0 168 0 0 168 255 137 0 255 138 0 255 138 0 255 138 0 255 138 0 255
138 0 255 138 0 255 138 0 255 138 0 255 138 0 255 138 0 255 138 0 255
138 0 255 138 0 255 139 0 255 139 0 255 139 0 255 139 0 255 139 0 255
139 0 255 139 0 255 139 0 255 139 0 255 139 0 255 139 0 255 139 0 255
139 0 255 140 0 255 140 0 255 140 0 255 140 0 0 0 162 0 0 162 0 0 162
0 0 161 0 0 161 0 0 161 0 0 161 0 0 161 0 0 161 0 0 160 0 0 160 0 0
160 0 0 160 0 0 160 0 0 159 0 0 159 0 0 159 0 0 159 0 0 159 0 0 159 0
0 158 0 0 158 0 0 158 0 0 158 0 0 158 0 0 158 0 0 157 0 0 157 0 0 157
0 0 157 0 0 157 0 0 156 182 26 0 182 26 0 181 26 0 0 0 156 0 0 156 0 0
155 0 0 155 0 0 155 0 0 155 0 0 155 0 0 155 0 0 154 255 35 240 255 35
240 255 35 240 255 138 174 255 138 174 255 138 174 255 138 174 255 139
174 255 139 174 255 139 174 255 139 174 255 139 174 255 177 136 203
178 26 203 178 26 203 178 26 234 209 26 235 209 26 235 209 26 235 209
26 235 209 26 255 230 26 255 230 26 255 230 26 255 230 26 255 230 26
255 230 26 255 230 26 255 145 0 255 145 0 255 145 0 255 145 0 255 145
0 255 145 0 255 145 0 255 145 0 255 145 0 255 145 0 255 145 0 255 145
0 255 145 0 255 146 0 255 146 0 255 146 0 255 146 0 255 146 0 255 146
0 255 146 0 255 146 0 255 146 0 0 0 146 0 0 146 0 0 146 0 0 145 0 0
145 0 0 145 0 0 145 0 0 145 0 0 145 0 0 145 0 0 144 0 0 144 0 0 144 0
0 144 0 0 144 0 0 144 0 0 143 0 0 143 0 0 143 255 147 0 255 147 0 255
147 0 255 147 0 255 147 0 255 147 0 255 147 0 255 147 0 255 147 0 255
147 0 255 147 0 173 147 0 173 147 0 0 0 26 0 0 26 0 0 26 0 0 26 0 0 26
0 0 26 0 0 26 0 0 26 0 0 26 0 0 26 0 0 26 0 0 26 0 0 26 0 0 26 0 0 26
0 0 26 0 0 26 0 0 26 0 0 26 0 0 26 0 0 26 0 0 26 0 0 26 0 0 26 0 0 26
0 0 26 0 0 26 0 0 26 0 0 137 0 0 137 0 0 136 255 149 0 255 149 0 174
149 0 174 149 0 174 149 0 174 149 0 174 149 0 174 149 0 174 149 0 174
149 0 174 149 0 174 149 0 174 149 0 174 149 0 174 149 0 174 149 0 174
149 0 174 149 0 175 149 0 175 149 0 175 149 0
255 136 0 255 136 0 255 136 0 255 137 0 255 137 0 255 137 0 255 137 0
255 137 0 255 137 0 255 137 0 0 0 169 0 0 169 0 0 169 0 0 169 0 0 169
0 0 168 0 0 168 255 138 0 255 138 0 255 138 0 255 138 0 255 138 0 255
138 0 255 138 0 255 138 0 255 138 0 255 138 0 255 139 0 255 139 0 255
139 0 255 139 0 255 139 0 255 139 0 255 139 0 255 139 0 255 139 0 255
139 0 255 139 0 255 139 0 255 139 0 255 140 0 255 140 0 255 140 0 255
140 0 255 140 0 255 140 0 255 140 0 255 140 0 0 0 162 0 0 162 0 0 162
0 0 162 0 0 162 0 0 161 0 0 161 0 0 161 0 0 161 0 0 161 0 0 161 0 0
160 0 0 160 0 0 160 0 0 160 0 0 160 0 0 160 0 0 159 0 0 159 0 0 159 0
0 159 0 0 159 0 0 158 0 0 158 0 0 158 0 0 158 0 0 158 0 0 158 0 0 157
0 0 157 0 0 157 0 0 157 182 26 0 182 26 0 182 26 0 182 26 0 182 26 0
181 26 0 181 26 0 181 26 0 181 26 0 0 0 155 0 0 155 0 0 155 0 0 155
255 26 240 255 35 240 255 35 240 255 138 174 255 138 174 255 138 174
255 138 174 255 139 174 255 139 174 255 139 174 255 139 174 255 139
173 255 177 136 255 177 136 255 178 135 255 178 135 255 209 82 255 209
82 255 209 82 255 209 82 235 209 26 255 230 26 255 230 26 255 230 26
255 230 26 255 230 26 255 230 26 255 230 26 255 145 0 255 145 0 255
145 0 255 145 0 255 145 0 255 145 0 255 145 0 255 146 0 255 146 0 255
146 0 255 146 0 255 146 0 255 146 0 255 146 0 255 146 0 255 146 0 255
146 0 255 146 0 255 146 0 255 146 0 255 146 0 255 146 0 0 0 146 0 0
146 0 0 146 0 0 146 0 0 146 0 0 145 0 0 145 0 0 145 0 0 145 0 0 145 0
0 145 0 0 144 0 0 144 0 0 144 0 0 144 0 0 144 0 0 144 0 0 143 0 0 143
0 0 143 0 0 143 0 0 143 0 0 143 0 0 143 0 0 142 255 148 0 255 148 0
173 148 0 173 148 0 173 148 0 173 148 0 0 0 26 0 0 26 0 0 26 0 0 26 0
0 26 0 0 26 0 0 26 0 0 26 0 0 26 0 0 26 0 0 26 0 0 26 0 0 26 0 0 26 0
0 26 0 0 26 0 0 26 0 0 26 0 0 26 0 0 26 0 0 26 0 0 26 0 0 26 0 0 26 0
0 26 0 0 26 0 0 26 0 0 26 0 0 26 0 0 26 0 0 26 0 0 26 174 149 0 174
149 0 175 149 0 175 149 0 175 149 0 175 149 0 175 149 0 175 149 0 175
149 0 175 149 0 175 149 0 175 149 0 175 149 0 175 149 0 175 149 0 175
149 0 175 149 0 175 149 0 175 149 0 175 149 0 175 149 0
255 137 0 255 137 0 255 137 0 255 137 0 255 137 0 255 137 0 255 137 0
255 137 0 255 137 0 255 137 0 255 138 0 255 138 0 255 138 0 255 138 0
255 138 0 255 138 0 255 138 0 255 138 0 255 138 0 255 138 0 255 138 0
255 138 0 255 138 0 255 139 0 255 139 0 255 139 0 255 139 0 255 139 0
255 139 0 255 139 0 255 139 0 255 139 0 255 139 0 255 139 0 255 139 0
255 140 0 255 140 0 255 140 0 255 140 0 255 140 0 255 140 0 255 140 0
255 140 0 255 140 0 255 140 0 255 140 0 255 140 0 0 0 163 0 0 163 0 0
162 0 0 162 0 0 162 0 0 162 0 0 162 0 0 161 0 0 161 0 0 161 0 0 161 0
0 161 0 0 161 0 0 160 0 0 160 0 0 160 0 0 160 0 0 160 0 0 160 0 0 159
0 0 159 0 0 159 0 0 159 0 0 159 0 0 158 0 0 158 0 0 158 0 0 158 0 0
158 0 0 158 0 0 157 183 26 0 183 26 0 182 26 0 182 26 0 182 26 0 182
26 0 182 26 0 182 26 0 181 26 0 181 26 0 181 26 0 181 26 0 181 26 0
181 26 0 255 35 240 255 26 240 255 26 240 255 35 240 255 138 174 255
138 174 255 138 174 255 138 174 255 138 174 255 139 173 255 139 173
255 139 173 255 139 173 255 177 136 255 177 135 255 177 135 255 178
135 255 209 82 255 209 82 255 209 82 255 209 82 255 209 82 255 209 82
255 230 26 255 230 26 255 230 26 255 230 26 255 230 26 255 229 26 255
229 26 255 146 0 255 146 0 255 146 0 255 146 0 255 146 0 255 146 0 255
146 0 255 146 0 255 146 0 255 146 0 255 146 0 255 146 0 255 146 0 255
146 0 255 146 0 255 146 0 255 146 0 255 147 0 255 147 0 255 147 0 0 0
147 0 0 146 0 0 146 0 0 146 0 0 146 0 0 146 0 0 146 0 0 145 0 0 145 0
0 145 0 0 145 0 0 145 0 0 145 0 0 145 0 0 144 0 0 144 0 0 144 0 0 144
0 0 144 0 0 144 0 0 143 0 0 143 0 0 143 0 0 143 0 0 143 0 0 143 0 0
143 0 0 142 0 0 26 0 0 26 0 0 26 0 0 26 0 0 26 0 0 26 0 0 26 0 0 26 0
0 26 0 0 26 0 0 26 0 0 26 0 0 26 0 0 26 0 0 26 0 0 26 0 0 26 0 0 26 0
0 26 0 0 26 0 0 26 0 0 26 0 0 26 0 0 26 0 0 26 0 0 26 0 0 26 0 0 26 0
0 26 0 0 26 0 0 26 0 0 26 0 0 26 0 0 26 0 0 26 0 0 26 175 149 0 175
149 0 175 149 0 175 149 0 175 149 0 175 149 0 175 150 0 175 150 0 175
150 0 175 150 0 175 150 0 175 150 0 175 150 0 175 150 0 175 150 0 175
150 0 175 150 0 175 150 0 175 150 0 175 150 0 175 150 0
255 137 0 255 137 0 255 137 0 255 137 0 255 137 0 255 137 0 255 138 0
255 138 0 255 138 0 255 138 0 255 138 0 255 138 0 255 138 0 0 0 169 0
0 169 0 0 169 0 0 169 0 0 168 0 0 168 255 139 0 255 139 0 255 139 0
255 139 0 255 139 0 255 139 0 255 139 0 255 139 0 255 139 0 255 139 0
255 139 0 255 139 0 255 140 0 255 140 0 255 140 0 255 140 0 255 140 0
255 140 0 255 140 0 255 140 0 255 140 0 255 140 0 255 140 0 255 140 0
255 141 0 255 141 0 0 0 163 0 0 163 0 0 163 0 0 163 0 0 163 0 0 162 0
0 162 0 0 162 0 0 162 0 0 162 0 0 162 0 0 161 0 0 161 0 0 161 0 0 161
0 0 161 0 0 160 0 0 160 0 0 160 0 0 160 0 0 160 0 0 160 0 0 159 0 0
159 0 0 159 0 0 159 0 0 159 0 0 159 0 0 158 0 0 158 0 0 158 0 0 158
183 26 0 183 26 0 183 26 0 183 26 0 182 26 0 182 26 0 182 26 0 182 26
0 182 26 0 182 26 0 181 26 0 181 26 0 181 26 0 181 26 0 255 144 0 255
35 240 255 26 240 255 26 240 255 133 181 255 133 181 255 138 174 255
138 174 255 138 174 255 138 173 255 139 173 255 139 173 255 139 173
255 139 173 255 177 135 255 177 135 255 177 135 255 177 135 255 209 82
255 209 82 255 209 82 255 209 82 255 209 82 255 209 82 255 230 26 255
230 26 255 230 26 255 230 26 243 218 26 243 218 26 243 218 26 255 146
0 255 146 0 255 146 0 255 146 0 255 146 0 255 146 0 255 146 0 255 146
0 255 146 0 255 146 0 255 147 0 255 147 0 255 147 0 255 147 0 255 147
0 255 147 0 255 147 0 255 147 0 255 147 0 0 0 147 0 0 147 0 0 147 0 0
146 0 0 146 0 0 146 0 0 146 0 0 146 0 0 146 0 0 146 0 0 145 0 0 145 0
0 145 0 0 145 0 0 145 0 0 145 0 0 144 0 0 144 0 0 144 0 0 144 0 0 144
0 0 144 0 0 144 0 0 143 0 0 143 0 0 143 0 0 143 0 0 143 0 0 143 0 0
142 0 0 26 0 0 26 174 149 0 174 149 0 174 149 0 174 149 0 174 149 0
174 149 0 174 149 0 0 0 26 0 0 26 0 0 26 0 0 26 0 0 26 0 0 26 0 0 26 0
0 26 0 0 26 0 0 26 0 0 26 0 0 26 0 0 26 0 0 26 0 0 26 0 0 26 0 0 26 0
0 26 0 0 26 0 0 26 0 0 26 0 0 26 0 0 26 0 0 26 0 0 26 175 150 0 175
150 0 175 150 0 175 150 0 175 150 0 175 150 0 175 150 0 175 150 0 175
150 0 175 150 0 175 150 0 175 150 0 176 150 0 176 150 0 176 150 0 176
150 0 176 150 0 176 150 0 176 150 0 176 150 0 176 150 0 176 150 0
255 137 0 255 138 0 255 138 0 255 138 0 255 138 0 255 138 0 255 138 0
255 138 0 255 138 0 255 138 0 255 138 0 255 138 0 0 0 169 0 0 169 0 0
169 0 0 169 0 0 169 0 0 169 0 0 168 0 0 168 0 0 168 0 0 168 0 0 168 0
0 167 255 139 0 255 139 0 255 140 0 255 140 0 255 140 0 255 140 0 255
140 0 255 140 0 255 140 0 255 140 0 255 140 0 255 140 0 255 140 0 255
140 0 255 140 0 255 141 0 255 141 0 255 141 0 255 141 0 255 141 0 0 0
164 0 0 163 0 0 163 0 0 163 0 0 163 0 0 163 0 0 163 0 0 162 0 0 162 0
0 162 0 0 162 0 0 162 0 0 162 0 0 161 0 0 161 0 0 161 0 0 161 0 0 161
0 0 160 0 0 160 0 0 160 0 0 160 0 0 160 0 0 160 0 0 159 0 0 159 0 0
159 0 0 159 0 0 159 0 0 159 0 0 158 0 0 158 184 26 0 183 26 0 183 26 0
183 26 0 183 26 0 183 26 0 182 26 0 182 26 0 182 26 0 182 26 0 182 26
0 182 26 0 181 26 0 255 144 0 255 144 0 255 144 0 255 35 239 255 26
240 255 26 240 255 132 181 255 133 181 255 133 181 255 133 181 255 133
181 255 133 181 255 138 173 255 139 173 255 139 173 255 139 173 255
177 135 255 177 135 255 177 135 255 177 135 255 208 82 255 208 82 255
209 82 255 209 82 255 209 82 255 209 82 255 230 26 255 230 26 243 218
26 243 218 26 243 218 26 243 218 26 243 217 26 255 146 0 255 146 0 255
146 0 255 146 0 255 147 0 255 147 0 255 147 0 255 147 0 255 147 0 255
147 0 255 147 0 255 147 0 255 147 0 255 147 0 255 147 0 255 147 0 255
147 0 255 147 0 255 147 0 0 0 147 0 0 147 0 0 147 0 0 147 0 0 147 0 0
146 0 0 146 0 0 146 0 0 146 0 0 146 0 0 146 0 0 145 0 0 145 0 0 145 0
0 145 0 0 145 0 0 145 0 0 145 0 0 144 0 0 144 0 0 144 0 0 144 0 0 144
0 0 144 0 0 143 0 0 143 0 0 143 0 0 143 0 0 143 0 0 143 0 0 26 0 0 26
174 149 0 174 149 0 174 149 0 175 149 0 175 149 0 175 149 0 175 149 0
175 149 0 175 149 0 175 149 0 175 149 0 175 149 0 0 0 26 0 0 26 0 0 26
0 0 26 0 0 26 0 0 26 0 0 26 0 0 26 0 0 26 0 0 26 0 0 26 0 0 26 0 0 26
0 0 26 0 0 26 0 0 26 0 0 26 0 0 26 0 0 26 0 0 26 176 150 0 176 150 0
176 150 0 176 150 0 176 150 0 176 150 0 176 150 0 176 150 0 176 150 0
176 150 0 176 150 0 176 150 0 176 150 0 176 150 0 176 150 0 176 150 0
176 151 0 176 151 0 176 151 0 176 151 0 176 151 0 176 151 0
255 138 0 255 138 0 255 138 0 255 138 0 255 138 0 255 138 0 255 138 0
255 138 0 255 138 0 255 139 0 0 0 170 0 0 170 0 0 170 0 0 169 0 0 169
0 0 169 0 0 169 0 0 169 0 0 169 0 0 168 0 0 168 0 0 168 0 0 168 0 0
168 0 0 167 0 0 167 0 0 167 0 0 167 0 0 167 255 140 0 255 140 0 255
140 0 255 140 0 255 140 0 255 141 0 255 141 0 255 141 0 255 141 0 255
141 0 255 141 0 255 141 0 255 141 0 0 0 164 0 0 164 0 0 164 0 0 164 0
0 163 0 0 163 0 0 163 0 0 163 0 0 163 0 0 163 0 0 162 0 0 162 0 0 162
0 0 162 0 0 162 0 0 162 0 0 161 0 0 161 0 0 161 0 0 161 0 0 161 0 0
160 0 0 160 0 0 160 0 0 160 0 0 160 0 0 160 0 0 159 0 0 159 0 0 159 0
0 159 0 0 159 0 0 159 184 26 0 184 26 0 184 26 0 183 26 0 183 26 0 183
26 0 183 26 0 183 26 0 183 26 0 182 26 0 182 26 0 182 26 0 255 144 0
255 145 0 255 145 0 255 145 0 255 145 0 255 35 239 255 26 239 255 26
240 255 132 181 255 133 181 255 133 181 255 133 181 255 133 181 255
133 181 255 145 156 255 145 156 255 145 156 255 145 156 255 177 135
255 177 135 255 177 135 255 190 97 255 190 97 255 190 97 255 190 97
255 190 97 255 190 97 255 190 97 244 218 26 243 218 26 243 218 26 243
218 26 243 218 26 243 217 26 243 217 26 255 147 0 255 147 0 255 147 0
255 147 0 255 147 0 255 147 0 255 147 0 255 147 0 255 147 0 255 147 0
255 147 0 255 147 0 255 147 0 255 147 0 255 147 0 255 148 0 255 148 0
255 148 0 0 0 148 0 0 147 0 0 147 0 0 147 0 0 147 0 0 147 0 0 147 0 0
146 0 0 146 0 0 146 0 0 146 0 0 146 0 0 146 0 0 146 0 0 145 0 0 145 0
0 145 0 0 145 0 0 145 0 0 145 0 0 144 0 0 144 0 0 144 0 0 144 0 0 144
0 0 144 0 0 144 0 0 143 0 0 143 0 0 143 0 0 143 0 0 26 0 0 26 175 149
0 175 149 0 175 149 0 175 149 0 175 149 0 175 149 0 175 150 0 175 150
0 175 150 0 175 150 0 175 150 0 175 150 0 175 150 0 175 150 0 175 150
0 175 150 0 175 150 0 175 150 0 0 0 26 0 0 26 0 0 26 0 0 26 0 0 26 0 0
26 0 0 26 0 0 26 0 0 26 0 0 26 0 0 26 0 0 26 0 0 26 0 0 26 176 150 0
176 150 0 176 151 0 176 151 0 176 151 0 176 151 0 176 151 0 176 151 0
176 151 0 176 151 0 176 151 0 176 151 0 176 151 0 176 151 0 176 151 0
176 151 0 176 151 0 176 151 0 176 151 0 176 151 0 176 151 0 177 151 0
255 138 0 255 138 0 255 138 0 255 138 0 255 138 0 255 139 0 255 139 0
255 139 0 0 0 171 0 0 170 0 0 170 0 0 170 0 0 170 0 0 170 0 0 169 0 0
169 0 0 169 0 0 169 0 0 169 0 0 169 0 0 168 0 0 168 0 0 168 0 0 168 0
0 168 0 0 167 0 0 167 0 0 167 0 0 167 0 0 167 0 0 167 0 0 166 0 0 166
255 141 0 255 141 0 255 141 0 255 141 0 255 141 0 255 141 0 255 141 0
255 141 0 0 0 165 0 0 164 0 0 164 0 0 164 0 0 164 0 0 164 0 0 163 0 0
163 0 0 163 0 0 163 0 0 163 0 0 163 0 0 162 0 0 162 0 0 162 0 0 162 0
0 162 0 0 162 0 0 161 0 0 161 0 0 161 0 0 161 0 0 161 0 0 160 0 0 160
0 0 160 0 0 160 0 0 160 0 0 160 0 0 159 0 0 159 0 0 159 0 0 159 184 26
0 184 26 0 184 26 0 184 26 0 184 26 0 183 26 0 183 26 0 183 26 0 183
26 0 183 26 0 183 26 0 182 26 0 255 145 0 255 145 0 255 145 0 255 145
0 255 145 0 255 145 0 255 35 239 255 26 239 255 26 239 255 132 181 255
132 181 255 133 181 255 133 181 255 133 181 255 133 181 255 145 156
255 145 156 255 145 156 255 145 156 255 177 135 255 177 135 255 177
135 255 177 135 255 190 97 255 190 97 255 190 97 255 190 97 255 190 97
255 190 97 255 190 97 243 218 26 243 218 26 243 218 26 243 217 26 243
217 26 243 217 26 255 147 0 255 147 0 255 147 0 255 147 0 255 147 0
255 147 0 255 147 0 255 147 0 255 147 0 255 148 0 255 148 0 255 148 0
255 148 0 255 148 0 255 148 0 255 148 0 255 148 0 0 0 148 0 0 148 0 0
148 0 0 147 0 0 147 0 0 147 0 0 147 0 0 147 0 0 147 0 0 147 0 0 146 0
0 146 0 0 146 0 0 146 0 0 146 0 0 146 0 0 145 0 0 145 0 0 145 0 0 145
0 0 145 0 0 145 0 0 145 0 0 144 0 0 144 0 0 144 0 0 144 0 0 144 0 0
144 0 0 143 0 0 143 0 0 143 0 0 143 175 150 0 175 150 0 175 150 0 175
150 0 175 150 0 175 150 0 175 150 0 175 150 0 175 150 0 175 150 0 176
150 0 176 150 0 176 150 0 176 150 0 176 150 0 176 150 0 176 150 0 176
150 0 176 150 0 176 150 0 176 150 0 176 150 0 176 150 0 176 150 0 176
151 0 0 0 26 0 0 26 0 0 26 0 0 26 0 0 26 0 0 26 0 0 26 0 0 26 176 151
0 176 151 0 176 151 0 176 151 0 176 151 0 176 151 0 176 151 0 177 151
0 177 151 0 177 151 0 177 151 0 177 151 0 177 151 0 177 151 0 177 151
0 177 151 0 177 151 0 177 151 0 177 151 0 177 151 0 177 151 0 177 151
0
255 139 0 255 139 0 255 139 0 255 139 0 255 139 0 255 139 0 255 139 0
0 0 171 0 0 171 0 0 170 0 0 170 0 0 170 0 0 170 0 0 170 0 0 170 0 0
169 0 0 169 0 0 169 0 0 169 0 0 169 0 0 168 0 0 168 0 0 168 0 0 168 0
0 168 0 0 168 0 0 167 0 0 167 0 0 167 0 0 167 0 0 167 0 0 167 0 0 166
0 0 166 0 0 166 0 0 166 0 0 166 0 0 165 255 142 0 255 142 0 0 0 165 0
0 165 0 0 165 0 0 164 0 0 164 0 0 164 0 0 164 0 0 164 0 0 163 0 0 163
0 0 163 0 0 163 0 0 163 0 0 163 0 0 162 0 0 162 0 0 162 0 0 162 0 0
162 0 0 162 0 0 161 0 0 161 0 0 161 0 0 161 0 0 161 0 0 161 0 0 160 0
0 160 0 0 160 0 0 160 0 0 160 0 0 159 0 0 159 185 26 0 184 26 0 184 26
0 184 26 0 184 26 0 184 26 0 184 26 0 183 26 0 183 26 0 183 26 0 183
26 0 183 26 0 255 145 0 255 145 0 255 145 0 255 145 0 255 145 0 255
145 0 255 145 0 255 35 239 255 26 239 255 26 239 255 132 181 255 132
181 255 132 181 255 133 181 255 133 180 255 133 180 255 145 156 255
145 156 255 145 156 255 145 156 255 177 135 255 177 135 255 177 135
255 177 135 255 190 97 255 190 97 255 190 97 255 190 97 255 190 97 255
190 97 255 190 97 243 218 26 243 218 26 243 217 26 243 217 26 243 217
26 243 217 26 255 147 0 255 147 0 255 147 0 255 148 0 255 148 0 255
148 0 255 148 0 255 148 0 255 148 0 255 148 0 255 148 0 255 148 0 255
148 0 255 148 0 255 148 0 255 148 0 255 148 0 0 0 148 0 0 148 0 0 148
0 0 148 0 0 148 0 0 147 0 0 147 0 0 147 0 0 147 0 0 147 0 0 147 0 0
146 0 0 146 0 0 146 0 0 146 0 0 146 0 0 146 0 0 146 0 0 145 0 0 145 0
0 145 0 0 145 0 0 145 0 0 145 0 0 144 0 0 144 0 0 144 0 0 144 0 0 144
0 0 144 0 0 144 0 0 143 0 0 143 175 150 0 175 150 0 176 150 0 176 150
0 176 150 0 176 150 0 176 150 0 176 150 0 176 150 0 176 150 0 176 150
0 176 150 0 176 150 0 176 150 0 176 151 0 176 151 0 176 151 0 176 151
0 176 151 0 176 151 0 176 151 0 176 151 0 176 151 0 176 151 0 176 151
0 176 151 0 176 151 0 176 151 0 177 151 0 177 151 0 177 151 0 0 0 26 0
0 26 177 151 0 177 151 0 177 151 0 177 151 0 177 151 0 177 151 0 177
151 0 177 151 0 177 151 0 177 151 0 177 151 0 177 152 0 177 152 0 177
152 0 177 152 0 177 152 0 177 152 0 177 152 0 177 152 0 177 152 0 177
152 0 177 152 0
255 139 0 255 139 0 255 139 0 255 139 0 255 139 0 0 0 171 0 0 171 0 0
171 0 0 171 0 0 171 0 0 170 0 0 170 0 0 170 0 0 170 0 0 170 0 0 170 0
0 169 0 0 169 0 0 169 0 0 169 0 0 169 0 0 168 0 0 168 0 0 168 0 0 168
0 0 168 0 0 168 0 0 167 0 0 167 0 0 167 0 0 167 0 0 167 0 0 166 0 0
166 0 0 166 0 0 166 0 0 166 0 0 166 255 142 0 255 142 0 255 142 0 255
142 0 255 142 0 0 0 165 0 0 164 0 0 164 0 0 164 0 0 164 0 0 164 0 0
163 0 0 163 0 0 163 0 0 163 0 0 163 0 0 163 0 0 162 0 0 162 0 0 162 0
0 162 0 0 162 0 0 162 0 0 161 0 0 161 0 0 161 0 0 161 0 0 161 0 0 161
0 0 160 0 0 160 0 0 160 0 0 160 0 0 160 185 26 0 185 26 0 185 26 0 184
26 0 184 26 0 184 26 0 184 26 0 184 26 0 184 26 0 183 26 0 183 26 0
183 26 0 183 26 0 255 145 0 255 145 0 255 145 0 255 146 0 255 146 0
255 146 0 255 146 0 255 35 239 255 35 239 255 26 239 255 132 181 255
132 181 255 132 181 255 133 180 255 133 180 255 133 180 255 145 156
255 145 156 255 145 156 255 145 156 255 177 135 255 177 135 255 177
135 255 177 135 255 189 97 255 190 97 255 190 97 255 190 97 255 190 97
255 190 97 255 190 97 243 217 26 243 217 26 243 217 26 243 217 26 243
217 26 242 217 26 242 217 26 0 0 151 0 0 151 0 0 151 255 148 0 255 148
0 255 148 0 255 148 0 255 148 0 255 148 0 255 148 0 255 148 0 255 148
0 255 148 0 255 149 0 255 149 0 0 0 149 0 0 148 0 0 148 0 0 148 0 0
148 0 0 148 0 0 148 0 0 147 0 0 147 0 0 147 0 0 147 0 0 147 0 0 147 0
0 147 0 0 146 0 0 146 0 0 146 0 0 146 0 0 146 0 0 146 0 0 145 0 0 145
0 0 145 0 0 145 0 0 145 0 0 145 0 0 145 0 0 144 0 0 144 0 0 144 0 0
144 0 0 144 0 0 144 255 150 0 176 150 0 176 150 0 176 150 0 176 150 0
176 150 0 176 151 0 176 151 0 176 151 0 176 151 0 176 151 0 176 151 0
176 151 0 176 151 0 176 151 0 176 151 0 176 151 0 176 151 0 176 151 0
177 151 0 177 151 0 177 151 0 177 151 0 177 151 0 177 151 0 177 151 0
177 151 0 177 151 0 177 151 0 177 151 0 177 151 0 177 151 0 177 151 0
177 152 0 0 0 26 0 0 26 0 0 26 0 0 26 177 152 0 177 152 0 177 152 0
177 152 0 177 152 0 177 152 0 177 152 0 177 152 0 177 152 0 177 152 0
177 152 0 177 152 0 178 152 0 178 152 0 178 152 0 178 152 0 178 152 0
178 152 0
255 139 0 255 139 0 255 139 0 0 0 172 0 0 172 0 0 172 0 0 171 0 0 171
0 0 171 0 0 171 0 0 171 0 0 170 0 0 170 0 0 170 0 0 170 0 0 170 0 0
170 0 0 169 0 0 169 0 0 169 0 0 169 0 0 169 0 0 168 0 0 168 0 0 168 0
0 168 0 0 168 0 0 168 0 0 167 0 0 167 0 0 167 0 0 167 0 0 167 0 0 166
0 0 166 0 0 166 0 0 166 255 142 0 255 142 0 255 142 0 255 142 0 255
142 0 255 143 0 255 143 0 255 143 0 255 143 0 255 143 0 0 0 164 0 0
164 0 0 164 0 0 163 0 0 163 0 0 163 0 0 163 0 0 163 0 0 163 0 0 162 0
0 162 0 0 162 0 0 162 0 0 162 0 0 162 0 0 161 0 0 161 0 0 161 0 0 161
0 0 161 0 0 161 0 0 160 0 0 160 185 26 0 185 26 0 185 26 0 185 26 0
185 26 0 185 26 0 184 26 0 184 26 0 184 26 0 184 26 0 184 26 0 184 26
0 183 26 0 183 26 0 183 26 0 183 26 0 255 146 0 255 146 0 255 146 0
255 146 0 255 146 0 255 35 239 255 35 239 255 35 239 255 35 239 255
132 181 255 132 181 255 132 180 255 132 180 255 133 180 255 144 156
255 145 156 255 145 156 255 145 156 255 145 155 255 176 135 255 177
135 255 177 135 255 177 135 255 189 97 255 189 97 255 189 97 255 190
97 255 190 97 255 190 97 255 190 97 243 217 26 243 217 26 243 217 26
243 217 26 242 217 26 242 217 26 242 217 26 0 0 151 0 0 151 0 0 151 0
0 151 0 0 151 0 0 150 0 0 150 0 0 150 255 149 0 255 149 0 255 149 0
255 149 0 255 149 0 255 149 0 255 149 0 0 0 149 0 0 149 0 0 148 0 0
148 0 0 148 0 0 148 0 0 148 0 0 148 0 0 148 0 0 147 0 0 147 0 0 147 0
0 147 0 0 147 0 0 147 0 0 146 0 0 146 0 0 146 0 0 146 0 0 146 0 0 146
0 0 146 0 0 145 0 0 145 0 0 145 0 0 145 0 0 145 0 0 145 0 0 144 0 0
144 0 0 144 0 0 144 0 0 144 255 151 0 255 151 0 255 151 0 176 151 0
176 151 0 176 151 0 176 151 0 176 151 0 176 151 0 176 151 0 177 151 0
177 151 0 177 151 0 177 151 0 177 151 0 177 151 0 177 151 0 177 151 0
177 151 0 177 151 0 177 151 0 177 151 0 177 151 0 177 152 0 177 152 0
177 152 0 177 152 0 177 152 0 177 152 0 177 152 0 177 152 0 177 152 0
177 152 0 177 152 0 0 0 26 0 0 26 0 0 26 0 0 26 0 0 26 0 0 26 0 0 26 0
0 26 0 0 26 0 0 26 178 152 0 178 152 0 178 152 0 178 152 0 178 152 0
178 152 0 178 152 0 178 152 0 178 152 0 178 152 0 178 152 0 178 153 0
255 140 0 255 140 0 0 0 172 0 0 172 0 0 172 0 0 172 0 0 171 0 0 171 0
0 171 0 0 171 0 0 171 0 0 171 0 0 170 0 0 170 0 0 170 0 0 170 0 0 170
0 0 169 0 0 169 0 0 169 0 0 169 0 0 169 0 0 169 0 0 168 0 0 168 0 0
168 0 0 168 0 0 168 0 0 168 0 0 167 0 0 167 0 0 167 0 0 167 0 0 167 0
0 166 255 142 0 255 142 0 255 143 0 255 143 0 255 143 0 255 143 0 255
143 0 255 143 0 255 143 0 255 143 0 255 143 0 255 143 0 255 143 0 255
143 0 255 143 0 255 144 0 255 144 0 0 0 163 0 0 163 0 0 163 0 0 163 0
0 163 0 0 162 0 0 162 0 0 162 0 0 162 0 0 162 0 0 162 0 0 161 0 0 161
0 0 161 0 0 161 0 0 161 0 0 161 186 26 0 186 26 0 185 26 0 185 26 0
185 26 0 185 26 0 185 26 0 185 26 0 184 26 0 184 26 0 184 26 0 184 26
0 184 26 0 184 26 0 183 26 0 183 26 0 183 26 0 183 26 0 255 146 0 255
146 0 255 146 0 255 146 0 245 26 220 255 35 239 255 35 239 255 35 239
255 132 181 255 132 180 255 132 180 255 132 180 255 133 180 255 144
156 255 144 156 255 145 155 255 145 155 255 145 155 255 176 135 255
176 135 255 177 135 255 177 135 255 177 135 255 189 97 255 189 97 255
189 97 255 190 97 255 190 97 255 190 97 243 217 26 243 217 26 242 217
26 242 217 26 242 217 26 242 217 26 242 217 26 0 0 151 0 0 151 0 0 151
0 0 151 0 0 151 0 0 151 0 0 150 0 0 150 0 0 150 0 0 150 0 0 150 0 0
150 0 0 149 255 149 0 0 0 149 0 0 149 0 0 149 0 0 149 0 0 148 0 0 148
0 0 148 0 0 148 0 0 148 0 0 148 0 0 148 0 0 147 0 0 147 0 0 147 0 0
147 0 0 147 0 0 147 0 0 146 0 0 146 0 0 146 0 0 146 0 0 146 0 0 146 0
0 146 0 0 145 0 0 145 0 0 145 0 0 145 0 0 145 0 0 145 0 0 145 0 0 144
0 0 144 0 0 144 255 151 0 255 151 0 255 151 0 255 151 0 177 151 0 177
151 0 177 151 0 177 151 0 177 151 0 177 151 0 177 151 0 177 151 0 177
151 0 177 151 0 177 152 0 177 152 0 177 152 0 177 152 0 177 152 0 177
152 0 177 152 0 177 152 0 177 152 0 177 152 0 177 152 0 177 152 0 177
152 0 178 152 0 178 152 0 178 152 0 178 152 0 178 152 0 178 152 0 0 0
26 0 0 26 0 0 26 0 0 26 0 0 26 0 0 26 0 0 26 0 0 26 0 0 26 0 0 26 0 0
26 0 0 26 0 0 26 0 0 26 0 0 26 0 0 26 0 0 26 178 153 0 178 153 0 178
153 0 178 153 0 178 153 0 178 153 0
0 0 173 0 0 173 0 0 172 0 0 172 0 0 172 0 0 172 0 0 172 0 0 171 0 0
171 0 0 171 0 0 171 0 0 171 0 0 171 0 0 170 0 0 170 0 0 170 0 0 170 0
0 170 0 0 169 0 0 169 0 0 169 0 0 169 0 0 169 0 0 169 0 0 168 0 0 168
0 0 168 0 0 168 0 0 168 0 0 167 0 0 167 0 0 167 0 0 167 0 0 167 255
143 0 255 143 0 255 143 0 255 143 0 255 143 0 255 143 0 255 143 0 255
143 0 255 143 0 255 143 0 255 143 0 255 143 0 255 144 0 255 144 0 255
144 0 255 144 0 255 144 0 255 144 0 255 144 0 255 144 0 255 144 0 255
144 0 255 144 0 0 0 163 0 0 162 0 0 162 0 0 162 0 0 162 0 0 162 0 0
162 0 0 161 0 0 161 0 0 161 0 0 161 186 26 0 186 26 0 186 26 0 186 26
0 185 26 0 185 26 0 185 26 0 185 26 0 185 26 0 185 26 0 184 26 0 184
26 0 184 26 0 184 26 0 184 26 0 184 26 0 183 26 0 183 26 0 183 26 0
183 26 0 255 147 0 255 147 0 255 147 0 245 26 220 246 26 220 255 35
239 255 132 181 255 132 180 255 132 180 255 132 180 255 132 180 255
132 180 255 144 155 255 144 155 255 145 155 255 145 155 255 145 155
255 176 135 255 176 135 255 176 135 255 177 135 255 177 134 255 189 97
255 189 97 255 189 97 255 189 97 255 189 97 255 190 97 243 217 26 242
217 26 242 217 26 242 217 26 242 217 26 242 217 26 242 216 26 0 0 152
0 0 151 0 0 151 0 0 151 0 0 151 0 0 151 0 0 151 0 0 150 0 0 150 0 0
150 0 0 150 0 0 150 0 0 150 255 150 0 255 150 0 255 150 0 255 150 0
255 150 0 255 150 0 0 0 149 0 0 148 0 0 148 0 0 148 0 0 148 0 0 148 0
0 148 0 0 147 0 0 147 0 0 147 0 0 147 0 0 147 0 0 147 0 0 147 0 0 146
0 0 146 0 0 146 0 0 146 0 0 146 0 0 146 0 0 145 0 0 145 0 0 145 0 0
145 0 0 145 0 0 145 0 0 145 0 0 144 255 151 0 255 151 0 255 151 0 255
151 0 255 151 0 255 151 0 255 152 0 177 152 0 177 152 0 177 152 0 177
152 0 177 152 0 177 152 0 177 152 0 177 152 0 177 152 0 177 152 0 177
152 0 178 152 0 178 152 0 178 152 0 178 152 0 178 152 0 178 152 0 178
152 0 178 152 0 178 152 0 178 152 0 178 152 0 178 152 0 178 152 0 178
152 0 178 153 0 178 153 0 0 0 26 0 0 26 0 0 26 0 0 26 0 0 26 0 0 26 0
0 26 0 0 26 0 0 26 0 0 26 0 0 26 0 0 26 0 0 26 0 0 26 0 0 26 0 0 26 0
0 26 0 0 26 0 0 26 0 0 26 0 0 26 0 0 26 0 0 26
0 0 173 0 0 173 0 0 172 0 0 172 0 0 172 0 0 172 0 0 172 0 0 172 0 0
171 0 0 171 0 0 171 0 0 171 0 0 171 0 0 170 0 0 170 0 0 170 0 0 170 0
0 170 0 0 170 0 0 169 0 0 169 0 0 169 0 0 169 0 0 169 0 0 169 0 0 168
0 0 168 0 0 168 0 0 168 0 0 168 0 0 167 0 0 167 0 0 167 255 143 0 255
143 0 255 143 0 255 143 0 255 143 0 255 143 0 255 143 0 255 143 0 255
143 0 255 144 0 255 144 0 255 144 0 255 144 0 255 144 0 255 144 0 255
144 0 255 144 0 255 144 0 255 144 0 255 144 0 255 144 0 255 144 0 255
145 0 255 145 0 255 145 0 255 145 0 255 145 0 255 145 0 0 0 162 0 0
162 0 0 162 0 0 162 0 0 161 0 0 161 187 26 0 186 26 0 186 26 0 186 26
0 186 26 0 186 26 0 185 26 0 185 26 0 185 26 0 185 26 0 185 26 0 185
26 0 184 26 0 184 26 0 184 26 0 184 26 0 184 26 0 184 26 0 183 26 0
183 26 0 183 26 0 183 26 0 255 147 0 255 147 0 245 26 220 246 26 220
246 26 220 255 132 180 255 132 180 255 132 180 255 132 180 255 132 180
255 132 180 255 144 155 255 144 155 255 144 155 255 145 155 255 145
155 255 176 135 255 176 135 255 176 135 255 176 134 255 177 134 255
189 97 255 189 97 255 189 97 255 189 97 255 189 97 255 189 97 255 190
97 242 217 26 242 217 26 242 217 26 242 216 26 242 216 26 242 216 26 0
0 152 0 0 152 0 0 151 0 0 151 0 0 151 0 0 151 0 0 151 0 0 151 0 0 150
0 0 150 0 0 150 0 0 150 0 0 150 255 150 0 255 150 0 255 150 0 255 150
0 255 150 0 255 150 0 255 150 0 255 150 0 255 150 0 255 150 0 255 150
0 0 0 148 0 0 148 0 0 148 0 0 148 0 0 147 0 0 147 0 0 147 0 0 147 0 0
147 0 0 147 0 0 146 0 0 146 0 0 146 0 0 146 0 0 146 0 0 146 0 0 146 0
0 145 0 0 145 0 0 145 0 0 145 0 0 145 0 0 145 255 152 0 255 152 0 255
152 0 255 152 0 255 152 0 255 152 0 255 152 0 255 152 0 177 152 0 177
152 0 178 152 0 178 152 0 178 152 0 178 152 0 178 152 0 178 152 0 178
152 0 178 152 0 178 152 0 178 152 0 178 152 0 178 152 0 178 152 0 178
153 0 178 153 0 178 153 0 178 153 0 178 153 0 178 153 0 178 153 0 178
153 0 178 153 0 178 153 0 178 153 0 0 0 26 0 0 26 0 0 26 0 0 26 0 0 26
0 0 26 0 0 26 0 0 26 0 0 26 0 0 26 0 0 26 0 0 26 0 0 26 0 0 26 0 0 26
0 0 26 0 0 26 0 0 26 0 0 26 0 0 26 0 0 26 0 0 26 0 0 26
0 0 173 0 0 173 0 0 173 0 0 172 0 0 172 0 0 172 0 0 172 0 0 172 0 0
172 0 0 171 0 0 171 0 0 171 0 0 171 0 0 171 0 0 170 0 0 170 0 0 170 0
0 170 0 0 170 0 0 170 0 0 169 0 0 169 0 0 169 0 0 169 0 0 169 0 0 168
0 0 168 0 0 168 0 0 168 0 0 168 0 0 168 255 143 0 255 143 0 255 143 0
255 143 0 255 143 0 255 143 0 255 144 0 255 144 0 255 144 0 255 144 0
255 144 0 255 144 0 255 144 0 255 144 0 255 144 0 255 144 0 255 144 0
255 144 0 255 144 0 255 145 0 255 145 0 255 145 0 255 145 0 255 145 0
255 145 0 255 145 0 255 145 0 255 145 0 255 145 0 255 145 0 255 145 0
255 145 0 255 145 0 255 146 0 255 146 0 187 26 0 187 26 0 186 26 0 186
26 0 186 26 0 186 26 0 186 26 0 186 26 0 185 26 0 185 26 0 185 26 0
185 26 0 185 26 0 185 26 0 184 26 0 184 26 0 184 26 0 184 26 0 184 26
0 184 26 0 183 26 0 183 26 0 183 26 0 183 26 0 255 147 0 255 147 0 245
26 220 246 26 220 255 141 144 255 132 180 255 132 180 255 132 180 255
132 180 255 132 180 255 144 155 255 144 155 255 144 155 255 144 155
255 145 155 255 176 135 255 176 135 255 176 135 255 176 134 255 176
134 255 189 97 255 189 97 255 189 97 255 189 97 255 189 97 255 189 97
255 189 96 242 217 26 242 217 26 242 216 26 242 216 26 242 216 26 242
216 26 0 0 152 0 0 152 0 0 152 0 0 151 0 0 151 0 0 151 0 0 151 0 0 151
0 0 151 0 0 150 0 0 150 0 0 150 255 150 0 255 150 0 255 150 0 255 150
0 255 150 0 255 150 0 255 150 0 255 151 0 255 151 0 255 151 0 255 151
0 255 151 0 255 151 0 255 151 0 255 151 0 255 151 0 255 151 0 0 0 147
0 0 147 0 0 147 0 0 147 0 0 147 0 0 147 0 0 146 0 0 146 0 0 146 0 0
146 0 0 146 0 0 146 0 0 146 0 0 145 0 0 145 0 0 145 0 0 145 255 152 0
255 152 0 255 152 0 255 152 0 255 152 0 255 152 0 255 152 0 255 152 0
255 152 0 255 152 0 255 152 0 178 152 0 178 152 0 178 152 0 178 152 0
178 153 0 178 153 0 178 153 0 178 153 0 178 153 0 178 153 0 178 153 0
178 153 0 178 153 0 178 153 0 178 153 0 178 153 0 178 153 0 179 153 0
179 153 0 179 153 0 179 153 0 179 153 0 179 153 0 179 153 0 0 0 26 0 0
26 0 0 26 0 0 26 0 0 26 0 0 26 0 0 26 0 0 26 0 0 26 0 0 26 0 0 26 0 0
26 0 0 26 0 0 26 0 0 26 0 0 26 0 0 26 0 0 26 0 0 26 0 0 26 0 0 26 0 0
26 0 0 26
0 0 173 0 0 173 0 0 173 0 0 173 0 0 172 0 0 172 0 0 172 0 0 172 0 0
172 0 0 171 0 0 171 0 0 171 0 0 171 0 0 171 0 0 171 0 0 170 0 0 170 0
0 170 0 0 170 0 0 170 0 0 170 0 0 169 0 0 169 0 0 169 0 0 169 0 0 169
0 0 168 0 0 168 0 0 168 0 0 168 255 143 0 255 143 0 255 143 0 255 144
0 255 144 0 255 144 0 255 144 0 255 144 0 255 144 0 255 144 0 255 144
0 255 144 0 255 144 0 255 144 0 255 144 0 255 144 0 255 145 0 255 145
0 255 145 0 255 145 0 255 145 0 255 145 0 255 145 0 255 145 0 255 145
0 255 145 0 255 145 0 255 145 0 255 145 0 255 145 0 255 146 0 255 146
0 255 146 0 255 146 0 255 146 0 0 0 162 0 0 161 0 0 161 0 0 161 0 0
161 0 0 161 186 26 0 186 26 0 186 26 0 186 26 0 185 26 0 185 26 0 185
26 0 185 26 0 185 26 0 185 26 0 184 26 0 184 26 0 184 26 0 184 26 0
184 26 0 184 26 0 183 26 0 183 26 0 183 26 0 183 26 0 255 148 0 245 26
220 246 26 220 255 141 144 255 141 144 255 141 143 255 141 143 255 141
143 255 142 143 255 144 155 255 144 155 255 144 155 255 144 155 255
144 155 255 176 135 255 176 135 255 176 134 255 176 134 255 176 134
255 189 97 255 189 97 255 189 97 255 189 97 255 189 96 255 189 96 255
189 96 242 217 26 242 216 26 242 216 26 242 216 26 212 187 26 212 187
26 0 0 152 0 0 152 0 0 152 0 0 152 0 0 151 0 0 151 0 0 151 0 0 151 0 0
151 0 0 151 0 0 151 255 150 0 255 150 0 255 151 0 255 151 0 255 151 0
255 151 0 255 151 0 255 151 0 255 151 0 255 151 0 255 151 0 255 151 0
255 151 0 255 151 0 255 151 0 255 151 0 255 151 0 255 151 0 255 151 0
255 151 0 255 151 0 255 152 0 255 152 0 255 152 0 0 0 147 0 0 147 0 0
146 0 0 146 0 0 146 0 0 146 0 0 146 0 0 146 0 0 145 0 0 145 0 0 145
255 152 0 255 152 0 255 152 0 255 152 0 255 152 0 255 152 0 255 152 0
255 153 0 255 153 0 255 153 0 255 153 0 255 153 0 255 153 0 255 153 0
255 153 0 255 153 0 255 153 0 255 153 0 255 153 0 179 153 0 179 153 0
179 153 0 179 153 0 179 153 0 179 153 0 179 153 0 179 153 0 179 153 0
179 153 0 179 153 0 179 153 0 179 153 0 179 154 0 179 154 0 179 154 0
0 0 26 0 0 26 0 0 26 0 0 26 0 0 26 0 0 26 0 0 26 0 0 26 0 0 26 0 0 26
0 0 26 0 0 26 0 0 26 0 0 26 0 0 26 0 0 26 0 0 26 0 0 26 0 0 26 0 0 26
0 0 26 0 0 26 0 0 26
0 0 173 0 0 173 0 0 173 0 0 173 0 0 172 0 0 172 0 0 172 0 0 172 0 0
172 0 0 172 0 0 171 0 0 171 0 0 171 0 0 171 0 0 171 0 0 171 0 0 170 0
0 170 0 0 170 0 0 170 0 0 170 0 0 169 0 0 169 0 0 169 0 0 169 0 0 169
0 0 169 0 0 168 255 143 0 255 144 0 255 144 0 255 144 0 255 144 0 255
144 0 255 144 0 255 144 0 255 144 0 255 144 0 255 144 0 255 144 0 255
144 0 255 144 0 255 145 0 255 145 0 255 145 0 255 145 0 255 145 0 255
145 0 255 145 0 255 145 0 255 145 0 255 145 0 255 145 0 255 145 0 255
145 0 255 146 0 255 146 0 255 146 0 255 146 0 255 146 0 255 146 0 255
146 0 255 146 0 255 146 0 0 0 162 0 0 162 0 0 162 0 0 161 0 0 161 0 0
161 0 0 161 0 0 161 0 0 161 0 0 160 0 0 160 186 26 0 185 26 0 185 26 0
185 26 0 185 26 0 185 26 0 185 26 0 184 26 0 184 26 0 184 26 0 184 26
0 184 26 0 184 26 0 183 26 0 183 26 0 183 26 0 255 148 0 245 26 219
246 26 220 255 141 144 255 141 143 255 141 143 255 141 143 255 141 143
255 141 143 255 176 136 255 176 135 255 176 135 255 176 135 255 176
135 255 188 97 255 188 97 255 188 97 255 188 97 255 176 134 255 176
134 255 189 97 255 189 96 255 189 96 255 189 96 255 189 96 255 189 96
242 216 26 242 216 26 212 186 26 212 186 26 212 186 26 212 186 26 212
186 26 0 0 152 0 0 152 0 0 152 0 0 152 0 0 151 0 0 151 0 0 151 0 0 151
0 0 151 0 0 151 255 151 0 255 151 0 255 151 0 255 151 0 255 151 0 255
151 0 255 151 0 255 151 0 255 151 0 255 151 0 255 151 0 255 151 0 255
151 0 255 151 0 255 151 0 255 152 0 255 152 0 255 152 0 255 152 0 255
152 0 255 152 0 255 152 0 255 152 0 255 152 0 255 152 0 255 152 0 255
152 0 255 152 0 255 152 0 0 0 146 0 0 146 0 0 146 0 0 146 0 0 146 0 0
145 255 153 0 255 153 0 255 153 0 255 153 0 255 153 0 255 153 0 255
153 0 255 153 0 255 153 0 255 153 0 255 153 0 255 153 0 255 153 0 255
153 0 255 153 0 255 153 0 255 153 0 255 153 0 255 153 0 179 153 0 179
153 0 179 153 0 179 153 0 179 154 0 179 154 0 179 154 0 179 154 0 179
154 0 179 154 0 179 154 0 179 154 0 179 154 0 179 154 0 179 154 0 179
154 0 0 0 26 0 0 26 0 0 26 0 0 26 0 0 26 0 0 26 0 0 26 0 0 26 0 0 26 0
0 26 0 0 26 0 0 26 0 0 26 0 0 26 0 0 26 0 0 26 0 0 26 0 0 26 0 0 26 0
0 26 0 0 26 0 0 26 0 0 26
0 0 173 0 0 173 0 0 173 0 0 173 0 0 173 0 0 172 0 0 172 0 0 172 0 0
172 0 0 172 0 0 172 0 0 171 0 0 171 0 0 171 0 0 171 0 0 171 0 0 170 0
0 170 0 0 170 0 0 170 0 0 170 0 0 170 0 0 169 0 0 169 0 0 169 0 0 169
0 0 169 255 144 0 255 144 0 255 144 0 255 144 0 255 144 0 255 144 0
255 144 0 255 144 0 255 144 0 255 144 0 255 144 0 255 145 0 255 145 0
255 145 0 255 145 0 255 145 0 255 145 0 255 145 0 255 145 0 255 145 0
255 145 0 255 145 0 255 145 0 255 145 0 255 146 0 255 146 0 255 146 0
255 146 0 255 146 0 255 146 0 255 146 0 255 146 0 255 146 0 255 146 0
255 146 0 0 0 162 0 0 162 0 0 162 0 0 162 0 0 162 0 0 162 0 0 161 0 0
161 0 0 161 0 0 161 0 0 161 0 0 161 0 0 160 0 0 160 0 0 160 0 0 160 0
0 160 0 0 160 185 26 0 185 26 0 185 26 0 184 26 0 184 26 0 184 26 0
184 26 0 184 26 0 184 26 0 183 26 0 183 26 0 183 26 0 245 26 219 245
26 219 255 141 144 255 141 143 255 141 143 255 141 143 255 141 143 255
141 143 219 116 103 255 176 135 255 176 135 255 176 135 255 176 135
255 188 97 255 188 97 255 188 97 255 188 97 255 188 97 255 195 66 255
195 66 255 195 66 255 196 66 255 196 66 255 196 66 255 196 66 212 186
26 212 186 26 212 186 26 212 186 26 212 186 26 212 186 26 212 186 26 0
0 152 0 0 152 0 0 152 0 0 152 0 0 152 0 0 152 0 0 151 0 0 151 0 0 151
255 151 0 255 151 0 255 151 0 255 151 0 255 151 0 255 151 0 255 151 0
255 151 0 255 151 0 255 151 0 255 152 0 255 152 0 255 152 0 255 152 0
255 152 0 255 152 0 255 152 0 255 152 0 255 152 0 255 152 0 255 152 0
255 152 0 255 152 0 255 152 0 255 152 0 255 152 0 255 152 0 255 152 0
255 152 0 255 153 0 255 153 0 255 153 0 255 153 0 255 153 0 255 153 0
255 153 0 255 153 0 255 153 0 255 153 0 255 153 0 255 153 0 255 153 0
255 153 0 255 153 0 255 153 0 255 153 0 255 153 0 255 153 0 255 153 0
255 153 0 255 153 0 255 154 0 255 154 0 255 154 0 179 154 0 179 154 0
179 154 0 179 154 0 179 154 0 179 154 0 179 154 0 179 154 0 179 154 0
179 154 0 180 154 0 180 154 0 180 154 0 180 154 0 180 154 0 180 154 0
180 154 0 0 0 26 0 0 26 0 0 26 0 0 26 0 0 26 0 0 26 0 0 26 0 0 26 0 0
26 0 0 26 0 0 26 0 0 26 0 0 26 0 0 26 0 0 26 0 0 26 0 0 26 0 0 26 0 0
26 0 0 26 0 0 26 0 0 26 0 0 26
0 0 173 0 0 173 0 0 173 0 0 173 0 0 173 0 0 173 0 0 172 0 0 172 0 0
172 0 0 172 0 0 172 0 0 171 0 0 171 0 0 171 0 0 171 0 0 171 0 0 171 0
0 170 0 0 170 0 0 170 0 0 170 0 0 170 0 0 170 0 0 169 0 0 169 0 0 169
255 144 0 255 144 0 255 144 0 255 144 0 255 144 0 255 144 0 255 144 0
255 144 0 255 145 0 255 145 0 255 145 0 255 145 0 255 145 0 255 145 0
255 145 0 255 145 0 255 145 0 255 145 0 255 145 0 255 145 0 255 145 0
255 146 0 255 146 0 255 146 0 255 146 0 255 146 0 255 146 0 255 146 0
255 146 0 255 146 0 255 146 0 255 146 0 255 146 0 255 146 0 255 147 0
0 0 163 0 0 163 0 0 162 0 0 162 0 0 162 0 0 162 0 0 162 0 0 162 0 0
161 0 0 161 0 0 161 0 0 161 0 0 161 0 0 161 0 0 160 0 0 160 0 0 160 0
0 160 0 0 160 0 0 160 0 0 159 0 0 159 0 0 159 0 0 159 184 26 0 184 26
0 184 26 0 184 26 0 184 26 0 183 26 0 183 26 0 192 26 166 192 26 166
255 141 143 255 141 143 255 141 143 255 141 143 255 141 143 255 141
143 219 116 103 51 26 26 51 26 26 255 176 135 255 176 135 255 188 97
255 188 97 255 188 97 255 188 97 79 54 26 123 97 26 255 195 66 255 195
66 255 195 66 255 195 66 255 195 66 255 196 66 255 196 66 212 186 26
212 186 26 212 186 26 212 186 26 211 186 26 211 186 26 0 0 152 0 0 152
0 0 152 0 0 152 0 0 152 0 0 152 0 0 152 0 0 151 255 151 0 255 151 0
255 151 0 255 151 0 255 151 0 255 152 0 255 152 0 255 152 0 255 152 0
255 152 0 255 152 0 255 152 0 255 152 0 255 152 0 255 152 0 255 152 0
255 152 0 255 152 0 255 152 0 255 152 0 255 152 0 255 152 0 255 152 0
255 152 0 255 153 0 255 153 0 255 153 0 255 153 0 255 153 0 255 153 0
255 153 0 255 153 0 255 153 0 255 153 0 255 153 0 255 153 0 0 0 146 0
0 146 0 0 145 0 0 145 0 0 145 255 153 0 255 153 0 255 153 0 255 153 0
255 154 0 255 154 0 255 154 0 255 154 0 255 154 0 255 154 0 255 154 0
255 154 0 255 154 0 255 154 0 255 154 0 179 154 0 180 154 0 180 154 0
180 154 0 180 154 0 180 154 0 180 154 0 180 154 0 180 154 0 180 154 0
180 154 0 180 154 0 180 154 0 180 154 0 180 155 0 0 0 26 0 0 26 0 0 26
0 0 26 0 0 26 0 0 26 0 0 26 0 0 26 0 0 26 0 0 26 0 0 26 0 0 26 0 0 26
0 0 26 0 0 26 0 0 26 0 0 26 0 0 26 0 0 26 0 0 26 0 0 26 0 0 26 0 0 26
0 0 26
0 0 174 0 0 173 0 0 173 0 0 173 0 0 173 0 0 173 0 0 172 0 0 172 0 0
172 0 0 172 0 0 172 0 0 172 0 0 171 0 0 171 0 0 171 0 0 171 0 0 171 0
0 171 0 0 170 0 0 170 0 0 170 0 0 170 0 0 170 0 0 169 255 144 0 255
144 0 255 144 0 255 144 0 255 144 0 255 144 0 255 145 0 255 145 0 255
145 0 255 145 0 255 145 0 255 145 0 255 145 0 255 145 0 255 145 0 255
145 0 255 145 0 255 145 0 255 145 0 255 146 0 255 146 0 255 146 0 255
146 0 255 146 0 255 146 0 255 146 0 255 146 0 255 146 0 255 146 0 255
146 0 255 146 0 255 146 0 255 147 0 255 147 0 255 147 0 255 147 0 0 0
163 0 0 163 0 0 163 0 0 163 0 0 162 0 0 162 0 0 162 0 0 162 0 0 162 0
0 162 0 0 161 0 0 161 0 0 161 0 0 161 0 0 161 0 0 161 0 0 160 0 0 160
0 0 160 0 0 160 0 0 160 0 0 160 0 0 159 0 0 159 0 0 159 0 0 159 0 0
159 0 0 159 0 0 158 184 26 0 184 26 0 183 26 0 183 26 0 192 26 166 192
26 166 255 141 143 255 141 143 255 141 143 255 141 143 255 141 143 219
116 103 172 147 26 51 26 26 51 26 26 51 26 26 51 26 26 162 136 26 162
136 26 51 26 26 51 26 26 122 97 26 122 97 26 122 97 26 255 195 66 255
195 66 255 195 66 255 195 66 255 195 66 211 186 26 211 186 26 211 186
26 211 186 26 211 186 26 211 186 26 0 0 153 0 0 152 0 0 152 0 0 152 0
0 152 0 0 152 0 0 152 0 0 152 255 152 0 255 152 0 255 152 0 255 152 0
255 152 0 255 152 0 255 152 0 255 152 0 255 152 0 255 152 0 255 152 0
255 152 0 255 152 0 255 152 0 255 152 0 255 152 0 255 152 0 255 152 0
255 153 0 255 153 0 255 153 0 255 153 0 255 153 0 255 153 0 255 153 0
255 153 0 255 153 0 255 153 0 255 153 0 255 153 0 255 153 0 255 153 0
255 153 0 255 153 0 255 153 0 255 153 0 0 0 146 0 0 146 0 0 146 0 0
146 0 0 145 0 0 145 0 0 145 0 0 145 0 0 145 0 0 145 0 0 145 255 154 0
255 154 0 255 154 0 255 154 0 255 154 0 255 154 0 255 154 0 255 154 0
255 154 0 255 154 0 255 154 0 180 154 0 180 154 0 180 154 0 180 155 0
180 155 0 180 155 0 180 155 0 180 155 0 180 155 0 180 155 0 180 155 0
180 155 0 180 155 0 0 0 26 0 0 26 0 0 26 0 0 26 0 0 26 0 0 26 0 0 26 0
0 26 0 0 26 0 0 26 0 0 26 0 0 26 0 0 26 0 0 26 0 0 26 0 0 26 0 0 26 0
0 26 0 0 26 0 0 26 0 0 26 0 0 26 0 0 26 0 0 26
255 142 0 255 143 0 255 143 0 255 143 0 0 0 173 0 0 173 0 0 173 0 0
172 0 0 172 0 0 172 0 0 172 0 0 172 0 0 172 0 0 171 0 0 171 0 0 171 0
0 171 0 0 171 0 0 170 0 0 170 0 0 170 0 0 170 0 0 170 255 144 0 255
144 0 255 144 0 255 145 0 255 145 0 255 145 0 255 145 0 255 145 0 255
145 0 255 145 0 255 145 0 255 145 0 255 145 0 255 145 0 255 145 0 255
145 0 255 146 0 255 146 0 255 146 0 255 146 0 255 146 0 255 146 0 255
146 0 255 146 0 255 146 0 255 146 0 255 146 0 255 146 0 255 146 0 255
147 0 255 147 0 255 147 0 255 147 0 255 147 0 255 147 0 255 147 0 0 0
163 0 0 163 0 0 163 0 0 163 0 0 163 0 0 163 0 0 162 0 0 162 0 0 162 0
0 162 0 0 162 0 0 162 0 0 161 0 0 161 0 0 161 0 0 161 0 0 161 0 0 161
0 0 160 0 0 160 0 0 160 0 0 160 0 0 160 0 0 160 0 0 159 0 0 159 0 0
159 0 0 159 0 0 159 0 0 159 0 0 158 0 0 158 0 0 158 0 0 158 0 0 158
191 26 166 255 141 143 255 141 143 255 141 143 255 141 143 255 141 143
218 116 103 243 218 26 243 218 26 243 217 26 212 187 26 157 132 26 162
136 26 162 136 26 51 26 26 51 26 26 255 128 131 122 97 26 122 97 26
122 97 26 122 97 26 122 97 26 255 195 66 255 195 66 211 186 26 211 186
26 211 186 26 211 186 26 211 186 26 211 186 26 0 0 153 0 0 153 0 0 152
0 0 152 0 0 152 0 0 152 0 0 152 255 152 0 255 152 0 255 152 0 255 152
0 255 152 0 255 152 0 255 152 0 255 152 0 255 152 0 255 152 0 255 152
0 255 152 0 255 152 0 255 153 0 255 153 0 255 153 0 255 153 0 255 153
0 255 153 0 255 153 0 255 153 0 255 153 0 255 153 0 255 153 0 255 153
0 255 153 0 255 153 0 255 153 0 255 153 0 255 153 0 255 153 0 255 153
0 255 154 0 255 154 0 255 154 0 255 154 0 0 0 146 0 0 146 0 0 146 0 0
146 0 0 146 0 0 146 0 0 145 0 0 145 0 0 145 0 0 145 0 0 145 0 0 145 0
0 145 0 0 144 0 0 144 0 0 144 0 0 144 255 154 0 255 155 0 255 155 0
255 155 0 255 155 0 255 155 0 255 155 0 180 155 0 180 155 0 180 155 0
180 155 0 180 155 0 180 155 0 180 155 0 181 155 0 181 155 0 181 155 0
181 155 0 181 155 0 0 0 26 0 0 26 0 0 26 0 0 26 0 0 26 0 0 26 0 0 26 0
0 26 0 0 26 0 0 26 0 0 26 0 0 26 0 0 26 0 0 26 0 0 26 0 0 26 0 0 26 0
0 26 0 0 26 0 0 26 0 0 26 0 0 26 0 0 26 0 0 26
255 143 0 255 143 0 255 143 0 255 143 0 255 143 0 255 143 0 255 143 0
255 143 0 0 0 172 0 0 172 0 0 172 0 0 172 0 0 172 0 0 171 0 0 171 0 0
171 0 0 171 0 0 171 0 0 171 0 0 170 0 0 170 255 144 0 255 145 0 255
145 0 255 145 0 255 145 0 255 145 0 255 145 0 255 145 0 255 145 0 255
145 0 255 145 0 255 145 0 255 145 0 255 145 0 255 146 0 255 146 0 255
146 0 255 146 0 255 146 0 255 146 0 255 146 0 255 146 0 255 146 0 255
146 0 255 146 0 255 146 0 255 146 0 255 147 0 255 147 0 255 147 0 255
147 0 255 147 0 255 147 0 255 147 0 255 147 0 255 147 0 255 147 0 0 0
164 0 0 164 0 0 163 0 0 163 0 0 163 0 0 163 0 0 163 0 0 163 0 0 162 0
0 162 0 0 162 0 0 162 0 0 162 0 0 162 0 0 161 0 0 161 0 0 161 0 0 161
0 0 161 0 0 161 0 0 160 0 0 160 0 0 160 0 0 160 0 0 160 0 0 160 0 0
159 0 0 159 0 0 159 0 0 159 0 0 159 0 0 159 0 0 158 0 0 158 0 0 158 0
0 158 183 26 0 183 26 0 255 141 143 255 141 143 218 115 103 218 115
103 218 115 103 255 198 99 243 218 26 243 218 26 212 187 26 213 187 26
255 166 198 255 166 198 255 26 238 255 26 238 255 128 131 122 96 26
122 96 26 122 96 26 122 96 26 122 96 26 122 96 26 122 96 26 211 185 26
211 185 26 211 185 26 211 185 26 211 185 26 211 185 26 0 0 153 0 0 153
0 0 153 0 0 153 0 0 152 0 0 152 255 152 0 255 152 0 255 152 0 255 152
0 255 152 0 255 152 0 255 152 0 255 152 0 255 153 0 255 153 0 255 153
0 255 153 0 255 153 0 255 153 0 255 153 0 255 153 0 255 153 0 255 153
0 255 153 0 255 153 0 255 153 0 255 153 0 255 153 0 255 153 0 255 153
0 255 153 0 255 153 0 255 154 0 255 154 0 255 154 0 255 154 0 255 154
0 255 154 0 255 154 0 255 154 0 255 154 0 255 154 0 0 0 147 0 0 146 0
0 146 0 0 146 0 0 146 0 0 146 0 0 146 0 0 145 0 0 145 0 0 145 0 0 145
0 0 145 0 0 145 0 0 145 0 0 144 0 0 144 0 0 144 0 0 144 0 0 144 0 0
144 0 0 144 0 0 143 255 155 0 255 155 0 181 155 0 181 155 0 181 155 0
181 155 0 181 155 0 181 155 0 181 155 0 181 155 0 181 155 0 181 155 0
181 155 0 181 155 0 0 0 26 0 0 26 0 0 26 0 0 26 0 0 26 0 0 26 0 0 26 0
0 26 0 0 26 0 0 26 0 0 26 0 0 26 0 0 26 0 0 26 0 0 26 0 0 26 0 0 26 0
0 26 0 0 26 0 0 26 0 0 26 0 0 26 0 0 26 0 0 26
255 143 0 255 143 0 255 143 0 255 143 0 255 143 0 255 144 0 255 144 0
255 144 0 255 144 0 255 144 0 255 144 0 255 144 0 0 0 172 0 0 172 0 0
171 0 0 171 0 0 171 0 0 171 0 0 171 0 0 171 255 145 0 255 145 0 255
145 0 255 145 0 255 145 0 255 145 0 255 145 0 255 145 0 255 145 0 255
145 0 255 145 0 255 146 0 255 146 0 255 146 0 255 146 0 255 146 0 255
146 0 255 146 0 255 146 0 255 146 0 255 146 0 255 146 0 255 146 0 255
146 0 255 147 0 255 147 0 255 147 0 255 147 0 255 147 0 255 147 0 255
147 0 255 147 0 255 147 0 255 147 0 255 147 0 255 147 0 255 147 0 0 0
164 0 0 164 0 0 164 0 0 163 0 0 163 0 0 163 0 0 163 0 0 163 0 0 163 0
0 162 0 0 162 0 0 162 0 0 162 0 0 162 0 0 162 0 0 161 0 0 161 0 0 161
0 0 161 0 0 161 0 0 161 0 0 160 0 0 160 0 0 160 0 0 160 0 0 160 0 0
160 0 0 160 0 0 159 0 0 159 0 0 159 0 0 159 0 0 159 0 0 159 0 0 158 0
0 158 184 26 0 183 26 0 183 26 0 183 26 0 255 150 0 218 115 103 218
115 103 218 115 103 218 115 103 255 198 99 255 197 158 255 187 175 255
187 175 255 166 198 255 166 198 255 126 145 255 126 145 255 127 145
122 96 26 122 96 26 122 96 26 122 96 26 121 96 26 121 96 26 121 96 26
121 96 26 121 96 26 121 96 26 121 96 26 121 96 26 121 96 26 0 0 153 0
0 153 0 0 153 0 0 153 0 0 153 0 0 152 255 152 0 255 152 0 255 152 0
255 153 0 255 153 0 255 153 0 255 153 0 255 153 0 255 153 0 255 153 0
255 153 0 255 153 0 255 153 0 255 153 0 255 153 0 255 153 0 255 153 0
255 153 0 255 153 0 255 153 0 255 153 0 255 154 0 255 154 0 255 154 0
255 154 0 255 154 0 255 154 0 255 154 0 255 154 0 255 154 0 255 154 0
255 154 0 255 154 0 255 154 0 255 154 0 255 154 0 0 0 147 0 0 147 0 0
147 0 0 146 0 0 146 0 0 146 0 0 146 0 0 146 0 0 146 0 0 146 0 0 145 0
0 145 0 0 145 0 0 145 0 0 145 0 0 145 0 0 145 0 0 144 0 0 144 0 0 144
0 0 144 0 0 144 0 0 144 0 0 144 0 0 143 0 0 26 0 0 26 0 0 26 0 0 26
181 156 0 181 156 0 181 156 0 181 156 0 181 156 0 181 156 0 181 156 0
181 156 0 0 0 26 0 0 26 0 0 26 0 0 26 0 0 26 0 0 26 0 0 26 0 0 26 0 0
26 0 0 26 0 0 26 0 0 26 0 0 26 0 0 26 0 0 26 0 0 26 0 0 26 0 0 26 0 0
26 0 0 26 0 0 26 0 0 26 0 0 26 0 0 26
255 143 0 255 144 0 255 144 0 255 144 0 255 144 0 255 144 0 255 144 0
255 144 0 255 144 0 255 144 0 255 144 0 255 144 0 255 144 0 255 144 0
255 145 0 255 145 0 0 0 171 0 0 171 0 0 171 255 145 0 255 145 0 255
145 0 255 145 0 255 145 0 255 145 0 255 145 0 255 145 0 255 146 0 255
146 0 255 146 0 255 146 0 255 146 0 255 146 0 255 146 0 255 146 0 255
146 0 255 146 0 255 146 0 255 146 0 255 146 0 255 147 0 255 147 0 255
147 0 255 147 0 255 147 0 255 147 0 255 147 0 255 147 0 255 147 0 255
147 0 255 147 0 255 147 0 255 147 0 255 148 0 255 148 0 0 0 164 0 0
164 0 0 164 0 0 164 0 0 164 0 0 164 0 0 163 0 0 163 0 0 163 0 0 163 0
0 163 0 0 163 0 0 162 0 0 162 0 0 162 0 0 162 0 0 162 0 0 162 0 0 161
0 0 161 0 0 161 0 0 161 0 0 161 0 0 161 0 0 160 0 0 160 0 0 160 0 0
160 0 0 160 0 0 160 0 0 159 0 0 159 0 0 159 0 0 159 0 0 159 0 0 159 0
0 159 184 26 0 184 26 0 184 26 0 183 26 0 183 26 0 183 26 0 255 151 0
255 151 0 255 151 0 255 151 0 85 42 44 85 42 44 86 42 44 86 42 44 255
162 170 255 162 169 255 126 145 72 46 26 72 46 26 72 46 26 72 46 26 72
46 26 121 96 26 121 96 26 121 96 26 121 96 26 121 96 26 121 96 26 121
96 26 121 96 26 121 96 26 0 0 153 0 0 153 0 0 153 0 0 153 0 0 153 0 0
153 255 153 0 255 153 0 255 153 0 255 153 0 255 153 0 255 153 0 255
153 0 255 153 0 255 153 0 255 153 0 255 153 0 255 153 0 255 153 0 255
153 0 255 153 0 255 153 0 255 154 0 255 154 0 255 154 0 255 154 0 255
154 0 255 154 0 255 154 0 255 154 0 255 154 0 255 154 0 255 154 0 255
154 0 255 154 0 255 154 0 255 154 0 255 154 0 255 154 0 255 154 0 255
154 0 255 154 0 255 155 0 0 0 147 0 0 147 0 0 147 0 0 147 0 0 146 0 0
146 0 0 146 0 0 146 0 0 146 0 0 146 0 0 146 0 0 145 0 0 145 0 0 145 0
0 145 0 0 145 0 0 145 0 0 145 0 0 144 0 0 144 0 0 144 0 0 144 0 0 144
0 0 144 0 0 144 0 0 26 0 0 26 0 0 26 0 0 26 0 0 26 0 0 26 0 0 26 0 0
26 0 0 26 182 156 0 182 156 0 182 156 0 0 0 26 0 0 26 0 0 26 0 0 26 0
0 26 0 0 26 0 0 26 0 0 26 0 0 26 0 0 26 0 0 26 0 0 26 0 0 26 0 0 26 0
0 26 0 0 26 0 0 26 0 0 26 0 0 26 0 0 26 0 0 26 0 0 26 0 0 26 0 0 26
255 144 0 255 144 0 255 144 0 255 144 0 255 144 0 255 144 0 255 144 0
255 144 0 255 144 0 255 144 0 255 145 0 255 145 0 255 145 0 255 145 0
255 145 0 255 145 0 255 145 0 0 0 171 0 0 171 0 0 171 255 145 0 255
145 0 255 145 0 255 146 0 255 146 0 255 146 0 255 146 0 255 146 0 255
146 0 255 146 0 255 146 0 255 146 0 255 146 0 255 146 0 255 146 0 255
146 0 255 147 0 255 147 0 255 147 0 255 147 0 255 147 0 255 147 0 255
147 0 255 147 0 255 147 0 255 147 0 255 147 0 255 147 0 255 147 0 255
148 0 255 148 0 255 148 0 255 148 0 255 148 0 0 0 165 0 0 165 0 0 164
0 0 164 0 0 164 0 0 164 0 0 164 0 0 164 0 0 163 0 0 163 0 0 163 0 0
163 0 0 163 0 0 163 0 0 162 0 0 162 0 0 162 0 0 162 0 0 162 0 0 162 0
0 161 0 0 161 0 0 161 0 0 161 0 0 161 0 0 161 0 0 160 0 0 160 0 0 160
0 0 160 0 0 160 0 0 160 0 0 159 0 0 159 0 0 159 0 0 159 0 0 159 184 26
0 184 26 0 184 26 0 184 26 0 184 26 0 183 26 0 183 26 0 255 151 0 255
151 0 255 151 0 255 151 0 255 151 0 255 151 0 255 151 0 255 151 0 51
26 26 51 26 26 51 26 26 51 26 26 51 26 26 51 26 26 51 26 26 72 46 26
72 46 26 72 46 26 72 46 26 0 0 155 0 0 154 0 0 154 0 0 154 0 0 154 0 0
154 0 0 154 0 0 153 0 0 153 0 0 153 0 0 153 255 153 0 255 153 0 255
153 0 255 153 0 255 153 0 255 153 0 255 153 0 255 153 0 255 153 0 255
153 0 255 153 0 255 153 0 255 154 0 255 154 0 255 154 0 255 154 0 255
154 0 255 154 0 255 154 0 255 154 0 255 154 0 255 154 0 255 154 0 255
154 0 255 154 0 255 154 0 255 154 0 255 154 0 255 154 0 255 154 0 255
154 0 255 155 0 255 155 0 255 155 0 255 155 0 255 155 0 255 155 0 255
155 0 0 0 147 0 0 147 0 0 147 0 0 147 0 0 147 0 0 146 0 0 146 0 0 146
0 0 146 0 0 146 0 0 146 0 0 146 0 0 145 0 0 145 0 0 145 0 0 145 0 0
145 0 0 145 0 0 145 0 0 144 0 0 144 0 0 144 0 0 144 0 0 144 0 0 144 0
0 26 0 0 26 0 0 26 0 0 26 0 0 26 0 0 26 0 0 26 0 0 26 0 0 26 0 0 26 0
0 26 0 0 26 182 156 0 182 156 0 0 0 26 0 0 26 0 0 26 0 0 26 0 0 26 0 0
26 0 0 26 0 0 26 0 0 26 0 0 26 0 0 26 0 0 26 0 0 26 0 0 26 0 0 26 0 0
26 0 0 26 0 0 26 0 0 26 0 0 26 0 0 26 0 0 26
255 144 0 255 144 0 255 144 0 255 144 0 255 144 0 255 144 0 255 145 0
255 145 0 255 145 0 255 145 0 255 145 0 255 145 0 255 145 0 255 145 0
255 145 0 255 145 0 0 0 171 0 0 171 0 0 171 0 0 171 0 0 171 0 0 170 0
0 170 0 0 170 255 146 0 255 146 0 255 146 0 255 146 0 255 146 0 255
146 0 255 146 0 255 146 0 255 147 0 255 147 0 255 147 0 255 147 0 255
147 0 255 147 0 255 147 0 255 147 0 255 147 0 255 147 0 255 147 0 255
147 0 255 147 0 255 148 0 255 148 0 255 148 0 255 148 0 255 148 0 255
148 0 255 148 0 255 148 0 0 0 165 0 0 165 0 0 165 0 0 165 0 0 164 0 0
164 0 0 164 0 0 164 0 0 164 0 0 164 0 0 163 0 0 163 0 0 163 0 0 163 0
0 163 0 0 163 0 0 162 0 0 162 0 0 162 0 0 162 0 0 162 0 0 162 0 0 161
0 0 161 0 0 161 0 0 161 0 0 161 0 0 161 0 0 160 0 0 160 0 0 160 0 0
160 0 0 160 0 0 160 0 0 159 0 0 159 0 0 159 0 0 159 184 26 0 184 26 0
184 26 0 184 26 0 184 26 0 183 26 0 183 26 0 183 26 0 255 151 0 255
151 0 255 151 0 255 152 0 255 152 0 255 152 0 255 152 0 255 152 0 255
152 0 255 152 0 255 152 0 255 152 0 255 152 0 255 152 0 255 152 0 255
152 0 255 152 0 255 152 0 0 0 155 0 0 155 0 0 154 0 0 154 0 0 154 0 0
154 0 0 154 0 0 154 0 0 153 0 0 153 0 0 153 255 153 0 255 153 0 255
153 0 255 153 0 255 153 0 255 153 0 255 153 0 255 154 0 255 154 0 255
154 0 255 154 0 255 154 0 255 154 0 255 154 0 255 154 0 255 154 0 255
154 0 255 154 0 255 154 0 255 154 0 255 154 0 255 154 0 255 154 0 255
154 0 255 154 0 255 155 0 255 155 0 255 155 0 255 155 0 255 155 0 255
155 0 255 155 0 255 155 0 255 155 0 255 155 0 255 155 0 255 155 0 0 0
148 0 0 147 0 0 147 0 0 147 0 0 147 0 0 147 0 0 147 0 0 146 0 0 146 0
0 146 0 0 146 0 0 146 0 0 146 0 0 146 0 0 146 0 0 145 0 0 145 0 0 145
0 0 145 0 0 145 0 0 145 0 0 145 0 0 144 0 0 144 0 0 144 0 0 144 0 0 26
0 0 26 0 0 26 0 0 26 0 0 26 0 0 26 0 0 26 0 0 26 0 0 26 0 0 26 0 0 26
0 0 26 182 157 0 182 157 0 182 157 0 182 157 0 182 157 0 182 157 0 182
157 0 0 0 26 0 0 26 0 0 26 0 0 26 0 0 26 0 0 26 0 0 26 0 0 26 0 0 26 0
0 26 0 0 26 0 0 26 0 0 26 0 0 26 0 0 26 0 0 26 0 0 26
255 144 0 255 144 0 255 144 0 255 145 0 255 145 0 255 145 0 255 145 0
255 145 0 255 145 0 255 145 0 255 145 0 255 145 0 255 145 0 255 145 0
0 0 172 0 0 172 0 0 171 0 0 171 0 0 171 0 0 171 0 0 171 0 0 171 0 0
170 0 0 170 0 0 170 0 0 170 0 0 170 0 0 170 255 147 0 255 147 0 255
147 0 255 147 0 255 147 0 255 147 0 255 147 0 255 147 0 255 147 0 255
147 0 255 147 0 255 147 0 255 147 0 255 148 0 255 148 0 255 148 0 255
148 0 255 148 0 255 148 0 255 148 0 255 148 0 255 148 0 255 148 0 255
148 0 0 0 165 0 0 165 0 0 165 0 0 165 0 0 165 0 0 164 0 0 164 0 0 164
0 0 164 0 0 164 0 0 164 0 0 163 0 0 163 0 0 163 0 0 163 0 0 163 0 0
163 0 0 162 0 0 162 0 0 162 0 0 162 0 0 162 0 0 162 0 0 161 0 0 161 0
0 161 0 0 161 0 0 161 0 0 161 0 0 161 0 0 160 0 0 160 0 0 160 0 0 160
0 0 160 0 0 160 0 0 159 0 0 159 185 26 0 184 26 0 184 26 0 184 26 0
184 26 0 184 26 0 184 26 0 183 26 0 255 152 0 255 152 0 255 152 0 255
152 0 255 152 0 255 152 0 255 152 0 255 152 0 255 152 0 255 152 0 255
152 0 255 152 0 255 152 0 255 152 0 255 152 0 255 153 0 255 153 0 255
153 0 255 153 0 255 153 0 255 153 0 255 153 0 255 153 0 255 153 0 0 0
154 0 0 154 0 0 154 0 0 154 0 0 153 255 153 0 255 153 0 255 153 0 255
154 0 255 154 0 255 154 0 255 154 0 255 154 0 255 154 0 255 154 0 255
154 0 255 154 0 255 154 0 255 154 0 255 154 0 255 154 0 255 154 0 255
154 0 255 154 0 255 154 0 255 154 0 255 155 0 255 155 0 255 155 0 255
155 0 255 155 0 255 155 0 255 155 0 255 155 0 255 155 0 255 155 0 255
155 0 255 155 0 255 155 0 255 155 0 255 155 0 255 155 0 255 155 0 0 0
148 0 0 148 0 0 147 0 0 147 0 0 147 0 0 147 0 0 147 0 0 147 0 0 147 0
0 146 0 0 146 0 0 146 0 0 146 0 0 146 0 0 146 0 0 146 0 0 145 0 0 145
0 0 145 0 0 145 0 0 145 0 0 145 0 0 145 0 0 144 0 0 144 0 0 144 0 0 26
0 0 26 0 0 26 0 0 26 0 0 26 0 0 26 0 0 26 0 0 26 0 0 26 0 0 26 0 0 26
183 157 0 183 157 0 183 157 0 183 157 0 183 157 0 183 157 0 183 157 0
183 157 0 183 157 0 183 157 0 183 157 0 183 157 0 183 157 0 183 157 0
0 0 26 0 0 26 0 0 26 0 0 26 0 0 26 0 0 26 0 0 26 0 0 26 0 0 26 0 0 26
0 0 26
255 145 0 255 145 0 255 145 0 255 145 0 255 145 0 255 145 0 255 145 0
255 145 0 255 145 0 255 145 0 255 145 0 255 145 0 255 146 0 0 0 172 0
0 172 0 0 172 0 0 172 0 0 171 0 0 171 0 0 171 0 0 171 0 0 171 0 0 170
0 0 170 0 0 170 0 0 170 0 0 170 0 0 170 0 0 169 0 0 169 0 0 169 0 0
169 255 147 0 255 147 0 255 147 0 255 147 0 255 147 0 255 148 0 255
148 0 255 148 0 255 148 0 255 148 0 255 148 0 255 148 0 255 148 0 255
148 0 255 148 0 255 148 0 255 148 0 255 148 0 255 148 0 0 0 166 0 0
165 0 0 165 0 0 165 0 0 165 0 0 165 0 0 165 0 0 164 0 0 164 0 0 164 0
0 164 0 0 164 0 0 164 0 0 163 0 0 163 0 0 163 0 0 163 0 0 163 0 0 163
0 0 162 0 0 162 0 0 162 0 0 162 0 0 162 0 0 162 0 0 161 0 0 161 0 0
161 0 0 161 0 0 161 0 0 161 0 0 160 0 0 160 0 0 160 0 0 160 0 0 160 0
0 160 0 0 160 185 26 0 185 26 0 185 26 0 184 26 0 184 26 0 184 26 0
184 26 0 184 26 0 184 26 0 255 152 0 255 152 0 255 152 0 255 152 0 255
152 0 255 152 0 255 152 0 255 152 0 255 152 0 255 152 0 255 152 0 255
153 0 255 153 0 255 153 0 255 153 0 255 153 0 255 153 0 255 153 0 255
153 0 255 153 0 255 153 0 255 153 0 255 153 0 255 153 0 255 153 0 255
153 0 255 153 0 255 154 0 0 0 154 255 154 0 255 154 0 255 154 0 255
154 0 255 154 0 255 154 0 255 154 0 255 154 0 255 154 0 255 154 0 255
154 0 255 154 0 255 154 0 255 154 0 255 154 0 255 155 0 255 155 0 255
155 0 255 155 0 255 155 0 255 155 0 255 155 0 255 155 0 255 155 0 255
155 0 255 155 0 255 155 0 255 155 0 255 155 0 255 155 0 255 155 0 255
155 0 255 155 0 255 155 0 255 155 0 255 156 0 255 156 0 0 0 148 0 0
148 0 0 148 0 0 148 0 0 147 0 0 147 0 0 147 0 0 147 0 0 147 0 0 147 0
0 147 0 0 146 0 0 146 0 0 146 0 0 146 0 0 146 0 0 146 0 0 146 0 0 145
0 0 145 0 0 145 0 0 145 0 0 145 0 0 145 0 0 145 0 0 144 0 0 144 0 0 26
0 0 26 0 0 26 0 0 26 0 0 26 0 0 26 0 0 26 0 0 26 0 0 26 0 0 26 0 0 26
183 157 0 183 157 0 183 157 0 183 157 0 183 157 0 183 157 0 183 158 0
183 158 0 183 158 0 183 158 0 183 158 0 183 158 0 183 158 0 183 158 0
183 158 0 183 158 0 183 158 0 183 158 0 183 158 0 0 0 26 0 0 26 0 0 26
0 0 26 0 0 26 0 0 26
255 145 0 255 145 0 255 145 0 255 145 0 255 145 0 255 145 0 255 145 0
255 145 0 255 146 0 255 146 0 255 146 0 255 146 0 0 0 172 0 0 172 0 0
172 0 0 172 0 0 172 0 0 171 0 0 171 0 0 171 0 0 171 0 0 171 0 0 171 0
0 170 0 0 170 0 0 170 0 0 170 0 0 170 0 0 170 0 0 169 0 0 169 0 0 169
0 0 169 0 0 169 0 0 169 0 0 168 255 148 0 255 148 0 255 148 0 255 148
0 255 148 0 255 148 0 255 148 0 255 148 0 255 148 0 255 148 0 255 148
0 255 149 0 255 149 0 255 149 0 0 0 166 0 0 166 0 0 166 0 0 165 0 0
165 0 0 165 0 0 165 0 0 165 0 0 165 0 0 164 0 0 164 0 0 164 0 0 164 0
0 164 0 0 164 0 0 163 0 0 163 0 0 163 0 0 163 0 0 163 0 0 163 0 0 162
0 0 162 0 0 162 0 0 162 0 0 162 0 0 162 0 0 161 0 0 161 0 0 161 0 0
161 0 0 161 0 0 161 0 0 160 0 0 160 0 0 160 0 0 160 0 0 160 185 26 0
185 26 0 185 26 0 185 26 0 185 26 0 184 26 0 184 26 0 184 26 0 184 26
0 184 26 0 255 152 0 255 152 0 255 152 0 255 152 0 255 152 0 255 152 0
255 153 0 255 153 0 255 153 0 255 153 0 255 153 0 255 153 0 255 153 0
255 153 0 255 153 0 255 153 0 255 153 0 255 153 0 255 153 0 255 153 0
255 153 0 255 153 0 255 154 0 255 154 0 255 154 0 255 154 0 255 154 0
255 154 0 0 0 154 0 0 154 0 0 153 0 0 153 0 0 153 255 154 0 255 154 0
255 154 0 255 154 0 255 154 0 255 154 0 255 155 0 255 155 0 255 155 0
255 155 0 255 155 0 255 155 0 255 155 0 255 155 0 255 155 0 255 155 0
255 155 0 255 155 0 255 155 0 255 155 0 255 155 0 255 155 0 255 155 0
255 155 0 255 155 0 255 156 0 255 156 0 255 156 0 255 156 0 255 156 0
255 156 0 255 156 0 255 156 0 0 0 148 0 0 148 0 0 148 0 0 148 0 0 148
0 0 147 0 0 147 0 0 147 0 0 147 0 0 147 0 0 147 0 0 147 0 0 146 0 0
146 0 0 146 0 0 146 0 0 146 0 0 146 0 0 146 0 0 145 0 0 145 0 0 145 0
0 145 0 0 145 0 0 145 0 0 145 0 0 145 0 0 26 0 0 26 0 0 26 0 0 26 0 0
26 0 0 26 0 0 26 0 0 26 0 0 26 0 0 26 0 0 26 183 158 0 183 158 0 183
158 0 183 158 0 183 158 0 183 158 0 183 158 0 183 158 0 183 158 0 183
158 0 183 158 0 183 158 0 184 158 0 184 158 0 184 158 0 184 158 0 184
158 0 184 158 0 184 158 0 184 158 0 184 158 0 184 158 0 184 158 0 184
158 0 0 0 26
255 145 0 255 145 0 255 145 0 255 145 0 255 146 0 255 146 0 255 146 0
255 146 0 255 146 0 255 146 0 0 0 173 0 0 173 0 0 172 0 0 172 0 0 172
0 0 172 0 0 172 0 0 172 0 0 171 0 0 171 0 0 171 0 0 171 0 0 171 0 0
170 0 0 170 0 0 170 0 0 170 0 0 170 0 0 170 0 0 169 0 0 169 0 0 169 0
0 169 0 0 169 0 0 169 0 0 168 0 0 168 0 0 168 0 0 168 0 0 168 255 148
0 255 148 0 255 148 0 255 149 0 255 149 0 255 149 0 255 149 0 255 149
0 255 149 0 0 0 166 0 0 166 0 0 166 0 0 166 0 0 165 0 0 165 0 0 165 0
0 165 0 0 165 0 0 165 0 0 164 0 0 164 0 0 164 0 0 164 0 0 164 0 0 164
0 0 163 0 0 163 0 0 163 0 0 163 0 0 163 0 0 163 0 0 163 0 0 162 0 0
162 0 0 162 0 0 162 0 0 162 0 0 162 0 0 161 0 0 161 0 0 161 0 0 161 0
0 161 0 0 161 0 0 160 0 0 160 0 0 160 255 152 0 255 152 0 255 152 0
255 152 0 255 152 0 255 152 0 255 152 0 255 152 0 255 152 0 255 152 0
255 152 0 255 152 0 255 152 0 255 153 0 255 153 0 255 153 0 255 153 0
255 153 0 255 153 0 255 153 0 255 153 0 255 153 0 255 153 0 255 153 0
255 153 0 255 153 0 255 153 0 255 153 0 255 153 0 255 154 0 255 154 0
255 154 0 255 154 0 255 154 0 255 154 0 255 154 0 255 154 0 255 154 0
0 0 154 0 0 154 0 0 154 0 0 154 0 0 153 0 0 153 0 0 153 0 0 153 0 0
153 0 0 153 0 0 153 255 155 0 255 155 0 255 155 0 255 155 0 255 155 0
255 155 0 255 155 0 255 155 0 255 155 0 255 155 0 255 155 0 255 155 0
255 155 0 255 155 0 255 155 0 255 156 0 255 156 0 255 156 0 255 156 0
255 156 0 255 156 0 255 156 0 255 156 0 255 156 0 255 156 0 255 156 0
255 156 0 255 156 0 0 0 148 0 0 148 0 0 148 0 0 148 0 0 148 0 0 148 0
0 147 0 0 147 0 0 147 0 0 147 0 0 147 0 0 147 0 0 147 0 0 146 0 0 146
0 0 146 0 0 146 0 0 146 0 0 146 0 0 146 0 0 146 0 0 145 0 0 145 0 0
145 0 0 145 0 0 145 0 0 145 0 0 26 0 0 26 0 0 26 0 0 26 0 0 26 0 0 26
0 0 26 0 0 26 0 0 26 0 0 26 0 0 26 183 158 0 183 158 0 183 158 0 183
158 0 184 158 0 184 158 0 184 158 0 184 158 0 184 158 0 184 158 0 184
158 0 184 158 0 184 158 0 184 158 0 184 158 0 184 158 0 184 158 0 184
158 0 184 159 0 184 159 0 184 159 0 184 159 0 184 159 0 184 159 0 184
159 0
255 145 0 255 146 0 255 146 0 255 146 0 255 146 0 255 146 0 255 146 0
255 146 0 255 146 0 0 0 173 0 0 173 0 0 173 0 0 172 0 0 172 0 0 172 0
0 172 0 0 172 0 0 172 0 0 171 0 0 171 0 0 171 0 0 171 0 0 171 0 0 171
0 0 170 0 0 170 0 0 170 0 0 170 0 0 170 0 0 170 0 0 169 0 0 169 0 0
169 0 0 169 0 0 169 0 0 169 0 0 168 0 0 168 0 0 168 0 0 168 0 0 168 0
0 168 0 0 167 0 0 167 255 149 0 255 149 0 255 149 0 0 0 167 0 0 166 0
0 166 0 0 166 0 0 166 0 0 166 0 0 166 0 0 165 0 0 165 0 0 165 0 0 165
0 0 165 0 0 165 0 0 164 0 0 164 0 0 164 0 0 164 0 0 164 0 0 164 0 0
163 0 0 163 0 0 163 0 0 163 0 0 163 0 0 163 0 0 162 0 0 162 0 0 162 0
0 162 0 0 162 0 0 162 0 0 161 0 0 161 0 0 161 0 0 161 0 0 161 0 0 161
0 0 161 0 0 160 255 152 0 255 152 0 255 152 0 255 152 0 255 152 0 255
152 0 255 152 0 255 152 0 255 152 0 255 152 0 255 153 0 255 153 0 255
153 0 255 153 0 255 153 0 255 153 0 255 153 0 255 153 0 255 153 0 255
153 0 255 153 0 255 153 0 255 153 0 255 153 0 255 153 0 255 154 0 255
154 0 255 154 0 255 154 0 255 154 0 255 154 0 255 154 0 255 154 0 255
154 0 255 154 0 255 154 0 255 154 0 255 154 0 255 154 0 0 0 154 0 0
154 0 0 154 0 0 154 0 0 154 0 0 153 0 0 153 0 0 153 0 0 153 0 0 153 0
0 153 0 0 153 0 0 152 0 0 152 0 0 152 255 155 0 255 155 0 255 155 0
255 155 0 255 155 0 255 156 0 255 156 0 255 156 0 255 156 0 255 156 0
255 156 0 255 156 0 255 156 0 255 156 0 255 156 0 255 156 0 255 156 0
255 156 0 255 156 0 255 156 0 255 156 0 255 156 0 255 156 0 0 0 149 0
0 148 0 0 148 0 0 148 0 0 148 0 0 148 0 0 148 0 0 148 0 0 147 0 0 147
0 0 147 0 0 147 0 0 147 0 0 147 0 0 147 0 0 147 0 0 146 0 0 146 0 0
146 0 0 146 0 0 146 0 0 146 0 0 146 0 0 145 0 0 145 0 0 145 0 0 145 0
0 26 0 0 26 0 0 26 0 0 26 0 0 26 0 0 26 0 0 26 0 0 26 0 0 26 0 0 26 0
0 26 0 0 26 184 158 0 184 158 0 184 158 0 184 158 0 184 158 0 184 158
0 184 158 0 184 158 0 184 158 0 184 158 0 184 159 0 184 159 0 184 159
0 184 159 0 184 159 0 184 159 0 184 159 0 184 159 0 184 159 0 184 159
0 184 159 0 184 159 0 184 159 0 184 159 0 184 159 0
255 146 0 255 146 0 255 146 0 255 146 0 255 146 0 255 146 0 255 146 0
0 0 173 0 0 173 0 0 173 0 0 173 0 0 173 0 0 173 0 0 172 0 0 172 0 0
172 0 0 172 0 0 172 0 0 172 0 0 171 0 0 171 0 0 171 0 0 171 0 0 171 0
0 170 0 0 170 0 0 170 0 0 170 0 0 170 0 0 170 0 0 169 0 0 169 0 0 169
0 0 169 0 0 169 0 0 169 0 0 168 0 0 168 0 0 168 0 0 168 0 0 168 0 0
168 0 0 167 0 0 167 0 0 167 0 0 167 255 149 0 255 149 0 0 0 166 0 0
166 0 0 166 0 0 166 0 0 166 0 0 166 0 0 165 0 0 165 0 0 165 0 0 165 0
0 165 0 0 165 0 0 165 0 0 164 0 0 164 0 0 164 0 0 164 0 0 164 0 0 164
0 0 163 0 0 163 0 0 163 0 0 163 0 0 163 0 0 163 0 0 162 0 0 162 0 0
162 0 0 162 0 0 162 0 0 162 0 0 161 0 0 161 0 0 161 0 0 161 0 0 161 0
0 161 255 152 0 255 152 0 255 152 0 255 152 0 255 152 0 255 152 0 255
152 0 255 153 0 255 153 0 255 153 0 255 153 0 255 153 0 255 153 0 255
153 0 255 153 0 255 153 0 255 153 0 255 153 0 255 153 0 255 153 0 255
153 0 255 153 0 255 154 0 255 154 0 255 154 0 255 154 0 255 154 0 255
154 0 255 154 0 255 154 0 255 154 0 255 154 0 255 154 0 255 154 0 255
154 0 255 154 0 255 154 0 255 154 0 255 155 0 0 0 154 0 0 154 0 0 154
0 0 154 0 0 154 0 0 154 0 0 154 0 0 153 0 0 153 0 0 153 0 0 153 0 0
153 0 0 153 0 0 153 0 0 152 0 0 152 0 0 152 0 0 152 0 0 152 0 0 152 0
0 152 255 156 0 255 156 0 255 156 0 255 156 0 255 156 0 255 156 0 255
156 0 255 156 0 255 156 0 255 156 0 255 156 0 255 156 0 255 156 0 255
156 0 255 157 0 255 157 0 255 157 0 255 157 0 0 0 149 0 0 149 0 0 148
0 0 148 0 0 148 0 0 148 0 0 148 0 0 148 0 0 148 0 0 148 0 0 147 0 0
147 0 0 147 0 0 147 0 0 147 0 0 147 0 0 147 0 0 146 0 0 146 0 0 146 0
0 146 0 0 146 0 0 146 0 0 146 0 0 145 0 0 145 0 0 26 0 0 26 0 0 26 0 0
26 0 0 26 0 0 26 0 0 26 0 0 26 0 0 26 0 0 26 0 0 26 0 0 26 0 0 26 184
158 0 184 158 0 184 159 0 184 159 0 184 159 0 184 159 0 184 159 0 184
159 0 184 159 0 184 159 0 184 159 0 184 159 0 184 159 0 184 159 0 184
159 0 184 159 0 185 159 0 185 159 0 185 159 0 185 159 0 185 159 0 185
159 0 185 159 0 185 159 0 185 159 0
255 146 0 255 146 0 255 146 0 255 146 0 255 146 0 255 146 0 0 0 174 0
0 173 0 0 173 0 0 173 0 0 173 0 0 173 0 0 173 0 0 172 0 0 172 0 0 172
0 0 172 0 0 172 0 0 172 0 0 171 0 0 171 0 0 171 0 0 171 0 0 171 0 0
171 0 0 170 0 0 170 0 0 170 0 0 170 0 0 170 0 0 170 0 0 169 0 0 169 0
0 169 0 0 169 0 0 169 0 0 169 0 0 168 0 0 168 0 0 168 0 0 168 0 0 168
0 0 168 0 0 167 0 0 167 255 150 0 255 150 0 255 150 0 255 150 0 255
150 0 255 150 0 255 150 0 0 0 166 0 0 166 0 0 166 0 0 165 0 0 165 0 0
165 0 0 165 0 0 165 0 0 165 0 0 164 0 0 164 0 0 164 0 0 164 0 0 164 0
0 164 0 0 163 0 0 163 0 0 163 0 0 163 0 0 163 0 0 163 0 0 163 0 0 162
0 0 162 0 0 162 0 0 162 0 0 162 0 0 162 0 0 161 0 0 161 0 0 161 0 0
161 255 152 0 255 152 0 255 152 0 255 152 0 255 153 0 255 153 0 255
153 0 255 153 0 255 153 0 255 153 0 255 153 0 255 153 0 255 153 0 255
153 0 255 153 0 255 153 0 255 153 0 255 153 0 255 153 0 255 154 0 255
154 0 255 154 0 255 154 0 255 154 0 255 154 0 255 154 0 255 154 0 255
154 0 255 154 0 255 154 0 255 154 0 255 154 0 255 154 0 255 154 0 255
154 0 255 155 0 255 155 0 255 155 0 255 155 0 0 0 155 0 0 155 0 0 154
0 0 154 0 0 154 0 0 154 0 0 154 0 0 154 0 0 154 0 0 153 0 0 153 0 0
153 0 0 153 0 0 153 0 0 153 0 0 153 0 0 152 0 0 152 0 0 152 0 0 152 0
0 152 0 0 152 0 0 152 0 0 151 0 0 151 0 0 151 0 0 151 255 156 0 255
156 0 255 156 0 255 156 0 255 157 0 255 157 0 255 157 0 255 157 0 255
157 0 255 157 0 255 157 0 255 157 0 0 0 149 0 0 149 0 0 149 0 0 149 0
0 149 0 0 148 0 0 148 0 0 148 0 0 148 0 0 148 0 0 148 0 0 148 0 0 147
0 0 147 0 0 147 0 0 147 0 0 147 0 0 147 0 0 147 0 0 146 0 0 146 0 0
146 0 0 146 0 0 146 0 0 146 0 0 146 0 0 26 0 0 26 0 0 26 0 0 26 0 0 26
0 0 26 0 0 26 0 0 26 0 0 26 0 0 26 0 0 26 0 0 26 0 0 26 0 0 26 184 159
0 184 159 0 184 159 0 184 159 0 184 159 0 184 159 0 184 159 0 184 159
0 185 159 0 185 159 0 185 159 0 185 159 0 185 159 0 185 159 0 185 159
0 185 159 0 185 159 0 185 159 0 185 159 0 185 159 0 185 159 0 185 159
0 185 159 0 185 160 0 185 160 0
255 146 0 255 146 0 255 146 0 255 147 0 255 147 0 0 0 174 0 0 174 0 0
174 0 0 173 0 0 173 0 0 173 0 0 173 0 0 173 0 0 173 0 0 172 0 0 172 0
0 172 0 0 172 0 0 172 0 0 171 0 0 171 0 0 171 0 0 171 0 0 171 0 0 171
0 0 170 0 0 170 0 0 170 0 0 170 0 0 170 0 0 170 0 0 169 0 0 169 0 0
169 0 0 169 0 0 169 0 0 169 0 0 168 0 0 168 0 0 168 0 0 168 0 0 168 0
0 168 0 0 167 255 150 0 255 150 0 255 150 0 255 150 0 255 150 0 255
150 0 255 150 0 255 150 0 255 150 0 255 150 0 255 150 0 255 151 0 0 0
165 0 0 165 0 0 165 0 0 165 0 0 165 0 0 165 0 0 164 0 0 164 0 0 164 0
0 164 0 0 164 0 0 164 0 0 163 0 0 163 0 0 163 0 0 163 0 0 163 0 0 163
0 0 162 0 0 162 0 0 162 0 0 162 0 0 162 0 0 162 0 0 162 0 0 161 0 0
161 255 152 0 255 153 0 255 153 0 255 153 0 255 153 0 255 153 0 255
153 0 255 153 0 255 153 0 255 153 0 255 153 0 255 153 0 255 153 0 255
153 0 255 153 0 255 153 0 255 154 0 255 154 0 255 154 0 255 154 0 255
154 0 255 154 0 255 154 0 255 154 0 255 154 0 255 154 0 255 154 0 255
154 0 255 154 0 255 154 0 255 154 0 255 155 0 255 155 0 255 155 0 255
155 0 255 155 0 255 155 0 255 155 0 255 155 0 255 155 0 0 0 155 0 0
155 0 0 155 0 0 154 0 0 154 0 0 154 0 0 154 0 0 154 0 0 154 0 0 154 0
0 153 0 0 153 0 0 153 0 0 153 0 0 153 0 0 153 0 0 153 0 0 152 0 0 152
0 0 152 0 0 152 0 0 152 0 0 152 0 0 152 0 0 151 0 0 151 0 0 151 0 0
151 0 0 151 0 0 151 0 0 151 255 157 0 255 157 0 255 157 0 255 157 0
255 157 0 255 157 0 255 157 0 255 157 0 0 0 149 0 0 149 0 0 149 0 0
149 0 0 149 0 0 149 0 0 148 0 0 148 0 0 148 0 0 148 0 0 148 0 0 148 0
0 148 0 0 147 0 0 147 0 0 147 0 0 147 0 0 147 0 0 147 0 0 147 0 0 146
0 0 146 0 0 146 0 0 146 0 0 26 0 0 26 0 0 26 0 0 26 0 0 26 0 0 26 0 0
26 0 0 26 0 0 26 0 0 26 0 0 26 0 0 26 0 0 26 0 0 26 0 0 26 184 159 0
184 159 0 185 159 0 185 159 0 185 159 0 185 159 0 185 159 0 185 159 0
185 159 0 185 159 0 185 159 0 185 159 0 185 159 0 185 159 0 185 159 0
185 160 0 185 160 0 185 160 0 185 160 0 185 160 0 185 160 0 185 160 0
185 160 0 185 160 0 185 160 0 185 160 0
255 147 0 255 147 0 255 147 0 0 0 174 0 0 174 0 0 174 0 0 174 0 0 174
0 0 173 0 0 173 0 0 173 0 0 173 0 0 173 0 0 173 0 0 172 0 0 172 0 0
172 0 0 172 0 0 172 0 0 172 0 0 171 0 0 171 0 0 171 0 0 171 0 0 171 0
0 171 0 0 170 0 0 170 0 0 170 0 0 170 0 0 170 0 0 170 0 0 169 0 0 169
0 0 169 0 0 169 0 0 169 0 0 169 0 0 168 0 0 168 0 0 168 0 0 168 0 0
168 255 150 0 255 150 0 255 150 0 255 150 0 255 150 0 255 150 0 255
150 0 255 150 0 255 151 0 255 151 0 255 151 0 255 151 0 255 151 0 255
151 0 255 151 0 255 151 0 255 151 0 0 0 165 0 0 165 0 0 164 0 0 164 0
0 164 0 0 164 0 0 164 0 0 164 0 0 164 0 0 163 0 0 163 0 0 163 0 0 163
0 0 163 0 0 163 0 0 162 0 0 162 0 0 162 0 0 162 0 0 162 0 0 162 0 0
161 255 153 0 255 153 0 255 153 0 255 153 0 255 153 0 255 153 0 255
153 0 255 153 0 255 153 0 255 153 0 255 153 0 255 153 0 255 154 0 255
154 0 255 154 0 255 154 0 255 154 0 255 154 0 255 154 0 255 154 0 255
154 0 255 154 0 255 154 0 255 154 0 255 154 0 255 154 0 255 154 0 255
154 0 255 155 0 255 155 0 255 155 0 255 155 0 255 155 0 255 155 0 255
155 0 255 155 0 255 155 0 255 155 0 255 155 0 255 155 0 0 0 155 0 0
155 0 0 155 0 0 155 0 0 155 0 0 154 0 0 154 0 0 154 0 0 154 0 0 154 0
0 154 0 0 154 0 0 153 0 0 153 0 0 153 0 0 153 0 0 153 0 0 153 0 0 153
0 0 152 0 0 152 0 0 152 0 0 152 0 0 152 0 0 152 0 0 152 0 0 151 0 0
151 0 0 151 0 0 151 0 0 151 0 0 151 0 0 151 0 0 150 0 0 150 0 0 150 0
0 150 255 157 0 255 157 0 255 157 0 0 0 149 0 0 149 0 0 149 0 0 149 0
0 149 0 0 149 0 0 149 0 0 148 0 0 148 0 0 148 0 0 148 0 0 148 0 0 148
0 0 148 0 0 147 0 0 147 0 0 147 0 0 147 0 0 147 0 0 26 0 0 26 0 0 26 0
0 26 0 0 26 0 0 26 0 0 26 0 0 26 0 0 26 0 0 26 0 0 26 0 0 26 0 0 26 0
0 26 0 0 26 0 0 26 0 0 26 0 0 26 0 0 26 0 0 26 185 159 0 185 159 0 185
159 0 185 159 0 185 159 0 185 159 0 185 159 0 185 159 0 185 160 0 185
160 0 185 160 0 185 160 0 185 160 0 185 160 0 185 160 0 185 160 0 185
160 0 185 160 0 185 160 0 185 160 0 185 160 0 185 160 0 186 160 0 186
160 0 186 160 0 186 160 0
255 147 0 255 147 0 0 0 174 0 0 174 0 0 174 0 0 174 0 0 174 0 0 174 0
0 173 0 0 173 0 0 173 0 0 173 0 0 173 0 0 173 0 0 172 0 0 172 0 0 172
0 0 172 0 0 172 0 0 172 0 0 171 0 0 171 0 0 171 0 0 171 0 0 171 0 0
171 0 0 170 0 0 170 0 0 170 0 0 170 0 0 170 0 0 170 0 0 169 0 0 169 0
0 169 0 0 169 0 0 169 0 0 169 0 0 168 0 0 168 0 0 168 0 0 168 255 150
0 255 150 0 255 150 0 255 150 0 255 150 0 255 150 0 255 151 0 255 151
0 255 151 0 255 151 0 255 151 0 255 151 0 255 151 0 255 151 0 255 151
0 255 151 0 255 151 0 255 151 0 255 151 0 255 151 0 255 152 0 255 152
0 0 0 164 0 0 164 0 0 164 0 0 164 0 0 164 0 0 163 0 0 163 0 0 163 0 0
163 0 0 163 0 0 163 0 0 163 0 0 162 0 0 162 0 0 162 0 0 162 0 0 162 0
0 162 255 153 0 255 153 0 255 153 0 255 153 0 255 153 0 255 153 0 255
153 0 255 153 0 255 153 0 255 154 0 255 154 0 255 154 0 255 154 0 255
154 0 255 154 0 255 154 0 255 154 0 255 154 0 255 154 0 255 154 0 255
154 0 255 154 0 255 154 0 255 154 0 255 155 0 255 155 0 255 155 0 255
155 0 255 155 0 255 155 0 255 155 0 255 155 0 255 155 0 255 155 0 255
155 0 255 155 0 255 155 0 255 155 0 255 155 0 0 0 155 0 0 155 0 0 155
0 0 155 0 0 155 0 0 155 0 0 155 0 0 154 0 0 154 0 0 154 0 0 154 0 0
154 0 0 154 0 0 154 0 0 153 0 0 153 0 0 153 0 0 153 0 0 153 0 0 153 0
0 153 0 0 152 0 0 152 0 0 152 0 0 152 0 0 152 0 0 152 0 0 152 0 0 151
0 0 151 0 0 151 0 0 151 0 0 151 0 0 151 0 0 151 0 0 150 0 0 150 0 0
150 0 0 150 0 0 150 255 158 0 255 158 0 255 158 0 0 0 149 0 0 149 0 0
149 0 0 149 0 0 149 0 0 149 0 0 148 0 0 148 0 0 148 0 0 148 0 0 148 0
0 148 0 0 26 0 0 26 0 0 26 0 0 26 0 0 26 0 0 26 0 0 26 0 0 26 0 0 26 0
0 26 0 0 26 0 0 26 0 0 26 0 0 26 0 0 26 0 0 26 0 0 26 0 0 26 0 0 26 0
0 26 0 0 26 0 0 26 0 0 26 0 0 26 0 0 26 185 160 0 185 160 0 185 160 0
185 160 0 185 160 0 185 160 0 185 160 0 185 160 0 185 160 0 185 160 0
185 160 0 185 160 0 185 160 0 185 160 0 186 160 0 186 160 0 186 160 0
186 160 0 186 160 0 186 160 0 186 160 0 186 160 0 186 160 0 186 160 0
186 160 0 186 160 0
0 0 175 0 0 175 0 0 175 0 0 174 0 0 174 0 0 174 0 0 174 0 0 174 0 0
174 0 0 173 0 0 173 0 0 173 0 0 173 0 0 173 0 0 173 0 0 172 0 0 172 0
0 172 0 0 172 0 0 172 0 0 172 0 0 171 0 0 171 0 0 171 0 0 171 0 0 171
0 0 171 0 0 170 0 0 170 0 0 170 0 0 170 0 0 170 0 0 170 0 0 169 0 0
169 0 0 169 0 0 169 0 0 169 0 0 169 0 0 168 0 0 168 255 150 0 255 150
0 255 150 0 255 151 0 255 151 0 255 151 0 255 151 0 255 151 0 255 151
0 255 151 0 255 151 0 255 151 0 255 151 0 255 151 0 255 151 0 255 151
0 255 151 0 255 152 0 255 152 0 255 152 0 255 152 0 255 152 0 255 152
0 255 152 0 255 152 0 255 152 0 255 152 0 0 0 164 0 0 164 0 0 163 0 0
163 0 0 163 0 0 163 0 0 163 0 0 163 0 0 162 0 0 162 0 0 162 0 0 162 0
0 162 255 153 0 255 153 0 255 153 0 255 153 0 255 153 0 255 153 0 255
154 0 255 154 0 255 154 0 255 154 0 255 154 0 255 154 0 255 154 0 255
154 0 255 154 0 255 154 0 255 154 0 255 154 0 255 154 0 255 154 0 255
154 0 255 155 0 255 155 0 255 155 0 255 155 0 255 155 0 255 155 0 255
155 0 255 155 0 255 155 0 255 155 0 255 155 0 255 155 0 255 155 0 255
155 0 255 155 0 255 155 0 255 156 0 255 156 0 255 156 0 0 0 156 0 0
155 0 0 155 0 0 155 0 0 155 0 0 155 0 0 155 0 0 155 0 0 154 0 0 154 0
0 154 0 0 154 0 0 154 0 0 154 0 0 154 0 0 153 0 0 153 0 0 153 0 0 153
0 0 153 0 0 153 0 0 153 0 0 152 0 0 152 0 0 152 0 0 152 0 0 152 0 0
152 0 0 152 0 0 151 0 0 151 0 0 151 0 0 151 0 0 151 0 0 151 0 0 151 0
0 150 0 0 150 0 0 150 0 0 150 255 158 0 255 158 0 255 158 0 255 158 0
255 158 0 255 158 0 255 158 0 0 0 149 0 0 149 0 0 149 0 0 26 0 0 26 0
0 26 0 0 26 0 0 26 0 0 26 0 0 26 0 0 26 0 0 26 0 0 26 0 0 26 0 0 26 0
0 26 0 0 26 0 0 26 0 0 26 0 0 26 0 0 26 0 0 26 0 0 26 0 0 26 0 0 26 0
0 26 0 0 26 0 0 26 0 0 26 0 0 26 0 0 26 0 0 26 0 0 26 185 160 0 185
160 0 185 160 0 185 160 0 185 160 0 185 160 0 185 160 0 186 160 0 186
160 0 186 160 0 186 160 0 186 160 0 186 160 0 186 160 0 186 160 0 186
160 0 186 160 0 186 160 0 186 160 0 186 160 0 186 160 0 186 161 0 186
161 0 186 161 0 186 161 0 186 161 0
