P3
256 256
255
0 32 0 0 32 0 32 32 0 32 32 0 33 33 0 33 33 0 0 33 0 0 33 0 0 33 0 0
33 0 33 33 0 33 33 0 33 33 0 33 33 0 0 33 0 0 33 0 33 33 0 0 33 0 33
33 0 33 33 0 0 33 0 33 33 0 0 33 0 0 33 0 33 33 0 33 33 0 33 33 0 0 33
0 0 33 0 33 33 0 0 33 0 33 33 0 33 33 0 0 33 0 33 33 0 0 33 0 0 33 0
33 33 0 0 33 0 33 33 0 33 33 0 0 33 0 0 33 0 0 33 0 0 33 0 33 33 0 33
33 0 33 33 0 33 33 0 0 33 0 0 33 0 0 33 0 0 33 0 33 33 0 33 33 0 0 33
0 33 33 0 0 33 0 0 33 0 33 33 0 0 33 0 33 33 0 33 33 0 0 33 0 33 33 0
0 33 0 0 33 0 33 33 0 33 33 0 33 33 0 33 33 0 0 33 0 0 33 0 0 33 0 0
33 0 33 33 0 33 33 0 33 33 0 33 33 0 0 33 0 0 33 0 33 33 0 0 33 0 33
33 0 33 33 0 0 33 0 33 33 0 0 33 0 0 33 0 33 33 0 33 33 0 33 33 0 0 33
0 0 33 0 33 33 0 0 33 0 33 33 0 33 33 0 0 33 0 33 33 0 0 33 0 0 33 0
33 33 0 0 33 0 33 33 0 33 33 0 0 33 0 0 33 0 0 33 0 0 33 0 33 33 0 33
33 0 33 33 0 33 33 0 0 33 0 0 33 0 0 33 0 0 33 0 33 33 0 33 33 0 0 33
0 33 33 0 0 33 0 0 33 0 33 33 0 0 33 0 33 33 0 33 33 0 0 33 0 33 33 0
0 33 0 0 33 0 33 33 0 33 33 0 33 33 0 33 33 0 0 33 0 0 33 0 0 33 0 0
33 0 33 33 0 33 33 0 33 33 0 33 33 0 0 33 0 0 33 0 33 33 0 0 33 0 33
33 0 33 33 0 0 33 0 33 33 0 0 33 0 0 33 0 33 33 0 0 33 0 33 33 0 0 33
0 0 33 0 33 33 0 0 33 0 33 33 0 33 33 0 0 33 0 33 33 0 0 33 0 0 33 0
33 33 0 0 33 0 33 33 0 33 33 0 0 33 0 0 33 0 0 33 0 0 33 0 33 33 0 33
33 0 33 33 0 33 33 0 0 33 0 0 33 0 0 33 0 0 33 0 33 33 0 33 33 0 0 33
0 33 33 0 0 33 0 0 33 0 33 33 0 0 33 0 33 33 0 33 33 0 0 33 0 33 33 0
0 33 0 0 33 0 33 33 0 33 33 0 33 33 0 33 33 0 0 33 0 0 33 0 0 33 0 0
33 0 33 33 0 33 33 0 33 33 0 33 33 0 0 33 0 0 33 0 0 33 0 0 33 0 33 33
0 33 33 0 0 33 0 33 33 0 0 33 0 0 33 0 33 33 0 0 33 0 33 33 0 0 33 0 0
33 0 0 33 0 0 33 0 33 33 0 33 33 0 0 33 0 33 33 0 0 33 0 0 33 0 33 33
0 0 32 0 32 32 0 32 32 0 0 32 0 32 32 0 0 32 0 0 32 0 32 32 0 32 32 0
32 32 0 32 32 0 0 32 0 0 32 0 0 32 0 0 32 0 32 32 0 32 32 0 32 32 0 32
32 0 0 32 0 0 32 0 32 32 0 0 32 0
34 34 0 34 34 0 34 34 0 34 34 0 0 34 0 34 34 0 34 34 0 0 34 0 0 34 0
34 34 0 0 34 0 0 34 0 34 34 0 34 34 0 0 34 0 34 34 0 34 34 0 0 34 0 0
34 0 34 34 0 0 34 0 0 34 0 34 34 0 34 34 0 0 34 0 34 34 0 34 34 0 0 34
0 0 34 0 34 34 0 0 34 0 0 34 0 34 34 0 34 34 0 0 34 0 0 35 0 35 35 0 0
35 0 0 35 0 35 35 0 35 35 0 0 35 0 35 35 0 35 35 0 0 35 0 0 35 0 35 35
0 0 35 0 0 35 0 35 35 0 35 35 0 0 35 0 35 35 0 35 35 0 0 35 0 0 35 0
35 35 0 0 35 0 0 35 0 35 35 0 35 35 0 0 35 0 35 35 0 35 35 0 0 35 0 0
35 0 35 35 0 35 35 0 0 35 0 0 35 0 0 35 0 35 35 0 35 35 0 0 35 0 35 35
0 35 35 0 0 35 0 0 35 0 35 35 0 0 35 0 0 35 0 35 35 0 35 35 0 0 35 0
35 35 0 35 35 0 0 35 0 0 35 0 35 35 0 0 35 0 0 35 0 35 35 0 35 35 0 0
35 0 35 35 0 35 35 0 0 35 0 0 35 0 35 35 0 0 35 0 0 35 0 35 35 0 35 35
0 0 35 0 0 35 0 35 35 0 0 35 0 0 35 0 35 35 0 35 35 0 0 35 0 35 35 0
35 35 0 0 35 0 0 35 0 35 35 0 0 35 0 0 35 0 35 35 0 35 35 0 0 35 0 35
35 0 35 35 0 0 35 0 0 35 0 35 35 0 0 35 0 0 35 0 35 35 0 35 35 0 0 35
0 35 35 0 35 35 0 0 35 0 0 35 0 35 35 0 0 35 0 35 35 0 0 35 0 0 35 0
35 35 0 35 35 0 0 35 0 35 35 0 35 35 0 0 35 0 0 35 0 35 35 0 0 35 0 0
35 0 35 35 0 35 35 0 0 35 0 35 35 0 35 35 0 0 35 0 0 35 0 35 35 0 0 35
0 0 35 0 35 35 0 35 35 0 0 35 0 35 35 0 35 35 0 0 35 0 0 35 0 35 35 0
35 35 0 0 35 0 35 35 0 35 35 0 0 35 0 0 35 0 35 35 0 0 35 0 0 35 0 35
35 0 35 35 0 0 35 0 35 35 0 35 35 0 0 35 0 0 35 0 35 35 0 0 35 0 0 35
0 35 35 0 35 35 0 0 35 0 35 35 0 35 35 0 0 35 0 0 35 0 35 35 0 0 35 0
0 35 0 34 34 0 34 34 0 0 34 0 34 34 0 34 34 0 0 34 0 34 34 0 0 34 0 0
34 0 34 34 0 0 34 0 0 34 0 34 34 0 34 34 0 0 34 0 34 34 0 34 34 0 0 34
0 0 34 0 34 34 0 0 34 0 0 34 0 34 34 0 34 34 0 0 34 0 34 34 0 34 34 0
0 34 0 0 34 0 34 34 0 0 34 0 0 34 0 34 34 0 34 34 0 0 34 0 34 34 0 34
34 0 0 34 0 0 34 0 34 34 0 34 34 0 0 34 0 34 34 0 34 34 0 0 34 0 0 34
0 34 34 0 0 34 0 0 34 0 34 34 0 34 34 0 0 34 0 34 34 0 34 34 0 0 34 0
0 34 0 34 34 0 0 34 0 0 34 0
0 36 0 0 36 0 36 36 0 0 36 0 0 36 0 36 36 0 0 36 0 36 36 0 0 36 0 0 36
0 36 36 0 0 36 0 0 36 0 0 36 0 36 36 0 36 36 0 0 36 0 36 36 0 36 36 0
0 36 0 0 36 0 0 36 0 36 36 0 0 36 0 0 36 0 36 36 0 0 36 0 0 36 0 0 36
0 36 36 0 36 36 0 0 36 0 36 36 0 36 36 0 0 36 0 36 36 0 0 36 0 36 36 0
36 36 0 0 36 0 36 36 0 36 36 0 36 36 0 0 36 0 0 36 0 36 36 0 0 36 0 0
36 0 36 36 0 0 36 0 36 36 0 0 36 0 36 36 0 36 36 0 0 36 0 36 36 0 36
36 0 36 36 0 0 36 0 0 36 0 36 36 0 36 36 0 0 37 0 37 37 0 0 37 0 37 37
0 0 37 0 0 37 0 37 37 0 0 37 0 0 37 0 37 37 0 37 37 0 37 37 0 0 37 0
37 37 0 37 37 0 0 37 0 37 37 0 0 37 0 37 37 0 0 37 0 0 37 0 37 37 0 0
37 0 0 37 0 0 37 0 37 37 0 37 37 0 0 37 0 0 37 0 37 37 0 0 37 0 0 37 0
0 37 0 37 37 0 37 37 0 0 37 0 37 37 0 37 37 0 0 37 0 0 37 0 0 37 0 37
37 0 0 37 0 0 37 0 37 37 0 0 37 0 37 37 0 0 37 0 37 37 0 37 37 0 0 37
0 37 37 0 37 37 0 0 37 0 0 37 0 0 37 0 37 37 0 37 37 0 0 37 0 37 37 0
37 37 0 37 37 0 0 37 0 0 37 0 37 37 0 0 37 0 0 37 0 37 37 0 37 37 0 37
37 0 0 37 0 37 37 0 37 37 0 0 37 0 37 37 0 37 37 0 37 37 0 0 37 0 0 37
0 37 37 0 0 37 0 0 37 0 37 37 0 0 37 0 37 37 0 0 37 0 0 37 0 37 37 0 0
37 0 0 37 0 0 37 0 37 37 0 37 37 0 0 37 0 37 37 0 37 37 0 0 37 0 37 37
0 0 37 0 37 37 0 0 37 0 0 37 0 37 37 0 0 37 0 0 36 0 0 36 0 36 36 0 36
36 0 0 36 0 36 36 0 36 36 0 0 36 0 36 36 0 0 36 0 36 36 0 36 36 0 0 36
0 36 36 0 36 36 0 0 36 0 0 36 0 0 36 0 36 36 0 0 36 0 0 36 0 36 36 0 0
36 0 36 36 0 0 36 0 36 36 0 36 36 0 0 36 0 36 36 0 36 36 0 36 36 0 0
36 0 0 36 0 36 36 0 36 36 0 0 36 0 36 36 0 0 36 0 36 36 0 0 36 0 0 36
0 36 36 0 0 36 0 0 36 0 36 36 0 36 36 0 36 36 0 0 36 0 36 36 0 36 36 0
0 36 0 36 36 0 0 36 0 36 36 0 0 36 0 0 36 0 36 36 0 0 36 0 0 36 0 0 36
0 36 36 0 36 36 0 0 36 0 0 35 0 35 35 0 0 35 0 0 35 0 0 35 0 35 35 0
35 35 0 0 35 0 35 35 0 35 35 0 0 35 0 0 35 0 0 35 0 35 35 0 0 35 0 0
35 0 35 35 0 0 35 0 35 35 0 0 35 0 35 35 0 35 35 0 0 35 0 35 35 0 35
35 0 0 35 0 35 35 0
37 37 0 37 37 0 0 37 0 37 37 0 37 37 0 37 37 0 0 37 0 37 37 0 0 37 0
37 37 0 0 37 0 0 37 0 0 37 0 37 37 0 0 37 0 0 37 0 0 37 0 37 37 0 37
37 0 0 37 0 0 38 0 0 38 0 38 38 0 0 38 0 0 38 0 0 38 0 38 38 0 0 38 0
0 38 0 0 38 0 38 38 0 38 38 0 0 38 0 0 38 0 0 38 0 38 38 0 0 38 0 0 38
0 0 38 0 38 38 0 0 38 0 38 38 0 0 38 0 38 38 0 38 38 0 38 38 0 0 38 0
38 38 0 38 38 0 38 38 0 0 38 0 0 38 0 38 38 0 38 38 0 38 38 0 0 38 0
38 38 0 38 38 0 38 38 0 0 38 0 38 38 0 0 38 0 38 38 0 0 38 0 0 38 0 0
38 0 38 38 0 0 38 0 0 38 0 0 38 0 38 38 0 38 38 0 0 38 0 0 38 0 0 38 0
38 38 0 0 38 0 0 38 0 0 38 0 38 38 0 0 38 0 38 38 0 0 38 0 38 38 0 38
38 0 38 38 0 0 38 0 38 38 0 38 38 0 38 38 0 0 38 0 0 38 0 38 38 0 38
38 0 38 38 0 0 38 0 38 38 0 39 39 0 39 39 0 0 39 0 39 39 0 0 39 0 39
39 0 0 39 0 0 39 0 0 39 0 39 39 0 0 39 0 0 39 0 0 39 0 39 39 0 39 39 0
0 39 0 0 39 0 0 39 0 39 39 0 0 39 0 0 39 0 0 39 0 39 39 0 0 39 0 39 39
0 0 39 0 39 39 0 39 39 0 39 39 0 0 39 0 38 38 0 38 38 0 38 38 0 0 38 0
0 38 0 38 38 0 38 38 0 38 38 0 0 38 0 38 38 0 38 38 0 38 38 0 0 38 0
38 38 0 0 38 0 38 38 0 0 38 0 0 38 0 0 38 0 38 38 0 0 38 0 0 38 0 0 38
0 38 38 0 38 38 0 0 38 0 0 38 0 0 38 0 38 38 0 0 38 0 0 38 0 0 38 0 38
38 0 0 38 0 38 38 0 0 38 0 38 38 0 38 38 0 38 38 0 0 38 0 38 38 0 38
38 0 38 38 0 0 38 0 0 38 0 38 38 0 38 38 0 38 38 0 0 38 0 38 38 0 38
38 0 38 38 0 0 38 0 38 38 0 0 38 0 38 38 0 0 38 0 0 38 0 0 38 0 38 38
0 0 38 0 0 38 0 0 38 0 38 38 0 38 38 0 0 38 0 0 38 0 0 38 0 38 38 0 0
38 0 0 38 0 0 38 0 38 38 0 0 38 0 38 38 0 0 38 0 38 38 0 37 37 0 37 37
0 0 37 0 37 37 0 37 37 0 37 37 0 0 37 0 0 37 0 37 37 0 37 37 0 37 37 0
0 37 0 37 37 0 37 37 0 37 37 0 0 37 0 37 37 0 0 37 0 37 37 0 0 37 0 0
37 0 37 37 0 37 37 0 37 37 0 0 37 0 37 37 0 37 37 0 37 37 0 0 37 0 37
37 0 0 37 0 37 37 0 0 37 0 0 37 0 0 37 0 37 37 0 0 37 0 0 37 0 0 37 0
37 37 0 37 37 0 0 37 0 0 37 0 0 37 0 37 37 0 0 37 0 0 36 0 0 36 0 36
36 0 0 36 0 36 36 0 0 36 0
0 39 0 39 39 0 39 39 0 0 39 0 0 39 0 0 39 0 39 39 0 0 39 0 39 39 0 0
39 0 39 39 0 39 39 0 39 39 0 0 39 0 0 39 0 0 39 0 39 39 0 39 39 0 0 39
0 0 39 0 0 39 0 39 39 0 0 39 0 39 39 0 0 39 0 39 39 0 39 39 0 39 39 0
0 39 0 0 39 0 0 39 0 39 39 0 39 39 0 0 39 0 0 39 0 0 39 0 39 39 0 0 39
0 40 40 0 0 40 0 40 40 0 40 40 0 40 40 0 0 40 0 0 40 0 0 40 0 40 40 0
40 40 0 0 40 0 0 40 0 0 40 0 40 40 0 0 40 0 40 40 0 0 40 0 40 40 0 40
40 0 40 40 0 0 40 0 0 40 0 0 40 0 40 40 0 40 40 0 0 40 0 0 40 0 0 40 0
40 40 0 0 40 0 40 40 0 0 40 0 40 40 0 40 40 0 40 40 0 0 40 0 0 40 0 40
40 0 40 40 0 40 40 0 0 40 0 0 40 0 0 40 0 40 40 0 0 40 0 40 40 0 0 40
0 40 40 0 40 40 0 40 40 0 0 40 0 0 40 0 40 40 0 40 40 0 40 40 0 0 40 0
0 40 0 0 40 0 40 40 0 0 40 0 40 40 0 0 40 0 40 40 0 40 40 0 40 40 0 0
40 0 0 40 0 40 40 0 40 40 0 40 40 0 0 40 0 0 40 0 0 40 0 40 40 0 0 40
0 40 40 0 0 40 0 40 40 0 40 40 0 40 40 0 0 40 0 0 40 0 40 40 0 40 40 0
40 40 0 0 40 0 0 40 0 0 40 0 40 40 0 0 40 0 40 40 0 0 40 0 40 40 0 40
40 0 40 40 0 0 40 0 0 40 0 40 40 0 40 40 0 40 40 0 0 40 0 0 40 0 0 40
0 40 40 0 0 40 0 40 40 0 0 40 0 40 40 0 40 40 0 40 40 0 0 40 0 0 40 0
40 40 0 40 40 0 40 40 0 0 40 0 0 40 0 0 40 0 40 40 0 0 40 0 40 40 0 0
40 0 40 40 0 40 40 0 40 40 0 0 40 0 0 40 0 40 40 0 40 40 0 40 40 0 0
40 0 40 40 0 0 40 0 40 40 0 0 40 0 40 40 0 0 40 0 0 40 0 40 40 0 40 40
0 40 40 0 0 40 0 40 40 0 0 40 0 39 39 0 0 39 0 0 39 0 0 39 0 39 39 0
39 39 0 39 39 0 0 39 0 0 39 0 39 39 0 39 39 0 39 39 0 0 39 0 39 39 0 0
39 0 39 39 0 0 39 0 0 39 0 0 39 0 39 39 0 39 39 0 39 39 0 0 39 0 0 39
0 39 39 0 39 39 0 39 39 0 0 39 0 39 39 0 0 39 0 39 39 0 0 39 0 0 39 0
0 39 0 39 39 0 39 39 0 39 39 0 0 39 0 0 39 0 39 39 0 39 39 0 39 39 0 0
39 0 39 39 0 0 38 0 38 38 0 0 38 0 0 38 0 0 38 0 38 38 0 38 38 0 38 38
0 0 38 0 0 38 0 38 38 0 38 38 0 38 38 0 0 38 0 38 38 0 0 38 0 38 38 0
0 38 0 0 38 0 0 38 0 38 38 0 38 38 0 38 38 0 0 38 0 0 38 0 38 38 0 38
38 0 38 38 0 0 38 0 38 38 0
40 40 0 0 40 0 0 40 0 0 40 0 0 40 0 40 40 0 0 40 0 40 40 0 0 40 0 0 41
0 41 41 0 0 41 0 41 41 0 0 41 0 0 41 0 41 41 0 41 41 0 41 41 0 0 41 0
0 41 0 0 41 0 0 41 0 41 41 0 0 41 0 41 41 0 0 41 0 0 41 0 41 41 0 41
41 0 41 41 0 0 41 0 0 41 0 41 41 0 41 41 0 41 41 0 0 41 0 0 41 0 0 41
0 41 41 0 41 41 0 0 41 0 41 41 0 0 41 0 41 41 0 41 41 0 41 41 0 41 41
0 0 41 0 41 41 0 0 41 0 41 41 0 41 41 0 0 41 0 41 41 0 0 42 0 42 42 0
42 42 0 0 42 0 0 42 0 0 42 0 42 42 0 42 42 0 42 42 0 0 42 0 0 42 0 42
42 0 0 42 0 42 42 0 0 42 0 0 42 0 0 42 0 0 42 0 42 42 0 42 42 0 0 42 0
0 42 0 0 42 0 42 42 0 42 42 0 42 42 0 0 42 0 0 42 0 42 42 0 0 42 0 42
42 0 0 42 0 0 42 0 0 42 0 0 42 0 42 42 0 0 42 0 42 42 0 0 42 0 0 42 0
42 42 0 42 42 0 42 42 0 0 42 0 0 42 0 42 42 0 42 42 0 42 42 0 0 42 0 0
42 0 0 42 0 42 42 0 42 42 0 0 42 0 42 42 0 0 42 0 42 42 0 42 42 0 42
42 0 42 42 0 0 42 0 42 42 0 0 42 0 42 42 0 42 42 0 0 42 0 42 42 0 0 42
0 42 42 0 42 42 0 0 42 0 0 42 0 0 42 0 42 42 0 42 42 0 42 42 0 42 42 0
0 42 0 42 42 0 0 42 0 42 42 0 42 42 0 0 42 0 0 42 0 0 42 0 42 42 0 42
42 0 0 42 0 0 42 0 0 42 0 42 42 0 42 42 0 42 42 0 0 42 0 0 42 0 42 42
0 0 42 0 42 42 0 0 42 0 0 42 0 0 42 0 0 42 0 42 42 0 0 42 0 42 42 0 0
42 0 0 42 0 42 42 0 0 41 0 41 41 0 0 41 0 0 41 0 41 41 0 41 41 0 41 41
0 0 41 0 0 41 0 0 41 0 41 41 0 41 41 0 0 41 0 41 41 0 0 41 0 41 41 0
41 41 0 41 41 0 41 41 0 0 41 0 0 41 0 41 41 0 41 41 0 41 41 0 0 41 0 0
41 0 0 41 0 41 41 0 41 41 0 0 41 0 41 41 0 0 41 0 41 41 0 41 41 0 41
41 0 41 41 0 0 41 0 41 41 0 0 41 0 41 41 0 41 41 0 0 41 0 0 41 0 0 41
0 41 41 0 40 40 0 0 40 0 0 40 0 0 40 0 40 40 0 40 40 0 40 40 0 0 40 0
0 40 0 40 40 0 0 40 0 40 40 0 0 40 0 0 40 0 0 40 0 0 40 0 40 40 0 0 40
0 40 40 0 0 40 0 0 40 0 40 40 0 0 40 0 40 40 0 0 40 0 0 40 0 40 40 0
40 40 0 40 40 0 0 40 0 0 40 0 0 40 0 0 40 0 40 40 0 0 40 0 40 40 0 0
39 0 0 39 0 39 39 0 39 39 0 39 39 0 0 39 0 0 39 0 39 39 0 39 39 0 39
39 0 0 39 0 0 39 0 0 39 0
42 42 0 42 42 0 42 42 0 0 42 0 0 42 0 42 42 0 0 42 0 42 42 0 42 42 0 0
42 0 0 42 0 0 42 0 42 42 0 42 42 0 0 42 0 42 42 0 0 42 0 0 42 0 42 42
0 42 42 0 42 42 0 42 42 0 0 43 0 0 43 0 0 43 0 43 43 0 43 43 0 0 43 0
0 43 0 0 43 0 0 43 0 43 43 0 43 43 0 0 43 0 43 43 0 0 43 0 0 43 0 43
43 0 43 43 0 43 43 0 0 43 0 0 43 0 43 43 0 0 43 0 43 43 0 43 43 0 0 43
0 0 43 0 0 43 0 43 43 0 43 43 0 0 43 0 43 43 0 0 43 0 0 43 0 43 43 0
43 43 0 43 43 0 43 43 0 0 43 0 0 43 0 0 43 0 43 43 0 43 43 0 0 43 0 0
43 0 0 43 0 0 43 0 43 43 0 43 43 0 0 43 0 43 43 0 0 44 0 0 44 0 44 44
0 44 44 0 44 44 0 0 44 0 0 44 0 44 44 0 0 44 0 44 44 0 44 44 0 0 44 0
0 44 0 0 44 0 44 44 0 44 44 0 0 44 0 44 44 0 0 44 0 0 44 0 44 44 0 44
44 0 44 44 0 44 44 0 0 44 0 0 44 0 0 44 0 44 44 0 44 44 0 0 44 0 0 44
0 0 44 0 0 44 0 44 44 0 44 44 0 0 44 0 44 44 0 0 44 0 0 44 0 44 44 0
44 44 0 44 44 0 0 44 0 0 44 0 44 44 0 0 44 0 44 44 0 44 44 0 0 44 0 0
44 0 0 44 0 44 44 0 44 44 0 0 44 0 44 44 0 0 44 0 0 44 0 44 44 0 44 44
0 44 44 0 44 44 0 0 44 0 0 44 0 0 44 0 44 44 0 44 44 0 0 44 0 0 44 0 0
43 0 0 43 0 43 43 0 43 43 0 0 43 0 43 43 0 0 43 0 0 43 0 43 43 0 43 43
0 43 43 0 0 43 0 0 43 0 43 43 0 0 43 0 43 43 0 43 43 0 0 43 0 0 43 0 0
43 0 43 43 0 43 43 0 0 43 0 43 43 0 0 43 0 0 43 0 43 43 0 43 43 0 43
43 0 43 43 0 0 43 0 0 43 0 0 43 0 43 43 0 43 43 0 0 43 0 0 43 0 0 43 0
0 43 0 43 43 0 43 43 0 0 43 0 43 43 0 0 43 0 0 43 0 43 43 0 43 43 0 43
43 0 0 43 0 0 42 0 42 42 0 0 42 0 42 42 0 42 42 0 0 42 0 0 42 0 0 42 0
42 42 0 42 42 0 0 42 0 42 42 0 0 42 0 0 42 0 42 42 0 42 42 0 42 42 0
42 42 0 0 42 0 0 42 0 0 42 0 42 42 0 42 42 0 0 42 0 0 42 0 0 42 0 0 42
0 42 42 0 42 42 0 0 42 0 42 42 0 0 42 0 0 42 0 42 42 0 42 42 0 41 41 0
0 41 0 0 41 0 41 41 0 0 41 0 41 41 0 41 41 0 0 41 0 0 41 0 0 41 0 41
41 0 41 41 0 0 41 0 41 41 0 0 41 0 0 41 0 41 41 0 41 41 0 41 41 0 41
41 0 0 41 0 0 41 0 0 41 0 41 41 0 41 41 0 0 41 0 0 41 0 0 41 0 0 41 0
41 41 0 41 41 0 0 40 0
44 44 0 44 44 0 44 44 0 44 44 0 0 44 0 0 44 0 0 44 0 0 44 0 44 44 0 44
44 0 0 44 0 44 44 0 0 44 0 0 44 0 44 44 0 44 44 0 44 44 0 44 44 0 0 44
0 0 44 0 44 44 0 0 44 0 44 44 0 44 44 0 0 44 0 0 44 0 0 44 0 0 44 0 44
44 0 44 44 0 0 44 0 44 44 0 0 44 0 0 44 0 45 45 0 45 45 0 45 45 0 45
45 0 0 45 0 0 45 0 45 45 0 0 45 0 45 45 0 45 45 0 0 45 0 0 45 0 0 45 0
0 45 0 45 45 0 45 45 0 0 45 0 45 45 0 0 45 0 0 45 0 45 45 0 45 45 0 45
45 0 45 45 0 0 45 0 0 45 0 45 45 0 0 45 0 45 45 0 45 45 0 0 45 0 0 45
0 45 45 0 0 45 0 45 45 0 45 45 0 0 45 0 0 45 0 0 45 0 0 45 0 45 45 0
45 45 0 0 45 0 45 45 0 0 45 0 0 45 0 45 45 0 45 45 0 45 45 0 45 45 0 0
45 0 0 45 0 45 45 0 0 45 0 45 45 0 45 45 0 0 45 0 0 45 0 45 45 0 0 45
0 0 45 0 45 45 0 45 45 0 45 45 0 45 45 0 0 45 0 0 45 0 45 45 0 0 45 0
45 45 0 45 45 0 0 45 0 0 45 0 0 45 0 0 45 0 45 45 0 45 45 0 0 45 0 45
45 0 0 45 0 0 45 0 45 45 0 45 45 0 45 45 0 45 45 0 0 45 0 0 45 0 45 45
0 0 45 0 45 45 0 45 45 0 0 45 0 0 45 0 0 45 0 0 45 0 45 45 0 45 45 0 0
45 0 45 45 0 0 45 0 0 45 0 45 45 0 45 45 0 45 45 0 45 45 0 0 45 0 0 45
0 45 45 0 0 45 0 45 45 0 45 45 0 0 45 0 0 45 0 0 45 0 0 45 0 45 45 0
45 45 0 0 45 0 0 45 0 0 45 0 0 45 0 45 45 0 45 45 0 0 45 0 45 45 0 0
45 0 0 45 0 45 45 0 45 45 0 45 45 0 45 45 0 0 45 0 0 45 0 45 45 0 0 45
0 45 45 0 45 45 0 0 45 0 0 45 0 0 44 0 0 44 0 44 44 0 44 44 0 0 44 0
44 44 0 44 44 0 0 44 0 0 44 0 44 44 0 0 44 0 44 44 0 44 44 0 0 44 0 0
44 0 0 44 0 0 44 0 44 44 0 44 44 0 0 44 0 44 44 0 0 44 0 0 44 0 44 44
0 44 44 0 44 44 0 44 44 0 0 44 0 0 44 0 44 44 0 0 44 0 44 44 0 44 44 0
0 44 0 0 43 0 0 43 0 0 43 0 43 43 0 43 43 0 0 43 0 43 43 0 0 43 0 0 43
0 43 43 0 43 43 0 43 43 0 43 43 0 0 43 0 0 43 0 43 43 0 0 43 0 43 43 0
43 43 0 0 43 0 0 43 0 0 43 0 0 43 0 43 43 0 43 43 0 0 43 0 43 43 0 0
43 0 0 43 0 43 43 0 42 42 0 42 42 0 42 42 0 0 42 0 0 42 0 42 42 0 42
42 0 42 42 0 42 42 0 0 42 0 0 42 0 42 42 0 0 42 0 42 42 0 42 42 0 0 42
0 0 42 0 0 42 0 0 42 0
45 45 0 0 45 0 0 45 0 45 45 0 0 45 0 45 45 0 45 45 0 0 45 0 0 45 0 45
45 0 0 46 0 0 46 0 46 46 0 46 46 0 0 46 0 46 46 0 0 46 0 0 46 0 46 46
0 46 46 0 0 46 0 46 46 0 46 46 0 0 46 0 0 46 0 46 46 0 0 46 0 46 46 0
46 46 0 0 46 0 0 46 0 46 46 0 0 46 0 0 46 0 46 46 0 46 46 0 0 46 0 46
46 0 0 46 0 0 46 0 46 46 0 46 46 0 0 46 0 46 46 0 46 46 0 0 47 0 0 47
0 47 47 0 0 47 0 47 47 0 47 47 0 0 47 0 0 47 0 47 47 0 0 47 0 0 47 0
47 47 0 47 47 0 0 47 0 47 47 0 0 47 0 0 47 0 47 47 0 47 47 0 0 47 0 47
47 0 47 47 0 0 47 0 0 47 0 47 47 0 0 47 0 47 47 0 47 47 0 0 47 0 0 47
0 47 47 0 0 47 0 0 47 0 47 47 0 47 47 0 0 47 0 47 47 0 0 47 0 0 47 0
47 47 0 47 47 0 0 47 0 47 47 0 0 47 0 0 47 0 0 47 0 47 47 0 0 47 0 47
47 0 47 47 0 0 47 0 0 47 0 47 47 0 0 47 0 47 47 0 47 47 0 47 47 0 0 47
0 47 47 0 0 47 0 0 47 0 47 47 0 47 47 0 0 47 0 47 47 0 0 47 0 0 47 0 0
47 0 47 47 0 0 47 0 47 47 0 47 47 0 0 47 0 0 47 0 47 47 0 0 47 0 47 47
0 47 47 0 47 47 0 0 47 0 47 47 0 0 47 0 0 47 0 47 47 0 47 47 0 0 47 0
47 47 0 0 47 0 0 47 0 0 47 0 47 47 0 0 47 0 47 47 0 47 47 0 0 47 0 0
47 0 47 47 0 0 47 0 47 47 0 47 47 0 47 47 0 0 47 0 47 47 0 0 47 0 0 47
0 47 47 0 47 47 0 0 47 0 47 47 0 0 47 0 0 47 0 0 47 0 47 47 0 0 46 0
46 46 0 46 46 0 0 46 0 0 46 0 46 46 0 0 46 0 46 46 0 46 46 0 46 46 0 0
46 0 46 46 0 0 46 0 0 46 0 46 46 0 46 46 0 0 46 0 46 46 0 0 46 0 0 46
0 0 46 0 46 46 0 0 46 0 46 46 0 46 46 0 0 46 0 0 46 0 46 46 0 0 46 0
46 46 0 46 46 0 0 46 0 0 46 0 46 46 0 0 46 0 0 45 0 45 45 0 45 45 0 0
45 0 45 45 0 0 45 0 0 45 0 45 45 0 45 45 0 0 45 0 45 45 0 45 45 0 0 45
0 0 45 0 0 45 0 0 45 0 45 45 0 45 45 0 0 45 0 0 45 0 45 45 0 0 45 0 0
45 0 45 45 0 45 45 0 45 45 0 45 45 0 0 45 0 0 44 0 44 44 0 44 44 0 0
44 0 44 44 0 44 44 0 0 44 0 0 44 0 0 44 0 0 44 0 44 44 0 44 44 0 0 44
0 0 44 0 44 44 0 0 44 0 0 44 0 44 44 0 44 44 0 44 44 0 44 44 0 0 44 0
0 44 0 44 44 0 44 44 0 0 44 0 43 43 0 43 43 0 0 43 0 0 43 0 0 43 0 0
43 0 43 43 0 43 43 0 0 43 0
47 47 0 47 47 0 47 47 0 47 47 0 47 47 0 0 47 0 0 47 0 47 47 0 47 47 0
0 47 0 47 47 0 47 47 0 0 47 0 0 47 0 47 47 0 0 47 0 0 47 0 47 47 0 47
47 0 0 47 0 0 48 0 48 48 0 0 48 0 0 48 0 48 48 0 48 48 0 48 48 0 48 48
0 48 48 0 0 48 0 0 48 0 48 48 0 0 48 0 48 48 0 48 48 0 48 48 0 0 48 0
0 48 0 0 48 0 0 48 0 0 48 0 48 48 0 48 48 0 0 48 0 48 48 0 0 48 0 0 48
0 0 48 0 48 48 0 48 48 0 48 48 0 48 48 0 0 48 0 0 48 0 0 48 0 48 48 0
0 49 0 49 49 0 49 49 0 0 49 0 0 49 0 0 49 0 0 49 0 0 49 0 49 49 0 49
49 0 49 49 0 0 49 0 49 49 0 0 49 0 0 49 0 49 49 0 49 49 0 49 49 0 49
49 0 49 49 0 0 49 0 0 49 0 49 49 0 49 49 0 0 49 0 49 49 0 49 49 0 0 49
0 0 49 0 0 49 0 0 49 0 0 49 0 49 49 0 49 49 0 0 49 0 0 49 0 49 49 0 0
49 0 0 49 0 49 49 0 49 49 0 0 49 0 49 49 0 49 49 0 0 49 0 0 49 0 49 49
0 0 49 0 49 49 0 49 49 0 49 49 0 0 49 0 0 49 0 0 49 0 0 49 0 0 49 0 49
49 0 49 49 0 0 49 0 49 49 0 0 49 0 0 49 0 0 49 0 49 49 0 49 49 0 49 49
0 49 49 0 0 49 0 0 49 0 0 49 0 49 49 0 0 49 0 49 49 0 49 49 0 49 49 0
0 49 0 0 49 0 0 49 0 0 49 0 49 49 0 49 49 0 49 49 0 0 49 0 49 49 0 0
49 0 0 49 0 49 49 0 48 48 0 48 48 0 48 48 0 48 48 0 0 48 0 0 48 0 48
48 0 48 48 0 0 48 0 48 48 0 48 48 0 0 48 0 0 48 0 0 48 0 0 48 0 0 48 0
48 48 0 48 48 0 0 48 0 0 48 0 48 48 0 0 48 0 0 48 0 48 48 0 48 48 0 0
48 0 48 48 0 48 48 0 0 48 0 0 48 0 48 48 0 0 48 0 0 48 0 48 48 0 48 48
0 0 48 0 0 47 0 0 47 0 0 47 0 0 47 0 47 47 0 47 47 0 0 47 0 47 47 0 0
47 0 0 47 0 0 47 0 47 47 0 47 47 0 47 47 0 47 47 0 0 47 0 0 47 0 0 47
0 47 47 0 0 47 0 47 47 0 47 47 0 47 47 0 0 47 0 0 47 0 0 47 0 0 47 0
47 47 0 46 46 0 46 46 0 0 46 0 46 46 0 0 46 0 0 46 0 46 46 0 46 46 0
46 46 0 46 46 0 46 46 0 0 46 0 0 46 0 0 46 0 46 46 0 0 46 0 46 46 0 46
46 0 0 46 0 0 46 0 0 46 0 0 46 0 0 46 0 46 46 0 45 45 0 0 45 0 0 45 0
45 45 0 0 45 0 0 45 0 45 45 0 45 45 0 0 45 0 45 45 0 45 45 0 0 45 0 0
45 0 45 45 0 45 45 0 0 45 0 45 45 0 45 45 0 0 45 0 0 45 0 0 45 0 0 45
0 0 45 0 45 45 0 44 44 0
0 48 0 0 49 0 0 49 0 0 49 0 0 49 0 49 49 0 49 49 0 0 49 0 0 49 0 49 49
0 0 49 0 0 49 0 49 49 0 49 49 0 49 49 0 49 49 0 49 49 0 0 49 0 0 49 0
0 49 0 49 49 0 0 49 0 0 49 0 49 49 0 49 49 0 0 49 0 0 49 0 0 49 0 0 50
0 0 50 0 50 50 0 50 50 0 50 50 0 0 50 0 50 50 0 0 50 0 0 50 0 0 50 0
50 50 0 50 50 0 50 50 0 50 50 0 50 50 0 0 50 0 0 50 0 50 50 0 50 50 0
0 50 0 50 50 0 50 50 0 50 50 0 0 50 0 0 50 0 0 50 0 0 50 0 0 50 0 50
50 0 50 50 0 0 50 0 50 50 0 50 50 0 0 50 0 0 50 0 50 50 0 50 50 0 50
50 0 50 50 0 50 50 0 0 51 0 0 51 0 0 51 0 51 51 0 0 51 0 51 51 0 51 51
0 51 51 0 0 51 0 0 51 0 51 51 0 0 51 0 0 51 0 51 51 0 51 51 0 51 51 0
0 51 0 51 51 0 0 51 0 0 51 0 0 51 0 51 51 0 51 51 0 51 51 0 51 51 0 51
51 0 0 51 0 0 51 0 51 51 0 51 51 0 0 51 0 51 51 0 51 51 0 0 51 0 0 51
0 0 51 0 0 51 0 0 51 0 51 51 0 51 51 0 51 51 0 0 51 0 51 51 0 51 51 0
0 51 0 0 51 0 51 51 0 51 51 0 51 51 0 51 51 0 51 51 0 0 51 0 0 51 0 0
51 0 51 51 0 0 51 0 51 51 0 51 51 0 50 50 0 0 50 0 0 50 0 0 50 0 0 50
0 0 50 0 50 50 0 50 50 0 0 50 0 0 50 0 50 50 0 0 50 0 0 50 0 50 50 0
50 50 0 50 50 0 50 50 0 50 50 0 50 50 0 0 50 0 0 50 0 50 50 0 0 50 0 0
50 0 50 50 0 50 50 0 0 50 0 0 50 0 0 50 0 0 50 0 0 50 0 50 50 0 50 50
0 50 50 0 0 50 0 50 50 0 0 50 0 0 50 0 0 50 0 50 50 0 50 50 0 0 49 0
49 49 0 49 49 0 0 49 0 0 49 0 0 49 0 49 49 0 0 49 0 49 49 0 49 49 0 49
49 0 0 49 0 0 49 0 0 49 0 0 49 0 0 49 0 49 49 0 49 49 0 0 49 0 0 49 0
49 49 0 0 49 0 0 49 0 49 49 0 49 49 0 49 49 0 49 49 0 48 48 0 0 48 0 0
48 0 0 48 0 48 48 0 0 48 0 48 48 0 48 48 0 48 48 0 0 48 0 0 48 0 0 48
0 0 48 0 0 48 0 48 48 0 48 48 0 48 48 0 0 48 0 48 48 0 0 48 0 0 48 0 0
48 0 48 48 0 48 48 0 47 47 0 47 47 0 47 47 0 0 47 0 0 47 0 47 47 0 47
47 0 0 47 0 47 47 0 47 47 0 0 47 0 0 47 0 0 47 0 0 47 0 0 47 0 0 47 0
47 47 0 47 47 0 0 47 0 47 47 0 47 47 0 0 47 0 0 46 0 46 46 0 46 46 0
46 46 0 46 46 0 46 46 0 0 46 0 0 46 0 0 46 0 46 46 0 0 46 0 46 46 0 46
46 0 46 46 0 0 46 0 0 46 0
50 50 0 0 50 0 0 50 0 0 50 0 0 50 0 0 50 0 0 50 0 50 50 0 51 51 0 0 51
0 0 51 0 51 51 0 0 51 0 0 51 0 0 51 0 51 51 0 51 51 0 0 51 0 51 51 0
51 51 0 0 51 0 0 51 0 0 51 0 51 51 0 51 51 0 0 51 0 51 51 0 51 51 0 0
51 0 0 51 0 0 51 0 0 51 0 0 51 0 0 51 0 51 51 0 52 52 0 0 52 0 0 52 0
52 52 0 0 52 0 0 52 0 0 52 0 52 52 0 52 52 0 52 52 0 52 52 0 52 52 0 0
52 0 0 52 0 0 52 0 52 52 0 52 52 0 0 52 0 52 52 0 52 52 0 0 52 0 0 52
0 0 52 0 52 52 0 0 52 0 0 52 0 52 52 0 52 52 0 52 52 0 0 52 0 52 52 0
0 52 0 0 52 0 0 52 0 52 52 0 52 52 0 52 52 0 52 52 0 52 52 0 0 52 0 0
52 0 0 52 0 52 52 0 52 52 0 0 52 0 52 52 0 52 52 0 52 52 0 0 52 0 0 52
0 52 52 0 0 52 0 0 52 0 52 52 0 52 52 0 52 52 0 0 52 0 0 52 0 0 52 0 0
52 0 0 52 0 52 52 0 52 52 0 52 52 0 52 52 0 52 52 0 52 52 0 0 52 0 0
52 0 52 52 0 52 52 0 0 52 0 52 52 0 52 52 0 52 52 0 0 52 0 0 52 0 52
52 0 0 52 0 0 52 0 52 52 0 52 52 0 52 52 0 0 52 0 0 52 0 52 52 0 0 52
0 0 52 0 52 52 0 52 52 0 52 52 0 52 52 0 52 52 0 52 52 0 0 52 0 0 52 0
0 52 0 52 52 0 0 52 0 52 52 0 52 52 0 52 52 0 0 52 0 0 52 0 0 52 0 0
52 0 0 52 0 52 52 0 52 52 0 52 52 0 0 52 0 0 52 0 52 52 0 0 52 0 0 52
0 0 52 0 52 52 0 52 52 0 0 52 0 52 52 0 51 51 0 0 51 0 0 51 0 0 51 0
51 51 0 0 51 0 51 51 0 51 51 0 51 51 0 0 51 0 0 51 0 0 51 0 0 51 0 0
51 0 0 51 0 51 51 0 51 51 0 0 51 0 0 51 0 51 51 0 0 51 0 0 51 0 0 51 0
51 51 0 51 51 0 0 51 0 51 51 0 50 50 0 0 50 0 0 50 0 0 50 0 50 50 0 50
50 0 0 50 0 50 50 0 50 50 0 0 50 0 0 50 0 0 50 0 0 50 0 0 50 0 0 50 0
50 50 0 50 50 0 0 50 0 0 50 0 50 50 0 0 50 0 0 50 0 0 50 0 50 50 0 49
49 0 49 49 0 49 49 0 49 49 0 0 49 0 0 49 0 0 49 0 49 49 0 49 49 0 0 49
0 49 49 0 49 49 0 0 49 0 0 49 0 0 49 0 0 49 0 0 49 0 0 49 0 49 49 0 49
49 0 49 49 0 0 48 0 48 48 0 0 48 0 0 48 0 0 48 0 48 48 0 48 48 0 48 48
0 48 48 0 48 48 0 0 48 0 0 48 0 0 48 0 48 48 0 48 48 0 0 48 0 48 48 0
48 48 0 48 48 0 0 48 0 0 48 0 47 47 0 0 47 0 0 47 0 47 47 0 47 47 0 47
47 0 0 47 0 47 47 0
0 52 0 0 52 0 52 52 0 0 52 0 0 52 0 52 52 0 52 52 0 52 52 0 0 52 0 0
52 0 52 52 0 0 52 0 0 52 0 52 52 0 52 52 0 53 53 0 0 53 0 53 53 0 53
53 0 0 53 0 0 53 0 0 53 0 53 53 0 53 53 0 53 53 0 53 53 0 53 53 0 53
53 0 0 53 0 0 53 0 0 53 0 53 53 0 0 53 0 0 53 0 53 53 0 53 53 0 53 53
0 0 53 0 0 53 0 0 53 0 0 53 0 0 53 0 53 53 0 54 54 0 54 54 0 0 54 0 54
54 0 54 54 0 0 54 0 0 54 0 0 54 0 54 54 0 54 54 0 0 54 0 54 54 0 54 54
0 54 54 0 0 54 0 0 54 0 0 54 0 54 54 0 0 54 0 0 54 0 54 54 0 54 54 0 0
54 0 0 54 0 0 54 0 0 54 0 0 54 0 0 54 0 54 54 0 54 54 0 54 54 0 0 54 0
54 54 0 54 54 0 0 54 0 0 54 0 0 54 0 54 54 0 54 54 0 0 54 0 54 54 0 54
54 0 54 54 0 0 54 0 0 54 0 0 54 0 0 54 0 0 54 0 54 54 0 54 54 0 54 54
0 0 54 0 0 54 0 0 54 0 0 54 0 0 54 0 0 54 0 54 54 0 54 54 0 54 54 0 0
54 0 54 54 0 54 54 0 0 54 0 0 54 0 0 54 0 54 54 0 54 54 0 0 54 0 54 54
0 54 54 0 54 54 0 0 54 0 0 54 0 54 54 0 0 54 0 0 54 0 54 54 0 54 54 0
54 54 0 0 54 0 0 54 0 0 54 0 0 54 0 0 54 0 0 54 0 54 54 0 54 54 0 54
54 0 0 54 0 54 54 0 54 54 0 0 54 0 0 54 0 0 54 0 54 54 0 54 54 0 0 54
0 54 54 0 54 54 0 0 53 0 0 53 0 0 53 0 53 53 0 0 53 0 0 53 0 53 53 0
53 53 0 53 53 0 0 53 0 0 53 0 53 53 0 0 53 0 0 53 0 0 53 0 53 53 0 53
53 0 53 53 0 0 53 0 53 53 0 53 53 0 0 53 0 0 53 0 53 53 0 53 53 0 53
53 0 53 53 0 53 53 0 53 53 0 0 52 0 0 52 0 0 52 0 52 52 0 0 52 0 0 52
0 52 52 0 52 52 0 52 52 0 0 52 0 0 52 0 52 52 0 0 52 0 0 52 0 0 52 0
52 52 0 52 52 0 52 52 0 0 52 0 52 52 0 0 52 0 0 52 0 0 51 0 51 51 0 51
51 0 51 51 0 51 51 0 51 51 0 51 51 0 0 51 0 0 51 0 0 51 0 51 51 0 0 51
0 0 51 0 51 51 0 51 51 0 51 51 0 0 51 0 0 51 0 51 51 0 0 51 0 0 51 0 0
50 0 50 50 0 50 50 0 0 50 0 50 50 0 50 50 0 0 50 0 0 50 0 0 50 0 50 50
0 50 50 0 50 50 0 50 50 0 50 50 0 50 50 0 0 50 0 0 50 0 0 50 0 50 50 0
0 49 0 0 49 0 49 49 0 49 49 0 49 49 0 0 49 0 0 49 0 49 49 0 0 49 0 0
49 0 49 49 0 49 49 0 49 49 0 0 49 0 49 49 0 49 49 0 0 49 0 0 49 0 0 49
0 49 49 0 48 48 0 48 48 0
54 54 0 0 54 0 0 54 0 0 54 0 54 54 0 54 54 0 0 54 0 54 54 0 54 54 0 54
54 0 0 54 0 0 54 0 0 54 0 54 54 0 0 54 0 0 54 0 0 54 0 54 54 0 54 54 0
54 54 0 0 54 0 55 55 0 55 55 0 0 55 0 0 55 0 0 55 0 55 55 0 55 55 0 55
55 0 55 55 0 55 55 0 55 55 0 0 55 0 0 55 0 0 55 0 55 55 0 0 55 0 0 55
0 55 55 0 55 55 0 55 55 0 0 55 0 0 55 0 0 55 0 0 55 0 0 55 0 0 55 0 55
55 0 55 55 0 55 55 0 0 55 0 0 56 0 56 56 0 0 56 0 0 56 0 0 56 0 56 56
0 56 56 0 56 56 0 56 56 0 56 56 0 56 56 0 56 56 0 0 56 0 0 56 0 0 56 0
56 56 0 0 56 0 0 56 0 56 56 0 56 56 0 56 56 0 0 56 0 0 56 0 56 56 0 0
56 0 0 56 0 0 56 0 56 56 0 56 56 0 56 56 0 0 56 0 56 56 0 56 56 0 0 56
0 0 56 0 0 56 0 56 56 0 56 56 0 56 56 0 56 56 0 56 56 0 56 56 0 0 56 0
0 56 0 0 56 0 56 56 0 0 56 0 0 56 0 56 56 0 56 56 0 56 56 0 0 56 0 0
56 0 0 56 0 0 56 0 0 56 0 0 56 0 56 56 0 56 56 0 56 56 0 0 56 0 0 56 0
56 56 0 56 56 0 0 56 0 0 56 0 0 56 0 56 56 0 56 56 0 0 56 0 56 56 0 56
56 0 56 56 0 0 56 0 0 56 0 0 56 0 56 56 0 0 56 0 0 56 0 56 56 0 56 56
0 55 55 0 0 55 0 0 55 0 0 55 0 0 55 0 0 55 0 0 55 0 55 55 0 55 55 0 55
55 0 0 55 0 55 55 0 55 55 0 0 55 0 0 55 0 0 55 0 55 55 0 55 55 0 55 55
0 55 55 0 55 55 0 55 55 0 0 55 0 0 55 0 0 55 0 55 55 0 55 55 0 0 55 0
55 55 0 54 54 0 54 54 0 0 54 0 0 54 0 0 54 0 54 54 0 0 54 0 0 54 0 0
54 0 54 54 0 54 54 0 54 54 0 0 54 0 54 54 0 54 54 0 0 54 0 0 54 0 0 54
0 54 54 0 54 54 0 54 54 0 54 54 0 54 54 0 53 53 0 0 53 0 0 53 0 0 53 0
53 53 0 0 53 0 0 53 0 53 53 0 53 53 0 53 53 0 0 53 0 0 53 0 0 53 0 0
53 0 0 53 0 0 53 0 53 53 0 53 53 0 53 53 0 0 53 0 0 52 0 52 52 0 0 52
0 0 52 0 0 52 0 52 52 0 52 52 0 52 52 0 52 52 0 52 52 0 52 52 0 52 52
0 0 52 0 0 52 0 0 52 0 52 52 0 0 52 0 0 52 0 52 52 0 51 51 0 51 51 0 0
51 0 0 51 0 51 51 0 0 51 0 0 51 0 0 51 0 51 51 0 51 51 0 51 51 0 0 51
0 51 51 0 51 51 0 0 51 0 0 51 0 0 51 0 51 51 0 50 50 0 50 50 0 50 50 0
50 50 0 50 50 0 0 50 0 0 50 0 0 50 0 50 50 0 0 50 0 0 50 0 50 50 0 50
50 0 50 50 0 0 50 0
0 55 0 0 55 0 55 55 0 55 55 0 56 56 0 0 56 0 56 56 0 56 56 0 56 56 0 0
56 0 0 56 0 0 56 0 56 56 0 56 56 0 0 56 0 56 56 0 56 56 0 56 56 0 0 56
0 0 56 0 0 56 0 56 56 0 0 56 0 0 56 0 0 56 0 56 56 0 57 57 0 57 57 0 0
57 0 0 57 0 57 57 0 0 57 0 0 57 0 0 57 0 57 57 0 57 57 0 57 57 0 57 57
0 57 57 0 57 57 0 57 57 0 0 57 0 0 57 0 0 57 0 57 57 0 57 57 0 0 57 0
57 57 0 57 57 0 57 57 0 57 57 0 0 57 0 0 57 0 0 57 0 0 57 0 0 57 0 0
57 0 57 57 0 57 57 0 58 58 0 0 58 0 0 58 0 58 58 0 0 58 0 0 58 0 0 58
0 0 58 0 58 58 0 58 58 0 58 58 0 58 58 0 58 58 0 58 58 0 0 58 0 0 58 0
0 58 0 58 58 0 58 58 0 58 58 0 0 58 0 58 58 0 58 58 0 58 58 0 0 58 0 0
58 0 0 58 0 58 58 0 0 58 0 0 58 0 58 58 0 58 58 0 58 58 0 58 58 0 0 58
0 0 58 0 58 58 0 0 58 0 0 58 0 0 58 0 58 58 0 58 58 0 58 58 0 0 58 0
58 58 0 58 58 0 58 58 0 0 58 0 0 58 0 0 58 0 58 58 0 58 58 0 0 58 0 58
58 0 58 58 0 58 58 0 0 58 0 0 58 0 0 58 0 58 58 0 0 57 0 0 57 0 0 57 0
57 57 0 57 57 0 57 57 0 0 57 0 0 57 0 57 57 0 0 57 0 0 57 0 0 57 0 57
57 0 57 57 0 57 57 0 57 57 0 57 57 0 57 57 0 57 57 0 0 57 0 0 57 0 0
57 0 57 57 0 57 57 0 0 57 0 57 57 0 57 57 0 57 57 0 57 57 0 0 57 0 0
57 0 0 57 0 0 57 0 0 56 0 0 56 0 56 56 0 56 56 0 56 56 0 0 56 0 0 56 0
56 56 0 0 56 0 0 56 0 0 56 0 0 56 0 56 56 0 56 56 0 56 56 0 56 56 0 56
56 0 56 56 0 0 56 0 0 56 0 0 56 0 56 56 0 55 55 0 55 55 0 0 55 0 55 55
0 55 55 0 55 55 0 0 55 0 0 55 0 0 55 0 55 55 0 0 55 0 0 55 0 55 55 0
55 55 0 55 55 0 55 55 0 0 55 0 0 55 0 55 55 0 0 55 0 0 54 0 0 54 0 54
54 0 54 54 0 54 54 0 0 54 0 54 54 0 54 54 0 54 54 0 0 54 0 0 54 0 0 54
0 54 54 0 54 54 0 0 54 0 54 54 0 54 54 0 54 54 0 0 53 0 0 53 0 0 53 0
53 53 0 0 53 0 0 53 0 0 53 0 53 53 0 53 53 0 53 53 0 0 53 0 0 53 0 53
53 0 0 53 0 0 53 0 0 53 0 53 53 0 52 52 0 52 52 0 52 52 0 52 52 0 52
52 0 52 52 0 0 52 0 0 52 0 0 52 0 52 52 0 52 52 0 0 52 0 52 52 0 52 52
0 52 52 0 52 52 0 0 52 0 0 51 0 0 51 0 0 51 0 0 51 0 0 51 0 51 51 0 51
51 0 51 51 0 0 51 0 0 51 0
0 57 0 57 57 0 57 57 0 0 57 0 57 57 0 57 57 0 57 57 0 57 57 0 0 57 0 0
58 0 0 58 0 58 58 0 0 58 0 0 58 0 58 58 0 58 58 0 58 58 0 58 58 0 0 58
0 0 58 0 58 58 0 0 58 0 0 58 0 0 58 0 0 58 0 58 58 0 58 58 0 58 58 0 0
58 0 58 58 0 58 58 0 0 58 0 0 59 0 0 59 0 0 59 0 59 59 0 59 59 0 0 59
0 59 59 0 59 59 0 59 59 0 59 59 0 0 59 0 0 59 0 0 59 0 59 59 0 0 59 0
0 59 0 59 59 0 59 59 0 59 59 0 59 59 0 0 59 0 0 59 0 59 59 0 0 59 0 0
59 0 0 59 0 0 59 0 59 59 0 59 59 0 59 59 0 0 59 0 59 59 0 59 59 0 59
59 0 0 59 0 0 59 0 0 59 0 59 59 0 59 59 0 0 60 0 60 60 0 60 60 0 60 60
0 60 60 0 0 60 0 0 60 0 0 60 0 60 60 0 0 60 0 0 60 0 0 60 0 60 60 0 60
60 0 60 60 0 0 60 0 0 60 0 60 60 0 0 60 0 0 60 0 0 60 0 0 60 0 60 60 0
60 60 0 60 60 0 0 60 0 60 60 0 60 60 0 60 60 0 0 60 0 0 60 0 0 59 0 59
59 0 59 59 0 59 59 0 59 59 0 59 59 0 59 59 0 59 59 0 0 59 0 0 59 0 0
59 0 59 59 0 0 59 0 0 59 0 0 59 0 59 59 0 59 59 0 59 59 0 0 59 0 0 59
0 0 59 0 0 59 0 0 59 0 0 59 0 0 59 0 59 59 0 59 59 0 59 59 0 0 59 0 59
59 0 59 59 0 59 59 0 0 59 0 0 59 0 0 59 0 59 59 0 59 59 0 59 59 0 59
59 0 59 59 0 58 58 0 58 58 0 0 58 0 0 58 0 0 58 0 58 58 0 0 58 0 0 58
0 0 58 0 58 58 0 58 58 0 58 58 0 0 58 0 0 58 0 0 58 0 0 58 0 0 58 0 0
58 0 0 58 0 58 58 0 58 58 0 58 58 0 0 58 0 57 57 0 57 57 0 57 57 0 0
57 0 0 57 0 0 57 0 57 57 0 57 57 0 57 57 0 0 57 0 57 57 0 57 57 0 57
57 0 0 57 0 0 57 0 0 57 0 57 57 0 0 57 0 0 57 0 0 56 0 56 56 0 56 56 0
56 56 0 0 56 0 0 56 0 0 56 0 56 56 0 0 56 0 0 56 0 0 56 0 56 56 0 56
56 0 56 56 0 0 56 0 56 56 0 56 56 0 56 56 0 0 55 0 0 55 0 0 55 0 55 55
0 55 55 0 55 55 0 0 55 0 55 55 0 55 55 0 55 55 0 0 55 0 0 55 0 0 55 0
55 55 0 0 55 0 0 55 0 0 54 0 54 54 0 54 54 0 54 54 0 0 54 0 0 54 0 0
54 0 54 54 0 0 54 0 0 54 0 0 54 0 54 54 0 54 54 0 54 54 0 0 54 0 54 54
0 54 54 0 53 53 0 0 53 0 0 53 0 0 53 0 53 53 0 53 53 0 53 53 0 0 53 0
53 53 0 53 53 0 53 53 0 0 53 0 0 53 0 0 53 0 53 53 0 0 53 0 0 52 0 0
52 0 52 52 0 52 52 0 52 52 0
59 59 0 0 59 0 0 59 0 0 59 0 59 59 0 59 59 0 59 59 0 0 59 0 59 59 0 59
59 0 59 59 0 0 59 0 0 59 0 0 60 0 0 60 0 60 60 0 0 60 0 0 60 0 60 60 0
60 60 0 60 60 0 60 60 0 0 60 0 0 60 0 0 60 0 60 60 0 0 60 0 0 60 0 0
60 0 60 60 0 60 60 0 60 60 0 60 60 0 0 60 0 60 60 0 60 60 0 0 60 0 0
61 0 0 61 0 0 61 0 61 61 0 61 61 0 61 61 0 0 61 0 61 61 0 61 61 0 61
61 0 0 61 0 0 61 0 0 61 0 0 61 0 61 61 0 0 61 0 0 61 0 61 61 0 61 61 0
61 61 0 61 61 0 0 61 0 0 61 0 0 61 0 0 61 0 0 61 0 0 61 0 0 61 0 61 61
0 61 61 0 61 61 0 61 61 0 0 61 0 61 61 0 61 61 0 0 61 0 0 61 0 0 61 0
0 61 0 61 61 0 61 61 0 61 61 0 61 61 0 61 61 0 61 61 0 61 61 0 0 61 0
0 61 0 0 61 0 61 61 0 61 61 0 0 61 0 0 61 0 61 61 0 61 61 0 61 61 0 61
61 0 0 61 0 0 61 0 0 61 0 0 61 0 0 61 0 0 61 0 0 61 0 61 61 0 61 61 0
61 61 0 0 61 0 0 61 0 61 61 0 61 61 0 0 61 0 0 61 0 0 61 0 0 61 0 61
61 0 61 61 0 61 61 0 61 61 0 61 61 0 61 61 0 61 61 0 0 61 0 0 61 0 0
61 0 61 61 0 61 61 0 0 61 0 0 61 0 61 61 0 61 61 0 61 61 0 0 61 0 0 61
0 0 61 0 0 61 0 0 60 0 0 60 0 0 60 0 0 60 0 60 60 0 60 60 0 60 60 0 0
60 0 60 60 0 60 60 0 60 60 0 0 60 0 0 60 0 0 60 0 60 60 0 60 60 0 60
60 0 0 60 0 60 60 0 60 60 0 60 60 0 0 60 0 0 60 0 0 59 0 0 59 0 59 59
0 0 59 0 0 59 0 0 59 0 59 59 0 59 59 0 59 59 0 0 59 0 0 59 0 0 59 0 59
59 0 0 59 0 0 59 0 0 59 0 59 59 0 59 59 0 59 59 0 58 58 0 0 58 0 58 58
0 58 58 0 58 58 0 0 58 0 0 58 0 0 58 0 58 58 0 58 58 0 58 58 0 0 58 0
58 58 0 58 58 0 58 58 0 0 58 0 0 58 0 0 58 0 0 57 0 57 57 0 0 57 0 0
57 0 57 57 0 57 57 0 57 57 0 57 57 0 0 57 0 0 57 0 0 57 0 57 57 0 0 57
0 0 57 0 0 57 0 57 57 0 56 56 0 56 56 0 56 56 0 0 56 0 56 56 0 56 56 0
0 56 0 0 56 0 0 56 0 0 56 0 56 56 0 56 56 0 56 56 0 56 56 0 56 56 0 55
55 0 55 55 0 0 55 0 0 55 0 0 55 0 0 55 0 55 55 0 0 55 0 0 55 0 55 55 0
55 55 0 55 55 0 55 55 0 0 55 0 0 55 0 0 55 0 0 54 0 0 54 0 0 54 0 0 54
0 54 54 0 54 54 0 54 54 0 54 54 0 0 54 0 54 54 0 54 54 0 0 54 0 0 54 0
0 54 0 0 54 0 53 53 0
0 61 0 61 61 0 61 61 0 61 61 0 61 61 0 0 61 0 0 61 0 0 61 0 0 61 0 0
61 0 0 61 0 0 61 0 0 61 0 61 61 0 61 61 0 61 61 0 0 61 0 0 62 0 0 62 0
62 62 0 0 62 0 0 62 0 0 62 0 0 62 0 62 62 0 62 62 0 62 62 0 62 62 0 62
62 0 62 62 0 62 62 0 0 62 0 0 62 0 0 62 0 0 62 0 62 62 0 62 62 0 62 62
0 0 62 0 62 62 0 62 62 0 62 62 0 63 63 0 0 63 0 0 63 0 0 63 0 63 63 0
0 63 0 0 63 0 0 63 0 63 63 0 63 63 0 63 63 0 63 63 0 0 63 0 0 63 0 63
63 0 63 63 0 0 63 0 0 63 0 0 63 0 63 63 0 63 63 0 63 63 0 63 63 0 0 63
0 63 63 0 63 63 0 63 63 0 0 63 0 0 63 0 0 63 0 0 63 0 63 63 0 63 63 0
0 63 0 63 63 0 63 63 0 63 63 0 63 63 0 0 63 0 0 63 0 0 63 0 0 63 0 0
63 0 0 63 0 0 63 0 0 63 0 63 63 0 63 63 0 63 63 0 0 63 0 0 63 0 0 63 0
63 63 0 0 63 0 0 63 0 0 63 0 0 63 0 63 63 0 63 63 0 63 63 0 63 63 0 63
63 0 63 63 0 63 63 0 0 63 0 0 63 0 0 63 0 0 63 0 63 63 0 63 63 0 63 63
0 0 63 0 63 63 0 63 63 0 63 63 0 63 63 0 0 63 0 0 63 0 0 63 0 63 63 0
0 63 0 0 62 0 0 62 0 62 62 0 62 62 0 62 62 0 62 62 0 0 62 0 0 62 0 62
62 0 62 62 0 0 62 0 0 62 0 0 62 0 62 62 0 62 62 0 62 62 0 62 62 0 0 62
0 62 62 0 62 62 0 62 62 0 0 62 0 0 62 0 0 62 0 0 62 0 61 61 0 61 61 0
0 61 0 61 61 0 61 61 0 61 61 0 61 61 0 0 61 0 0 61 0 0 61 0 0 61 0 61
61 0 0 61 0 0 61 0 0 61 0 61 61 0 61 61 0 61 61 0 0 61 0 0 60 0 0 60 0
60 60 0 0 60 0 0 60 0 0 60 0 0 60 0 60 60 0 60 60 0 60 60 0 60 60 0 60
60 0 60 60 0 60 60 0 0 60 0 0 60 0 0 60 0 0 59 0 59 59 0 59 59 0 59 59
0 0 59 0 59 59 0 59 59 0 59 59 0 59 59 0 0 59 0 0 59 0 0 59 0 59 59 0
0 59 0 0 59 0 0 58 0 58 58 0 58 58 0 58 58 0 58 58 0 0 58 0 0 58 0 58
58 0 58 58 0 0 58 0 0 58 0 0 58 0 0 58 0 58 58 0 58 58 0 57 57 0 0 57
0 57 57 0 57 57 0 57 57 0 0 57 0 0 57 0 0 57 0 0 57 0 57 57 0 57 57 0
0 57 0 0 57 0 57 57 0 57 57 0 56 56 0 0 56 0 0 56 0 0 56 0 0 56 0 56
56 0 0 56 0 0 56 0 0 56 0 56 56 0 56 56 0 56 56 0 56 56 0 0 56 0 0 56
0 55 55 0 0 55 0 0 55 0 0 55 0 0 55 0 55 55 0 55 55 0 55 55 0 55 55 0
55 55 0 55 55 0 55 55 0
62 62 0 62 62 0 63 63 0 0 63 0 0 63 0 0 63 0 0 63 0 63 63 0 63 63 0 63
63 0 0 63 0 63 63 0 63 63 0 63 63 0 63 63 0 0 63 0 0 63 0 0 63 0 0 63
0 63 63 0 0 63 0 0 64 0 0 64 0 64 64 0 64 64 0 64 64 0 64 64 0 0 64 0
0 64 0 0 64 0 64 64 0 0 64 0 0 64 0 0 64 0 0 64 0 64 64 0 64 64 0 64
64 0 64 64 0 64 64 0 64 64 0 64 64 0 0 64 0 0 64 0 0 64 0 0 64 0 64 64
0 64 64 0 65 65 0 0 65 0 65 65 0 65 65 0 65 65 0 65 65 0 0 65 0 0 65 0
0 65 0 0 65 0 65 65 0 0 65 0 0 65 0 0 65 0 65 65 0 65 65 0 65 65 0 65
65 0 0 65 0 0 65 0 0 65 0 65 65 0 0 65 0 0 65 0 0 65 0 0 65 0 65 65 0
65 65 0 65 65 0 65 65 0 0 65 0 65 65 0 65 65 0 65 65 0 0 65 0 0 65 0 0
65 0 0 65 0 65 65 0 65 65 0 0 65 0 0 65 0 65 65 0 65 65 0 65 65 0 65
65 0 0 65 0 0 65 0 0 65 0 65 65 0 0 65 0 0 65 0 0 65 0 65 65 0 65 65 0
65 65 0 65 65 0 0 65 0 0 65 0 0 65 0 65 65 0 0 65 0 0 65 0 0 65 0 0 65
0 64 64 0 64 64 0 64 64 0 64 64 0 0 64 0 64 64 0 64 64 0 64 64 0 0 64
0 0 64 0 0 64 0 0 64 0 64 64 0 64 64 0 64 64 0 0 64 0 64 64 0 64 64 0
64 64 0 64 64 0 0 64 0 0 64 0 0 64 0 0 64 0 0 64 0 0 64 0 0 64 0 0 63
0 63 63 0 63 63 0 63 63 0 63 63 0 0 63 0 0 63 0 63 63 0 0 63 0 0 63 0
0 63 0 0 63 0 63 63 0 63 63 0 63 63 0 63 63 0 0 63 0 63 63 0 63 63 0
62 62 0 0 62 0 0 62 0 0 62 0 0 62 0 62 62 0 62 62 0 62 62 0 0 62 0 62
62 0 62 62 0 62 62 0 62 62 0 0 62 0 0 62 0 0 62 0 0 62 0 61 61 0 0 61
0 0 61 0 0 61 0 61 61 0 61 61 0 61 61 0 61 61 0 0 61 0 0 61 0 0 61 0
61 61 0 0 61 0 0 61 0 0 61 0 0 60 0 60 60 0 60 60 0 60 60 0 60 60 0 60
60 0 60 60 0 60 60 0 0 60 0 0 60 0 0 60 0 0 60 0 60 60 0 60 60 0 59 59
0 0 59 0 59 59 0 59 59 0 59 59 0 59 59 0 0 59 0 0 59 0 0 59 0 0 59 0
59 59 0 0 59 0 0 59 0 0 59 0 59 59 0 58 58 0 58 58 0 58 58 0 0 58 0 0
58 0 0 58 0 58 58 0 0 58 0 0 58 0 0 58 0 0 58 0 58 58 0 58 58 0 57 57
0 57 57 0 0 57 0 57 57 0 57 57 0 57 57 0 0 57 0 0 57 0 0 57 0 0 57 0
57 57 0 57 57 0 0 57 0 0 57 0 56 56 0 56 56 0 56 56 0 56 56 0 0 56 0 0
56 0 0 56 0 56 56 0 0 56 0
64 64 0 64 64 0 0 64 0 0 64 0 0 64 0 0 64 0 65 65 0 65 65 0 65 65 0 0
65 0 65 65 0 65 65 0 65 65 0 65 65 0 0 65 0 0 65 0 0 65 0 0 65 0 65 65
0 0 65 0 0 65 0 0 65 0 0 65 0 65 65 0 65 65 0 66 66 0 66 66 0 0 66 0 0
66 0 66 66 0 66 66 0 0 66 0 0 66 0 0 66 0 0 66 0 66 66 0 66 66 0 66 66
0 66 66 0 66 66 0 66 66 0 66 66 0 66 66 0 0 66 0 0 66 0 0 66 0 0 66 0
66 66 0 66 66 0 66 66 0 0 66 0 66 66 0 66 66 0 66 66 0 66 66 0 0 67 0
0 67 0 0 67 0 0 67 0 67 67 0 0 67 0 0 67 0 0 67 0 0 67 0 67 67 0 67 67
0 67 67 0 67 67 0 0 67 0 0 67 0 67 67 0 67 67 0 0 67 0 0 67 0 0 67 0 0
67 0 67 67 0 67 67 0 67 67 0 67 67 0 67 67 0 67 67 0 67 67 0 67 67 0 0
67 0 0 67 0 0 67 0 0 67 0 67 67 0 67 67 0 67 67 0 0 67 0 67 67 0 67 67
0 67 67 0 67 67 0 0 67 0 0 67 0 0 67 0 0 67 0 67 67 0 0 67 0 0 66 0 0
66 0 66 66 0 66 66 0 66 66 0 66 66 0 66 66 0 0 66 0 0 66 0 66 66 0 66
66 0 0 66 0 0 66 0 0 66 0 0 66 0 66 66 0 66 66 0 66 66 0 66 66 0 66 66
0 66 66 0 66 66 0 66 66 0 0 66 0 0 66 0 0 66 0 0 66 0 66 66 0 66 66 0
66 66 0 0 65 0 65 65 0 65 65 0 65 65 0 65 65 0 0 65 0 0 65 0 0 65 0 0
65 0 65 65 0 0 65 0 0 65 0 0 65 0 65 65 0 65 65 0 65 65 0 65 65 0 65
65 0 0 65 0 0 64 0 64 64 0 64 64 0 0 64 0 0 64 0 0 64 0 0 64 0 64 64 0
64 64 0 64 64 0 64 64 0 64 64 0 64 64 0 64 64 0 64 64 0 0 64 0 0 64 0
0 63 0 0 63 0 63 63 0 63 63 0 63 63 0 0 63 0 63 63 0 63 63 0 63 63 0
63 63 0 0 63 0 0 63 0 0 63 0 0 63 0 63 63 0 0 62 0 0 62 0 0 62 0 62 62
0 62 62 0 62 62 0 62 62 0 62 62 0 0 62 0 0 62 0 62 62 0 62 62 0 0 62 0
0 62 0 0 61 0 0 61 0 61 61 0 61 61 0 61 61 0 61 61 0 61 61 0 61 61 0
61 61 0 61 61 0 0 61 0 0 61 0 0 61 0 0 61 0 60 60 0 60 60 0 60 60 0 0
60 0 60 60 0 60 60 0 60 60 0 60 60 0 0 60 0 0 60 0 0 60 0 0 60 0 60 60
0 0 59 0 0 59 0 0 59 0 59 59 0 59 59 0 59 59 0 59 59 0 59 59 0 0 59 0
0 59 0 59 59 0 59 59 0 0 59 0 0 58 0 0 58 0 0 58 0 58 58 0 58 58 0 58
58 0 58 58 0 58 58 0 58 58 0 58 58 0 58 58 0 0 58 0 0 58 0 0 58 0 0 57
0 57 57 0 57 57 0 0 57 0 0 57 0
66 66 0 66 66 0 0 66 0 0 66 0 0 66 0 0 66 0 0 66 0 0 66 0 0 66 0 0 67
0 67 67 0 67 67 0 67 67 0 67 67 0 0 67 0 0 67 0 67 67 0 67 67 0 67 67
0 0 67 0 0 67 0 0 67 0 0 67 0 67 67 0 67 67 0 67 67 0 67 67 0 67 67 0
67 67 0 68 68 0 68 68 0 0 68 0 0 68 0 0 68 0 0 68 0 0 68 0 68 68 0 68
68 0 0 68 0 0 68 0 68 68 0 68 68 0 68 68 0 68 68 0 0 68 0 0 68 0 0 68
0 0 68 0 0 68 0 0 68 0 0 68 0 0 68 0 0 68 0 68 68 0 68 68 0 68 68 0 68
68 0 0 68 0 0 68 0 68 68 0 68 68 0 0 68 0 0 68 0 0 68 0 0 68 0 0 68 0
68 68 0 68 68 0 69 69 0 69 69 0 69 69 0 69 69 0 69 69 0 69 69 0 0 69 0
0 69 0 0 69 0 0 69 0 69 69 0 69 69 0 0 69 0 0 69 0 0 69 0 69 69 0 69
69 0 68 68 0 68 68 0 0 68 0 0 68 0 0 68 0 0 68 0 0 68 0 0 68 0 0 68 0
0 68 0 68 68 0 68 68 0 68 68 0 68 68 0 68 68 0 0 68 0 0 68 0 68 68 0
68 68 0 0 68 0 0 68 0 0 68 0 0 68 0 68 68 0 68 68 0 68 68 0 68 68 0 0
68 0 68 68 0 68 68 0 68 68 0 68 68 0 0 68 0 0 68 0 0 68 0 0 68 0 68 68
0 68 68 0 0 68 0 0 67 0 67 67 0 67 67 0 67 67 0 67 67 0 67 67 0 0 67 0
0 67 0 0 67 0 0 67 0 0 67 0 0 67 0 0 67 0 0 67 0 67 67 0 67 67 0 67 67
0 67 67 0 0 67 0 0 67 0 66 66 0 66 66 0 66 66 0 0 66 0 0 66 0 0 66 0 0
66 0 66 66 0 66 66 0 66 66 0 66 66 0 66 66 0 66 66 0 66 66 0 66 66 0
66 66 0 0 65 0 0 65 0 0 65 0 0 65 0 65 65 0 65 65 0 0 65 0 0 65 0 65
65 0 65 65 0 65 65 0 65 65 0 0 65 0 0 65 0 0 65 0 0 64 0 64 64 0 0 64
0 0 64 0 0 64 0 0 64 0 64 64 0 64 64 0 64 64 0 64 64 0 0 64 0 0 64 0
64 64 0 64 64 0 0 63 0 0 63 0 0 63 0 0 63 0 0 63 0 63 63 0 63 63 0 63
63 0 63 63 0 63 63 0 63 63 0 63 63 0 63 63 0 0 62 0 0 62 0 0 62 0 0 62
0 0 62 0 62 62 0 0 62 0 0 62 0 0 62 0 62 62 0 62 62 0 62 62 0 62 62 0
0 61 0 0 61 0 0 61 0 0 61 0 0 61 0 0 61 0 0 61 0 0 61 0 0 61 0 61 61 0
61 61 0 61 61 0 61 61 0 0 60 0 0 60 0 60 60 0 60 60 0 0 60 0 0 60 0 0
60 0 0 60 0 60 60 0 60 60 0 60 60 0 60 60 0 60 60 0 59 59 0 59 59 0 59
59 0 59 59 0 0 59 0 0 59 0 0 59 0 0 59 0 59 59 0 59 59 0 0 59 0 0 59 0
58 58 0 58 58 0 58 58 0
68 68 0 0 68 0 68 68 0 68 68 0 68 68 0 68 68 0 0 68 0 0 68 0 0 68 0 0
68 0 0 68 0 68 68 0 0 69 0 0 69 0 0 69 0 69 69 0 69 69 0 69 69 0 69 69
0 0 69 0 0 69 0 0 69 0 0 69 0 69 69 0 0 69 0 0 69 0 0 69 0 0 69 0 69
69 0 69 69 0 69 69 0 69 69 0 69 69 0 0 70 0 70 70 0 70 70 0 70 70 0 0
70 0 0 70 0 0 70 0 0 70 0 0 70 0 70 70 0 70 70 0 70 70 0 0 70 0 70 70
0 70 70 0 70 70 0 70 70 0 70 70 0 0 70 0 0 70 0 0 70 0 0 70 0 70 70 0
0 70 0 0 70 0 0 70 0 70 70 0 70 70 0 70 70 0 70 70 0 70 70 0 0 70 0 0
70 0 0 70 0 0 70 0 0 70 0 0 70 0 0 70 0 0 70 0 0 70 0 70 70 0 70 70 0
70 70 0 70 70 0 0 70 0 0 70 0 70 70 0 70 70 0 70 70 0 0 70 0 0 70 0 0
70 0 0 70 0 70 70 0 70 70 0 70 70 0 70 70 0 0 70 0 70 70 0 70 70 0 70
70 0 70 70 0 0 70 0 0 70 0 0 70 0 0 70 0 70 70 0 70 70 0 0 70 0 0 70 0
0 70 0 70 70 0 70 70 0 70 70 0 70 70 0 0 70 0 0 70 0 0 70 0 0 70 0 70
70 0 0 70 0 0 70 0 0 70 0 0 69 0 69 69 0 69 69 0 69 69 0 69 69 0 69 69
0 0 69 0 69 69 0 69 69 0 69 69 0 0 69 0 0 69 0 0 69 0 0 69 0 0 69 0 69
69 0 69 69 0 69 69 0 0 69 0 69 69 0 69 69 0 68 68 0 68 68 0 0 68 0 0
68 0 0 68 0 0 68 0 0 68 0 68 68 0 0 68 0 0 68 0 0 68 0 68 68 0 68 68 0
68 68 0 68 68 0 68 68 0 0 67 0 0 67 0 0 67 0 67 67 0 0 67 0 0 67 0 0
67 0 0 67 0 0 67 0 67 67 0 67 67 0 67 67 0 67 67 0 0 67 0 0 67 0 66 66
0 66 66 0 66 66 0 0 66 0 0 66 0 0 66 0 0 66 0 66 66 0 66 66 0 66 66 0
66 66 0 66 66 0 66 66 0 65 65 0 65 65 0 65 65 0 0 65 0 0 65 0 0 65 0 0
65 0 65 65 0 65 65 0 0 65 0 0 65 0 0 65 0 65 65 0 64 64 0 64 64 0 64
64 0 0 64 0 0 64 0 0 64 0 0 64 0 64 64 0 0 64 0 0 64 0 0 64 0 0 64 0
64 64 0 63 63 0 63 63 0 63 63 0 63 63 0 0 63 0 63 63 0 63 63 0 63 63 0
0 63 0 0 63 0 0 63 0 0 63 0 62 62 0 62 62 0 62 62 0 62 62 0 0 62 0 62
62 0 62 62 0 62 62 0 62 62 0 0 62 0 0 62 0 0 62 0 0 61 0 0 61 0 61 61
0 0 61 0 0 61 0 0 61 0 61 61 0 61 61 0 61 61 0 61 61 0 61 61 0 0 61 0
0 60 0 0 60 0 60 60 0 0 60 0 0 60 0 0 60 0 0 60 0 0 60 0 60 60 0 60 60
0 60 60 0 60 60 0 0 60 0
0 70 0 0 70 0 0 70 0 70 70 0 70 70 0 70 70 0 0 70 0 70 70 0 70 70 0 70
70 0 70 70 0 70 70 0 0 70 0 0 70 0 0 70 0 0 71 0 71 71 0 71 71 0 0 71
0 0 71 0 0 71 0 71 71 0 71 71 0 71 71 0 71 71 0 71 71 0 0 71 0 0 71 0
0 71 0 71 71 0 0 71 0 0 71 0 0 71 0 0 71 0 0 71 0 71 71 0 71 71 0 72
72 0 72 72 0 0 72 0 0 72 0 72 72 0 72 72 0 72 72 0 0 72 0 0 72 0 0 72
0 0 72 0 0 72 0 72 72 0 72 72 0 72 72 0 0 72 0 72 72 0 72 72 0 72 72 0
72 72 0 72 72 0 0 72 0 0 72 0 0 72 0 0 72 0 0 72 0 72 72 0 0 72 0 0 72
0 0 72 0 72 72 0 72 72 0 72 72 0 72 72 0 72 72 0 0 72 0 0 72 0 0 72 0
72 72 0 0 72 0 0 72 0 0 72 0 0 72 0 0 72 0 72 72 0 72 72 0 72 72 0 72
72 0 72 72 0 0 72 0 72 72 0 72 72 0 72 72 0 0 72 0 0 72 0 0 72 0 0 72
0 0 72 0 72 72 0 72 72 0 72 72 0 0 72 0 0 72 0 72 72 0 72 72 0 72 72 0
72 72 0 0 72 0 0 72 0 0 72 0 0 71 0 0 71 0 71 71 0 0 71 0 0 71 0 0 71
0 71 71 0 71 71 0 71 71 0 71 71 0 71 71 0 0 71 0 0 71 0 0 71 0 71 71 0
71 71 0 0 71 0 0 71 0 0 71 0 0 71 0 71 71 0 71 71 0 71 71 0 70 70 0 70
70 0 0 70 0 70 70 0 70 70 0 70 70 0 0 70 0 0 70 0 0 70 0 0 70 0 0 70 0
70 70 0 70 70 0 70 70 0 0 70 0 0 70 0 69 69 0 69 69 0 69 69 0 69 69 0
0 69 0 0 69 0 0 69 0 0 69 0 0 69 0 69 69 0 0 69 0 0 69 0 0 69 0 0 69 0
69 69 0 68 68 0 68 68 0 68 68 0 0 68 0 0 68 0 0 68 0 0 68 0 68 68 0 0
68 0 0 68 0 0 68 0 0 68 0 68 68 0 67 67 0 67 67 0 67 67 0 67 67 0 0 67
0 67 67 0 67 67 0 67 67 0 67 67 0 0 67 0 0 67 0 0 67 0 0 67 0 66 66 0
66 66 0 66 66 0 66 66 0 0 66 0 66 66 0 66 66 0 66 66 0 66 66 0 0 66 0
0 66 0 0 66 0 0 65 0 0 65 0 65 65 0 0 65 0 0 65 0 0 65 0 0 65 0 65 65
0 65 65 0 65 65 0 65 65 0 0 65 0 0 64 0 0 64 0 0 64 0 64 64 0 0 64 0 0
64 0 0 64 0 0 64 0 0 64 0 64 64 0 64 64 0 63 63 0 63 63 0 0 63 0 63 63
0 63 63 0 63 63 0 63 63 0 0 63 0 0 63 0 0 63 0 0 63 0 63 63 0 62 62 0
62 62 0 62 62 0 0 62 0 62 62 0 62 62 0 62 62 0 62 62 0 62 62 0 0 62 0
0 62 0 0 62 0 0 61 0 61 61 0 0 61 0 0 61 0 0 61 0 0 61 0 61 61 0 61 61
0 61 61 0 61 61 0
71 71 0 72 72 0 72 72 0 72 72 0 0 72 0 0 72 0 0 72 0 0 72 0 0 72 0 72
72 0 0 72 0 0 72 0 0 72 0 0 72 0 72 72 0 72 72 0 72 72 0 72 72 0 0 73
0 0 73 0 0 73 0 0 73 0 73 73 0 0 73 0 0 73 0 0 73 0 0 73 0 0 73 0 73
73 0 73 73 0 73 73 0 73 73 0 73 73 0 0 73 0 73 73 0 73 73 0 73 73 0 73
73 0 0 73 0 0 73 0 0 73 0 0 73 0 74 74 0 74 74 0 74 74 0 74 74 0 0 74
0 74 74 0 74 74 0 74 74 0 74 74 0 74 74 0 0 74 0 0 74 0 0 74 0 0 74 0
0 74 0 74 74 0 0 74 0 0 74 0 0 74 0 0 74 0 74 74 0 74 74 0 74 74 0 74
74 0 0 74 0 0 74 0 0 74 0 0 74 0 74 74 0 0 74 0 0 74 0 0 74 0 0 74 0 0
74 0 74 74 0 74 74 0 74 74 0 74 74 0 74 74 0 0 74 0 74 74 0 74 74 0 74
74 0 74 74 0 0 74 0 0 74 0 0 74 0 0 74 0 74 74 0 74 74 0 74 74 0 74 74
0 0 74 0 74 74 0 74 74 0 74 74 0 73 73 0 73 73 0 0 73 0 0 73 0 0 73 0
0 73 0 0 73 0 73 73 0 0 73 0 0 73 0 0 73 0 73 73 0 73 73 0 73 73 0 73
73 0 73 73 0 0 73 0 0 73 0 0 73 0 0 73 0 73 73 0 0 73 0 0 73 0 0 73 0
0 72 0 0 72 0 72 72 0 72 72 0 72 72 0 72 72 0 72 72 0 0 72 0 72 72 0
72 72 0 72 72 0 0 72 0 0 72 0 0 72 0 0 72 0 0 72 0 72 72 0 72 72 0 71
71 0 71 71 0 0 71 0 71 71 0 71 71 0 71 71 0 71 71 0 71 71 0 0 71 0 0
71 0 0 71 0 0 71 0 0 71 0 71 71 0 0 70 0 0 70 0 0 70 0 70 70 0 70 70 0
70 70 0 70 70 0 70 70 0 0 70 0 0 70 0 0 70 0 0 70 0 70 70 0 0 69 0 0
69 0 0 69 0 0 69 0 0 69 0 69 69 0 69 69 0 69 69 0 69 69 0 69 69 0 0 69
0 69 69 0 68 68 0 68 68 0 0 68 0 0 68 0 0 68 0 0 68 0 0 68 0 68 68 0
68 68 0 68 68 0 68 68 0 0 68 0 67 67 0 67 67 0 67 67 0 67 67 0 67 67 0
0 67 0 0 67 0 0 67 0 0 67 0 67 67 0 67 67 0 0 67 0 0 66 0 0 66 0 66 66
0 66 66 0 66 66 0 66 66 0 66 66 0 0 66 0 0 66 0 0 66 0 0 66 0 65 65 0
0 65 0 0 65 0 0 65 0 0 65 0 0 65 0 65 65 0 65 65 0 65 65 0 65 65 0 0
65 0 0 64 0 64 64 0 64 64 0 64 64 0 0 64 0 0 64 0 0 64 0 0 64 0 0 64 0
64 64 0 64 64 0 64 64 0 63 63 0 0 63 0 63 63 0 63 63 0 63 63 0 63 63 0
63 63 0 0 63 0 0 63 0 0 63 0 0 63 0 62 62 0 62 62 0 0 62 0 0 62 0 0 62
0 62 62 0 62 62 0 62 62 0
0 73 0 0 73 0 0 73 0 0 74 0 0 74 0 0 74 0 74 74 0 74 74 0 74 74 0 74
74 0 74 74 0 0 74 0 0 74 0 0 74 0 74 74 0 74 74 0 0 74 0 0 74 0 0 74 0
0 74 0 0 74 0 75 75 0 75 75 0 75 75 0 75 75 0 75 75 0 75 75 0 75 75 0
75 75 0 75 75 0 75 75 0 0 75 0 0 75 0 0 75 0 0 75 0 0 75 0 75 75 0 75
75 0 0 75 0 0 75 0 0 75 0 75 75 0 75 75 0 75 75 0 75 75 0 75 75 0 0 75
0 0 75 0 0 76 0 0 76 0 0 76 0 0 76 0 0 76 0 0 76 0 0 76 0 0 76 0 76 76
0 76 76 0 76 76 0 76 76 0 76 76 0 0 76 0 0 76 0 76 76 0 76 76 0 76 76
0 0 76 0 0 76 0 0 76 0 0 76 0 0 76 0 76 76 0 76 76 0 76 76 0 76 76 0
76 76 0 76 76 0 76 76 0 76 76 0 76 76 0 76 76 0 0 76 0 0 76 0 0 76 0 0
76 0 0 76 0 76 76 0 76 76 0 0 75 0 0 75 0 0 75 0 75 75 0 75 75 0 75 75
0 75 75 0 75 75 0 0 75 0 0 75 0 0 75 0 0 75 0 75 75 0 0 75 0 0 75 0 0
75 0 0 75 0 0 75 0 75 75 0 75 75 0 75 75 0 75 75 0 75 75 0 0 75 0 0 75
0 75 75 0 75 75 0 74 74 0 0 74 0 0 74 0 0 74 0 0 74 0 0 74 0 74 74 0
74 74 0 74 74 0 74 74 0 74 74 0 74 74 0 74 74 0 74 74 0 74 74 0 0 74 0
0 74 0 0 74 0 0 73 0 0 73 0 73 73 0 73 73 0 73 73 0 0 73 0 0 73 0 73
73 0 73 73 0 73 73 0 73 73 0 73 73 0 0 73 0 0 73 0 0 72 0 0 72 0 0 72
0 0 72 0 0 72 0 0 72 0 0 72 0 0 72 0 72 72 0 72 72 0 72 72 0 72 72 0
72 72 0 0 71 0 0 71 0 71 71 0 71 71 0 71 71 0 0 71 0 0 71 0 0 71 0 0
71 0 0 71 0 71 71 0 71 71 0 70 70 0 70 70 0 70 70 0 70 70 0 70 70 0 70
70 0 70 70 0 70 70 0 0 70 0 0 70 0 0 70 0 0 70 0 0 69 0 69 69 0 69 69
0 0 69 0 0 69 0 0 69 0 69 69 0 69 69 0 69 69 0 69 69 0 69 69 0 0 68 0
0 68 0 0 68 0 0 68 0 0 68 0 0 68 0 0 68 0 0 68 0 0 68 0 0 68 0 68 68 0
67 67 0 67 67 0 67 67 0 67 67 0 0 67 0 0 67 0 67 67 0 67 67 0 67 67 0
0 67 0 0 67 0 0 66 0 0 66 0 0 66 0 66 66 0 66 66 0 66 66 0 66 66 0 0
66 0 66 66 0 66 66 0 66 66 0 65 65 0 65 65 0 0 65 0 0 65 0 0 65 0 0 65
0 0 65 0 65 65 0 65 65 0 0 65 0 0 65 0 0 64 0 64 64 0 64 64 0 64 64 0
64 64 0 64 64 0 0 64 0 0 64 0 0 64 0 0 64 0 64 64 0 0 63 0 0 63 0 0 63
0 0 63 0 63 63 0 63 63 0
75 75 0 75 75 0 75 75 0 0 75 0 75 75 0 75 75 0 76 76 0 76 76 0 76 76 0
0 76 0 0 76 0 0 76 0 0 76 0 0 76 0 76 76 0 76 76 0 0 76 0 0 76 0 0 76
0 0 76 0 76 76 0 76 76 0 76 76 0 76 76 0 77 77 0 0 77 0 0 77 0 0 77 0
0 77 0 77 77 0 0 77 0 0 77 0 0 77 0 0 77 0 0 77 0 77 77 0 77 77 0 77
77 0 77 77 0 77 77 0 0 77 0 0 77 0 77 77 0 77 77 0 77 77 0 0 77 0 0 77
0 0 77 0 0 77 0 0 77 0 77 77 0 77 77 0 77 77 0 77 77 0 77 77 0 0 77 0
77 77 0 77 77 0 77 77 0 77 77 0 78 78 0 0 78 0 0 78 0 0 78 0 0 78 0 0
78 0 78 78 0 0 78 0 0 78 0 0 78 0 0 78 0 78 78 0 77 77 0 77 77 0 77 77
0 77 77 0 0 77 0 0 77 0 0 77 0 0 77 0 77 77 0 0 77 0 0 77 0 0 77 0 0
77 0 0 77 0 77 77 0 77 77 0 77 77 0 77 77 0 77 77 0 0 77 0 0 77 0 77
77 0 77 77 0 77 77 0 77 77 0 0 77 0 0 77 0 0 77 0 0 77 0 0 77 0 77 77
0 77 77 0 77 77 0 77 77 0 0 77 0 77 77 0 76 76 0 76 76 0 76 76 0 76 76
0 0 76 0 0 76 0 0 76 0 0 76 0 0 76 0 76 76 0 76 76 0 0 76 0 0 76 0 0
76 0 76 76 0 76 76 0 76 76 0 76 76 0 75 75 0 0 75 0 0 75 0 0 75 0 0 75
0 0 75 0 75 75 0 0 75 0 0 75 0 0 75 0 0 75 0 0 75 0 75 75 0 75 75 0 75
75 0 74 74 0 74 74 0 0 74 0 74 74 0 74 74 0 74 74 0 74 74 0 0 74 0 0
74 0 0 74 0 0 74 0 0 74 0 74 74 0 73 73 0 73 73 0 73 73 0 0 73 0 73 73
0 73 73 0 73 73 0 73 73 0 73 73 0 0 73 0 0 73 0 0 73 0 0 72 0 0 72 0 0
72 0 72 72 0 0 72 0 0 72 0 0 72 0 0 72 0 72 72 0 72 72 0 72 72 0 71 71
0 71 71 0 0 71 0 0 71 0 0 71 0 0 71 0 71 71 0 0 71 0 0 71 0 0 71 0 0
71 0 0 70 0 70 70 0 70 70 0 70 70 0 70 70 0 70 70 0 0 70 0 0 70 0 70
70 0 70 70 0 70 70 0 0 69 0 0 69 0 0 69 0 0 69 0 0 69 0 69 69 0 69 69
0 69 69 0 69 69 0 69 69 0 0 68 0 68 68 0 68 68 0 68 68 0 68 68 0 68 68
0 0 68 0 0 68 0 0 68 0 0 68 0 0 68 0 67 67 0 0 67 0 0 67 0 0 67 0 0 67
0 67 67 0 67 67 0 67 67 0 67 67 0 67 67 0 0 66 0 0 66 0 0 66 0 0 66 0
66 66 0 0 66 0 0 66 0 0 66 0 0 66 0 0 66 0 66 66 0 65 65 0 65 65 0 65
65 0 65 65 0 65 65 0 0 65 0 65 65 0 65 65 0 65 65 0 65 65 0 0 65 0 0
64 0 0 64 0 0 64 0 0 64 0
77 77 0 77 77 0 0 77 0 0 77 0 77 77 0 77 77 0 77 77 0 77 77 0 0 78 0 0
78 0 0 78 0 0 78 0 0 78 0 78 78 0 78 78 0 78 78 0 78 78 0 78 78 0 78
78 0 78 78 0 78 78 0 78 78 0 78 78 0 78 78 0 0 78 0 0 78 0 0 78 0 0 79
0 0 79 0 79 79 0 79 79 0 0 79 0 0 79 0 0 79 0 79 79 0 79 79 0 79 79 0
79 79 0 79 79 0 0 79 0 0 79 0 0 79 0 0 79 0 0 79 0 79 79 0 0 79 0 0 79
0 0 79 0 0 79 0 0 79 0 79 79 0 79 79 0 79 79 0 79 79 0 79 79 0 0 79 0
0 79 0 79 79 0 79 79 0 79 79 0 79 79 0 0 79 0 0 79 0 0 79 0 0 79 0 0
79 0 79 79 0 79 79 0 79 79 0 79 79 0 79 79 0 79 79 0 79 79 0 79 79 0
79 79 0 79 79 0 79 79 0 0 79 0 0 79 0 0 79 0 0 79 0 0 79 0 79 79 0 79
79 0 0 79 0 0 79 0 0 79 0 79 79 0 79 79 0 79 79 0 79 79 0 79 79 0 79
79 0 0 79 0 0 79 0 0 79 0 0 79 0 79 79 0 0 79 0 0 79 0 0 79 0 0 78 0 0
78 0 78 78 0 78 78 0 78 78 0 78 78 0 78 78 0 78 78 0 0 78 0 0 78 0 78
78 0 78 78 0 78 78 0 0 78 0 0 78 0 0 78 0 0 78 0 0 78 0 78 78 0 77 77
0 77 77 0 77 77 0 77 77 0 77 77 0 77 77 0 77 77 0 77 77 0 77 77 0 77
77 0 0 77 0 0 77 0 0 77 0 0 77 0 0 77 0 76 76 0 76 76 0 0 76 0 0 76 0
0 76 0 76 76 0 76 76 0 76 76 0 76 76 0 76 76 0 76 76 0 0 76 0 0 76 0 0
75 0 0 75 0 75 75 0 0 75 0 0 75 0 0 75 0 0 75 0 0 75 0 75 75 0 75 75 0
75 75 0 74 74 0 74 74 0 74 74 0 0 74 0 0 74 0 74 74 0 74 74 0 74 74 0
0 74 0 0 74 0 0 74 0 0 74 0 0 73 0 73 73 0 73 73 0 73 73 0 73 73 0 73
73 0 0 73 0 73 73 0 73 73 0 73 73 0 72 72 0 72 72 0 0 72 0 0 72 0 0 72
0 0 72 0 0 72 0 72 72 0 72 72 0 0 72 0 0 72 0 0 71 0 71 71 0 71 71 0
71 71 0 71 71 0 71 71 0 71 71 0 0 71 0 0 71 0 0 71 0 0 70 0 70 70 0 0
70 0 0 70 0 0 70 0 0 70 0 0 70 0 70 70 0 70 70 0 70 70 0 69 69 0 69 69
0 69 69 0 0 69 0 0 69 0 69 69 0 69 69 0 69 69 0 0 69 0 0 69 0 0 68 0 0
68 0 0 68 0 68 68 0 68 68 0 68 68 0 68 68 0 68 68 0 0 68 0 68 68 0 67
67 0 67 67 0 67 67 0 67 67 0 0 67 0 0 67 0 0 67 0 0 67 0 0 67 0 67 67
0 67 67 0 0 66 0 0 66 0 0 66 0 0 66 0 66 66 0 66 66 0 66 66 0 66 66 0
66 66 0 0 66 0 0 65 0 0 65 0 0 65 0
79 79 0 0 79 0 0 79 0 0 79 0 0 79 0 79 79 0 0 79 0 0 79 0 0 79 0 0 79
0 0 80 0 0 80 0 80 80 0 80 80 0 80 80 0 80 80 0 80 80 0 0 80 0 80 80 0
80 80 0 80 80 0 80 80 0 80 80 0 0 80 0 0 80 0 0 80 0 0 80 0 0 80 0 80
80 0 80 80 0 81 81 0 81 81 0 0 81 0 0 81 0 81 81 0 81 81 0 81 81 0 81
81 0 81 81 0 0 81 0 0 81 0 0 81 0 0 81 0 0 81 0 0 81 0 81 81 0 0 81 0
0 81 0 0 81 0 0 81 0 81 81 0 81 81 0 81 81 0 81 81 0 81 81 0 81 81 0 0
81 0 0 81 0 0 81 0 81 81 0 81 81 0 0 81 0 0 81 0 0 81 0 0 81 0 0 81 0
0 81 0 81 81 0 81 81 0 81 81 0 81 81 0 81 81 0 0 81 0 81 81 0 81 81 0
81 81 0 81 81 0 81 81 0 0 81 0 0 81 0 0 81 0 0 81 0 0 81 0 81 81 0 81
81 0 81 81 0 81 81 0 0 81 0 0 81 0 81 81 0 81 81 0 81 81 0 81 81 0 80
80 0 0 80 0 0 80 0 0 80 0 0 80 0 0 80 0 80 80 0 80 80 0 0 80 0 0 80 0
0 80 0 0 80 0 80 80 0 80 80 0 80 80 0 80 80 0 80 80 0 0 80 0 0 80 0 0
80 0 0 80 0 79 79 0 79 79 0 0 79 0 0 79 0 0 79 0 0 79 0 0 79 0 79 79 0
79 79 0 79 79 0 79 79 0 79 79 0 79 79 0 0 79 0 79 79 0 78 78 0 78 78 0
78 78 0 0 78 0 0 78 0 0 78 0 0 78 0 0 78 0 0 78 0 78 78 0 78 78 0 78
78 0 78 78 0 0 77 0 77 77 0 77 77 0 77 77 0 77 77 0 77 77 0 77 77 0 0
77 0 0 77 0 0 77 0 0 77 0 0 76 0 76 76 0 0 76 0 0 76 0 0 76 0 0 76 0 0
76 0 76 76 0 76 76 0 76 76 0 76 76 0 75 75 0 0 75 0 0 75 0 0 75 0 0 75
0 75 75 0 75 75 0 0 75 0 0 75 0 0 75 0 0 75 0 0 74 0 74 74 0 74 74 0
74 74 0 74 74 0 74 74 0 74 74 0 0 74 0 74 74 0 74 74 0 73 73 0 73 73 0
0 73 0 0 73 0 0 73 0 0 73 0 0 73 0 0 73 0 73 73 0 73 73 0 72 72 0 72
72 0 0 72 0 72 72 0 72 72 0 72 72 0 72 72 0 72 72 0 72 72 0 0 72 0 0
71 0 0 71 0 0 71 0 0 71 0 71 71 0 0 71 0 0 71 0 0 71 0 0 71 0 0 70 0
70 70 0 70 70 0 70 70 0 70 70 0 70 70 0 0 70 0 0 70 0 0 70 0 0 70 0 69
69 0 69 69 0 0 69 0 0 69 0 0 69 0 0 69 0 0 69 0 69 69 0 69 69 0 69 69
0 68 68 0 68 68 0 68 68 0 0 68 0 68 68 0 68 68 0 68 68 0 68 68 0 0 68
0 0 68 0 0 67 0 0 67 0 0 67 0 67 67 0 67 67 0 67 67 0 67 67 0 0 67 0 0
67 0 67 67 0 66 66 0 66 66 0
0 81 0 0 81 0 0 81 0 0 81 0 81 81 0 0 81 0 0 81 0 0 81 0 0 81 0 0 81 0
0 81 0 81 81 0 82 82 0 82 82 0 82 82 0 82 82 0 82 82 0 0 82 0 82 82 0
82 82 0 82 82 0 82 82 0 0 82 0 0 82 0 0 82 0 0 82 0 0 82 0 0 82 0 82
82 0 82 82 0 82 82 0 82 82 0 0 82 0 0 82 0 83 83 0 83 83 0 83 83 0 83
83 0 83 83 0 0 83 0 0 83 0 0 83 0 0 83 0 0 83 0 0 83 0 83 83 0 83 83 0
0 83 0 0 83 0 0 83 0 0 83 0 83 83 0 83 83 0 83 83 0 83 83 0 83 83 0 0
83 0 0 83 0 0 83 0 0 83 0 0 83 0 83 83 0 0 83 0 0 83 0 0 83 0 0 83 0 0
83 0 0 83 0 83 83 0 83 83 0 83 83 0 83 83 0 83 83 0 0 83 0 0 83 0 83
83 0 83 83 0 83 83 0 83 83 0 0 83 0 0 83 0 0 83 0 0 83 0 0 83 0 83 83
0 82 82 0 82 82 0 82 82 0 82 82 0 0 82 0 82 82 0 82 82 0 82 82 0 82 82
0 82 82 0 82 82 0 0 82 0 0 82 0 0 82 0 0 82 0 0 82 0 82 82 0 82 82 0 0
82 0 0 82 0 0 82 0 0 82 0 81 81 0 81 81 0 81 81 0 81 81 0 81 81 0 81
81 0 0 81 0 0 81 0 0 81 0 0 81 0 81 81 0 0 81 0 0 81 0 0 81 0 0 81 0 0
81 0 0 80 0 80 80 0 80 80 0 80 80 0 80 80 0 80 80 0 80 80 0 0 80 0 80
80 0 80 80 0 80 80 0 80 80 0 0 80 0 0 79 0 0 79 0 0 79 0 0 79 0 0 79 0
79 79 0 79 79 0 79 79 0 79 79 0 0 79 0 0 79 0 78 78 0 78 78 0 78 78 0
78 78 0 78 78 0 0 78 0 0 78 0 0 78 0 0 78 0 0 78 0 0 78 0 77 77 0 77
77 0 0 77 0 0 77 0 0 77 0 0 77 0 77 77 0 77 77 0 77 77 0 77 77 0 76 76
0 0 76 0 0 76 0 0 76 0 0 76 0 0 76 0 76 76 0 0 76 0 0 76 0 0 76 0 0 75
0 0 75 0 0 75 0 75 75 0 75 75 0 75 75 0 75 75 0 75 75 0 0 75 0 0 75 0
74 74 0 74 74 0 74 74 0 74 74 0 0 74 0 0 74 0 0 74 0 0 74 0 0 74 0 0
73 0 73 73 0 73 73 0 73 73 0 73 73 0 0 73 0 73 73 0 73 73 0 73 73 0 73
73 0 72 72 0 72 72 0 0 72 0 0 72 0 0 72 0 0 72 0 0 72 0 0 72 0 72 72 0
0 71 0 0 71 0 0 71 0 0 71 0 71 71 0 71 71 0 71 71 0 71 71 0 71 71 0 71
71 0 0 70 0 0 70 0 0 70 0 0 70 0 70 70 0 0 70 0 0 70 0 0 70 0 0 70 0 0
70 0 0 69 0 69 69 0 69 69 0 69 69 0 69 69 0 69 69 0 69 69 0 0 69 0 69
69 0 68 68 0 68 68 0 68 68 0 0 68 0 0 68 0 0 68 0 0 68 0 0 68 0 0 68 0
68 68 0 67 67 0
0 83 0 0 83 0 0 83 0 83 83 0 83 83 0 0 83 0 0 83 0 0 83 0 0 83 0 0 83
0 0 83 0 83 83 0 83 83 0 83 83 0 83 83 0 84 84 0 0 84 0 84 84 0 84 84
0 84 84 0 84 84 0 84 84 0 0 84 0 0 84 0 0 84 0 0 84 0 0 84 0 0 84 0 84
84 0 84 84 0 84 84 0 84 84 0 0 84 0 0 84 0 84 84 0 84 84 0 84 84 0 84
84 0 84 84 0 84 84 0 0 85 0 0 85 0 0 85 0 0 85 0 0 85 0 85 85 0 0 85 0
0 85 0 0 85 0 0 85 0 0 85 0 85 85 0 85 85 0 85 85 0 85 85 0 85 85 0 85
85 0 0 85 0 0 85 0 0 85 0 0 85 0 85 85 0 85 85 0 0 85 0 0 85 0 0 85 0
0 85 0 0 85 0 0 85 0 85 85 0 85 85 0 85 85 0 85 85 0 85 85 0 85 85 0 0
84 0 84 84 0 84 84 0 84 84 0 84 84 0 0 84 0 0 84 0 0 84 0 0 84 0 0 84
0 0 84 0 84 84 0 84 84 0 84 84 0 84 84 0 0 84 0 0 84 0 84 84 0 84 84 0
84 84 0 84 84 0 84 84 0 84 84 0 0 84 0 0 84 0 0 84 0 0 83 0 0 83 0 0
83 0 83 83 0 0 83 0 0 83 0 0 83 0 0 83 0 0 83 0 83 83 0 83 83 0 83 83
0 83 83 0 83 83 0 0 83 0 0 83 0 0 82 0 0 82 0 82 82 0 82 82 0 0 82 0 0
82 0 0 82 0 0 82 0 0 82 0 0 82 0 82 82 0 82 82 0 82 82 0 81 81 0 81 81
0 81 81 0 0 81 0 81 81 0 81 81 0 81 81 0 81 81 0 81 81 0 0 81 0 0 81 0
0 80 0 0 80 0 0 80 0 0 80 0 80 80 0 80 80 0 80 80 0 0 80 0 0 80 0 80
80 0 80 80 0 79 79 0 79 79 0 79 79 0 79 79 0 0 79 0 0 79 0 0 79 0 0 79
0 0 79 0 0 79 0 78 78 0 0 78 0 0 78 0 0 78 0 0 78 0 0 78 0 78 78 0 78
78 0 78 78 0 78 78 0 77 77 0 77 77 0 0 77 0 0 77 0 0 77 0 0 77 0 77 77
0 77 77 0 0 77 0 0 76 0 0 76 0 0 76 0 0 76 0 76 76 0 76 76 0 76 76 0
76 76 0 76 76 0 76 76 0 0 75 0 75 75 0 75 75 0 75 75 0 75 75 0 75 75 0
0 75 0 0 75 0 0 75 0 0 74 0 0 74 0 0 74 0 74 74 0 74 74 0 74 74 0 74
74 0 0 74 0 0 74 0 73 73 0 73 73 0 73 73 0 73 73 0 73 73 0 0 73 0 0 73
0 0 73 0 0 73 0 0 72 0 0 72 0 72 72 0 0 72 0 0 72 0 0 72 0 0 72 0 0 72
0 72 72 0 72 72 0 71 71 0 71 71 0 71 71 0 71 71 0 0 71 0 0 71 0 0 71 0
0 71 0 71 71 0 70 70 0 0 70 0 0 70 0 0 70 0 0 70 0 0 70 0 0 70 0 70 70
0 70 70 0 70 70 0 69 69 0 69 69 0 0 69 0 69 69 0 69 69 0 69 69 0 69 69
0 69 69 0 0 69 0
84 84 0 85 85 0 85 85 0 85 85 0 0 85 0 0 85 0 0 85 0 0 85 0 0 85 0 0
85 0 85 85 0 85 85 0 85 85 0 85 85 0 85 85 0 0 85 0 85 85 0 86 86 0 86
86 0 86 86 0 86 86 0 86 86 0 0 86 0 0 86 0 0 86 0 0 86 0 0 86 0 0 86 0
86 86 0 86 86 0 0 86 0 0 86 0 0 86 0 0 86 0 86 86 0 86 86 0 86 86 0 86
86 0 86 86 0 86 86 0 0 86 0 0 86 0 0 86 0 0 86 0 0 86 0 86 86 0 0 86 0
0 86 0 0 86 0 0 86 0 0 86 0 0 86 0 86 86 0 86 86 0 87 87 0 87 87 0 87
87 0 86 86 0 0 86 0 0 86 0 86 86 0 86 86 0 86 86 0 86 86 0 0 86 0 0 86
0 0 86 0 0 86 0 0 86 0 0 86 0 86 86 0 86 86 0 86 86 0 86 86 0 86 86 0
0 86 0 86 86 0 86 86 0 86 86 0 86 86 0 86 86 0 86 86 0 0 86 0 0 86 0 0
86 0 0 86 0 0 86 0 0 86 0 86 86 0 86 86 0 0 86 0 0 86 0 0 86 0 0 86 0
85 85 0 85 85 0 85 85 0 85 85 0 85 85 0 85 85 0 0 85 0 0 85 0 0 85 0 0
85 0 0 85 0 85 85 0 0 85 0 0 85 0 0 85 0 0 85 0 0 85 0 0 84 0 84 84 0
84 84 0 84 84 0 84 84 0 84 84 0 84 84 0 0 84 0 0 84 0 84 84 0 84 84 0
84 84 0 84 84 0 0 83 0 0 83 0 0 83 0 0 83 0 0 83 0 0 83 0 83 83 0 83
83 0 83 83 0 83 83 0 83 83 0 0 82 0 82 82 0 82 82 0 82 82 0 82 82 0 82
82 0 82 82 0 0 82 0 0 82 0 0 82 0 0 82 0 0 81 0 0 81 0 81 81 0 81 81 0
0 81 0 0 81 0 0 81 0 0 81 0 81 81 0 81 81 0 80 80 0 80 80 0 80 80 0 80
80 0 0 80 0 0 80 0 0 80 0 0 80 0 0 80 0 80 80 0 0 79 0 0 79 0 0 79 0 0
79 0 0 79 0 0 79 0 79 79 0 79 79 0 79 79 0 78 78 0 78 78 0 78 78 0 0
78 0 0 78 0 78 78 0 78 78 0 78 78 0 78 78 0 0 77 0 0 77 0 0 77 0 0 77
0 0 77 0 0 77 0 77 77 0 77 77 0 77 77 0 76 76 0 76 76 0 0 76 0 76 76 0
76 76 0 76 76 0 76 76 0 76 76 0 76 76 0 0 75 0 0 75 0 0 75 0 0 75 0 0
75 0 0 75 0 75 75 0 75 75 0 0 75 0 0 74 0 0 74 0 0 74 0 74 74 0 74 74
0 74 74 0 74 74 0 74 74 0 74 74 0 0 73 0 0 73 0 0 73 0 0 73 0 0 73 0
73 73 0 0 73 0 0 73 0 0 73 0 0 72 0 0 72 0 0 72 0 72 72 0 72 72 0 72
72 0 72 72 0 72 72 0 72 72 0 0 71 0 0 71 0 71 71 0 71 71 0 71 71 0 71
71 0 0 71 0 0 71 0 0 71 0 0 70 0 0 70 0 0 70 0 70 70 0 70 70 0 70 70 0
70 70 0 70 70 0 0 70 0
86 86 0 86 86 0 87 87 0 87 87 0 0 87 0 0 87 0 0 87 0 0 87 0 0 87 0 0
87 0 0 87 0 87 87 0 87 87 0 0 87 0 0 87 0 0 87 0 0 87 0 87 87 0 87 87
0 87 87 0 88 88 0 88 88 0 88 88 0 0 88 0 0 88 0 0 88 0 0 88 0 0 88 0
88 88 0 0 88 0 0 88 0 0 88 0 0 88 0 0 88 0 0 88 0 88 88 0 88 88 0 88
88 0 88 88 0 88 88 0 88 88 0 0 88 0 0 88 0 0 88 0 88 88 0 88 88 0 88
88 0 88 88 0 0 88 0 0 88 0 0 88 0 0 88 0 0 88 0 0 88 0 88 88 0 88 88 0
88 88 0 88 88 0 88 88 0 0 88 0 88 88 0 88 88 0 88 88 0 88 88 0 88 88 0
88 88 0 0 88 0 0 88 0 0 88 0 0 88 0 0 88 0 0 88 0 88 88 0 88 88 0 0 88
0 0 88 0 0 88 0 0 88 0 0 88 0 88 88 0 88 88 0 88 88 0 88 88 0 88 88 0
88 88 0 0 88 0 0 88 0 0 87 0 0 87 0 0 87 0 87 87 0 0 87 0 0 87 0 0 87
0 0 87 0 0 87 0 0 87 0 87 87 0 87 87 0 87 87 0 87 87 0 87 87 0 87 87 0
0 87 0 0 87 0 86 86 0 86 86 0 86 86 0 86 86 0 0 86 0 0 86 0 0 86 0 0
86 0 0 86 0 0 86 0 0 86 0 86 86 0 86 86 0 85 85 0 85 85 0 85 85 0 0 85
0 85 85 0 85 85 0 85 85 0 85 85 0 85 85 0 85 85 0 0 85 0 0 85 0 0 84 0
0 84 0 0 84 0 0 84 0 84 84 0 84 84 0 0 84 0 0 84 0 0 84 0 0 84 0 83 83
0 83 83 0 83 83 0 83 83 0 83 83 0 83 83 0 0 83 0 0 83 0 0 83 0 0 83 0
0 82 0 0 82 0 82 82 0 0 82 0 0 82 0 0 82 0 0 82 0 0 82 0 0 82 0 82 82
0 81 81 0 81 81 0 81 81 0 81 81 0 81 81 0 0 81 0 0 81 0 81 81 0 81 81
0 80 80 0 80 80 0 0 80 0 0 80 0 0 80 0 0 80 0 0 80 0 0 80 0 80 80 0 79
79 0 79 79 0 79 79 0 79 79 0 79 79 0 79 79 0 79 79 0 79 79 0 79 79 0
78 78 0 78 78 0 78 78 0 0 78 0 0 78 0 0 78 0 0 78 0 0 78 0 0 77 0 77
77 0 77 77 0 0 77 0 0 77 0 0 77 0 0 77 0 77 77 0 77 77 0 76 76 0 76 76
0 76 76 0 76 76 0 0 76 0 0 76 0 0 76 0 0 76 0 0 76 0 75 75 0 0 75 0 0
75 0 0 75 0 0 75 0 0 75 0 0 75 0 0 75 0 74 74 0 74 74 0 74 74 0 74 74
0 74 74 0 74 74 0 0 74 0 0 74 0 74 74 0 73 73 0 73 73 0 73 73 0 0 73 0
0 73 0 0 73 0 0 73 0 0 73 0 0 73 0 72 72 0 72 72 0 72 72 0 72 72 0 72
72 0 0 72 0 72 72 0 72 72 0 72 72 0 71 71 0 71 71 0 71 71 0 0 71 0 0
71 0 0 71 0 0 71 0 0 71 0
88 88 0 88 88 0 88 88 0 88 88 0 89 89 0 0 89 0 0 89 0 0 89 0 0 89 0 89
89 0 89 89 0 0 89 0 0 89 0 0 89 0 0 89 0 0 89 0 0 89 0 0 89 0 89 89 0
89 89 0 89 89 0 89 89 0 89 89 0 90 90 0 0 90 0 90 90 0 90 90 0 90 90 0
90 90 0 90 90 0 0 90 0 0 90 0 0 90 0 0 90 0 0 90 0 0 90 0 0 90 0 90 90
0 90 90 0 90 90 0 90 90 0 0 90 0 0 90 0 90 90 0 90 90 0 90 90 0 90 90
0 90 90 0 90 90 0 0 90 0 0 90 0 0 90 0 0 90 0 0 90 0 0 90 0 0 90 0 90
90 0 0 90 0 0 90 0 0 90 0 0 90 0 0 90 0 90 90 0 90 90 0 90 90 0 90 90
0 90 90 0 90 90 0 0 90 0 0 90 0 0 90 0 0 90 0 0 90 0 90 90 0 90 90 0 0
90 0 0 90 0 0 90 0 0 90 0 0 90 0 0 89 0 89 89 0 89 89 0 89 89 0 89 89
0 89 89 0 89 89 0 0 89 0 0 89 0 89 89 0 89 89 0 89 89 0 89 89 0 89 89
0 0 89 0 0 89 0 0 89 0 0 89 0 0 89 0 0 88 0 88 88 0 88 88 0 88 88 0 88
88 0 0 88 0 0 88 0 88 88 0 88 88 0 88 88 0 88 88 0 88 88 0 88 88 0 87
87 0 0 87 0 0 87 0 0 87 0 0 87 0 0 87 0 0 87 0 87 87 0 0 87 0 0 87 0 0
87 0 0 87 0 0 86 0 86 86 0 86 86 0 86 86 0 86 86 0 86 86 0 86 86 0 86
86 0 0 86 0 0 86 0 0 86 0 0 85 0 85 85 0 85 85 0 0 85 0 0 85 0 0 85 0
0 85 0 0 85 0 0 85 0 85 85 0 84 84 0 84 84 0 84 84 0 84 84 0 84 84 0
84 84 0 0 84 0 84 84 0 84 84 0 83 83 0 83 83 0 83 83 0 0 83 0 0 83 0 0
83 0 0 83 0 0 83 0 0 83 0 0 82 0 82 82 0 82 82 0 82 82 0 82 82 0 0 82
0 0 82 0 82 82 0 82 82 0 81 81 0 81 81 0 81 81 0 81 81 0 0 81 0 0 81 0
0 81 0 0 81 0 0 80 0 0 80 0 0 80 0 80 80 0 0 80 0 0 80 0 0 80 0 0 80 0
0 80 0 79 79 0 79 79 0 79 79 0 79 79 0 79 79 0 79 79 0 0 79 0 0 79 0 0
78 0 0 78 0 0 78 0 78 78 0 78 78 0 0 78 0 0 78 0 0 78 0 0 78 0 0 77 0
0 77 0 77 77 0 77 77 0 77 77 0 77 77 0 77 77 0 77 77 0 0 76 0 76 76 0
76 76 0 76 76 0 76 76 0 76 76 0 76 76 0 0 76 0 0 76 0 0 75 0 0 75 0 0
75 0 0 75 0 75 75 0 75 75 0 75 75 0 75 75 0 0 74 0 0 74 0 74 74 0 74
74 0 74 74 0 74 74 0 74 74 0 74 74 0 74 74 0 0 73 0 0 73 0 0 73 0 0 73
0 0 73 0 0 73 0 73 73 0 0 73 0 0 73 0 0 72 0 0 72 0 0 72 0 72 72 0 72
72 0 72 72 0 72 72 0
90 90 0 90 90 0 90 90 0 90 90 0 90 90 0 0 90 0 91 91 0 91 91 0 91 91 0
91 91 0 91 91 0 91 91 0 0 91 0 0 91 0 0 91 0 0 91 0 0 91 0 0 91 0 0 91
0 91 91 0 91 91 0 0 91 0 0 91 0 0 91 0 0 91 0 91 91 0 91 91 0 92 92 0
92 92 0 92 92 0 92 92 0 92 92 0 0 92 0 0 92 0 0 92 0 0 92 0 0 92 0 92
92 0 0 92 0 0 92 0 0 92 0 0 92 0 0 92 0 0 92 0 0 92 0 92 92 0 92 92 0
92 92 0 92 92 0 92 92 0 92 92 0 0 92 0 0 92 0 0 92 0 92 92 0 92 92 0
92 92 0 92 92 0 0 92 0 0 92 0 0 92 0 0 92 0 0 92 0 0 92 0 92 92 0 92
92 0 92 92 0 92 92 0 92 92 0 92 92 0 0 92 0 92 92 0 91 91 0 91 91 0 91
91 0 91 91 0 91 91 0 0 91 0 0 91 0 0 91 0 0 91 0 0 91 0 0 91 0 0 91 0
91 91 0 91 91 0 0 91 0 0 91 0 0 91 0 0 91 0 91 91 0 91 91 0 91 91 0 90
90 0 90 90 0 90 90 0 90 90 0 0 90 0 0 90 0 0 90 0 0 90 0 0 90 0 0 90 0
0 90 0 0 90 0 0 90 0 0 90 0 0 89 0 0 89 0 0 89 0 89 89 0 89 89 0 89 89
0 89 89 0 89 89 0 89 89 0 0 89 0 0 89 0 0 89 0 88 88 0 88 88 0 88 88 0
88 88 0 0 88 0 0 88 0 0 88 0 0 88 0 0 88 0 0 88 0 87 87 0 87 87 0 87
87 0 87 87 0 87 87 0 87 87 0 0 87 0 87 87 0 87 87 0 87 87 0 86 86 0 86
86 0 86 86 0 86 86 0 0 86 0 0 86 0 0 86 0 0 86 0 0 86 0 0 85 0 85 85 0
85 85 0 0 85 0 0 85 0 0 85 0 0 85 0 0 85 0 85 85 0 84 84 0 84 84 0 84
84 0 84 84 0 84 84 0 0 84 0 0 84 0 0 84 0 0 84 0 0 83 0 0 83 0 83 83 0
0 83 0 0 83 0 0 83 0 0 83 0 0 83 0 0 82 0 82 82 0 82 82 0 82 82 0 82
82 0 82 82 0 82 82 0 82 82 0 0 81 0 0 81 0 81 81 0 81 81 0 81 81 0 81
81 0 0 81 0 0 81 0 0 81 0 0 80 0 0 80 0 0 80 0 0 80 0 80 80 0 80 80 0
80 80 0 80 80 0 79 79 0 0 79 0 79 79 0 79 79 0 79 79 0 79 79 0 79 79 0
79 79 0 78 78 0 0 78 0 0 78 0 0 78 0 0 78 0 0 78 0 0 78 0 78 78 0 77
77 0 77 77 0 0 77 0 0 77 0 0 77 0 0 77 0 77 77 0 77 77 0 77 77 0 76 76
0 76 76 0 76 76 0 0 76 0 0 76 0 0 76 0 0 76 0 0 76 0 0 75 0 75 75 0 0
75 0 0 75 0 0 75 0 0 75 0 0 75 0 0 75 0 75 75 0 74 74 0 74 74 0 74 74
0 74 74 0 74 74 0 74 74 0 0 74 0 0 74 0 73 73 0 73 73 0 73 73 0 73 73
0 0 73 0 0 73 0 0 73 0
0 92 0 0 92 0 0 92 0 0 92 0 0 92 0 0 92 0 0 92 0 92 92 0 93 93 0 93 93
0 93 93 0 93 93 0 93 93 0 0 93 0 0 93 0 0 93 0 93 93 0 93 93 0 93 93 0
93 93 0 0 93 0 0 93 0 0 93 0 0 93 0 0 93 0 0 93 0 0 93 0 93 93 0 93 93
0 93 93 0 93 93 0 93 93 0 93 93 0 94 94 0 94 94 0 94 94 0 94 94 0 94
94 0 94 94 0 94 94 0 0 94 0 0 94 0 0 94 0 0 94 0 0 94 0 0 94 0 0 94 0
94 94 0 94 94 0 94 94 0 0 94 0 0 94 0 0 94 0 0 94 0 94 94 0 94 94 0 94
94 0 94 94 0 94 94 0 94 94 0 0 94 0 0 93 0 0 93 0 0 93 0 0 93 0 0 93 0
93 93 0 0 93 0 0 93 0 0 93 0 0 93 0 0 93 0 0 93 0 0 93 0 93 93 0 93 93
0 93 93 0 93 93 0 93 93 0 93 93 0 0 93 0 0 93 0 0 93 0 93 93 0 93 93 0
93 93 0 92 92 0 0 92 0 0 92 0 0 92 0 0 92 0 0 92 0 0 92 0 0 92 0 92 92
0 92 92 0 92 92 0 92 92 0 92 92 0 92 92 0 92 92 0 91 91 0 91 91 0 91
91 0 91 91 0 91 91 0 91 91 0 0 91 0 0 91 0 0 91 0 0 91 0 0 91 0 0 91 0
0 90 0 90 90 0 90 90 0 90 90 0 0 90 0 0 90 0 0 90 0 90 90 0 90 90 0 90
90 0 90 90 0 89 89 0 89 89 0 89 89 0 0 89 0 0 89 0 0 89 0 0 89 0 0 89
0 0 89 0 89 89 0 0 88 0 0 88 0 0 88 0 0 88 0 0 88 0 0 88 0 0 88 0 88
88 0 88 88 0 87 87 0 87 87 0 87 87 0 87 87 0 0 87 0 0 87 0 0 87 0 87
87 0 86 86 0 86 86 0 86 86 0 0 86 0 0 86 0 0 86 0 0 86 0 0 86 0 0 86 0
0 85 0 85 85 0 85 85 0 85 85 0 85 85 0 85 85 0 85 85 0 85 85 0 84 84 0
84 84 0 84 84 0 84 84 0 84 84 0 84 84 0 0 84 0 0 84 0 0 83 0 0 83 0 0
83 0 0 83 0 0 83 0 83 83 0 83 83 0 0 83 0 0 82 0 0 82 0 0 82 0 82 82 0
82 82 0 82 82 0 82 82 0 82 82 0 81 81 0 81 81 0 0 81 0 0 81 0 0 81 0 0
81 0 0 81 0 0 81 0 80 80 0 0 80 0 0 80 0 0 80 0 0 80 0 0 80 0 0 80 0
80 80 0 79 79 0 79 79 0 79 79 0 79 79 0 79 79 0 79 79 0 0 79 0 0 79 0
0 78 0 78 78 0 78 78 0 78 78 0 78 78 0 0 78 0 0 78 0 0 78 0 0 77 0 0
77 0 0 77 0 0 77 0 77 77 0 77 77 0 77 77 0 77 77 0 77 77 0 76 76 0 76
76 0 76 76 0 76 76 0 76 76 0 76 76 0 76 76 0 76 76 0 0 75 0 0 75 0 0
75 0 0 75 0 0 75 0 0 75 0 0 75 0 75 75 0 74 74 0 0 74 0 0 74 0 0 74 0
0 74 0 74 74 0 74 74 0
94 94 0 0 94 0 0 94 0 0 94 0 0 94 0 0 94 0 0 94 0 0 94 0 94 94 0 94 94
0 0 94 0 0 95 0 0 95 0 0 95 0 0 95 0 95 95 0 95 95 0 95 95 0 95 95 0
95 95 0 95 95 0 95 95 0 0 95 0 0 95 0 0 95 0 0 95 0 0 95 0 0 95 0 95
95 0 0 95 0 0 95 0 0 95 0 0 95 0 0 95 0 0 95 0 0 95 0 95 95 0 95 95 0
95 95 0 95 95 0 95 95 0 95 95 0 0 95 0 0 95 0 0 95 0 95 95 0 95 95 0
95 95 0 95 95 0 0 95 0 0 95 0 0 95 0 0 95 0 0 95 0 0 95 0 0 95 0 95 95
0 95 95 0 95 95 0 95 95 0 95 95 0 95 95 0 0 95 0 95 95 0 95 95 0 95 95
0 95 95 0 95 95 0 95 95 0 95 95 0 0 95 0 0 95 0 0 95 0 0 95 0 0 95 0 0
95 0 0 95 0 95 95 0 95 95 0 0 95 0 0 94 0 0 94 0 0 94 0 0 94 0 94 94 0
94 94 0 94 94 0 94 94 0 94 94 0 94 94 0 94 94 0 0 94 0 0 94 0 0 94 0 0
94 0 0 93 0 93 93 0 0 93 0 0 93 0 0 93 0 0 93 0 0 93 0 0 93 0 0 93 0
93 93 0 93 93 0 93 93 0 93 93 0 92 92 0 92 92 0 92 92 0 0 92 0 0 92 0
92 92 0 92 92 0 92 92 0 92 92 0 92 92 0 0 91 0 0 91 0 0 91 0 0 91 0 0
91 0 0 91 0 0 91 0 91 91 0 91 91 0 91 91 0 90 90 0 90 90 0 90 90 0 0
90 0 90 90 0 90 90 0 90 90 0 90 90 0 90 90 0 89 89 0 89 89 0 0 89 0 0
89 0 0 89 0 0 89 0 0 89 0 0 89 0 89 89 0 88 88 0 88 88 0 0 88 0 0 88 0
0 88 0 0 88 0 88 88 0 88 88 0 87 87 0 87 87 0 87 87 0 87 87 0 87 87 0
0 87 0 0 87 0 0 87 0 0 86 0 0 86 0 0 86 0 86 86 0 0 86 0 0 86 0 0 86 0
0 86 0 0 85 0 0 85 0 0 85 0 85 85 0 85 85 0 85 85 0 85 85 0 85 85 0 84
84 0 84 84 0 0 84 0 0 84 0 84 84 0 84 84 0 84 84 0 84 84 0 83 83 0 0
83 0 0 83 0 0 83 0 0 83 0 0 83 0 0 83 0 83 83 0 82 82 0 82 82 0 82 82
0 82 82 0 82 82 0 0 82 0 82 82 0 82 82 0 81 81 0 81 81 0 81 81 0 81 81
0 81 81 0 0 81 0 0 81 0 0 80 0 0 80 0 0 80 0 0 80 0 0 80 0 80 80 0 80
80 0 0 80 0 0 79 0 0 79 0 0 79 0 0 79 0 79 79 0 79 79 0 79 79 0 79 79
0 78 78 0 78 78 0 78 78 0 0 78 0 0 78 0 0 78 0 0 78 0 0 78 0 0 77 0 77
77 0 0 77 0 0 77 0 0 77 0 0 77 0 0 77 0 0 77 0 0 76 0 76 76 0 76 76 0
76 76 0 76 76 0 76 76 0 76 76 0 0 76 0 0 76 0 0 75 0 75 75 0 75 75 0
75 75 0 75 75 0 0 75 0
96 96 0 96 96 0 96 96 0 0 96 0 96 96 0 96 96 0 96 96 0 96 96 0 96 96 0
96 96 0 0 96 0 0 96 0 0 96 0 0 97 0 0 97 0 0 97 0 0 97 0 97 97 0 97 97
0 97 97 0 97 97 0 0 97 0 0 97 0 0 97 0 97 97 0 97 97 0 97 97 0 97 97 0
97 97 0 97 97 0 97 97 0 0 97 0 0 97 0 0 97 0 0 97 0 0 97 0 0 97 0 0 97
0 97 97 0 0 97 0 0 97 0 0 97 0 0 97 0 0 97 0 0 97 0 97 97 0 97 97 0 97
97 0 97 97 0 97 97 0 97 97 0 97 97 0 0 97 0 0 97 0 0 97 0 0 97 0 0 97
0 97 97 0 97 97 0 0 97 0 0 97 0 0 97 0 0 97 0 0 97 0 0 97 0 0 97 0 97
97 0 97 97 0 97 97 0 97 97 0 97 97 0 97 97 0 97 97 0 0 96 0 96 96 0 96
96 0 96 96 0 96 96 0 96 96 0 96 96 0 0 96 0 0 96 0 0 96 0 0 96 0 0 96
0 0 96 0 0 96 0 96 96 0 96 96 0 96 96 0 95 95 0 95 95 0 0 95 0 0 95 0
95 95 0 95 95 0 95 95 0 95 95 0 95 95 0 95 95 0 95 95 0 0 95 0 0 94 0
0 94 0 0 94 0 0 94 0 0 94 0 0 94 0 94 94 0 0 94 0 0 94 0 0 94 0 0 94 0
0 93 0 0 93 0 93 93 0 93 93 0 93 93 0 93 93 0 93 93 0 93 93 0 93 93 0
93 93 0 0 92 0 0 92 0 0 92 0 0 92 0 92 92 0 92 92 0 92 92 0 0 92 0 0
92 0 0 91 0 0 91 0 0 91 0 0 91 0 0 91 0 91 91 0 91 91 0 91 91 0 91 91
0 90 90 0 90 90 0 90 90 0 0 90 0 90 90 0 90 90 0 90 90 0 90 90 0 89 89
0 89 89 0 0 89 0 0 89 0 0 89 0 0 89 0 0 89 0 0 89 0 0 88 0 88 88 0 88
88 0 88 88 0 88 88 0 0 88 0 0 88 0 0 88 0 87 87 0 87 87 0 87 87 0 87
87 0 87 87 0 87 87 0 87 87 0 0 86 0 0 86 0 0 86 0 0 86 0 0 86 0 0 86 0
0 86 0 86 86 0 0 85 0 0 85 0 0 85 0 0 85 0 0 85 0 0 85 0 85 85 0 85 85
0 84 84 0 84 84 0 84 84 0 84 84 0 84 84 0 0 84 0 0 84 0 0 83 0 0 83 0
83 83 0 83 83 0 83 83 0 0 83 0 0 83 0 0 83 0 0 82 0 0 82 0 0 82 0 0 82
0 82 82 0 82 82 0 82 82 0 81 81 0 81 81 0 81 81 0 81 81 0 0 81 0 81 81
0 81 81 0 81 81 0 80 80 0 80 80 0 80 80 0 0 80 0 0 80 0 0 80 0 0 80 0
0 80 0 0 79 0 0 79 0 79 79 0 79 79 0 79 79 0 79 79 0 79 79 0 0 79 0 0
78 0 78 78 0 78 78 0 78 78 0 78 78 0 78 78 0 78 78 0 78 78 0 0 77 0 0
77 0 0 77 0 0 77 0 0 77 0 0 77 0 0 77 0 77 77 0 0 76 0 0 76 0 0 76 0 0
76 0 0 76 0 0 76 0
0 98 0 0 98 0 0 98 0 0 98 0 0 98 0 98 98 0 98 98 0 98 98 0 98 98 0 98
98 0 98 98 0 98 98 0 0 98 0 0 98 0 98 98 0 98 98 0 98 98 0 99 99 0 99
99 0 0 99 0 0 99 0 0 99 0 0 99 0 0 99 0 0 99 0 0 99 0 99 99 0 99 99 0
99 99 0 99 99 0 99 99 0 99 99 0 0 99 0 0 99 0 99 99 0 99 99 0 99 99 0
99 99 0 99 99 0 99 99 0 99 99 0 0 99 0 0 99 0 0 99 0 0 99 0 0 99 0 0
99 0 0 99 0 99 99 0 99 99 0 99 99 0 0 99 0 0 99 0 0 99 0 0 99 0 99 99
0 99 99 0 99 99 0 99 99 0 99 99 0 99 99 0 99 99 0 99 99 0 0 99 0 0 99
0 0 98 0 0 98 0 0 98 0 0 98 0 98 98 0 0 98 0 0 98 0 0 98 0 0 98 0 0 98
0 0 98 0 0 98 0 98 98 0 98 98 0 98 98 0 98 98 0 98 98 0 98 98 0 98 98
0 0 97 0 0 97 0 0 97 0 97 97 0 97 97 0 97 97 0 97 97 0 0 97 0 0 97 0 0
97 0 0 97 0 0 97 0 0 97 0 0 96 0 0 96 0 96 96 0 96 96 0 96 96 0 96 96
0 96 96 0 96 96 0 0 96 0 96 96 0 96 96 0 95 95 0 95 95 0 95 95 0 95 95
0 95 95 0 0 95 0 0 95 0 0 95 0 0 95 0 0 95 0 0 94 0 0 94 0 94 94 0 94
94 0 94 94 0 0 94 0 0 94 0 0 94 0 0 94 0 93 93 0 93 93 0 93 93 0 93 93
0 93 93 0 93 93 0 93 93 0 93 93 0 0 92 0 0 92 0 0 92 0 0 92 0 0 92 0 0
92 0 92 92 0 0 92 0 0 91 0 0 91 0 0 91 0 0 91 0 0 91 0 0 91 0 91 91 0
91 91 0 90 90 0 90 90 0 90 90 0 90 90 0 90 90 0 0 90 0 0 90 0 0 90 0
89 89 0 89 89 0 89 89 0 89 89 0 0 89 0 0 89 0 0 89 0 0 89 0 0 88 0 0
88 0 0 88 0 0 88 0 88 88 0 88 88 0 88 88 0 87 87 0 87 87 0 87 87 0 0
87 0 87 87 0 87 87 0 87 87 0 86 86 0 86 86 0 86 86 0 86 86 0 0 86 0 0
86 0 0 86 0 0 86 0 0 85 0 0 85 0 0 85 0 85 85 0 85 85 0 85 85 0 0 85 0
0 84 0 0 84 0 0 84 0 0 84 0 84 84 0 84 84 0 84 84 0 84 84 0 83 83 0 83
83 0 83 83 0 0 83 0 0 83 0 0 83 0 0 83 0 0 82 0 0 82 0 82 82 0 0 82 0
0 82 0 0 82 0 0 82 0 0 82 0 0 81 0 0 81 0 81 81 0 81 81 0 81 81 0 81
81 0 81 81 0 80 80 0 80 80 0 0 80 0 0 80 0 0 80 0 80 80 0 80 80 0 80
80 0 79 79 0 79 79 0 0 79 0 0 79 0 0 79 0 0 79 0 0 79 0 0 79 0 0 78 0
78 78 0 78 78 0 78 78 0 78 78 0 78 78 0 78 78 0 0 78 0 77 77 0 77 77 0
77 77 0 77 77 0 77 77 0 77 77 0
0 100 0 0 100 0 0 100 0 0 100 0 0 100 0 0 100 0 0 100 0 0 100 0 0 100
0 0 100 0 0 100 0 0 100 0 0 100 0 0 100 0 0 100 0 100 100 0 100 100 0
100 100 0 100 100 0 100 100 0 100 100 0 100 100 0 0 101 0 0 101 0 0
101 0 101 101 0 101 101 0 101 101 0 101 101 0 0 101 0 0 101 0 0 101 0
0 101 0 0 101 0 0 101 0 0 101 0 0 101 0 101 101 0 101 101 0 101 101 0
101 101 0 101 101 0 101 101 0 0 101 0 101 101 0 101 101 0 101 101 0
101 101 0 101 101 0 101 101 0 101 101 0 0 101 0 0 101 0 0 101 0 0 101
0 0 101 0 0 100 0 0 100 0 0 100 0 100 100 0 100 100 0 100 100 0 0 100
0 0 100 0 0 100 0 0 100 0 100 100 0 100 100 0 100 100 0 100 100 0 100
100 0 100 100 0 100 100 0 100 100 0 0 100 0 0 100 0 0 100 0 0 99 0 0
99 0 0 99 0 99 99 0 0 99 0 0 99 0 0 99 0 0 99 0 0 99 0 0 99 0 0 99 0
99 99 0 99 99 0 99 99 0 98 98 0 98 98 0 98 98 0 98 98 0 98 98 0 0 98 0
0 98 0 0 98 0 98 98 0 98 98 0 98 98 0 97 97 0 0 97 0 0 97 0 0 97 0 0
97 0 0 97 0 0 97 0 0 97 0 0 97 0 97 97 0 96 96 0 96 96 0 96 96 0 96 96
0 96 96 0 0 96 0 96 96 0 96 96 0 96 96 0 95 95 0 95 95 0 95 95 0 95 95
0 0 95 0 0 95 0 0 95 0 0 95 0 0 95 0 0 94 0 0 94 0 0 94 0 94 94 0 94
94 0 94 94 0 0 94 0 0 94 0 0 93 0 0 93 0 93 93 0 93 93 0 93 93 0 93 93
0 93 93 0 93 93 0 92 92 0 0 92 0 0 92 0 0 92 0 0 92 0 0 92 0 0 92 0 0
91 0 91 91 0 0 91 0 0 91 0 0 91 0 0 91 0 0 91 0 0 91 0 0 90 0 90 90 0
90 90 0 90 90 0 90 90 0 90 90 0 90 90 0 89 89 0 89 89 0 0 89 0 0 89 0
0 89 0 89 89 0 89 89 0 88 88 0 88 88 0 0 88 0 0 88 0 0 88 0 0 88 0 0
88 0 0 88 0 0 87 0 87 87 0 87 87 0 87 87 0 87 87 0 87 87 0 87 87 0 86
86 0 0 86 0 86 86 0 86 86 0 86 86 0 86 86 0 86 86 0 85 85 0 85 85 0 0
85 0 0 85 0 0 85 0 0 85 0 0 85 0 0 84 0 0 84 0 84 84 0 84 84 0 84 84 0
84 84 0 0 84 0 0 84 0 0 83 0 0 83 0 83 83 0 83 83 0 83 83 0 83 83 0 83
83 0 82 82 0 82 82 0 0 82 0 0 82 0 0 82 0 0 82 0 0 82 0 0 82 0 0 81 0
81 81 0 0 81 0 0 81 0 0 81 0 0 81 0 0 81 0 0 80 0 0 80 0 80 80 0 80 80
0 80 80 0 80 80 0 80 80 0 80 80 0 79 79 0 0 79 0 0 79 0 0 79 0 0 79 0
79 79 0 79 79 0 79 79 0 78 78 0 0 78 0 0 78 0 0 78 0 0 78 0 0 78 0
0 101 0 0 101 0 101 101 0 102 102 0 102 102 0 102 102 0 102 102 0 102
102 0 102 102 0 102 102 0 0 102 0 0 102 0 0 102 0 0 102 0 0 102 0 0
102 0 0 102 0 0 102 0 0 102 0 0 102 0 0 102 0 0 102 0 0 102 0 0 102 0
0 102 0 102 102 0 102 102 0 102 102 0 102 102 0 102 102 0 102 102 0
102 102 0 0 102 0 0 103 0 0 103 0 0 103 0 103 103 0 103 103 0 103 103
0 103 103 0 0 103 0 0 102 0 0 102 0 0 102 0 0 102 0 0 102 0 0 102 0 0
102 0 102 102 0 102 102 0 102 102 0 102 102 0 102 102 0 102 102 0 0
102 0 102 102 0 102 102 0 102 102 0 102 102 0 102 102 0 102 102 0 102
102 0 102 102 0 0 102 0 0 102 0 0 102 0 0 102 0 0 102 0 0 102 0 0 102
0 102 102 0 101 101 0 101 101 0 0 101 0 0 101 0 0 101 0 0 101 0 0 101
0 101 101 0 101 101 0 101 101 0 101 101 0 101 101 0 101 101 0 101 101
0 0 101 0 0 100 0 0 100 0 0 100 0 0 100 0 0 100 0 0 100 0 100 100 0 0
100 0 0 100 0 0 100 0 0 100 0 0 99 0 0 99 0 0 99 0 99 99 0 99 99 0 99
99 0 99 99 0 99 99 0 99 99 0 99 99 0 98 98 0 0 98 0 0 98 0 0 98 0 98
98 0 98 98 0 98 98 0 98 98 0 98 98 0 0 97 0 0 97 0 0 97 0 0 97 0 0 97
0 0 97 0 0 97 0 97 97 0 97 97 0 96 96 0 96 96 0 96 96 0 96 96 0 96 96
0 0 96 0 96 96 0 96 96 0 95 95 0 95 95 0 95 95 0 95 95 0 95 95 0 0 95
0 0 95 0 0 94 0 0 94 0 0 94 0 0 94 0 0 94 0 0 94 0 94 94 0 94 94 0 93
93 0 0 93 0 0 93 0 0 93 0 0 93 0 93 93 0 93 93 0 92 92 0 92 92 0 92 92
0 92 92 0 92 92 0 92 92 0 0 92 0 0 92 0 0 91 0 0 91 0 0 91 0 0 91 0 0
91 0 0 91 0 0 91 0 0 90 0 0 90 0 0 90 0 0 90 0 0 90 0 0 90 0 90 90 0
89 89 0 89 89 0 89 89 0 89 89 0 89 89 0 89 89 0 89 89 0 0 88 0 0 88 0
0 88 0 88 88 0 88 88 0 88 88 0 88 88 0 0 87 0 0 87 0 0 87 0 0 87 0 0
87 0 0 87 0 0 87 0 0 86 0 86 86 0 86 86 0 86 86 0 86 86 0 86 86 0 86
86 0 85 85 0 85 85 0 85 85 0 85 85 0 85 85 0 85 85 0 85 85 0 84 84 0
84 84 0 0 84 0 0 84 0 0 84 0 0 84 0 0 84 0 0 83 0 0 83 0 83 83 0 83 83
0 83 83 0 83 83 0 0 83 0 0 83 0 0 82 0 0 82 0 82 82 0 82 82 0 82 82 0
82 82 0 82 82 0 81 81 0 81 81 0 0 81 0 0 81 0 0 81 0 0 81 0 0 81 0 0
81 0 0 80 0 80 80 0 0 80 0 0 80 0 0 80 0 0 80 0 0 80 0 0 79 0 0 79 0 0
79 0 79 79 0 79 79 0 79 79 0 79 79 0
0 103 0 0 103 0 0 103 0 0 103 0 0 103 0 104 104 0 104 104 0 104 104 0
0 104 0 0 104 0 0 104 0 0 104 0 0 104 0 104 104 0 104 104 0 104 104 0
104 104 0 104 104 0 104 104 0 104 104 0 104 104 0 0 104 0 0 104 0 0
104 0 0 104 0 0 104 0 0 104 0 104 104 0 0 104 0 0 104 0 0 104 0 0 104
0 0 104 0 0 104 0 0 104 0 0 104 0 104 104 0 104 104 0 104 104 0 104
104 0 104 104 0 104 104 0 104 104 0 104 104 0 0 104 0 0 104 0 104 104
0 104 104 0 104 104 0 104 104 0 104 104 0 0 104 0 0 104 0 0 104 0 0
104 0 0 104 0 0 104 0 0 104 0 0 104 0 104 104 0 104 104 0 104 104 0
104 104 0 104 104 0 103 103 0 0 103 0 0 103 0 103 103 0 103 103 0 103
103 0 103 103 0 103 103 0 103 103 0 103 103 0 103 103 0 0 103 0 0 103
0 0 103 0 0 103 0 0 103 0 0 102 0 0 102 0 102 102 0 102 102 0 102 102
0 0 102 0 0 102 0 0 102 0 0 102 0 0 102 0 102 102 0 102 102 0 101 101
0 101 101 0 101 101 0 101 101 0 101 101 0 101 101 0 0 101 0 0 101 0 0
101 0 0 101 0 0 100 0 0 100 0 100 100 0 100 100 0 0 100 0 0 100 0 0
100 0 0 100 0 0 100 0 0 99 0 0 99 0 99 99 0 99 99 0 99 99 0 99 99 0 99
99 0 99 99 0 98 98 0 98 98 0 0 98 0 0 98 0 98 98 0 98 98 0 98 98 0 98
98 0 98 98 0 97 97 0 0 97 0 0 97 0 0 97 0 0 97 0 0 97 0 0 97 0 0 96 0
96 96 0 96 96 0 96 96 0 96 96 0 96 96 0 96 96 0 96 96 0 0 95 0 95 95 0
95 95 0 95 95 0 95 95 0 95 95 0 95 95 0 94 94 0 94 94 0 0 94 0 0 94 0
0 94 0 0 94 0 0 94 0 0 93 0 0 93 0 0 93 0 93 93 0 93 93 0 0 93 0 0 93
0 0 92 0 0 92 0 0 92 0 92 92 0 92 92 0 92 92 0 92 92 0 91 91 0 91 91 0
91 91 0 91 91 0 0 91 0 0 91 0 0 91 0 0 90 0 0 90 0 0 90 0 90 90 0 90
90 0 0 90 0 0 90 0 0 89 0 0 89 0 0 89 0 0 89 0 0 89 0 0 89 0 89 89 0
88 88 0 88 88 0 88 88 0 88 88 0 88 88 0 88 88 0 0 88 0 0 87 0 0 87 0
87 87 0 87 87 0 87 87 0 87 87 0 87 87 0 0 86 0 0 86 0 0 86 0 0 86 0 0
86 0 0 86 0 0 86 0 0 85 0 85 85 0 85 85 0 85 85 0 85 85 0 85 85 0 85
85 0 0 84 0 84 84 0 84 84 0 84 84 0 84 84 0 84 84 0 84 84 0 83 83 0 83
83 0 0 83 0 0 83 0 0 83 0 0 83 0 0 83 0 0 82 0 0 82 0 0 82 0 82 82 0
82 82 0 0 82 0 0 82 0 0 82 0 0 81 0 0 81 0 0 81 0 81 81 0 81 81 0 81
81 0 81 81 0 80 80 0 80 80 0 80 80 0 0 80 0 0 80 0 0 80 0 0 80 0
105 105 0 105 105 0 105 105 0 105 105 0 105 105 0 105 105 0 105 105 0
105 105 0 0 105 0 0 106 0 0 106 0 0 106 0 0 106 0 0 106 0 0 106 0 0
106 0 106 106 0 0 106 0 0 106 0 0 106 0 0 106 0 0 106 0 0 106 0 0 106
0 106 106 0 106 106 0 106 106 0 106 106 0 106 106 0 106 106 0 106 106
0 106 106 0 0 106 0 0 106 0 0 106 0 0 106 0 0 106 0 106 106 0 106 106
0 106 106 0 0 106 0 0 106 0 0 106 0 0 106 0 0 106 0 0 106 0 0 106 0 0
106 0 106 106 0 106 106 0 106 106 0 106 106 0 106 106 0 106 106 0 106
106 0 106 106 0 0 106 0 105 105 0 105 105 0 105 105 0 105 105 0 105
105 0 105 105 0 105 105 0 0 105 0 0 105 0 0 105 0 0 105 0 0 105 0 0
105 0 0 105 0 105 105 0 105 105 0 105 105 0 104 104 0 104 104 0 0 104
0 0 104 0 0 104 0 104 104 0 104 104 0 104 104 0 104 104 0 104 104 0
104 104 0 104 104 0 103 103 0 0 103 0 0 103 0 0 103 0 0 103 0 0 103 0
0 103 0 0 103 0 0 103 0 103 103 0 0 103 0 0 102 0 0 102 0 0 102 0 0
102 0 0 102 0 0 102 0 102 102 0 102 102 0 102 102 0 101 101 0 101 101
0 101 101 0 101 101 0 101 101 0 0 101 0 0 101 0 0 101 0 0 100 0 0 100
0 100 100 0 100 100 0 100 100 0 0 100 0 0 100 0 0 100 0 0 99 0 0 99 0
0 99 0 0 99 0 0 99 0 99 99 0 99 99 0 99 99 0 98 98 0 98 98 0 98 98 0
98 98 0 98 98 0 0 98 0 98 98 0 97 97 0 97 97 0 97 97 0 97 97 0 97 97 0
97 97 0 0 97 0 0 97 0 0 96 0 0 96 0 0 96 0 0 96 0 0 96 0 96 96 0 96 96
0 95 95 0 95 95 0 95 95 0 95 95 0 0 95 0 0 95 0 94 94 0 94 94 0 94 94
0 94 94 0 94 94 0 94 94 0 94 94 0 93 93 0 0 93 0 0 93 0 0 93 0 0 93 0
0 93 0 0 93 0 0 92 0 0 92 0 92 92 0 0 92 0 0 92 0 0 92 0 0 92 0 0 91 0
0 91 0 0 91 0 91 91 0 91 91 0 91 91 0 91 91 0 90 90 0 90 90 0 90 90 0
90 90 0 0 90 0 0 90 0 0 89 0 0 89 0 0 89 0 89 89 0 89 89 0 89 89 0 0
89 0 0 88 0 0 88 0 0 88 0 0 88 0 0 88 0 0 88 0 0 88 0 87 87 0 87 87 0
87 87 0 87 87 0 87 87 0 87 87 0 87 87 0 86 86 0 0 86 0 86 86 0 86 86 0
86 86 0 86 86 0 86 86 0 85 85 0 85 85 0 0 85 0 0 85 0 0 85 0 0 85 0 0
85 0 0 84 0 0 84 0 84 84 0 84 84 0 84 84 0 84 84 0 84 84 0 83 83 0 0
83 0 0 83 0 83 83 0 83 83 0 83 83 0 83 83 0 82 82 0 82 82 0 82 82 0 82
82 0 0 82 0 0 82 0 0 82 0 0 82 0 0 81 0 0 81 0 0 81 0 0 81 0 81 81 0 0
81 0 0 81 0
0 107 0 0 107 0 0 107 0 0 107 0 107 107 0 107 107 0 107 107 0 0 107 0
0 107 0 0 107 0 0 107 0 0 107 0 107 107 0 107 107 0 108 108 0 108 108
0 108 108 0 108 108 0 108 108 0 108 108 0 0 108 0 0 108 0 0 108 0 0
108 0 0 108 0 0 108 0 0 108 0 108 108 0 0 108 0 0 108 0 0 108 0 0 108
0 0 108 0 0 108 0 0 108 0 0 108 0 108 108 0 108 108 0 108 108 0 108
108 0 108 108 0 108 108 0 108 108 0 108 108 0 0 108 0 0 108 0 0 108 0
108 108 0 107 107 0 107 107 0 107 107 0 107 107 0 0 107 0 0 107 0 0
107 0 0 107 0 0 107 0 0 107 0 0 107 0 0 107 0 107 107 0 107 107 0 107
107 0 107 107 0 107 107 0 107 107 0 107 107 0 0 107 0 106 106 0 106
106 0 106 106 0 106 106 0 106 106 0 106 106 0 106 106 0 106 106 0 0
106 0 0 106 0 0 106 0 0 106 0 0 106 0 0 105 0 0 105 0 0 105 0 105 105
0 105 105 0 105 105 0 0 105 0 0 105 0 0 105 0 0 105 0 0 104 0 104 104
0 104 104 0 104 104 0 104 104 0 104 104 0 104 104 0 104 104 0 104 104
0 104 104 0 0 103 0 0 103 0 0 103 0 0 103 0 0 103 0 0 103 0 0 103 0
103 103 0 0 102 0 0 102 0 0 102 0 0 102 0 0 102 0 0 102 0 0 102 0 0
102 0 101 101 0 101 101 0 101 101 0 101 101 0 101 101 0 101 101 0 101
101 0 101 101 0 0 100 0 0 100 0 0 100 0 100 100 0 100 100 0 100 100 0
100 100 0 99 99 0 0 99 0 0 99 0 0 99 0 0 99 0 0 99 0 0 99 0 0 98 0 0
98 0 98 98 0 98 98 0 98 98 0 98 98 0 98 98 0 97 97 0 97 97 0 0 97 0 97
97 0 97 97 0 97 97 0 97 97 0 96 96 0 96 96 0 96 96 0 96 96 0 0 96 0 0
96 0 0 96 0 0 95 0 0 95 0 0 95 0 0 95 0 0 95 0 95 95 0 94 94 0 94 94 0
0 94 0 0 94 0 0 94 0 0 94 0 0 94 0 93 93 0 93 93 0 93 93 0 93 93 0 93
93 0 93 93 0 93 93 0 92 92 0 0 92 0 0 92 0 0 92 0 0 92 0 0 92 0 0 91 0
0 91 0 91 91 0 0 91 0 0 91 0 0 91 0 0 91 0 0 90 0 0 90 0 0 90 0 0 90 0
90 90 0 90 90 0 89 89 0 89 89 0 89 89 0 89 89 0 89 89 0 89 89 0 89 89
0 0 88 0 0 88 0 0 88 0 88 88 0 88 88 0 88 88 0 88 88 0 87 87 0 0 87 0
0 87 0 0 87 0 0 87 0 0 87 0 0 87 0 0 86 0 0 86 0 86 86 0 86 86 0 86 86
0 86 86 0 86 86 0 85 85 0 85 85 0 0 85 0 85 85 0 85 85 0 85 85 0 85 85
0 84 84 0 84 84 0 84 84 0 84 84 0 0 84 0 0 84 0 0 84 0 0 83 0 0 83 0 0
83 0 0 83 0 0 83 0 83 83 0 83 83 0 82 82 0 0 82 0 0 82 0 0 82 0 0 82 0
0 82 0 82 82 0 82 82 0
109 109 0 109 109 0 109 109 0 109 109 0 109 109 0 109 109 0 109 109 0
0 109 0 0 109 0 0 109 0 0 109 0 0 109 0 0 109 0 0 109 0 0 109 0 0 109
0 0 109 0 0 109 0 0 109 0 0 109 0 0 109 0 0 109 0 0 109 0 0 109 0 109
109 0 110 110 0 110 110 0 110 110 0 110 110 0 110 110 0 110 110 0 110
110 0 0 109 0 0 109 0 0 109 0 0 109 0 0 109 0 109 109 0 109 109 0 109
109 0 0 109 0 0 109 0 0 109 0 0 109 0 0 109 0 0 109 0 0 109 0 0 109 0
0 109 0 109 109 0 109 109 0 109 109 0 109 109 0 109 109 0 109 109 0
109 109 0 109 109 0 109 109 0 109 109 0 109 109 0 109 109 0 108 108 0
108 108 0 108 108 0 108 108 0 0 108 0 0 108 0 0 108 0 0 108 0 0 108 0
0 108 0 0 108 0 0 108 0 108 108 0 108 108 0 107 107 0 107 107 0 107
107 0 0 107 0 0 107 0 0 107 0 0 107 0 107 107 0 107 107 0 107 107 0
107 107 0 106 106 0 106 106 0 106 106 0 106 106 0 0 106 0 0 106 0 0
106 0 0 106 0 0 106 0 0 106 0 0 105 0 0 105 0 0 105 0 0 105 0 0 105 0
0 105 0 0 105 0 0 105 0 0 104 0 0 104 0 104 104 0 104 104 0 104 104 0
104 104 0 104 104 0 104 104 0 103 103 0 103 103 0 103 103 0 0 103 0 0
103 0 0 103 0 0 103 0 103 103 0 102 102 0 102 102 0 102 102 0 0 102 0
0 102 0 0 102 0 0 102 0 0 101 0 0 101 0 0 101 0 0 101 0 101 101 0 101
101 0 101 101 0 100 100 0 100 100 0 100 100 0 100 100 0 100 100 0 0
100 0 100 100 0 99 99 0 99 99 0 99 99 0 99 99 0 99 99 0 99 99 0 99 99
0 0 98 0 0 98 0 0 98 0 0 98 0 0 98 0 0 98 0 0 97 0 0 97 0 97 97 0 97
97 0 97 97 0 97 97 0 0 97 0 0 96 0 0 96 0 0 96 0 96 96 0 96 96 0 96 96
0 95 95 0 95 95 0 95 95 0 95 95 0 95 95 0 0 95 0 0 95 0 0 94 0 0 94 0
0 94 0 0 94 0 0 94 0 0 94 0 0 93 0 0 93 0 0 93 0 0 93 0 0 93 0 0 93 0
0 93 0 0 92 0 0 92 0 92 92 0 92 92 0 92 92 0 92 92 0 91 91 0 91 91 0
91 91 0 91 91 0 0 91 0 0 91 0 0 91 0 0 90 0 0 90 0 90 90 0 90 90 0 90
90 0 0 90 0 0 89 0 0 89 0 0 89 0 0 89 0 0 89 0 0 89 0 0 89 0 0 88 0 88
88 0 88 88 0 88 88 0 88 88 0 88 88 0 88 88 0 87 87 0 87 87 0 87 87 0
87 87 0 87 87 0 87 87 0 87 87 0 86 86 0 86 86 0 86 86 0 0 86 0 0 86 0
0 86 0 0 85 0 0 85 0 0 85 0 0 85 0 0 85 0 85 85 0 85 85 0 85 85 0 84
84 0 84 84 0 0 84 0 0 84 0 0 84 0 0 84 0 84 84 0 83 83 0 83 83 0 83 83
0 83 83 0 83 83 0 83 83 0 83 83 0 0 82 0
0 111 0 0 111 0 0 111 0 111 111 0 0 111 0 0 111 0 0 111 0 0 111 0 0
111 0 0 111 0 0 111 0 111 111 0 111 111 0 111 111 0 111 111 0 111 111
0 111 111 0 111 111 0 111 111 0 111 111 0 0 111 0 0 111 0 0 111 0 0
111 0 0 111 0 111 111 0 111 111 0 111 111 0 0 111 0 0 111 0 0 111 0 0
111 0 0 111 0 0 111 0 0 111 0 0 111 0 0 111 0 111 111 0 111 111 0 111
111 0 111 111 0 111 111 0 111 111 0 111 111 0 111 111 0 0 111 0 111
111 0 111 111 0 111 111 0 111 111 0 111 111 0 111 111 0 111 111 0 0
111 0 0 110 0 0 110 0 0 110 0 0 110 0 0 110 0 0 110 0 0 110 0 0 110 0
110 110 0 110 110 0 110 110 0 110 110 0 110 110 0 0 110 0 0 110 0 0
109 0 109 109 0 109 109 0 109 109 0 109 109 0 109 109 0 109 109 0 109
109 0 109 109 0 109 109 0 0 109 0 0 109 0 0 108 0 0 108 0 0 108 0 0
108 0 0 108 0 0 108 0 108 108 0 0 108 0 0 108 0 0 107 0 0 107 0 0 107
0 0 107 0 0 107 0 0 107 0 107 107 0 107 107 0 107 107 0 106 106 0 106
106 0 106 106 0 106 106 0 106 106 0 0 106 0 0 106 0 0 106 0 0 105 0 0
105 0 105 105 0 105 105 0 105 105 0 0 105 0 0 105 0 0 105 0 0 104 0 0
104 0 0 104 0 0 104 0 0 104 0 0 104 0 104 104 0 103 103 0 103 103 0
103 103 0 103 103 0 103 103 0 103 103 0 103 103 0 0 102 0 0 102 0 102
102 0 102 102 0 102 102 0 102 102 0 102 102 0 101 101 0 101 101 0 0
101 0 0 101 0 0 101 0 0 101 0 0 100 0 0 100 0 0 100 0 0 100 0 100 100
0 100 100 0 100 100 0 99 99 0 99 99 0 99 99 0 0 99 0 0 99 0 0 99 0 98
98 0 98 98 0 98 98 0 98 98 0 98 98 0 98 98 0 98 98 0 97 97 0 0 97 0 0
97 0 0 97 0 0 97 0 0 97 0 0 96 0 0 96 0 0 96 0 96 96 0 96 96 0 0 96 0
0 95 0 0 95 0 0 95 0 0 95 0 0 95 0 0 95 0 95 95 0 94 94 0 94 94 0 94
94 0 94 94 0 94 94 0 94 94 0 93 93 0 0 93 0 0 93 0 0 93 0 0 93 0 0 93
0 0 92 0 92 92 0 92 92 0 92 92 0 0 92 0 0 92 0 0 92 0 0 91 0 0 91 0 0
91 0 0 91 0 0 91 0 91 91 0 90 90 0 90 90 0 90 90 0 90 90 0 90 90 0 90
90 0 90 90 0 0 89 0 0 89 0 89 89 0 89 89 0 89 89 0 89 89 0 89 89 0 88
88 0 88 88 0 0 88 0 0 88 0 0 88 0 0 88 0 0 87 0 0 87 0 0 87 0 0 87 0
87 87 0 87 87 0 87 87 0 86 86 0 86 86 0 86 86 0 0 86 0 0 86 0 0 86 0
86 86 0 85 85 0 85 85 0 85 85 0 85 85 0 85 85 0 85 85 0 85 85 0 0 84 0
0 84 0 0 84 0 0 84 0 0 84 0 0 84 0 0 84 0 0 83 0 0 83 0
112 112 0 112 112 0 113 113 0 113 113 0 113 113 0 113 113 0 113 113 0
0 113 0 0 113 0 0 113 0 0 113 0 0 113 0 0 113 0 113 113 0 113 113 0
113 113 0 0 113 0 0 113 0 0 113 0 0 113 0 0 113 0 0 113 0 0 113 0 0
113 0 113 113 0 113 113 0 113 113 0 113 113 0 113 113 0 113 113 0 113
113 0 113 113 0 113 113 0 0 113 0 0 113 0 113 113 0 113 113 0 113 113
0 113 113 0 113 113 0 113 113 0 113 113 0 0 113 0 0 113 0 0 113 0 0
113 0 0 112 0 0 112 0 0 112 0 0 112 0 112 112 0 112 112 0 112 112 0
112 112 0 112 112 0 112 112 0 0 112 0 0 112 0 0 112 0 112 112 0 112
112 0 112 112 0 112 112 0 111 111 0 111 111 0 111 111 0 111 111 0 0
111 0 0 111 0 0 111 0 0 111 0 0 111 0 0 111 0 0 111 0 0 111 0 0 110 0
110 110 0 110 110 0 0 110 0 0 110 0 0 110 0 0 110 0 0 110 0 0 110 0 0
110 0 109 109 0 109 109 0 109 109 0 109 109 0 109 109 0 109 109 0 109
109 0 109 109 0 0 109 0 0 108 0 0 108 0 0 108 0 0 108 0 0 108 0 108
108 0 108 108 0 108 108 0 0 107 0 0 107 0 0 107 0 0 107 0 0 107 0 0
107 0 0 107 0 0 107 0 106 106 0 106 106 0 106 106 0 106 106 0 106 106
0 106 106 0 106 106 0 105 105 0 105 105 0 0 105 0 105 105 0 105 105 0
105 105 0 105 105 0 104 104 0 104 104 0 104 104 0 0 104 0 0 104 0 0
104 0 0 104 0 0 103 0 0 103 0 0 103 0 0 103 0 0 103 0 103 103 0 102
102 0 102 102 0 102 102 0 102 102 0 102 102 0 0 102 0 0 102 0 0 101 0
101 101 0 101 101 0 101 101 0 101 101 0 101 101 0 100 100 0 100 100 0
100 100 0 0 100 0 0 100 0 0 100 0 0 99 0 0 99 0 0 99 0 0 99 0 0 99 0 0
99 0 98 98 0 0 98 0 0 98 0 0 98 0 0 98 0 0 98 0 0 98 0 0 97 0 97 97 0
97 97 0 97 97 0 97 97 0 97 97 0 96 96 0 96 96 0 96 96 0 96 96 0 0 96 0
0 96 0 0 95 0 0 95 0 0 95 0 0 95 0 95 95 0 95 95 0 94 94 0 0 94 0 0 94
0 0 94 0 0 94 0 0 94 0 0 94 0 0 93 0 0 93 0 93 93 0 93 93 0 93 93 0 93
93 0 92 92 0 92 92 0 92 92 0 92 92 0 92 92 0 0 92 0 91 91 0 91 91 0 91
91 0 91 91 0 91 91 0 91 91 0 91 91 0 0 90 0 0 90 0 0 90 0 0 90 0 0 90
0 0 90 0 0 89 0 0 89 0 0 89 0 89 89 0 89 89 0 89 89 0 89 89 0 88 88 0
88 88 0 0 88 0 0 88 0 0 88 0 88 88 0 88 88 0 87 87 0 87 87 0 87 87 0
87 87 0 87 87 0 87 87 0 0 86 0 0 86 0 0 86 0 0 86 0 0 86 0 0 86 0 0 86
0 0 85 0 0 85 0 85 85 0 0 85 0 0 85 0 0 85 0 0 85 0 0 84 0 0 84 0 0 84
0
114 114 0 114 114 0 114 114 0 0 114 0 0 114 0 0 114 0 0 114 0 0 114 0
0 115 0 0 115 0 0 115 0 0 115 0 115 115 0 115 115 0 115 115 0 115 115
0 115 115 0 115 115 0 115 115 0 115 115 0 0 115 0 0 115 0 115 115 0
115 115 0 115 115 0 115 115 0 115 115 0 115 115 0 115 115 0 0 115 0 0
115 0 0 115 0 0 115 0 0 115 0 0 115 0 0 115 0 0 114 0 0 114 0 114 114
0 114 114 0 114 114 0 114 114 0 114 114 0 114 114 0 0 114 0 0 114 0 0
114 0 114 114 0 114 114 0 114 114 0 114 114 0 114 114 0 114 114 0 114
114 0 114 114 0 114 114 0 0 114 0 0 113 0 0 113 0 0 113 0 0 113 0 0
113 0 0 113 0 0 113 0 113 113 0 113 113 0 0 113 0 0 113 0 0 113 0 0
112 0 0 112 0 0 112 0 0 112 0 112 112 0 112 112 0 112 112 0 112 112 0
112 112 0 112 112 0 112 112 0 111 111 0 111 111 0 0 111 0 0 111 0 0
111 0 0 111 0 0 111 0 0 111 0 111 111 0 110 110 0 110 110 0 0 110 0 0
110 0 0 110 0 0 110 0 0 110 0 0 110 0 0 109 0 0 109 0 109 109 0 109
109 0 109 109 0 109 109 0 109 109 0 109 109 0 108 108 0 108 108 0 108
108 0 0 108 0 0 108 0 108 108 0 108 108 0 107 107 0 107 107 0 107 107
0 107 107 0 107 107 0 0 107 0 0 107 0 0 106 0 0 106 0 0 106 0 0 106 0
0 106 0 0 106 0 0 105 0 105 105 0 105 105 0 105 105 0 105 105 0 105
105 0 0 105 0 0 104 0 0 104 0 104 104 0 104 104 0 104 104 0 104 104 0
103 103 0 103 103 0 103 103 0 103 103 0 103 103 0 0 103 0 0 103 0 0
102 0 0 102 0 0 102 0 0 102 0 0 102 0 0 102 0 0 101 0 101 101 0 0 101
0 0 101 0 0 101 0 0 101 0 0 100 0 0 100 0 0 100 0 0 100 0 100 100 0
100 100 0 99 99 0 99 99 0 99 99 0 99 99 0 99 99 0 99 99 0 98 98 0 0 98
0 0 98 0 0 98 0 0 98 0 0 98 0 97 97 0 97 97 0 97 97 0 0 97 0 0 97 0 0
97 0 0 96 0 0 96 0 0 96 0 0 96 0 0 96 0 0 96 0 96 96 0 95 95 0 95 95 0
95 95 0 95 95 0 95 95 0 95 95 0 94 94 0 94 94 0 0 94 0 94 94 0 94 94 0
94 94 0 93 93 0 93 93 0 93 93 0 93 93 0 93 93 0 0 93 0 0 92 0 0 92 0 0
92 0 0 92 0 0 92 0 0 92 0 0 92 0 91 91 0 91 91 0 91 91 0 91 91 0 91 91
0 91 91 0 0 90 0 0 90 0 0 90 0 90 90 0 90 90 0 90 90 0 89 89 0 89 89 0
89 89 0 89 89 0 89 89 0 89 89 0 0 89 0 0 88 0 0 88 0 0 88 0 0 88 0 0
88 0 0 88 0 0 88 0 0 87 0 87 87 0 0 87 0 0 87 0 0 87 0 0 87 0 0 87 0 0
86 0 0 86 0 86 86 0 86 86 0 86 86 0 86 86 0 86 86 0 85 85 0 85 85 0 85
85 0
116 116 0 116 116 0 116 116 0 116 116 0 116 116 0 116 116 0 116 116 0
116 116 0 116 116 0 116 116 0 116 116 0 116 116 0 116 116 0 116 116 0
116 116 0 116 116 0 116 116 0 0 116 0 0 116 0 0 116 0 0 116 0 0 116 0
0 116 0 0 116 0 0 116 0 0 116 0 116 116 0 116 116 0 116 116 0 116 116
0 116 116 0 0 116 0 0 116 0 0 116 0 116 116 0 116 116 0 116 116 0 116
116 0 116 116 0 116 116 0 116 116 0 116 116 0 116 116 0 0 116 0 0 116
0 0 116 0 0 116 0 0 116 0 0 116 0 0 116 0 0 115 0 0 115 0 115 115 0 0
115 0 0 115 0 0 115 0 0 115 0 0 115 0 0 115 0 0 115 0 0 115 0 115 115
0 115 115 0 115 115 0 114 114 0 114 114 0 114 114 0 114 114 0 114 114
0 114 114 0 0 114 0 0 114 0 0 114 0 0 114 0 0 113 0 113 113 0 113 113
0 113 113 0 113 113 0 0 113 0 0 113 0 0 113 0 0 113 0 0 113 0 0 112 0
0 112 0 0 112 0 0 112 0 112 112 0 112 112 0 112 112 0 112 112 0 111
111 0 111 111 0 111 111 0 111 111 0 111 111 0 0 111 0 111 111 0 111
111 0 110 110 0 110 110 0 110 110 0 110 110 0 110 110 0 110 110 0 0
110 0 0 109 0 0 109 0 0 109 0 0 109 0 0 109 0 0 109 0 0 109 0 0 108 0
108 108 0 108 108 0 108 108 0 108 108 0 108 108 0 0 107 0 0 107 0 0
107 0 0 107 0 107 107 0 107 107 0 107 107 0 106 106 0 106 106 0 106
106 0 106 106 0 106 106 0 106 106 0 0 105 0 0 105 0 0 105 0 0 105 0 0
105 0 0 105 0 0 104 0 0 104 0 0 104 0 0 104 0 0 104 0 0 104 0 0 104 0
0 103 0 0 103 0 0 103 0 0 103 0 0 103 0 103 103 0 102 102 0 102 102 0
102 102 0 102 102 0 102 102 0 102 102 0 101 101 0 101 101 0 0 101 0 0
101 0 0 101 0 0 101 0 0 100 0 100 100 0 100 100 0 100 100 0 100 100 0
0 100 0 0 99 0 0 99 0 0 99 0 0 99 0 0 99 0 0 99 0 0 98 0 0 98 0 98 98
0 98 98 0 98 98 0 98 98 0 97 97 0 97 97 0 97 97 0 97 97 0 0 97 0 97 97
0 96 96 0 96 96 0 96 96 0 96 96 0 96 96 0 96 96 0 95 95 0 0 95 0 0 95
0 0 95 0 0 95 0 0 95 0 0 94 0 0 94 0 0 94 0 0 94 0 94 94 0 94 94 0 93
93 0 93 93 0 93 93 0 93 93 0 0 93 0 0 93 0 0 92 0 92 92 0 92 92 0 92
92 0 92 92 0 92 92 0 92 92 0 91 91 0 91 91 0 91 91 0 0 91 0 0 91 0 0
91 0 0 90 0 0 90 0 0 90 0 0 90 0 0 90 0 0 90 0 89 89 0 0 89 0 0 89 0 0
89 0 0 89 0 0 89 0 0 89 0 0 88 0 0 88 0 88 88 0 88 88 0 88 88 0 88 88
0 88 88 0 87 87 0 87 87 0 87 87 0 87 87 0 0 87 0 0 87 0 0 87 0 0 86 0
0 86 0 86 86 0 86 86 0
118 118 0 118 118 0 118 118 0 118 118 0 0 118 0 0 118 0 0 118 0 0 118
0 0 118 0 0 118 0 0 118 0 0 118 0 0 118 0 118 118 0 118 118 0 118 118
0 118 118 0 0 118 0 0 118 0 0 118 0 0 118 0 0 118 0 118 118 0 118 118
0 118 118 0 118 118 0 118 118 0 118 118 0 118 118 0 118 118 0 118 118
0 0 118 0 0 118 0 0 118 0 0 118 0 0 118 0 0 118 0 0 118 0 0 118 0 0
118 0 0 118 0 0 118 0 0 117 0 0 117 0 0 117 0 0 117 0 0 117 0 0 117 0
0 117 0 117 117 0 117 117 0 117 117 0 117 117 0 117 117 0 117 117 0
117 117 0 117 117 0 117 117 0 0 116 0 0 116 0 0 116 0 0 116 0 116 116
0 116 116 0 116 116 0 116 116 0 116 116 0 0 116 0 0 116 0 0 115 0 0
115 0 0 115 0 0 115 0 0 115 0 0 115 0 0 115 0 0 115 0 115 115 0 114
114 0 114 114 0 114 114 0 114 114 0 114 114 0 114 114 0 114 114 0 0
114 0 114 114 0 113 113 0 113 113 0 113 113 0 113 113 0 113 113 0 113
113 0 113 113 0 113 113 0 0 112 0 0 112 0 0 112 0 0 112 0 0 112 0 0
112 0 0 112 0 0 111 0 0 111 0 111 111 0 111 111 0 111 111 0 111 111 0
0 111 0 0 110 0 0 110 0 0 110 0 0 110 0 110 110 0 110 110 0 109 109 0
109 109 0 109 109 0 109 109 0 109 109 0 109 109 0 109 109 0 0 108 0 0
108 0 0 108 0 0 108 0 0 108 0 0 108 0 0 107 0 0 107 0 0 107 0 0 107 0
0 107 0 0 107 0 0 106 0 0 106 0 0 106 0 0 106 0 0 106 0 0 106 0 105
105 0 105 105 0 105 105 0 105 105 0 105 105 0 105 105 0 104 104 0 104
104 0 104 104 0 0 104 0 0 104 0 0 104 0 0 103 0 103 103 0 103 103 0
103 103 0 103 103 0 103 103 0 102 102 0 0 102 0 0 102 0 0 102 0 0 102
0 0 102 0 0 101 0 0 101 0 0 101 0 0 101 0 101 101 0 101 101 0 100 100
0 100 100 0 100 100 0 100 100 0 100 100 0 100 100 0 0 99 0 99 99 0 99
99 0 99 99 0 99 99 0 99 99 0 98 98 0 98 98 0 98 98 0 98 98 0 0 98 0 0
98 0 0 97 0 0 97 0 0 97 0 0 97 0 0 97 0 0 97 0 0 96 0 96 96 0 96 96 0
96 96 0 96 96 0 0 96 0 0 95 0 0 95 0 0 95 0 0 95 0 95 95 0 95 95 0 94
94 0 94 94 0 94 94 0 94 94 0 94 94 0 94 94 0 93 93 0 0 93 0 0 93 0 0
93 0 0 93 0 0 93 0 0 92 0 0 92 0 0 92 0 0 92 0 0 92 0 0 92 0 0 91 0 0
91 0 0 91 0 0 91 0 0 91 0 0 91 0 0 91 0 90 90 0 90 90 0 90 90 0 90 90
0 90 90 0 90 90 0 89 89 0 89 89 0 89 89 0 89 89 0 0 89 0 0 89 0 0 89 0
0 88 0 88 88 0 88 88 0 88 88 0 88 88 0 88 88 0 0 88 0 0 87 0 0 87 0 0
87 0 0 87 0 0 87 0
120 120 0 120 120 0 0 120 0 0 120 0 0 120 0 0 120 0 0 120 0 0 120 0 0
120 0 120 120 0 120 120 0 120 120 0 120 120 0 120 120 0 120 120 0 120
120 0 120 120 0 120 120 0 0 120 0 0 120 0 0 120 0 0 120 0 0 120 0 0
120 0 0 120 0 120 120 0 120 120 0 0 120 0 0 120 0 0 120 0 0 120 0 0
120 0 0 120 0 0 119 0 0 119 0 0 119 0 0 119 0 119 119 0 119 119 0 119
119 0 119 119 0 119 119 0 119 119 0 119 119 0 119 119 0 119 119 0 0
119 0 0 119 0 119 119 0 119 119 0 119 119 0 118 118 0 118 118 0 118
118 0 118 118 0 0 118 0 0 118 0 0 118 0 0 118 0 0 118 0 0 118 0 0 118
0 0 118 0 0 117 0 0 117 0 117 117 0 117 117 0 117 117 0 117 117 0 117
117 0 117 117 0 117 117 0 0 117 0 0 116 0 116 116 0 116 116 0 116 116
0 116 116 0 116 116 0 116 116 0 116 116 0 116 116 0 115 115 0 0 115 0
0 115 0 0 115 0 0 115 0 0 115 0 0 115 0 0 114 0 0 114 0 0 114 0 114
114 0 114 114 0 114 114 0 0 114 0 0 114 0 0 113 0 0 113 0 0 113 0 0
113 0 0 113 0 113 113 0 113 113 0 112 112 0 112 112 0 112 112 0 112
112 0 112 112 0 112 112 0 111 111 0 0 111 0 0 111 0 0 111 0 0 111 0 0
111 0 0 111 0 0 110 0 110 110 0 110 110 0 0 110 0 0 110 0 0 110 0 0
109 0 0 109 0 0 109 0 0 109 0 0 109 0 0 109 0 0 108 0 108 108 0 108
108 0 108 108 0 108 108 0 108 108 0 107 107 0 107 107 0 107 107 0 107
107 0 0 107 0 0 107 0 106 106 0 106 106 0 106 106 0 106 106 0 106 106
0 106 106 0 105 105 0 0 105 0 0 105 0 0 105 0 0 105 0 0 105 0 0 104 0
0 104 0 0 104 0 0 104 0 104 104 0 104 104 0 103 103 0 103 103 0 103
103 0 103 103 0 103 103 0 0 102 0 0 102 0 0 102 0 102 102 0 102 102 0
102 102 0 101 101 0 101 101 0 101 101 0 101 101 0 101 101 0 101 101 0
0 100 0 0 100 0 0 100 0 0 100 0 0 100 0 0 100 0 0 99 0 0 99 0 0 99 0
99 99 0 99 99 0 99 99 0 0 98 0 0 98 0 0 98 0 0 98 0 0 98 0 0 97 0 0 97
0 97 97 0 97 97 0 97 97 0 97 97 0 96 96 0 96 96 0 96 96 0 96 96 0 96
96 0 0 96 0 0 95 0 0 95 0 0 95 0 0 95 0 0 95 0 0 95 0 94 94 0 94 94 0
0 94 0 0 94 0 0 94 0 0 94 0 0 94 0 0 93 0 0 93 0 0 93 0 0 93 0 93 93 0
93 93 0 92 92 0 92 92 0 92 92 0 92 92 0 92 92 0 92 92 0 91 91 0 91 91
0 0 91 0 0 91 0 91 91 0 91 91 0 90 90 0 90 90 0 90 90 0 90 90 0 90 90
0 0 90 0 0 90 0 0 89 0 0 89 0 0 89 0 0 89 0 0 89 0 0 89 0 0 89 0 88 88
0 88 88 0 88 88 0 88 88 0 88 88 0 88 88 0
121 121 0 121 121 0 121 121 0 121 121 0 121 121 0 0 121 0 0 121 0 0
121 0 0 121 0 0 121 0 121 121 0 121 121 0 121 121 0 121 121 0 0 121 0
0 121 0 0 121 0 0 121 0 0 121 0 0 121 0 0 121 0 0 121 0 0 121 0 0 121
0 121 121 0 121 121 0 121 121 0 121 121 0 121 121 0 121 121 0 121 121
0 121 121 0 121 121 0 0 121 0 121 121 0 121 121 0 121 121 0 121 121 0
121 121 0 121 121 0 121 121 0 121 121 0 121 121 0 0 121 0 0 120 0 0
120 0 0 120 0 0 120 0 0 120 0 0 120 0 0 120 0 0 120 0 120 120 0 120
120 0 120 120 0 120 120 0 120 120 0 0 119 0 0 119 0 0 119 0 0 119 0 0
119 0 119 119 0 119 119 0 119 119 0 119 119 0 119 119 0 119 119 0 118
118 0 118 118 0 118 118 0 0 118 0 0 118 0 0 118 0 0 118 0 0 118 0 0
117 0 0 117 0 0 117 0 0 117 0 0 117 0 0 117 0 0 117 0 0 117 0 0 116 0
0 116 0 0 116 0 0 116 0 0 116 0 0 116 0 116 116 0 116 116 0 115 115 0
115 115 0 115 115 0 115 115 0 115 115 0 115 115 0 115 115 0 114 114 0
0 114 0 0 114 0 0 114 0 0 114 0 0 114 0 113 113 0 113 113 0 113 113 0
113 113 0 0 113 0 0 113 0 0 113 0 0 112 0 0 112 0 0 112 0 0 112 0 0
112 0 0 112 0 0 111 0 111 111 0 111 111 0 111 111 0 111 111 0 111 111
0 110 110 0 110 110 0 110 110 0 110 110 0 110 110 0 110 110 0 109 109
0 109 109 0 109 109 0 109 109 0 109 109 0 109 109 0 108 108 0 0 108 0
0 108 0 0 108 0 0 108 0 0 108 0 0 107 0 0 107 0 0 107 0 0 107 0 0 107
0 106 106 0 106 106 0 106 106 0 106 106 0 106 106 0 0 106 0 0 105 0 0
105 0 0 105 0 105 105 0 105 105 0 105 105 0 104 104 0 104 104 0 104
104 0 104 104 0 104 104 0 103 103 0 103 103 0 0 103 0 0 103 0 0 103 0
0 103 0 0 102 0 0 102 0 0 102 0 0 102 0 0 102 0 0 102 0 0 101 0 0 101
0 0 101 0 0 101 0 0 101 0 0 101 0 0 100 0 0 100 0 0 100 0 100 100 0
100 100 0 99 99 0 99 99 0 99 99 0 99 99 0 99 99 0 99 99 0 98 98 0 0 98
0 0 98 0 0 98 0 0 98 0 0 98 0 97 97 0 97 97 0 97 97 0 97 97 0 97 97 0
0 97 0 0 96 0 0 96 0 0 96 0 0 96 0 0 96 0 0 96 0 0 95 0 0 95 0 95 95 0
95 95 0 95 95 0 95 95 0 94 94 0 94 94 0 94 94 0 94 94 0 94 94 0 94 94
0 93 93 0 93 93 0 93 93 0 93 93 0 93 93 0 93 93 0 92 92 0 92 92 0 92
92 0 0 92 0 0 92 0 0 92 0 0 92 0 0 91 0 0 91 0 0 91 0 0 91 0 0 91 0 91
91 0 90 90 0 90 90 0 90 90 0 90 90 0 0 90 0 0 90 0 0 90 0 0 89 0 0 89
0 89 89 0 89 89 0 89 89 0 89 89 0 88 88 0
123 123 0 0 123 0 0 123 0 0 123 0 0 123 0 0 123 0 0 123 0 0 123 0 0
123 0 0 123 0 0 123 0 123 123 0 123 123 0 123 123 0 123 123 0 123 123
0 123 123 0 123 123 0 0 123 0 0 123 0 123 123 0 123 123 0 123 123 0
123 123 0 123 123 0 123 123 0 123 123 0 123 123 0 123 123 0 123 123 0
0 123 0 0 123 0 0 123 0 0 123 0 0 123 0 0 123 0 0 122 0 0 122 0 0 122
0 0 122 0 122 122 0 122 122 0 0 122 0 0 122 0 0 122 0 0 122 0 0 122 0
0 122 0 0 122 0 122 122 0 122 122 0 121 121 0 121 121 0 121 121 0 121
121 0 121 121 0 121 121 0 121 121 0 121 121 0 0 121 0 0 121 0 0 121 0
0 120 0 0 120 0 0 120 0 0 120 0 120 120 0 120 120 0 120 120 0 0 120 0
0 120 0 0 119 0 0 119 0 0 119 0 0 119 0 0 119 0 0 119 0 0 119 0 119
119 0 118 118 0 118 118 0 118 118 0 118 118 0 118 118 0 118 118 0 118
118 0 118 118 0 117 117 0 0 117 0 0 117 0 117 117 0 117 117 0 117 117
0 117 117 0 116 116 0 116 116 0 116 116 0 0 116 0 0 116 0 0 116 0 0
115 0 0 115 0 0 115 0 0 115 0 0 115 0 0 115 0 0 115 0 114 114 0 114
114 0 114 114 0 114 114 0 114 114 0 114 114 0 113 113 0 0 113 0 0 113
0 0 113 0 113 113 0 113 113 0 112 112 0 112 112 0 112 112 0 112 112 0
112 112 0 112 112 0 111 111 0 0 111 0 0 111 0 0 111 0 0 111 0 0 111 0
0 110 0 0 110 0 0 110 0 0 110 0 0 110 0 109 109 0 109 109 0 0 109 0 0
109 0 0 109 0 0 109 0 0 108 0 0 108 0 0 108 0 0 108 0 108 108 0 108
108 0 107 107 0 107 107 0 107 107 0 107 107 0 107 107 0 106 106 0 106
106 0 0 106 0 0 106 0 0 106 0 0 106 0 0 105 0 0 105 0 0 105 0 105 105
0 105 105 0 105 105 0 0 104 0 0 104 0 0 104 0 0 104 0 0 104 0 0 103 0
0 103 0 0 103 0 0 103 0 0 103 0 103 103 0 102 102 0 102 102 0 102 102
0 102 102 0 102 102 0 101 101 0 101 101 0 101 101 0 0 101 0 0 101 0 0
101 0 100 100 0 100 100 0 100 100 0 100 100 0 100 100 0 100 100 0 99
99 0 0 99 0 0 99 0 0 99 0 0 99 0 0 99 0 0 98 0 0 98 0 0 98 0 0 98 0 98
98 0 97 97 0 97 97 0 97 97 0 97 97 0 97 97 0 97 97 0 96 96 0 0 96 0 0
96 0 96 96 0 96 96 0 96 96 0 95 95 0 95 95 0 95 95 0 95 95 0 95 95 0
95 95 0 94 94 0 0 94 0 0 94 0 0 94 0 0 94 0 0 94 0 0 93 0 0 93 0 0 93
0 0 93 0 93 93 0 93 93 0 93 93 0 0 92 0 0 92 0 0 92 0 0 92 0 0 92 0 0
92 0 0 91 0 91 91 0 91 91 0 91 91 0 91 91 0 91 91 0 90 90 0 90 90 0 90
90 0 90 90 0 90 90 0 0 90 0 0 90 0 0 89 0 0 89 0
125 125 0 0 125 0 0 125 0 0 125 0 0 125 0 0 125 0 0 125 0 125 125 0
125 125 0 125 125 0 125 125 0 125 125 0 125 125 0 125 125 0 125 125 0
125 125 0 125 125 0 0 125 0 0 125 0 0 125 0 0 125 0 0 125 0 0 125 0 0
125 0 0 125 0 0 125 0 125 125 0 0 124 0 0 124 0 0 124 0 0 124 0 0 124
0 0 124 0 0 124 0 0 124 0 0 124 0 124 124 0 124 124 0 124 124 0 124
124 0 124 124 0 124 124 0 124 124 0 124 124 0 124 124 0 123 123 0 0
123 0 0 123 0 0 123 0 0 123 0 123 123 0 123 123 0 123 123 0 123 123 0
123 123 0 123 123 0 0 122 0 0 122 0 0 122 0 0 122 0 0 122 0 0 122 0 0
122 0 0 122 0 0 122 0 0 122 0 121 121 0 121 121 0 121 121 0 121 121 0
121 121 0 121 121 0 121 121 0 121 121 0 120 120 0 0 120 0 120 120 0
120 120 0 120 120 0 120 120 0 120 120 0 120 120 0 119 119 0 119 119 0
119 119 0 119 119 0 0 119 0 0 119 0 0 119 0 0 118 0 0 118 0 0 118 0 0
118 0 0 118 0 0 118 0 117 117 0 117 117 0 117 117 0 117 117 0 0 117 0
0 117 0 0 117 0 0 116 0 0 116 0 0 116 0 116 116 0 116 116 0 116 116 0
115 115 0 115 115 0 115 115 0 115 115 0 115 115 0 115 115 0 114 114 0
0 114 0 0 114 0 0 114 0 0 114 0 0 114 0 0 113 0 0 113 0 0 113 0 0 113
0 113 113 0 0 113 0 0 112 0 0 112 0 0 112 0 0 112 0 0 112 0 0 111 0 0
111 0 0 111 0 0 111 0 111 111 0 111 111 0 110 110 0 110 110 0 110 110
0 110 110 0 110 110 0 109 109 0 109 109 0 0 109 0 0 109 0 0 109 0 0
109 0 108 108 0 108 108 0 108 108 0 108 108 0 108 108 0 107 107 0 0
107 0 0 107 0 0 107 0 0 107 0 0 107 0 0 106 0 0 106 0 0 106 0 0 106 0
0 106 0 105 105 0 105 105 0 105 105 0 105 105 0 105 105 0 105 105 0
104 104 0 104 104 0 104 104 0 0 104 0 104 104 0 104 104 0 103 103 0
103 103 0 103 103 0 103 103 0 103 103 0 102 102 0 102 102 0 102 102 0
0 102 0 0 102 0 0 102 0 0 101 0 0 101 0 0 101 0 0 101 0 0 101 0 0 100
0 100 100 0 100 100 0 100 100 0 100 100 0 100 100 0 0 99 0 0 99 0 0 99
0 0 99 0 0 99 0 99 99 0 98 98 0 98 98 0 98 98 0 98 98 0 98 98 0 98 98
0 97 97 0 97 97 0 97 97 0 0 97 0 0 97 0 0 96 0 0 96 0 0 96 0 0 96 0 0
96 0 0 96 0 0 95 0 95 95 0 0 95 0 0 95 0 0 95 0 0 95 0 0 94 0 0 94 0 0
94 0 0 94 0 0 94 0 0 94 0 94 94 0 93 93 0 93 93 0 93 93 0 93 93 0 93
93 0 93 93 0 92 92 0 92 92 0 0 92 0 0 92 0 0 92 0 0 92 0 0 91 0 91 91
0 91 91 0 91 91 0 91 91 0 91 91 0 0 91 0 0 90 0 0 90 0 0 90 0
126 126 0 126 126 0 126 126 0 0 126 0 0 126 0 0 126 0 0 126 0 0 126 0
0 126 0 126 126 0 126 126 0 126 126 0 126 126 0 0 126 0 0 126 0 0 126
0 0 126 0 0 126 0 0 126 0 0 126 0 0 126 0 0 126 0 0 126 0 126 126 0
126 126 0 126 126 0 126 126 0 126 126 0 126 126 0 126 126 0 126 126 0
126 126 0 126 126 0 0 126 0 126 126 0 126 126 0 126 126 0 125 125 0
125 125 0 125 125 0 125 125 0 125 125 0 125 125 0 0 125 0 0 125 0 0
125 0 0 125 0 0 125 0 0 125 0 0 125 0 0 124 0 0 124 0 0 124 0 124 124
0 124 124 0 124 124 0 124 124 0 124 124 0 124 124 0 0 124 0 0 123 0 0
123 0 0 123 0 123 123 0 123 123 0 123 123 0 123 123 0 123 123 0 123
123 0 122 122 0 122 122 0 122 122 0 122 122 0 0 122 0 0 122 0 0 122 0
0 121 0 0 121 0 0 121 0 0 121 0 0 121 0 0 121 0 0 121 0 121 121 0 0
120 0 0 120 0 0 120 0 0 120 0 0 120 0 0 120 0 0 119 0 0 119 0 0 119 0
119 119 0 119 119 0 119 119 0 119 119 0 118 118 0 118 118 0 118 118 0
118 118 0 118 118 0 118 118 0 0 117 0 0 117 0 0 117 0 0 117 0 0 117 0
0 117 0 116 116 0 116 116 0 116 116 0 116 116 0 0 116 0 0 116 0 0 115
0 0 115 0 0 115 0 0 115 0 0 115 0 0 115 0 0 114 0 0 114 0 114 114 0
114 114 0 114 114 0 113 113 0 113 113 0 113 113 0 113 113 0 113 113 0
113 113 0 112 112 0 0 112 0 112 112 0 112 112 0 112 112 0 111 111 0
111 111 0 111 111 0 111 111 0 111 111 0 111 111 0 0 110 0 0 110 0 0
110 0 0 110 0 0 110 0 0 109 0 0 109 0 0 109 0 0 109 0 0 109 0 109 109
0 108 108 0 108 108 0 108 108 0 108 108 0 108 108 0 0 107 0 0 107 0 0
107 0 0 107 0 107 107 0 106 106 0 106 106 0 106 106 0 106 106 0 106
106 0 106 106 0 105 105 0 105 105 0 105 105 0 0 105 0 0 105 0 0 104 0
0 104 0 0 104 0 0 104 0 0 104 0 0 104 0 0 103 0 0 103 0 103 103 0 0
103 0 0 103 0 0 102 0 0 102 0 0 102 0 0 102 0 0 102 0 0 102 0 0 101 0
101 101 0 101 101 0 101 101 0 101 101 0 100 100 0 100 100 0 100 100 0
100 100 0 100 100 0 100 100 0 0 99 0 0 99 0 0 99 0 0 99 0 0 99 0 0 99
0 98 98 0 98 98 0 98 98 0 98 98 0 0 98 0 0 98 0 0 97 0 0 97 0 0 97 0 0
97 0 0 97 0 0 97 0 0 96 0 0 96 0 96 96 0 96 96 0 96 96 0 96 96 0 95 95
0 95 95 0 95 95 0 95 95 0 95 95 0 95 95 0 94 94 0 94 94 0 94 94 0 94
94 0 94 94 0 94 94 0 93 93 0 93 93 0 93 93 0 93 93 0 0 93 0 0 93 0 0
92 0 0 92 0 0 92 0 0 92 0 0 92 0 0 92 0 0 91 0 0 91 0 91 91 0 91 91 0
91 91 0
0 128 0 0 128 0 0 128 0 0 128 0 0 128 0 0 128 0 0 128 0 0 128 0 0 128
0 0 128 0 128 128 0 128 128 0 128 128 0 128 128 0 128 128 0 128 128 0
128 128 0 0 128 0 0 128 0 0 128 0 128 128 0 128 128 0 128 128 0 128
128 0 128 128 0 128 128 0 128 128 0 128 128 0 128 128 0 127 127 0 0
127 0 0 127 0 0 127 0 0 127 0 0 127 0 0 127 0 0 127 0 0 127 0 0 127 0
0 127 0 127 127 0 127 127 0 0 127 0 0 127 0 0 126 0 0 126 0 0 126 0 0
126 0 0 126 0 0 126 0 126 126 0 126 126 0 126 126 0 126 126 0 125 125
0 125 125 0 125 125 0 125 125 0 125 125 0 125 125 0 125 125 0 0 125 0
0 125 0 0 124 0 0 124 0 0 124 0 0 124 0 124 124 0 124 124 0 124 124 0
124 124 0 0 123 0 0 123 0 0 123 0 0 123 0 0 123 0 0 123 0 0 123 0 0
122 0 0 122 0 0 122 0 122 122 0 122 122 0 122 122 0 122 122 0 121 121
0 121 121 0 121 121 0 121 121 0 121 121 0 121 121 0 0 121 0 0 120 0
120 120 0 120 120 0 120 120 0 120 120 0 120 120 0 119 119 0 119 119 0
119 119 0 0 119 0 0 119 0 0 119 0 0 118 0 0 118 0 0 118 0 0 118 0 0
118 0 0 118 0 0 117 0 117 117 0 117 117 0 117 117 0 117 117 0 116 116
0 116 116 0 116 116 0 0 116 0 0 116 0 0 116 0 115 115 0 115 115 0 115
115 0 115 115 0 115 115 0 115 115 0 114 114 0 114 114 0 114 114 0 114
114 0 114 114 0 0 113 0 0 113 0 0 113 0 0 113 0 0 113 0 0 112 0 0 112
0 0 112 0 0 112 0 0 112 0 112 112 0 0 111 0 0 111 0 0 111 0 0 111 0 0
111 0 0 110 0 0 110 0 0 110 0 0 110 0 110 110 0 109 109 0 109 109 0
109 109 0 109 109 0 109 109 0 109 109 0 108 108 0 108 108 0 108 108 0
0 108 0 0 108 0 0 107 0 0 107 0 0 107 0 0 107 0 0 107 0 107 107 0 106
106 0 106 106 0 0 106 0 0 106 0 0 106 0 0 105 0 0 105 0 0 105 0 0 105
0 0 105 0 0 104 0 0 104 0 104 104 0 104 104 0 104 104 0 104 104 0 103
103 0 103 103 0 103 103 0 103 103 0 103 103 0 102 102 0 102 102 0 0
102 0 102 102 0 102 102 0 102 102 0 101 101 0 101 101 0 101 101 0 101
101 0 101 101 0 100 100 0 0 100 0 0 100 0 0 100 0 0 100 0 0 100 0 0 99
0 0 99 0 0 99 0 0 99 0 0 99 0 99 99 0 98 98 0 98 98 0 98 98 0 98 98 0
98 98 0 98 98 0 0 97 0 0 97 0 0 97 0 97 97 0 97 97 0 97 97 0 96 96 0
96 96 0 96 96 0 96 96 0 96 96 0 95 95 0 95 95 0 0 95 0 0 95 0 0 95 0 0
95 0 0 95 0 0 94 0 0 94 0 0 94 0 0 94 0 0 94 0 94 94 0 93 93 0 0 93 0
0 93 0 0 93 0 0 93 0 0 93 0 0 92 0 0 92 0 0 92 0 92 92 0 92 92 0 92 92
0
0 130 0 0 130 0 0 130 0 0 130 0 0 130 0 0 130 0 130 130 0 130 130 0
130 130 0 130 130 0 130 130 0 130 130 0 130 130 0 130 130 0 130 130 0
130 130 0 130 130 0 0 130 0 0 130 0 0 129 0 0 129 0 0 129 0 0 129 0 0
129 0 129 129 0 129 129 0 129 129 0 0 129 0 0 129 0 0 129 0 0 129 0 0
129 0 0 129 0 0 129 0 0 129 0 0 129 0 0 129 0 128 128 0 128 128 0 128
128 0 128 128 0 128 128 0 128 128 0 128 128 0 128 128 0 128 128 0 128
128 0 128 128 0 0 127 0 0 127 0 127 127 0 127 127 0 127 127 0 127 127
0 127 127 0 127 127 0 127 127 0 127 127 0 0 126 0 0 126 0 0 126 0 0
126 0 0 126 0 0 126 0 0 126 0 0 126 0 0 125 0 0 125 0 125 125 0 125
125 0 125 125 0 125 125 0 125 125 0 124 124 0 124 124 0 124 124 0 0
124 0 0 124 0 0 124 0 124 124 0 123 123 0 123 123 0 123 123 0 123 123
0 123 123 0 123 123 0 123 123 0 122 122 0 122 122 0 0 122 0 0 122 0 0
122 0 0 122 0 0 121 0 0 121 0 0 121 0 0 121 0 0 121 0 0 121 0 120 120
0 120 120 0 0 120 0 0 120 0 0 120 0 0 120 0 0 119 0 0 119 0 0 119 0 0
119 0 0 119 0 118 118 0 118 118 0 118 118 0 118 118 0 118 118 0 118
118 0 117 117 0 117 117 0 117 117 0 117 117 0 0 117 0 0 116 0 0 116 0
0 116 0 0 116 0 0 116 0 0 116 0 115 115 0 115 115 0 115 115 0 0 115 0
0 115 0 0 114 0 0 114 0 0 114 0 0 114 0 0 114 0 0 114 0 0 113 0 0 113
0 0 113 0 113 113 0 113 113 0 112 112 0 112 112 0 112 112 0 112 112 0
112 112 0 111 111 0 111 111 0 111 111 0 0 111 0 0 111 0 110 110 0 110
110 0 110 110 0 110 110 0 110 110 0 110 110 0 109 109 0 109 109 0 0
109 0 0 109 0 0 109 0 0 108 0 0 108 0 0 108 0 0 108 0 0 108 0 0 107 0
0 107 0 107 107 0 107 107 0 107 107 0 106 106 0 106 106 0 106 106 0
106 106 0 106 106 0 0 106 0 0 105 0 0 105 0 105 105 0 105 105 0 105
105 0 104 104 0 104 104 0 104 104 0 104 104 0 104 104 0 104 104 0 103
103 0 0 103 0 0 103 0 0 103 0 0 103 0 0 102 0 0 102 0 0 102 0 0 102 0
0 102 0 0 102 0 101 101 0 101 101 0 101 101 0 0 101 0 0 101 0 0 100 0
0 100 0 0 100 0 0 100 0 0 100 0 0 100 0 99 99 0 99 99 0 99 99 0 99 99
0 99 99 0 99 99 0 98 98 0 98 98 0 98 98 0 98 98 0 0 98 0 0 97 0 0 97 0
0 97 0 0 97 0 0 97 0 0 97 0 0 96 0 96 96 0 96 96 0 0 96 0 0 96 0 0 96
0 0 95 0 0 95 0 0 95 0 0 95 0 0 95 0 0 95 0 0 94 0 0 94 0 94 94 0 94
94 0 94 94 0 94 94 0 94 94 0 93 93 0 93 93 0 93 93 0 93 93 0 93 93 0 0
93 0 0 92 0
131 131 0 131 131 0 131 131 0 0 131 0 0 131 0 131 131 0 131 131 0 131
131 0 131 131 0 131 131 0 131 131 0 131 131 0 131 131 0 0 131 0 0 131
0 0 131 0 0 131 0 0 131 0 0 131 0 0 131 0 0 131 0 0 131 0 0 131 0 0
131 0 131 131 0 131 131 0 131 131 0 131 131 0 131 131 0 130 130 0 130
130 0 130 130 0 0 130 0 0 130 0 130 130 0 130 130 0 130 130 0 130 130
0 130 130 0 130 130 0 130 130 0 130 130 0 129 129 0 129 129 0 129 129
0 0 129 0 0 129 0 0 129 0 0 129 0 0 129 0 0 129 0 0 129 0 0 128 0 0
128 0 0 128 0 128 128 0 128 128 0 128 128 0 0 128 0 0 128 0 0 127 0 0
127 0 0 127 0 0 127 0 0 127 0 0 127 0 127 127 0 127 127 0 126 126 0
126 126 0 126 126 0 126 126 0 126 126 0 126 126 0 126 126 0 125 125 0
0 125 0 0 125 0 0 125 0 0 125 0 0 125 0 0 125 0 0 124 0 0 124 0 124
124 0 124 124 0 124 124 0 0 124 0 0 123 0 0 123 0 0 123 0 0 123 0 0
123 0 0 123 0 0 122 0 0 122 0 0 122 0 122 122 0 122 122 0 122 122 0
121 121 0 121 121 0 121 121 0 121 121 0 121 121 0 120 120 0 120 120 0
120 120 0 0 120 0 0 120 0 120 120 0 119 119 0 119 119 0 119 119 0 119
119 0 119 119 0 118 118 0 118 118 0 0 118 0 0 118 0 0 118 0 0 118 0 0
117 0 0 117 0 0 117 0 0 117 0 0 117 0 0 116 0 0 116 0 116 116 0 116
116 0 116 116 0 115 115 0 115 115 0 115 115 0 115 115 0 115 115 0 0
115 0 0 114 0 114 114 0 114 114 0 114 114 0 114 114 0 113 113 0 113
113 0 113 113 0 113 113 0 113 113 0 112 112 0 112 112 0 0 112 0 0 112
0 0 112 0 0 111 0 0 111 0 0 111 0 0 111 0 0 111 0 0 110 0 0 110 0 110
110 0 110 110 0 110 110 0 0 110 0 0 109 0 0 109 0 0 109 0 0 109 0 0
109 0 0 108 0 0 108 0 108 108 0 108 108 0 108 108 0 107 107 0 107 107
0 107 107 0 107 107 0 107 107 0 106 106 0 106 106 0 0 106 0 0 106 0 0
106 0 0 106 0 0 105 0 0 105 0 0 105 0 0 105 0 105 105 0 104 104 0 104
104 0 0 104 0 0 104 0 0 104 0 0 103 0 0 103 0 0 103 0 0 103 0 0 103 0
0 103 0 0 102 0 102 102 0 102 102 0 102 102 0 102 102 0 101 101 0 101
101 0 101 101 0 101 101 0 101 101 0 101 101 0 100 100 0 0 100 0 0 100
0 100 100 0 100 100 0 100 100 0 99 99 0 99 99 0 99 99 0 99 99 0 99 99
0 0 98 0 0 98 0 0 98 0 0 98 0 0 98 0 0 98 0 0 97 0 0 97 0 0 97 0 0 97
0 0 97 0 97 97 0 96 96 0 96 96 0 96 96 0 96 96 0 96 96 0 96 96 0 95 95
0 0 95 0 0 95 0 95 95 0 95 95 0 95 95 0 94 94 0 94 94 0 94 94 0 94 94
0 94 94 0 94 94 0 93 93 0 93 93 0 0 93 0
0 133 0 0 133 0 0 133 0 0 133 0 0 133 0 0 133 0 0 133 0 0 133 0 0 133
0 0 133 0 133 133 0 133 133 0 0 133 0 0 133 0 0 133 0 0 133 0 0 133 0
0 133 0 0 133 0 0 133 0 0 133 0 132 132 0 132 132 0 132 132 0 132 132
0 132 132 0 132 132 0 132 132 0 132 132 0 132 132 0 132 132 0 0 132 0
0 132 0 0 132 0 0 132 0 0 131 0 0 131 0 0 131 0 0 131 0 131 131 0 131
131 0 131 131 0 0 131 0 0 131 0 0 131 0 0 131 0 0 130 0 0 130 0 0 130
0 0 130 0 0 130 0 0 130 0 0 130 0 130 130 0 130 130 0 129 129 0 129
129 0 129 129 0 129 129 0 129 129 0 129 129 0 129 129 0 129 129 0 0
128 0 0 128 0 0 128 0 128 128 0 128 128 0 128 128 0 128 128 0 127 127
0 127 127 0 127 127 0 127 127 0 0 127 0 0 127 0 0 127 0 0 126 0 0 126
0 0 126 0 0 126 0 0 126 0 0 126 0 0 125 0 0 125 0 125 125 0 125 125 0
125 125 0 125 125 0 124 124 0 124 124 0 124 124 0 0 124 0 0 124 0 0
124 0 123 123 0 123 123 0 123 123 0 123 123 0 123 123 0 122 122 0 122
122 0 122 122 0 122 122 0 122 122 0 122 122 0 0 121 0 0 121 0 0 121 0
0 121 0 0 121 0 0 120 0 0 120 0 0 120 0 0 120 0 0 120 0 0 120 0 119
119 0 119 119 0 0 119 0 0 119 0 0 119 0 0 118 0 0 118 0 0 118 0 0 118
0 0 118 0 117 117 0 117 117 0 117 117 0 117 117 0 117 117 0 116 116 0
116 116 0 116 116 0 116 116 0 116 116 0 116 116 0 0 115 0 0 115 0 0
115 0 0 115 0 0 115 0 0 114 0 0 114 0 0 114 0 114 114 0 114 114 0 113
113 0 0 113 0 0 113 0 0 113 0 0 113 0 0 112 0 0 112 0 0 112 0 0 112 0
0 112 0 0 111 0 111 111 0 111 111 0 111 111 0 111 111 0 110 110 0 110
110 0 110 110 0 110 110 0 110 110 0 109 109 0 109 109 0 0 109 0 0 109
0 109 109 0 108 108 0 108 108 0 108 108 0 108 108 0 108 108 0 108 108
0 107 107 0 107 107 0 0 107 0 0 107 0 0 107 0 0 106 0 0 106 0 0 106 0
0 106 0 0 106 0 0 105 0 0 105 0 105 105 0 105 105 0 105 105 0 104 104
0 104 104 0 104 104 0 104 104 0 104 104 0 0 104 0 0 103 0 0 103 0 103
103 0 103 103 0 103 103 0 102 102 0 102 102 0 102 102 0 102 102 0 102
102 0 102 102 0 101 101 0 101 101 0 0 101 0 0 101 0 0 101 0 0 100 0 0
100 0 0 100 0 0 100 0 0 100 0 0 100 0 0 99 0 99 99 0 99 99 0 99 99 0 0
99 0 0 99 0 0 98 0 0 98 0 0 98 0 0 98 0 0 98 0 0 98 0 97 97 0 97 97 0
97 97 0 97 97 0 97 97 0 97 97 0 96 96 0 96 96 0 96 96 0 96 96 0 96 96
0 0 96 0 0 95 0 0 95 0 0 95 0 0 95 0 0 95 0 0 95 0 0 94 0 94 94 0 94
94 0 0 94 0
0 135 0 0 135 0 0 135 0 0 135 0 0 135 0 0 135 0 0 135 0 135 135 0 134
134 0 134 134 0 134 134 0 134 134 0 134 134 0 134 134 0 134 134 0 134
134 0 134 134 0 0 134 0 0 134 0 0 134 0 134 134 0 134 134 0 134 134 0
134 134 0 134 134 0 134 134 0 134 134 0 134 134 0 0 133 0 0 133 0 0
133 0 0 133 0 0 133 0 0 133 0 0 133 0 0 133 0 0 133 0 0 133 0 0 133 0
133 133 0 132 132 0 132 132 0 132 132 0 132 132 0 132 132 0 132 132 0
132 132 0 0 132 0 0 132 0 0 131 0 131 131 0 131 131 0 131 131 0 131
131 0 131 131 0 131 131 0 131 131 0 130 130 0 130 130 0 130 130 0 130
130 0 0 130 0 0 130 0 0 130 0 0 130 0 0 129 0 0 129 0 0 129 0 0 129 0
0 129 0 0 129 0 0 128 0 128 128 0 128 128 0 0 128 0 0 128 0 0 128 0 0
128 0 0 127 0 0 127 0 0 127 0 0 127 0 127 127 0 127 127 0 126 126 0
126 126 0 126 126 0 126 126 0 126 126 0 126 126 0 125 125 0 125 125 0
125 125 0 0 125 0 0 125 0 0 124 0 0 124 0 0 124 0 0 124 0 0 124 0 0
124 0 123 123 0 123 123 0 123 123 0 0 123 0 0 123 0 0 122 0 0 122 0 0
122 0 0 122 0 0 122 0 0 122 0 0 121 0 0 121 0 0 121 0 121 121 0 121
121 0 120 120 0 120 120 0 120 120 0 120 120 0 120 120 0 119 119 0 119
119 0 119 119 0 119 119 0 0 119 0 0 118 0 118 118 0 118 118 0 118 118
0 118 118 0 117 117 0 117 117 0 117 117 0 117 117 0 117 117 0 0 116 0
0 116 0 0 116 0 0 116 0 0 116 0 0 115 0 0 115 0 0 115 0 0 115 0 0 115
0 0 114 0 114 114 0 114 114 0 114 114 0 114 114 0 113 113 0 113 113 0
113 113 0 0 113 0 0 113 0 0 113 0 112 112 0 112 112 0 112 112 0 112
112 0 112 112 0 111 111 0 111 111 0 111 111 0 111 111 0 111 111 0 110
110 0 0 110 0 0 110 0 0 110 0 0 110 0 0 109 0 0 109 0 0 109 0 0 109 0
0 109 0 0 108 0 0 108 0 108 108 0 108 108 0 0 108 0 0 107 0 0 107 0 0
107 0 0 107 0 0 107 0 0 106 0 0 106 0 0 106 0 106 106 0 106 106 0 106
106 0 105 105 0 105 105 0 105 105 0 105 105 0 105 105 0 104 104 0 104
104 0 104 104 0 0 104 0 0 104 0 0 103 0 0 103 0 0 103 0 0 103 0 0 103
0 103 103 0 102 102 0 102 102 0 102 102 0 0 102 0 0 102 0 0 101 0 0
101 0 0 101 0 0 101 0 0 101 0 0 101 0 0 100 0 0 100 0 100 100 0 100
100 0 100 100 0 100 100 0 99 99 0 99 99 0 99 99 0 99 99 0 99 99 0 98
98 0 98 98 0 0 98 0 0 98 0 98 98 0 98 98 0 97 97 0 97 97 0 97 97 0 97
97 0 97 97 0 97 97 0 96 96 0 0 96 0 0 96 0 0 96 0 0 96 0 0 96 0 0 95 0
0 95 0 0 95 0 0 95 0 0 95 0 0 95 0
0 136 0 0 136 0 0 136 0 136 136 0 136 136 0 136 136 0 136 136 0 136
136 0 136 136 0 136 136 0 136 136 0 136 136 0 136 136 0 136 136 0 0
136 0 0 136 0 0 136 0 0 136 0 0 136 0 0 136 0 0 135 0 0 135 0 0 135 0
0 135 0 0 135 0 135 135 0 135 135 0 0 135 0 0 135 0 0 135 0 0 135 0 0
135 0 0 135 0 0 134 0 0 134 0 0 134 0 134 134 0 134 134 0 134 134 0
134 134 0 134 134 0 134 134 0 134 134 0 133 133 0 133 133 0 133 133 0
133 133 0 0 133 0 0 133 0 0 133 0 0 133 0 0 133 0 0 132 0 0 132 0 132
132 0 132 132 0 132 132 0 132 132 0 0 132 0 0 131 0 0 131 0 0 131 0 0
131 0 0 131 0 0 131 0 0 131 0 0 130 0 0 130 0 0 130 0 130 130 0 130
130 0 130 130 0 130 130 0 129 129 0 129 129 0 129 129 0 129 129 0 129
129 0 129 129 0 128 128 0 0 128 0 0 128 0 128 128 0 128 128 0 128 128
0 127 127 0 127 127 0 127 127 0 127 127 0 127 127 0 126 126 0 0 126 0
0 126 0 0 126 0 0 126 0 0 126 0 0 125 0 0 125 0 0 125 0 0 125 0 0 125
0 0 124 0 124 124 0 124 124 0 124 124 0 124 124 0 124 124 0 123 123 0
123 123 0 0 123 0 0 123 0 0 123 0 0 122 0 122 122 0 122 122 0 122 122
0 122 122 0 121 121 0 121 121 0 121 121 0 121 121 0 121 121 0 120 120
0 120 120 0 0 120 0 0 120 0 0 120 0 0 119 0 0 119 0 0 119 0 0 119 0 0
119 0 0 118 0 0 118 0 0 118 0 118 118 0 118 118 0 0 117 0 0 117 0 0
117 0 0 117 0 0 117 0 0 116 0 0 116 0 0 116 0 0 116 0 116 116 0 115
115 0 115 115 0 115 115 0 115 115 0 115 115 0 114 114 0 114 114 0 114
114 0 114 114 0 114 114 0 0 113 0 0 113 0 0 113 0 0 113 0 0 113 0 0
112 0 0 112 0 112 112 0 112 112 0 112 112 0 111 111 0 0 111 0 0 111 0
0 111 0 0 111 0 0 110 0 0 110 0 0 110 0 0 110 0 0 110 0 0 109 0 0 109
0 109 109 0 109 109 0 109 109 0 108 108 0 108 108 0 108 108 0 108 108
0 108 108 0 107 107 0 107 107 0 107 107 0 0 107 0 0 107 0 107 107 0
106 106 0 106 106 0 106 106 0 106 106 0 106 106 0 105 105 0 105 105 0
105 105 0 0 105 0 0 105 0 0 104 0 0 104 0 0 104 0 0 104 0 0 104 0 0
104 0 0 103 0 0 103 0 0 103 0 0 103 0 103 103 0 102 102 0 102 102 0
102 102 0 102 102 0 102 102 0 0 102 0 0 101 0 0 101 0 0 101 0 0 101 0
101 101 0 100 100 0 100 100 0 100 100 0 100 100 0 100 100 0 100 100 0
99 99 0 99 99 0 99 99 0 99 99 0 0 99 0 0 99 0 0 98 0 0 98 0 0 98 0 0
98 0 0 98 0 0 98 0 0 97 0 0 97 0 0 97 0 97 97 0 0 97 0 0 97 0 0 96 0 0
96 0 0 96 0 0 96 0 0 96 0 0 96 0 0 95 0
0 138 0 0 138 0 0 138 0 0 138 0 0 138 0 0 138 0 138 138 0 138 138 0
138 138 0 137 137 0 137 137 0 0 137 0 0 137 0 0 137 0 0 137 0 0 137 0
0 137 0 0 137 0 0 137 0 0 137 0 0 137 0 0 137 0 137 137 0 137 137 0
137 137 0 137 137 0 136 136 0 136 136 0 136 136 0 136 136 0 136 136 0
136 136 0 136 136 0 0 136 0 136 136 0 136 136 0 136 136 0 135 135 0
135 135 0 135 135 0 135 135 0 135 135 0 135 135 0 135 135 0 135 135 0
0 135 0 0 134 0 0 134 0 0 134 0 0 134 0 0 134 0 0 134 0 0 134 0 0 134
0 0 133 0 0 133 0 133 133 0 133 133 0 133 133 0 133 133 0 133 133 0
132 132 0 0 132 0 0 132 0 0 132 0 0 132 0 0 132 0 131 131 0 131 131 0
131 131 0 131 131 0 131 131 0 131 131 0 131 131 0 130 130 0 130 130 0
130 130 0 130 130 0 0 130 0 0 130 0 0 129 0 0 129 0 0 129 0 0 129 0 0
129 0 0 128 0 0 128 0 0 128 0 0 128 0 128 128 0 0 128 0 0 127 0 0 127
0 0 127 0 0 127 0 0 127 0 0 126 0 0 126 0 0 126 0 0 126 0 0 126 0 126
126 0 125 125 0 125 125 0 125 125 0 125 125 0 125 125 0 124 124 0 124
124 0 124 124 0 124 124 0 124 124 0 0 123 0 0 123 0 0 123 0 0 123 0 0
123 0 0 122 0 122 122 0 122 122 0 122 122 0 122 122 0 121 121 0 0 121
0 0 121 0 0 121 0 0 121 0 0 120 0 0 120 0 0 120 0 0 120 0 0 120 0 0
119 0 0 119 0 119 119 0 119 119 0 119 119 0 118 118 0 118 118 0 118
118 0 118 118 0 118 118 0 117 117 0 117 117 0 117 117 0 0 117 0 117
117 0 116 116 0 116 116 0 116 116 0 116 116 0 115 115 0 115 115 0 115
115 0 115 115 0 115 115 0 0 114 0 0 114 0 0 114 0 0 114 0 0 114 0 0
113 0 0 113 0 0 113 0 0 113 0 0 113 0 0 112 0 0 112 0 112 112 0 112
112 0 112 112 0 111 111 0 111 111 0 111 111 0 0 111 0 0 111 0 0 110 0
0 110 0 0 110 0 110 110 0 110 110 0 109 109 0 109 109 0 109 109 0 109
109 0 109 109 0 109 109 0 108 108 0 108 108 0 108 108 0 0 108 0 0 108
0 0 107 0 0 107 0 0 107 0 0 107 0 0 107 0 0 106 0 0 106 0 0 106 0 0
106 0 106 106 0 0 105 0 0 105 0 0 105 0 0 105 0 0 105 0 0 105 0 0 104
0 0 104 0 0 104 0 0 104 0 104 104 0 103 103 0 103 103 0 103 103 0 103
103 0 103 103 0 102 102 0 102 102 0 102 102 0 102 102 0 102 102 0 102
102 0 0 101 0 0 101 0 0 101 0 0 101 0 0 101 0 0 101 0 100 100 0 100
100 0 100 100 0 100 100 0 100 100 0 0 99 0 0 99 0 0 99 0 0 99 0 0 99 0
0 99 0 0 98 0 0 98 0 0 98 0 0 98 0 0 98 0 98 98 0 97 97 0 97 97 0 97
97 0 97 97 0 97 97 0 97 97 0 96 96 0 96 96 0 96 96 0
0 139 0 0 139 0 0 139 0 0 139 0 0 139 0 0 139 0 0 139 0 0 139 0 139
139 0 139 139 0 139 139 0 139 139 0 0 139 0 0 139 0 0 139 0 0 139 0 0
139 0 0 139 0 0 138 0 138 138 0 138 138 0 138 138 0 138 138 0 138 138
0 138 138 0 138 138 0 138 138 0 138 138 0 138 138 0 138 138 0 137 137
0 0 137 0 0 137 0 0 137 0 0 137 0 0 137 0 0 137 0 0 137 0 0 137 0 0
137 0 0 136 0 136 136 0 0 136 0 0 136 0 0 136 0 0 136 0 0 136 0 0 136
0 0 135 0 0 135 0 0 135 0 0 135 0 0 135 0 135 135 0 135 135 0 134 134
0 134 134 0 134 134 0 134 134 0 134 134 0 134 134 0 134 134 0 133 133
0 133 133 0 133 133 0 0 133 0 0 133 0 0 133 0 0 133 0 132 132 0 132
132 0 132 132 0 132 132 0 132 132 0 132 132 0 131 131 0 0 131 0 0 131
0 0 131 0 0 131 0 0 130 0 0 130 0 0 130 0 0 130 0 0 130 0 0 130 0 0
129 0 129 129 0 129 129 0 129 129 0 129 129 0 128 128 0 128 128 0 128
128 0 128 128 0 128 128 0 128 128 0 127 127 0 0 127 0 127 127 0 127
127 0 127 127 0 126 126 0 126 126 0 126 126 0 126 126 0 126 126 0 125
125 0 125 125 0 125 125 0 0 125 0 0 125 0 0 124 0 0 124 0 0 124 0 0
124 0 0 124 0 0 123 0 0 123 0 0 123 0 0 123 0 123 123 0 122 122 0 122
122 0 122 122 0 122 122 0 0 122 0 0 121 0 0 121 0 0 121 0 0 121 0 0
121 0 0 120 0 120 120 0 120 120 0 120 120 0 119 119 0 119 119 0 119
119 0 119 119 0 119 119 0 118 118 0 118 118 0 118 118 0 0 118 0 0 118
0 0 117 0 0 117 0 0 117 0 0 117 0 0 117 0 0 116 0 0 116 0 0 116 0 0
116 0 116 116 0 0 115 0 0 115 0 0 115 0 0 115 0 0 115 0 0 114 0 0 114
0 0 114 0 0 114 0 0 114 0 0 113 0 113 113 0 113 113 0 113 113 0 113
113 0 112 112 0 112 112 0 112 112 0 112 112 0 111 111 0 111 111 0 111
111 0 0 111 0 0 111 0 0 110 0 0 110 0 0 110 0 110 110 0 110 110 0 110
110 0 109 109 0 109 109 0 109 109 0 109 109 0 0 109 0 0 108 0 0 108 0
0 108 0 0 108 0 0 108 0 0 107 0 0 107 0 0 107 0 0 107 0 0 107 0 106
106 0 106 106 0 106 106 0 106 106 0 106 106 0 105 105 0 105 105 0 105
105 0 105 105 0 105 105 0 0 105 0 104 104 0 104 104 0 104 104 0 104
104 0 104 104 0 103 103 0 103 103 0 103 103 0 103 103 0 103 103 0 103
103 0 102 102 0 0 102 0 0 102 0 0 102 0 0 102 0 0 101 0 0 101 0 0 101
0 0 101 0 0 101 0 0 101 0 0 100 0 100 100 0 100 100 0 100 100 0 100
100 0 100 100 0 0 99 0 0 99 0 0 99 0 0 99 0 0 99 0 0 98 0 98 98 0 98
98 0 98 98 0 98 98 0 98 98 0 97 97 0 97 97 0 97 97 0 97 97 0 97 97 0
0 141 0 0 141 0 0 141 0 0 141 0 0 141 0 141 141 0 141 141 0 141 141 0
140 140 0 140 140 0 140 140 0 140 140 0 140 140 0 140 140 0 140 140 0
140 140 0 0 140 0 0 140 0 0 140 0 140 140 0 140 140 0 140 140 0 140
140 0 139 139 0 139 139 0 139 139 0 139 139 0 139 139 0 0 139 0 0 139
0 0 139 0 0 139 0 0 139 0 0 139 0 0 138 0 0 138 0 0 138 0 0 138 0 0
138 0 138 138 0 138 138 0 138 138 0 137 137 0 137 137 0 137 137 0 137
137 0 137 137 0 137 137 0 0 137 0 0 137 0 0 136 0 136 136 0 136 136 0
136 136 0 136 136 0 136 136 0 136 136 0 135 135 0 135 135 0 135 135 0
135 135 0 135 135 0 0 135 0 0 134 0 0 134 0 0 134 0 0 134 0 0 134 0 0
134 0 0 133 0 0 133 0 0 133 0 0 133 0 0 133 0 133 133 0 132 132 0 132
132 0 0 132 0 0 132 0 0 132 0 0 132 0 0 131 0 0 131 0 0 131 0 0 131 0
131 131 0 130 130 0 130 130 0 130 130 0 130 130 0 130 130 0 130 130 0
129 129 0 129 129 0 129 129 0 129 129 0 129 129 0 0 128 0 0 128 0 0
128 0 0 128 0 0 128 0 0 127 0 0 127 0 0 127 0 0 127 0 127 127 0 126
126 0 126 126 0 0 126 0 0 126 0 0 126 0 0 125 0 0 125 0 0 125 0 0 125
0 0 125 0 0 124 0 0 124 0 0 124 0 124 124 0 123 123 0 123 123 0 123
123 0 123 123 0 123 123 0 122 122 0 122 122 0 122 122 0 122 122 0 122
122 0 121 121 0 0 121 0 0 121 0 0 121 0 121 121 0 120 120 0 120 120 0
120 120 0 120 120 0 120 120 0 119 119 0 119 119 0 0 119 0 0 119 0 0
118 0 0 118 0 0 118 0 0 118 0 0 118 0 0 117 0 0 117 0 0 117 0 0 117 0
0 117 0 116 116 0 116 116 0 116 116 0 116 116 0 116 116 0 115 115 0
115 115 0 115 115 0 0 115 0 0 115 0 0 114 0 114 114 0 114 114 0 114
114 0 114 114 0 113 113 0 113 113 0 113 113 0 113 113 0 113 113 0 112
112 0 112 112 0 112 112 0 0 112 0 0 112 0 0 111 0 0 111 0 0 111 0 0
111 0 0 111 0 0 110 0 0 110 0 0 110 0 0 110 0 110 110 0 109 109 0 109
109 0 0 109 0 0 109 0 0 109 0 0 108 0 0 108 0 0 108 0 0 108 0 0 108 0
0 107 0 107 107 0 107 107 0 107 107 0 107 107 0 106 106 0 106 106 0
106 106 0 106 106 0 106 106 0 105 105 0 105 105 0 0 105 0 0 105 0 0
105 0 0 105 0 0 104 0 0 104 0 0 104 0 0 104 0 0 104 0 103 103 0 103
103 0 103 103 0 0 103 0 0 103 0 0 103 0 0 102 0 0 102 0 0 102 0 0 102
0 0 102 0 0 101 0 0 101 0 0 101 0 101 101 0 101 101 0 101 101 0 100
100 0 100 100 0 100 100 0 100 100 0 100 100 0 100 100 0 99 99 0 99 99
0 99 99 0 0 99 0 0 99 0 0 99 0 98 98 0 98 98 0 98 98 0 98 98 0 98 98 0
98 98 0
0 142 0 0 142 0 142 142 0 142 142 0 142 142 0 142 142 0 142 142 0 142
142 0 142 142 0 142 142 0 142 142 0 142 142 0 142 142 0 0 142 0 0 142
0 0 141 0 0 141 0 0 141 0 0 141 0 0 141 0 0 141 0 0 141 0 0 141 0 0
141 0 0 141 0 141 141 0 0 141 0 0 140 0 0 140 0 0 140 0 0 140 0 0 140
0 0 140 0 0 140 0 0 140 0 0 140 0 0 139 0 139 139 0 139 139 0 139 139
0 139 139 0 139 139 0 139 139 0 139 139 0 138 138 0 138 138 0 138 138
0 138 138 0 0 138 0 0 138 0 0 138 0 0 137 0 0 137 0 0 137 0 0 137 0
137 137 0 137 137 0 137 137 0 136 136 0 136 136 0 0 136 0 0 136 0 0
136 0 0 136 0 0 135 0 0 135 0 0 135 0 0 135 0 0 135 0 0 135 0 0 134 0
0 134 0 134 134 0 134 134 0 134 134 0 134 134 0 133 133 0 133 133 0
133 133 0 133 133 0 133 133 0 132 132 0 132 132 0 0 132 0 132 132 0
132 132 0 131 131 0 131 131 0 131 131 0 131 131 0 131 131 0 131 131 0
130 130 0 130 130 0 130 130 0 0 130 0 0 130 0 0 129 0 0 129 0 0 129 0
0 129 0 0 129 0 0 128 0 0 128 0 0 128 0 0 128 0 0 128 0 127 127 0 127
127 0 127 127 0 127 127 0 126 126 0 126 126 0 126 126 0 0 126 0 0 126
0 0 125 0 0 125 0 0 125 0 125 125 0 125 125 0 124 124 0 124 124 0 124
124 0 124 124 0 124 124 0 123 123 0 123 123 0 123 123 0 123 123 0 0
123 0 0 122 0 0 122 0 0 122 0 220 0 0 219 0 0 219 0 0 219 0 0 219 0 0
0 121 0 0 120 0 0 120 0 120 120 0 0 120 0 0 120 0 0 119 0 0 119 0 0
119 0 0 119 0 0 119 0 0 118 0 0 118 0 0 118 0 0 118 0 117 117 0 117
117 0 117 117 0 117 117 0 117 117 0 116 116 0 116 116 0 116 116 0 116
116 0 116 116 0 115 115 0 0 115 0 0 115 0 0 115 0 0 115 0 0 114 0 0
114 0 0 114 0 114 114 0 114 114 0 113 113 0 113 113 0 113 113 0 0 113
0 0 112 0 0 112 0 0 112 0 0 112 0 0 112 0 0 111 0 0 111 0 0 111 0 0
111 0 0 111 0 0 110 0 110 110 0 110 110 0 110 110 0 110 110 0 109 109
0 109 109 0 109 109 0 109 109 0 109 109 0 109 109 0 108 108 0 108 108
0 108 108 0 108 108 0 108 108 0 107 107 0 107 107 0 107 107 0 107 107
0 107 107 0 106 106 0 106 106 0 106 106 0 0 106 0 0 106 0 0 105 0 0
105 0 0 105 0 0 105 0 0 105 0 0 105 0 0 104 0 0 104 0 0 104 0 0 104 0
104 104 0 103 103 0 103 103 0 103 103 0 103 103 0 103 103 0 103 103 0
0 102 0 0 102 0 0 102 0 0 102 0 0 102 0 101 101 0 101 101 0 101 101 0
101 101 0 101 101 0 101 101 0 100 100 0 100 100 0 100 100 0 100 100 0
100 100 0 0 100 0 0 99 0 0 99 0 0 99 0 0 99 0 0 99 0 0 99 0 0 98 0 0
98 0
0 144 0 0 144 0 0 144 0 144 144 0 144 144 0 144 144 0 143 143 0 143
143 0 143 143 0 143 143 0 0 143 0 0 143 0 0 143 0 0 143 0 0 143 0 0
143 0 0 143 0 0 143 0 0 143 0 0 143 0 0 142 0 0 142 0 142 142 0 142
142 0 142 142 0 142 142 0 142 142 0 142 142 0 142 142 0 142 142 0 141
141 0 141 141 0 141 141 0 0 141 0 141 141 0 141 141 0 141 141 0 141
141 0 140 140 0 140 140 0 140 140 0 140 140 0 140 140 0 140 140 0 140
140 0 140 140 0 0 139 0 0 139 0 0 139 0 0 139 0 0 139 0 0 139 0 0 138
0 0 138 0 0 138 0 0 138 0 0 138 0 0 138 0 138 138 0 137 137 0 137 137
0 137 137 0 0 137 0 0 137 0 0 137 0 0 136 0 0 136 0 0 136 0 0 136 0 0
136 0 136 136 0 135 135 0 135 135 0 135 135 0 135 135 0 135 135 0 134
134 0 134 134 0 134 134 0 134 134 0 134 134 0 133 133 0 0 133 0 0 133
0 0 133 0 0 133 0 0 133 0 0 132 0 0 132 0 0 132 0 0 132 0 0 132 0 131
131 0 0 131 0 0 131 0 0 131 0 0 131 0 0 130 0 0 130 0 0 130 0 0 130 0
0 130 0 0 129 0 0 129 0 0 129 0 129 129 0 128 128 0 128 128 0 128 128
0 128 128 0 128 128 0 127 127 0 127 127 0 127 127 0 127 127 0 127 127
0 126 126 0 0 126 0 0 126 0 0 126 0 0 126 0 0 125 0 125 125 0 125 125
0 125 125 0 124 124 0 124 124 0 124 124 0 124 124 0 0 124 0 0 123 0 0
123 0 0 123 0 0 123 0 220 0 0 220 0 0 219 0 0 219 0 0 219 0 0 218 0 0
218 0 0 218 0 0 218 0 0 217 0 0 217 0 0 217 0 0 217 0 0 216 0 0 120
120 0 119 119 0 119 119 0 0 119 0 0 119 0 118 118 0 118 118 0 118 118
0 118 118 0 118 118 0 117 117 0 117 117 0 117 117 0 117 117 0 117 117
0 116 116 0 116 116 0 0 116 0 0 116 0 0 116 0 0 115 0 0 115 0 0 115 0
0 115 0 0 115 0 0 114 0 0 114 0 0 114 0 0 114 0 113 113 0 113 113 0
113 113 0 113 113 0 0 113 0 0 112 0 0 112 0 0 112 0 0 112 0 0 112 0 0
111 0 111 111 0 111 111 0 111 111 0 111 111 0 110 110 0 110 110 0 110
110 0 110 110 0 110 110 0 109 109 0 109 109 0 109 109 0 0 109 0 0 109
0 0 108 0 0 108 0 0 108 0 0 108 0 0 108 0 0 108 0 0 107 0 0 107 0 0
107 0 107 107 0 0 107 0 0 106 0 0 106 0 0 106 0 0 106 0 0 106 0 0 105
0 0 105 0 0 105 0 0 105 0 0 105 0 0 105 0 104 104 0 104 104 0 104 104
0 104 104 0 104 104 0 103 103 0 103 103 0 103 103 0 103 103 0 103 103
0 103 103 0 102 102 0 0 102 0 0 102 0 0 102 0 0 102 0 101 101 0 101
101 0 101 101 0 101 101 0 101 101 0 101 101 0 100 100 0 100 100 0 0
100 0 0 100 0 0 100 0 0 100 0 0 99 0 0 99 0 0 99 0 0 99 0
0 145 0 0 145 0 0 145 0 0 145 0 0 145 0 0 145 0 0 145 0 145 145 0 145
145 0 0 145 0 0 145 0 0 145 0 0 144 0 0 144 0 0 144 0 0 144 0 0 144 0
0 144 0 0 144 0 144 144 0 144 144 0 144 144 0 144 144 0 143 143 0 143
143 0 143 143 0 143 143 0 143 143 0 143 143 0 143 143 0 143 143 0 0
143 0 0 142 0 0 142 0 0 142 0 0 142 0 0 142 0 0 142 0 0 142 0 142 142
0 141 141 0 141 141 0 141 141 0 0 141 0 0 141 0 0 141 0 0 141 0 0 140
0 0 140 0 0 140 0 0 140 0 0 140 0 0 140 0 0 139 0 0 139 0 139 139 0
139 139 0 139 139 0 139 139 0 139 139 0 138 138 0 138 138 0 138 138 0
138 138 0 138 138 0 137 137 0 137 137 0 0 137 0 0 137 0 137 137 0 137
137 0 136 136 0 136 136 0 136 136 0 136 136 0 136 136 0 135 135 0 135
135 0 135 135 0 135 135 0 0 135 0 0 134 0 0 134 0 0 134 0 0 134 0 0
134 0 0 134 0 0 133 0 0 133 0 0 133 0 0 133 0 0 133 0 132 132 0 132
132 0 132 132 0 132 132 0 131 131 0 131 131 0 131 131 0 0 131 0 0 131
0 0 130 0 0 130 0 0 130 0 130 130 0 130 130 0 129 129 0 129 129 0 129
129 0 129 129 0 129 129 0 128 128 0 128 128 0 128 128 0 128 128 0 127
127 0 0 127 0 0 127 0 0 127 0 0 127 0 0 126 0 0 126 0 0 126 0 0 126 0
0 126 0 0 125 0 0 125 0 0 125 0 125 125 0 124 124 0 0 124 0 0 124 0 0
124 0 0 124 0 220 0 0 220 0 0 219 0 0 219 0 0 219 0 0 219 0 0 218 0 0
218 0 0 218 0 0 218 0 0 217 0 0 217 0 0 217 0 0 217 0 0 216 0 0 216 0
0 216 0 0 215 0 0 215 0 0 215 0 0 215 0 0 214 0 0 0 119 0 0 118 0 0
118 0 0 118 0 118 118 0 118 118 0 117 117 0 117 117 0 0 117 0 0 117 0
0 117 0 0 116 0 0 116 0 0 116 0 0 116 0 0 115 0 0 115 0 0 115 0 0 115
0 0 115 0 114 114 0 114 114 0 114 114 0 114 114 0 114 114 0 113 113 0
113 113 0 113 113 0 113 113 0 113 113 0 112 112 0 112 112 0 0 112 0 0
112 0 112 112 0 111 111 0 111 111 0 111 111 0 111 111 0 111 111 0 110
110 0 110 110 0 110 110 0 110 110 0 0 110 0 0 109 0 0 109 0 0 109 0 0
109 0 0 109 0 0 108 0 0 108 0 0 108 0 0 108 0 0 108 0 0 107 0 107 107
0 107 107 0 107 107 0 107 107 0 107 107 0 106 106 0 106 106 0 106 106
0 0 106 0 0 106 0 0 105 0 0 105 0 105 105 0 105 105 0 105 105 0 104
104 0 104 104 0 104 104 0 104 104 0 104 104 0 104 104 0 103 103 0 103
103 0 103 103 0 0 103 0 0 103 0 0 102 0 0 102 0 0 102 0 0 102 0 0 102
0 0 102 0 0 101 0 0 101 0 0 101 0 0 101 0 101 101 0 101 101 0 0 100 0
0 100 0 0 100 0 0 100 0 0 100 0 0 100 0
0 147 0 0 147 0 0 146 0 0 146 0 146 146 0 146 146 0 146 146 0 146 146
0 146 146 0 146 146 0 146 146 0 146 146 0 146 146 0 146 146 0 146 146
0 0 146 0 145 145 0 145 145 0 145 145 0 145 145 0 145 145 0 145 145 0
145 145 0 145 145 0 145 145 0 145 145 0 144 144 0 144 144 0 144 144 0
0 144 0 0 144 0 0 144 0 0 144 0 0 144 0 0 143 0 0 143 0 0 143 0 0 143
0 0 143 0 0 143 0 0 143 0 142 142 0 142 142 0 142 142 0 142 142 0 142
142 0 0 142 0 0 142 0 0 141 0 0 141 0 0 141 0 0 141 0 0 141 0 141 141
0 140 140 0 140 140 0 140 140 0 140 140 0 140 140 0 140 140 0 139 139
0 139 139 0 139 139 0 139 139 0 139 139 0 0 139 0 0 138 0 0 138 0 0
138 0 0 138 0 0 138 0 0 137 0 0 137 0 0 137 0 0 137 0 0 137 0 136 136
0 136 136 0 0 136 0 0 136 0 0 136 0 0 135 0 0 135 0 0 135 0 0 135 0 0
135 0 0 134 0 0 134 0 0 134 0 0 134 0 134 134 0 133 133 0 133 133 0
133 133 0 133 133 0 133 133 0 132 132 0 132 132 0 132 132 0 132 132 0
132 132 0 131 131 0 0 131 0 0 131 0 0 131 0 0 131 0 0 130 0 130 130 0
130 130 0 130 130 0 129 129 0 129 129 0 129 129 0 129 129 0 0 129 0 0
128 0 0 128 0 0 128 0 0 128 0 0 128 0 0 127 0 0 127 0 0 127 0 0 127 0
0 126 0 0 126 0 126 126 0 126 126 0 126 126 0 125 125 0 125 125 0 125
125 0 125 125 0 220 0 0 220 0 0 220 0 0 220 0 0 219 0 0 219 0 0 219 0
0 219 0 0 218 0 0 218 0 0 218 0 0 217 0 0 217 0 0 217 0 0 217 0 0 216
0 0 216 0 0 216 0 0 216 0 0 215 0 0 215 0 0 215 0 0 215 0 0 214 0 0
214 0 0 214 0 0 214 0 0 213 0 0 213 0 0 213 0 0 213 0 0 212 0 0 118
118 0 117 117 0 117 117 0 0 117 0 0 117 0 0 116 0 0 116 0 0 116 0 0
116 0 0 116 0 115 115 0 115 115 0 115 115 0 115 115 0 115 115 0 114
114 0 114 114 0 114 114 0 114 114 0 114 114 0 113 113 0 113 113 0 113
113 0 0 113 0 0 113 0 0 112 0 0 112 0 0 112 0 0 112 0 0 112 0 0 111 0
0 111 0 0 111 0 0 111 0 111 111 0 0 110 0 0 110 0 0 110 0 0 110 0 0
110 0 0 109 0 0 109 0 0 109 0 0 109 0 0 109 0 0 108 0 0 108 0 108 108
0 108 108 0 108 108 0 107 107 0 107 107 0 107 107 0 107 107 0 107 107
0 106 106 0 106 106 0 106 106 0 106 106 0 0 106 0 0 106 0 0 105 0 0
105 0 0 105 0 105 105 0 105 105 0 104 104 0 104 104 0 104 104 0 104
104 0 104 104 0 0 104 0 0 103 0 0 103 0 0 103 0 0 103 0 0 103 0 0 102
0 0 102 0 0 102 0 0 102 0 0 102 0 0 102 0 0 101 0 101 101 0 101 101 0
101 101 0 101 101 0 101 101 0 100 100 0 100 100 0
0 148 0 148 148 0 148 148 0 148 148 0 148 148 0 148 148 0 148 148 0
147 147 0 147 147 0 147 147 0 147 147 0 147 147 0 147 147 0 147 147 0
0 147 0 0 147 0 0 147 0 0 147 0 0 147 0 0 146 0 0 146 0 0 146 0 146
146 0 146 146 0 146 146 0 146 146 0 0 146 0 0 146 0 0 145 0 0 145 0 0
145 0 0 145 0 0 145 0 0 145 0 0 145 0 0 144 0 0 144 0 0 144 0 144 144
0 144 144 0 144 144 0 144 144 0 143 143 0 143 143 0 143 143 0 143 143
0 143 143 0 143 143 0 143 143 0 142 142 0 142 142 0 0 142 0 0 142 0
142 142 0 142 142 0 141 141 0 141 141 0 141 141 0 141 141 0 141 141 0
140 140 0 140 140 0 140 140 0 0 140 0 0 140 0 0 140 0 0 139 0 0 139 0
0 139 0 0 139 0 0 139 0 0 138 0 0 138 0 0 138 0 0 138 0 0 138 0 137
137 0 137 137 0 137 137 0 137 137 0 137 137 0 136 136 0 136 136 0 136
136 0 0 136 0 0 136 0 0 135 0 0 135 0 135 135 0 135 135 0 135 135 0
134 134 0 134 134 0 134 134 0 134 134 0 134 134 0 133 133 0 133 133 0
133 133 0 133 133 0 0 133 0 0 132 0 0 132 0 0 132 0 0 132 0 0 131 0 0
131 0 0 131 0 0 131 0 0 131 0 0 130 0 0 130 0 0 130 0 130 130 0 129
129 0 0 129 0 0 129 0 0 129 0 0 129 0 0 128 0 0 128 0 0 128 0 0 128 0
0 127 0 0 127 0 127 127 0 127 127 0 127 127 0 126 126 0 126 126 0 126
126 0 126 126 0 125 125 0 221 0 0 220 0 0 220 0 0 220 0 0 219 0 0 219
0 0 219 0 0 219 0 0 218 0 0 218 0 0 218 0 0 218 0 0 217 0 0 217 0 0
217 0 0 217 0 0 216 0 0 216 0 0 216 0 0 215 0 0 215 0 0 215 0 0 215 0
0 214 0 0 214 0 0 214 0 0 214 0 0 213 0 0 213 0 0 213 0 0 213 0 0 212
0 0 212 0 0 212 0 0 212 0 0 211 0 0 211 0 0 211 0 0 211 0 0 210 0 0
117 117 0 116 116 0 0 116 0 0 116 0 116 116 0 116 116 0 115 115 0 115
115 0 115 115 0 115 115 0 114 114 0 114 114 0 114 114 0 114 114 0 0
114 0 0 113 0 0 113 0 0 113 0 0 113 0 0 113 0 0 112 0 0 112 0 0 112 0
0 112 0 0 112 0 0 111 0 0 111 0 111 111 0 111 111 0 111 111 0 110 110
0 110 110 0 110 110 0 110 110 0 110 110 0 0 109 0 0 109 0 0 109 0 0
109 0 109 109 0 108 108 0 108 108 0 108 108 0 108 108 0 108 108 0 108
108 0 107 107 0 107 107 0 107 107 0 107 107 0 107 107 0 0 106 0 0 106
0 0 106 0 0 106 0 0 106 0 0 105 0 0 105 0 0 105 0 0 105 0 0 105 0 0
105 0 0 104 0 0 104 0 104 104 0 104 104 0 0 104 0 0 103 0 0 103 0 0
103 0 0 103 0 0 103 0 0 103 0 0 102 0 0 102 0 0 102 0 102 102 0 102
102 0 102 102 0 101 101 0 101 101 0 101 101 0 101 101 0
149 149 0 149 149 0 149 149 0 149 149 0 149 149 0 149 149 0 149 149 0
149 149 0 149 149 0 149 149 0 149 149 0 0 148 0 0 148 0 0 148 0 0 148
0 0 148 0 0 148 0 0 148 0 0 148 0 0 148 0 0 148 0 0 147 0 0 147 0 147
147 0 147 147 0 147 147 0 147 147 0 147 147 0 0 147 0 0 146 0 0 146 0
0 146 0 0 146 0 0 146 0 0 146 0 0 146 0 145 145 0 145 145 0 145 145 0
145 145 0 145 145 0 145 145 0 145 145 0 144 144 0 144 144 0 144 144 0
144 144 0 144 144 0 0 144 0 0 143 0 0 143 0 0 143 0 0 143 0 0 143 0 0
143 0 0 142 0 0 142 0 0 142 0 0 142 0 142 142 0 142 142 0 0 141 0 0
141 0 0 141 0 0 141 0 0 141 0 0 140 0 0 140 0 0 140 0 0 140 0 0 140 0
0 139 0 0 139 0 0 139 0 139 139 0 139 139 0 138 138 0 138 138 0 138
138 0 138 138 0 138 138 0 137 137 0 137 137 0 137 137 0 137 137 0 137
137 0 0 136 0 0 136 0 0 136 0 0 136 0 0 136 0 135 135 0 135 135 0 135
135 0 135 135 0 134 134 0 134 134 0 134 134 0 134 134 0 0 134 0 0 133
0 0 133 0 0 133 0 0 133 0 0 133 0 0 132 0 0 132 0 0 132 0 0 132 0 0
131 0 0 131 0 131 131 0 131 131 0 131 131 0 130 130 0 130 130 0 130
130 0 130 130 0 129 129 0 129 129 0 129 129 0 129 129 0 0 129 0 0 128
0 128 128 0 128 128 0 128 128 0 127 127 0 127 127 0 127 127 0 127 127
0 127 127 0 221 0 0 221 0 0 220 0 0 220 0 0 220 0 0 220 0 0 219 0 0
219 0 0 219 0 0 219 0 0 218 0 0 218 0 0 218 0 0 217 0 0 217 0 0 217 0
0 217 0 0 216 0 0 216 0 0 216 0 0 216 0 0 215 0 0 215 0 0 215 0 0 215
0 0 214 0 0 214 0 0 214 0 0 214 0 0 213 0 0 213 0 0 213 0 0 213 0 0
212 0 0 212 0 0 212 0 0 212 0 0 211 0 0 211 0 0 211 0 0 211 0 0 210 0
0 210 0 0 210 0 0 0 117 0 0 116 0 0 116 0 0 116 0 0 116 0 0 116 0 0
115 0 0 115 0 0 115 0 115 115 0 115 115 0 0 114 0 0 114 0 0 114 0 0
114 0 0 114 0 0 113 0 0 113 0 0 113 0 0 113 0 0 113 0 0 112 0 0 112 0
112 112 0 112 112 0 112 112 0 111 111 0 111 111 0 111 111 0 111 111 0
111 111 0 110 110 0 110 110 0 110 110 0 110 110 0 110 110 0 0 109 0 0
109 0 0 109 0 0 109 0 109 109 0 108 108 0 108 108 0 108 108 0 108 108
0 108 108 0 107 107 0 107 107 0 0 107 0 0 107 0 0 107 0 0 107 0 0 106
0 0 106 0 0 106 0 0 106 0 0 106 0 0 105 0 0 105 0 0 105 0 0 105 0 105
105 0 105 105 0 104 104 0 104 104 0 104 104 0 104 104 0 104 104 0 103
103 0 103 103 0 103 103 0 103 103 0 0 103 0 0 103 0 102 102 0 102 102
0 102 102 0 102 102 0 102 102 0 102 102 0
0 151 0 0 151 0 151 151 0 150 150 0 150 150 0 150 150 0 150 150 0 150
150 0 0 150 0 0 150 0 0 150 0 0 150 0 0 150 0 0 150 0 0 149 0 0 149 0
0 149 0 0 149 0 0 149 0 0 149 0 0 149 0 149 149 0 149 149 0 148 148 0
148 148 0 148 148 0 148 148 0 148 148 0 148 148 0 148 148 0 147 147 0
147 147 0 147 147 0 0 147 0 147 147 0 147 147 0 147 147 0 146 146 0
146 146 0 146 146 0 146 146 0 146 146 0 146 146 0 146 146 0 145 145 0
145 145 0 0 145 0 0 145 0 0 145 0 0 145 0 0 144 0 0 144 0 0 144 0 0
144 0 0 144 0 0 143 0 0 143 0 0 143 0 0 143 0 143 143 0 143 143 0 142
142 0 142 142 0 142 142 0 142 142 0 142 142 0 0 141 0 0 141 0 0 141 0
0 141 0 0 141 0 0 140 0 140 140 0 140 140 0 140 140 0 140 140 0 139
139 0 139 139 0 139 139 0 139 139 0 139 139 0 138 138 0 138 138 0 138
138 0 0 138 0 0 138 0 0 137 0 0 137 0 0 137 0 0 137 0 0 136 0 0 136 0
0 136 0 0 136 0 0 136 0 0 135 0 0 135 0 135 135 0 0 135 0 0 134 0 0
134 0 0 134 0 0 134 0 0 134 0 0 133 0 0 133 0 0 133 0 0 133 0 0 132 0
0 132 0 132 132 0 132 132 0 132 132 0 131 131 0 131 131 0 131 131 0
131 131 0 130 130 0 130 130 0 130 130 0 130 130 0 130 130 0 129 129 0
0 129 0 0 129 0 0 129 0 0 128 0 0 128 0 0 128 0 0 128 0 128 128 0 127
127 0 221 0 0 221 0 0 221 0 0 220 0 0 220 0 0 220 0 0 219 0 0 219 0 0
219 0 0 219 0 0 218 0 0 218 0 0 218 0 0 218 0 0 217 0 0 217 0 0 217 0
0 217 0 0 216 0 0 216 0 0 216 0 0 216 0 0 215 0 0 215 0 0 215 0 0 214
0 0 214 0 0 214 0 0 214 0 0 213 0 0 213 0 0 213 0 0 213 0 0 212 0 0
212 0 0 212 0 0 212 0 0 211 0 0 211 0 0 211 0 0 211 0 0 211 0 0 210 0
0 48 0 0 0 117 0 0 117 0 0 117 0 0 117 0 0 117 0 0 116 0 0 116 0 0 116
0 0 116 0 0 116 0 115 115 0 115 115 0 115 115 0 115 115 0 114 114 0
114 114 0 114 114 0 0 114 0 0 114 0 0 113 0 0 113 0 0 113 0 0 113 0
113 113 0 112 112 0 112 112 0 112 112 0 112 112 0 112 112 0 111 111 0
111 111 0 111 111 0 111 111 0 111 111 0 110 110 0 110 110 0 0 110 0 0
110 0 0 110 0 0 109 0 0 109 0 0 109 0 0 109 0 0 109 0 0 108 0 0 108 0
0 108 0 0 108 0 0 108 0 0 108 0 0 107 0 0 107 0 0 107 0 0 107 0 0 107
0 0 106 0 0 106 0 0 106 0 0 106 0 0 106 0 0 106 0 105 105 0 105 105 0
105 105 0 105 105 0 105 105 0 104 104 0 104 104 0 104 104 0 104 104 0
104 104 0 104 104 0 103 103 0 103 103 0 0 103 0 0 103 0 0 103 0 0 102
0 0 102 0 0 102 0
0 152 0 0 152 0 0 152 0 0 152 0 0 152 0 152 152 0 151 151 0 151 151 0
0 151 0 0 151 0 0 151 0 0 151 0 0 151 0 0 151 0 0 151 0 0 151 0 0 150
0 0 150 0 150 150 0 150 150 0 150 150 0 150 150 0 150 150 0 150 150 0
149 149 0 149 149 0 149 149 0 149 149 0 149 149 0 149 149 0 149 149 0
0 148 0 0 148 0 0 148 0 0 148 0 0 148 0 0 148 0 0 148 0 0 147 0 0 147
0 147 147 0 147 147 0 147 147 0 147 147 0 0 146 0 0 146 0 0 146 0 0
146 0 0 146 0 0 146 0 0 145 0 0 145 0 0 145 0 0 145 0 0 145 0 0 144 0
0 144 0 144 144 0 144 144 0 144 144 0 144 144 0 143 143 0 143 143 0
143 143 0 143 143 0 143 143 0 142 142 0 142 142 0 142 142 0 142 142 0
0 142 0 0 141 0 0 141 0 141 141 0 141 141 0 141 141 0 140 140 0 140
140 0 140 140 0 140 140 0 139 139 0 139 139 0 139 139 0 0 139 0 0 139
0 0 138 0 0 138 0 0 138 0 0 138 0 0 138 0 0 137 0 0 137 0 0 137 0 0
137 0 0 136 0 0 136 0 136 136 0 136 136 0 136 136 0 135 135 0 135 135
0 135 135 0 135 135 0 134 134 0 134 134 0 0 134 0 0 134 0 0 134 0 133
133 0 133 133 0 133 133 0 133 133 0 132 132 0 132 132 0 132 132 0 132
132 0 132 132 0 131 131 0 131 131 0 131 131 0 131 131 0 0 130 0 0 130
0 0 130 0 0 130 0 0 129 0 0 129 0 0 129 0 0 129 0 0 129 0 0 128 0 222
0 0 221 0 0 221 0 0 221 0 0 220 0 0 220 0 0 220 0 0 220 0 0 219 0 0
219 0 0 219 0 0 219 0 0 218 0 0 218 0 0 218 0 0 217 0 0 217 0 0 217 0
0 217 0 0 216 0 0 216 0 0 216 0 0 216 0 0 215 0 0 215 0 0 215 0 0 215
0 0 214 0 0 214 0 0 214 0 0 214 0 0 213 0 0 213 0 0 213 0 0 213 0 0
212 0 0 212 0 0 212 0 0 212 0 0 211 0 0 211 0 0 211 0 0 211 0 0 210 0
0 48 0 0 0 118 0 0 118 0 0 118 0 0 117 0 0 117 0 0 117 0 0 117 0 0 117
0 0 116 0 0 116 0 116 116 0 116 116 0 116 116 0 115 115 0 115 115 0
115 115 0 115 115 0 115 115 0 114 114 0 114 114 0 114 114 0 114 114 0
114 114 0 0 113 0 0 113 0 0 113 0 113 113 0 112 112 0 112 112 0 112
112 0 112 112 0 112 112 0 111 111 0 111 111 0 111 111 0 111 111 0 0
111 0 0 111 0 0 110 0 0 110 0 0 110 0 0 110 0 0 110 0 0 109 0 0 109 0
0 109 0 0 109 0 0 109 0 0 108 0 108 108 0 108 108 0 108 108 0 108 108
0 107 107 0 107 107 0 107 107 0 107 107 0 107 107 0 0 107 0 0 106 0 0
106 0 0 106 0 106 106 0 106 106 0 105 105 0 105 105 0 105 105 0 105
105 0 105 105 0 105 105 0 104 104 0 104 104 0 104 104 0 104 104 0 104
104 0 0 103 0 0 103 0 0 103 0 0 103 0 0 103 0
0 153 0 0 153 0 153 153 0 153 153 0 153 153 0 153 153 0 153 153 0 153
153 0 153 153 0 152 152 0 152 152 0 152 152 0 152 152 0 152 152 0 0
152 0 152 152 0 152 152 0 152 152 0 151 151 0 151 151 0 151 151 0 151
151 0 151 151 0 151 151 0 151 151 0 150 150 0 150 150 0 150 150 0 0
150 0 0 150 0 0 150 0 0 150 0 0 149 0 0 149 0 0 149 0 0 149 0 0 149 0
0 149 0 0 148 0 0 148 0 0 148 0 0 148 0 148 148 0 148 148 0 147 147 0
147 147 0 147 147 0 0 147 0 0 147 0 0 147 0 0 146 0 0 146 0 0 146 0 0
146 0 0 146 0 145 145 0 145 145 0 145 145 0 145 145 0 145 145 0 145
145 0 144 144 0 144 144 0 144 144 0 144 144 0 144 144 0 143 143 0 143
143 0 0 143 0 0 143 0 0 142 0 0 142 0 0 142 0 0 142 0 0 142 0 0 141 0
0 141 0 0 141 0 0 141 0 141 141 0 140 140 0 0 140 0 0 140 0 0 140 0 0
140 0 0 139 0 0 139 0 0 139 0 0 139 0 0 138 0 0 138 0 0 138 0 0 138 0
0 138 0 137 137 0 137 137 0 137 137 0 137 137 0 136 136 0 136 136 0
136 136 0 136 136 0 135 135 0 135 135 0 135 135 0 135 135 0 135 135 0
0 134 0 0 134 0 0 134 0 0 134 0 0 133 0 133 133 0 133 133 0 133 133 0
133 133 0 132 132 0 132 132 0 132 132 0 132 132 0 0 131 0 0 131 0 0
131 0 0 131 0 0 130 0 0 130 0 0 130 0 0 130 0 0 130 0 0 129 0 0 129 0
222 0 0 221 0 0 221 0 0 221 0 0 221 0 0 220 0 0 220 0 0 220 0 0 219 0
0 219 0 0 219 0 0 219 0 0 218 0 0 218 0 0 218 0 0 218 0 0 217 0 0 217
0 0 217 0 0 217 0 0 216 0 0 216 0 0 216 0 0 216 0 0 215 0 0 215 0 0
215 0 0 215 0 0 214 0 0 214 0 0 214 0 0 213 0 0 213 0 0 213 0 0 213 0
0 212 0 0 212 0 0 212 0 0 212 0 0 211 0 0 211 0 0 211 0 0 211 0 0 211
0 0 48 0 0 119 119 0 0 119 0 0 118 0 0 118 0 0 118 0 0 118 0 0 118 0 0
117 0 0 117 0 0 117 0 117 117 0 116 116 0 116 116 0 116 116 0 116 116
0 116 116 0 115 115 0 115 115 0 115 115 0 115 115 0 115 115 0 114 114
0 114 114 0 0 114 0 0 114 0 0 114 0 0 113 0 0 113 0 0 113 0 0 113 0 0
113 0 0 112 0 0 112 0 0 112 0 112 112 0 112 112 0 0 111 0 0 111 0 0
111 0 0 111 0 0 111 0 0 110 0 0 110 0 0 110 0 0 110 0 0 110 0 0 109 0
0 109 0 0 109 0 109 109 0 109 109 0 108 108 0 108 108 0 108 108 0 108
108 0 108 108 0 108 108 0 107 107 0 107 107 0 107 107 0 107 107 0 107
107 0 0 106 0 0 106 0 0 106 0 0 106 0 0 106 0 106 106 0 105 105 0 105
105 0 105 105 0 105 105 0 105 105 0 104 104 0 104 104 0 0 104 0 0 104
0 0 104 0 0 104 0 0 103 0
154 154 0 154 154 0 154 154 0 154 154 0 154 154 0 154 154 0 154 154 0
154 154 0 154 154 0 154 154 0 153 153 0 153 153 0 153 153 0 0 153 0 0
153 0 0 153 0 0 153 0 0 153 0 0 153 0 0 152 0 152 152 0 152 152 0 152
152 0 152 152 0 152 152 0 152 152 0 0 151 0 0 151 0 0 151 0 0 151 0 0
151 0 0 151 0 0 151 0 0 150 0 0 150 0 0 150 0 0 150 0 0 150 0 0 150 0
149 149 0 149 149 0 149 149 0 149 149 0 149 149 0 148 148 0 148 148 0
148 148 0 148 148 0 148 148 0 148 148 0 147 147 0 147 147 0 0 147 0
147 147 0 147 147 0 146 146 0 146 146 0 146 146 0 146 146 0 146 146 0
145 145 0 145 145 0 145 145 0 145 145 0 145 145 0 144 144 0 0 144 0 0
144 0 0 144 0 0 144 0 0 143 0 0 143 0 0 143 0 0 143 0 0 143 0 0 142 0
0 142 0 0 142 0 0 142 0 141 141 0 141 141 0 141 141 0 141 141 0 141
141 0 140 140 0 140 140 0 0 140 0 0 140 0 0 139 0 0 139 0 0 139 0 0
139 0 139 139 0 138 138 0 138 138 0 138 138 0 138 138 0 137 137 0 137
137 0 137 137 0 137 137 0 137 137 0 136 136 0 136 136 0 136 136 0 136
136 0 0 135 0 0 135 0 0 135 0 0 135 0 0 134 0 0 134 0 0 134 0 0 134 0
0 134 0 0 133 0 0 133 0 0 133 0 0 133 0 0 132 0 0 132 0 0 132 0 0 132
0 0 131 0 0 131 0 0 131 0 0 131 0 0 131 0 0 130 0 0 130 0 0 130 0 222
0 0 222 0 0 221 0 0 221 0 0 221 0 0 220 0 0 220 0 0 220 0 0 220 0 0
219 0 0 219 0 0 219 0 0 219 0 0 218 0 0 218 0 0 218 0 0 217 0 0 217 0
0 217 0 0 217 0 0 216 0 0 216 0 0 216 0 0 216 0 0 215 0 0 215 0 0 215
0 0 215 0 0 214 0 0 214 0 0 214 0 0 214 0 0 213 0 0 213 0 0 213 0 0
213 0 0 212 0 0 212 0 0 212 0 0 212 0 0 211 0 0 211 0 0 211 0 0 48 0 0
120 120 0 119 119 0 119 119 0 119 119 0 119 119 0 119 119 0 118 118 0
118 118 0 118 118 0 118 118 0 118 118 0 117 117 0 117 117 0 117 117 0
117 117 0 116 116 0 116 116 0 116 116 0 116 116 0 116 116 0 115 115 0
115 115 0 115 115 0 0 115 0 0 115 0 0 114 0 0 114 0 0 114 0 0 114 0 0
114 0 0 113 0 0 113 0 0 113 0 0 113 0 0 113 0 0 112 0 0 112 0 112 112
0 112 112 0 112 112 0 111 111 0 111 111 0 111 111 0 111 111 0 0 111 0
0 110 0 0 110 0 0 110 0 0 110 0 0 110 0 109 109 0 109 109 0 109 109 0
109 109 0 109 109 0 109 109 0 108 108 0 108 108 0 108 108 0 108 108 0
108 108 0 107 107 0 107 107 0 0 107 0 0 107 0 0 107 0 0 106 0 0 106 0
0 106 0 0 106 0 0 106 0 0 106 0 0 105 0 0 105 0 0 105 0 0 105 0 105
105 0 0 105 0 0 104 0 0 104 0 0 104 0
156 156 0 156 156 0 156 156 0 155 155 0 155 155 0 155 155 0 155 155 0
155 155 0 155 155 0 155 155 0 0 155 0 0 155 0 0 154 0 0 154 0 0 154 0
0 154 0 0 154 0 0 154 0 0 154 0 0 154 0 0 153 0 0 153 0 0 153 0 153
153 0 153 153 0 0 153 0 0 153 0 0 152 0 0 152 0 0 152 0 0 152 0 0 152
0 0 152 0 0 151 0 0 151 0 0 151 0 0 151 0 151 151 0 151 151 0 150 150
0 150 150 0 150 150 0 150 150 0 150 150 0 149 149 0 149 149 0 149 149
0 149 149 0 149 149 0 149 149 0 0 148 0 0 148 0 0 148 0 0 148 0 0 148
0 0 147 0 0 147 0 0 147 0 0 147 0 147 147 0 146 146 0 146 146 0 146
146 0 146 146 0 0 146 0 0 145 0 0 145 0 0 145 0 0 145 0 0 145 0 0 144
0 0 144 0 0 144 0 0 144 0 0 143 0 0 143 0 0 143 0 143 143 0 143 143 0
142 142 0 142 142 0 142 142 0 142 142 0 141 141 0 141 141 0 141 141 0
141 141 0 141 141 0 140 140 0 140 140 0 140 140 0 0 140 0 0 139 0 139
139 0 139 139 0 139 139 0 138 138 0 138 138 0 138 138 0 138 138 0 138
138 0 137 137 0 137 137 0 137 137 0 0 137 0 0 136 0 0 136 0 0 136 0 0
136 0 0 135 0 0 135 0 0 135 0 0 135 0 0 135 0 0 134 0 0 134 0 0 134 0
0 134 0 133 133 0 133 133 0 133 133 0 133 133 0 132 132 0 132 132 0
132 132 0 132 132 0 0 132 0 0 131 0 0 131 0 0 131 0 222 0 0 222 0 0
222 0 0 221 0 0 221 0 0 221 0 0 221 0 0 220 0 0 220 0 0 220 0 0 219 0
0 219 0 0 219 0 0 219 0 0 218 0 0 218 0 0 218 0 0 218 0 0 217 0 0 217
0 0 217 0 0 217 0 0 216 0 0 216 0 0 216 0 0 216 0 0 215 0 0 215 0 0
215 0 0 215 0 0 214 0 0 214 0 0 214 0 0 213 0 0 213 0 0 213 0 0 213 0
0 212 0 0 212 0 0 212 0 0 212 0 0 212 0 0 211 0 0 211 0 0 48 0 0 120
120 0 120 120 0 120 120 0 120 120 0 119 119 0 119 119 0 119 119 0 119
119 0 119 119 0 118 118 0 0 118 0 0 118 0 0 118 0 0 118 0 0 117 0 0
117 0 0 117 0 0 117 0 117 117 0 116 116 0 116 116 0 116 116 0 116 116
0 0 115 0 0 115 0 0 115 0 0 115 0 0 115 0 0 114 0 0 114 0 0 114 0 0
114 0 0 114 0 0 113 0 0 113 0 0 113 0 0 113 0 113 113 0 112 112 0 112
112 0 112 112 0 112 112 0 112 112 0 111 111 0 111 111 0 111 111 0 111
111 0 111 111 0 110 110 0 110 110 0 0 110 0 0 110 0 110 110 0 110 110
0 109 109 0 109 109 0 109 109 0 109 109 0 109 109 0 108 108 0 108 108
0 108 108 0 108 108 0 0 108 0 0 107 0 0 107 0 0 107 0 0 107 0 0 107 0
0 107 0 0 106 0 0 106 0 0 106 0 0 106 0 0 106 0 0 105 0 0 105 0 105
105 0 105 105 0 105 105 0 105 105 0
157 157 0 157 157 0 157 157 0 157 157 0 157 157 0 156 156 0 156 156 0
0 156 0 0 156 0 0 156 0 0 156 0 0 156 0 0 156 0 0 155 0 0 155 0 0 155
0 0 155 0 0 155 0 0 155 0 0 155 0 0 154 0 154 154 0 154 154 0 154 154
0 154 154 0 154 154 0 154 154 0 153 153 0 153 153 0 153 153 0 153 153
0 0 153 0 0 153 0 0 152 0 0 152 0 152 152 0 152 152 0 152 152 0 152
152 0 151 151 0 151 151 0 151 151 0 151 151 0 151 151 0 150 150 0 150
150 0 150 150 0 150 150 0 0 150 0 0 149 0 0 149 0 0 149 0 0 149 0 0
149 0 0 149 0 0 148 0 0 148 0 0 148 0 0 148 0 0 147 0 0 147 0 0 147 0
147 147 0 147 147 0 146 146 0 0 146 0 0 146 0 0 146 0 0 146 0 0 145 0
0 145 0 0 145 0 0 145 0 0 144 0 0 144 0 144 144 0 144 144 0 144 144 0
143 143 0 143 143 0 143 143 0 143 143 0 142 142 0 142 142 0 142 142 0
142 142 0 142 142 0 141 141 0 141 141 0 0 141 0 0 141 0 0 140 0 0 140
0 0 140 0 0 140 0 0 140 0 0 139 0 0 139 0 0 139 0 139 139 0 138 138 0
138 138 0 138 138 0 0 138 0 0 137 0 0 137 0 0 137 0 0 137 0 0 136 0 0
136 0 0 136 0 0 136 0 0 136 0 0 135 0 0 135 0 0 135 0 135 135 0 134
134 0 134 134 0 134 134 0 134 134 0 133 133 0 133 133 0 133 133 0 133
133 0 132 132 0 132 132 0 132 132 0 132 132 0 132 132 0 222 0 0 222 0
0 222 0 0 222 0 0 221 0 0 221 0 0 221 0 0 220 0 0 220 0 0 220 0 0 220
0 0 219 0 0 219 0 0 219 0 0 219 0 0 218 0 0 218 0 0 218 0 0 217 0 0
217 0 0 217 0 0 217 0 0 216 0 0 216 0 0 216 0 0 216 0 0 215 0 0 215 0
0 215 0 0 215 0 0 214 0 0 214 0 0 214 0 0 214 0 0 213 0 0 213 0 0 213
0 0 213 0 0 212 0 0 212 0 0 212 0 0 212 0 0 211 0 0 211 0 0 48 0 0 121
121 0 121 121 0 121 121 0 120 120 0 120 120 0 120 120 0 120 120 0 119
119 0 119 119 0 0 119 0 0 119 0 0 119 0 0 118 0 0 118 0 0 118 0 0 118
0 0 118 0 0 117 0 0 117 0 0 117 0 0 117 0 0 117 0 0 116 0 116 116 0
116 116 0 116 116 0 0 115 0 0 115 0 0 115 0 0 115 0 0 115 0 0 114 0 0
114 0 0 114 0 0 114 0 0 114 0 0 113 0 113 113 0 113 113 0 113 113 0
113 113 0 112 112 0 112 112 0 112 112 0 112 112 0 112 112 0 111 111 0
111 111 0 111 111 0 111 111 0 0 111 0 0 111 0 0 110 0 0 110 0 0 110 0
0 110 0 0 110 0 0 109 0 0 109 0 0 109 0 109 109 0 109 109 0 108 108 0
108 108 0 0 108 0 0 108 0 0 108 0 0 108 0 0 107 0 0 107 0 0 107 0 0
107 0 0 107 0 0 106 0 0 106 0 0 106 0 0 106 0 106 106 0 106 106 0 105
105 0 105 105 0
0 158 0 0 158 0 0 158 0 158 158 0 158 158 0 0 158 0 0 157 0 0 157 0 0
157 0 0 157 0 0 157 0 0 157 0 0 157 0 0 157 0 0 156 0 0 156 0 0 156 0
0 156 0 0 156 0 156 156 0 156 156 0 155 155 0 155 155 0 155 155 0 155
155 0 155 155 0 155 155 0 154 154 0 154 154 0 154 154 0 154 154 0 154
154 0 0 154 0 0 153 0 0 153 0 0 153 0 0 153 0 153 153 0 153 153 0 152
152 0 152 152 0 152 152 0 152 152 0 152 152 0 151 151 0 151 151 0 0
151 0 0 151 0 0 151 0 0 150 0 0 150 0 0 150 0 0 150 0 0 150 0 0 149 0
0 149 0 0 149 0 0 149 0 0 149 0 0 148 0 148 148 0 148 148 0 148 148 0
148 148 0 147 147 0 147 147 0 147 147 0 147 147 0 146 146 0 146 146 0
146 146 0 146 146 0 0 146 0 0 145 0 145 145 0 145 145 0 145 145 0 144
144 0 144 144 0 144 144 0 144 144 0 144 144 0 143 143 0 143 143 0 143
143 0 143 143 0 142 142 0 0 142 0 0 142 0 0 142 0 0 141 0 0 141 0 0
141 0 0 141 0 0 141 0 0 140 0 0 140 0 0 140 0 0 140 0 0 139 0 0 139 0
139 139 0 139 139 0 138 138 0 138 138 0 138 138 0 0 138 0 0 137 0 0
137 0 0 137 0 0 137 0 0 136 0 0 136 0 0 136 0 0 136 0 136 136 0 135
135 0 135 135 0 135 135 0 135 135 0 134 134 0 134 134 0 134 134 0 134
134 0 133 133 0 133 133 0 133 133 0 133 133 0 132 132 0 223 0 0 222 0
0 222 0 0 222 0 0 222 0 0 221 0 0 221 0 0 221 0 0 221 0 0 220 0 0 220
0 0 220 0 0 219 0 0 219 0 0 219 0 0 219 0 0 218 0 0 218 0 0 218 0 0
218 0 0 217 0 0 217 0 0 217 0 0 217 0 0 216 0 0 216 0 0 216 0 0 216 0
0 215 0 0 215 0 0 215 0 0 215 0 0 214 0 0 214 0 0 214 0 0 213 0 0 213
0 0 213 0 0 213 0 0 212 0 0 212 0 0 212 0 0 212 0 0 212 0 0 211 0 0 48
0 0 122 122 0 121 121 0 121 121 0 121 121 0 121 121 0 121 121 0 120
120 0 120 120 0 120 120 0 0 120 0 0 119 0 0 119 0 0 119 0 0 119 0 0
119 0 0 118 0 0 118 0 0 118 0 0 118 0 0 118 0 0 117 0 0 117 0 0 117 0
117 117 0 117 117 0 116 116 0 116 116 0 116 116 0 116 116 0 115 115 0
115 115 0 115 115 0 115 115 0 115 115 0 0 114 0 0 114 0 114 114 0 114
114 0 114 114 0 113 113 0 113 113 0 113 113 0 113 113 0 113 113 0 112
112 0 112 112 0 112 112 0 112 112 0 112 112 0 111 111 0 0 111 0 0 111
0 0 111 0 0 111 0 0 111 0 0 110 0 0 110 0 0 110 0 0 110 0 0 110 0 0
109 0 0 109 0 0 109 0 0 109 0 109 109 0 108 108 0 108 108 0 108 108 0
108 108 0 0 108 0 0 108 0 0 107 0 0 107 0 0 107 0 0 107 0 0 107 0 0
106 0 0 106 0 106 106 0 106 106 0 106 106 0
0 159 0 0 159 0 159 159 0 159 159 0 159 159 0 159 159 0 159 159 0 158
158 0 0 158 0 0 158 0 0 158 0 0 158 0 0 158 0 0 158 0 0 157 0 0 157 0
157 157 0 157 157 0 157 157 0 157 157 0 157 157 0 156 156 0 156 156 0
156 156 0 156 156 0 156 156 0 156 156 0 155 155 0 155 155 0 155 155 0
0 155 0 0 155 0 0 155 0 0 154 0 0 154 0 0 154 0 0 154 0 0 154 0 0 153
0 0 153 0 0 153 0 0 153 0 0 153 0 153 153 0 0 152 0 0 152 0 0 152 0 0
152 0 0 152 0 0 151 0 0 151 0 0 151 0 0 151 0 0 151 0 0 150 0 0 150 0
0 150 0 0 150 0 149 149 0 149 149 0 149 149 0 149 149 0 149 149 0 148
148 0 148 148 0 148 148 0 148 148 0 147 147 0 147 147 0 147 147 0 147
147 0 147 147 0 0 146 0 0 146 0 0 146 0 0 146 0 0 145 0 0 145 0 145
145 0 145 145 0 145 145 0 144 144 0 144 144 0 144 144 0 144 144 0 143
143 0 0 143 0 0 143 0 0 143 0 0 142 0 0 142 0 0 142 0 0 142 0 0 142 0
0 141 0 0 141 0 0 141 0 0 141 0 0 140 0 0 140 0 140 140 0 140 140 0
139 139 0 139 139 0 139 139 0 139 139 0 138 138 0 138 138 0 138 138 0
138 138 0 137 137 0 137 137 0 137 137 0 0 137 0 137 137 0 136 136 0
136 136 0 136 136 0 136 136 0 135 135 0 135 135 0 135 135 0 135 135 0
134 134 0 134 134 0 134 134 0 134 134 0 133 133 0 0 133 0 223 0 0 223
0 0 222 0 0 222 0 0 222 0 0 222 0 0 221 0 0 221 0 0 221 0 0 220 0 0
220 0 0 220 0 0 220 0 0 219 0 0 219 0 0 219 0 0 219 0 0 218 0 0 218 0
0 218 0 0 217 0 0 217 0 0 217 0 0 217 0 0 216 0 0 216 0 0 216 0 0 216
0 0 215 0 0 215 0 0 215 0 0 215 0 0 214 0 0 214 0 0 214 0 0 214 0 0
213 0 0 213 0 0 213 0 0 213 0 0 212 0 0 212 0 0 212 0 0 212 0 0 48 0 0
48 0 0 0 122 0 0 122 0 0 122 0 0 122 0 0 121 0 0 121 0 0 121 0 121 121
0 0 121 0 0 120 0 0 120 0 0 120 0 0 120 0 0 119 0 0 119 0 0 119 0 0
119 0 0 119 0 0 118 0 0 118 0 0 118 0 0 118 0 118 118 0 117 117 0 117
117 0 117 117 0 117 117 0 117 117 0 116 116 0 116 116 0 116 116 0 116
116 0 115 115 0 115 115 0 115 115 0 115 115 0 0 115 0 0 114 0 0 114 0
0 114 0 0 114 0 0 114 0 113 113 0 113 113 0 113 113 0 113 113 0 113
113 0 112 112 0 112 112 0 112 112 0 0 112 0 0 112 0 0 112 0 0 111 0 0
111 0 0 111 0 0 111 0 0 111 0 0 110 0 0 110 0 0 110 0 0 110 0 0 110 0
0 109 0 109 109 0 109 109 0 109 109 0 109 109 0 108 108 0 108 108 0
108 108 0 108 108 0 108 108 0 108 108 0 107 107 0 107 107 0 107 107 0
0 107 0 107 107 0 107 107 0 106 106 0
160 160 0 160 160 0 160 160 0 160 160 0 160 160 0 160 160 0 160 160 0
159 159 0 159 159 0 159 159 0 159 159 0 159 159 0 159 159 0 0 159 0
159 159 0 158 158 0 158 158 0 158 158 0 158 158 0 158 158 0 158 158 0
157 157 0 157 157 0 157 157 0 157 157 0 157 157 0 157 157 0 156 156 0
0 156 0 0 156 0 0 156 0 0 156 0 0 156 0 0 155 0 0 155 0 0 155 0 0 155
0 0 155 0 0 154 0 0 154 0 0 154 0 0 154 0 154 154 0 153 153 0 153 153
0 153 153 0 153 153 0 153 153 0 152 152 0 0 152 0 0 152 0 0 152 0 0
152 0 0 151 0 0 151 0 0 151 0 151 151 0 151 151 0 150 150 0 150 150 0
150 150 0 150 150 0 149 149 0 149 149 0 149 149 0 149 149 0 149 149 0
148 148 0 148 148 0 148 148 0 0 148 0 0 147 0 0 147 0 0 147 0 0 147 0
0 146 0 0 146 0 0 146 0 0 146 0 0 146 0 0 145 0 0 145 0 0 145 0 0 145
0 0 144 0 0 144 0 0 144 0 0 144 0 0 143 0 0 143 0 0 143 0 0 143 0 0
142 0 0 142 0 0 142 0 0 142 0 0 142 0 0 141 0 141 141 0 141 141 0 141
141 0 140 140 0 140 140 0 140 140 0 140 140 0 139 139 0 139 139 0 139
139 0 139 139 0 138 138 0 138 138 0 138 138 0 0 138 0 0 137 0 0 137 0
0 137 0 0 137 0 0 136 0 0 136 0 136 136 0 136 136 0 136 136 0 135 135
0 135 135 0 135 135 0 135 135 0 134 134 0 0 134 0 0 134 0 223 0 0 223
0 0 222 0 0 222 0 0 222 0 0 222 0 0 221 0 0 221 0 0 221 0 0 221 0 0
220 0 0 220 0 0 220 0 0 219 0 0 219 0 0 219 0 0 219 0 0 218 0 0 218 0
0 218 0 0 218 0 0 217 0 0 217 0 0 217 0 0 217 0 0 216 0 0 216 0 0 216
0 0 216 0 0 215 0 0 215 0 0 215 0 0 214 0 0 214 0 0 214 0 0 214 0 0
213 0 0 213 0 0 213 0 0 213 0 0 212 0 0 212 0 0 212 0 0 212 0 0 48 0 0
48 0 0 0 123 0 0 123 0 0 122 0 0 122 0 0 122 0 0 122 0 0 122 0 0 121 0
121 121 0 121 121 0 121 121 0 120 120 0 120 120 0 120 120 0 120 120 0
0 120 0 0 119 0 0 119 0 0 119 0 0 119 0 0 119 0 0 118 0 118 118 0 118
118 0 118 118 0 118 118 0 117 117 0 117 117 0 117 117 0 117 117 0 116
116 0 116 116 0 116 116 0 116 116 0 116 116 0 115 115 0 0 115 0 0 115
0 0 115 0 0 115 0 0 114 0 0 114 0 0 114 0 0 114 0 0 114 0 0 113 0 0
113 0 0 113 0 0 113 0 0 113 0 0 112 0 0 112 0 0 112 0 0 112 0 0 112 0
0 112 0 0 111 0 0 111 0 0 111 0 0 111 0 0 111 0 0 110 0 0 110 0 0 110
0 0 110 0 110 110 0 109 109 0 109 109 0 109 109 0 109 109 0 109 109 0
109 109 0 108 108 0 108 108 0 108 108 0 108 108 0 108 108 0 107 107 0
107 107 0 0 107 0 0 107 0
161 161 0 161 161 0 161 161 0 161 161 0 161 161 0 161 161 0 161 161 0
161 161 0 160 160 0 160 160 0 160 160 0 0 160 0 0 160 0 0 160 0 0 160
0 0 159 0 0 159 0 0 159 0 0 159 0 159 159 0 159 159 0 158 158 0 158
158 0 158 158 0 158 158 0 0 158 0 0 158 0 0 157 0 0 157 0 0 157 0 0
157 0 0 157 0 0 156 0 0 156 0 0 156 0 0 156 0 0 156 0 0 156 0 0 155 0
0 155 0 155 155 0 155 155 0 155 155 0 154 154 0 154 154 0 154 154 0
154 154 0 153 153 0 153 153 0 153 153 0 153 153 0 153 153 0 152 152 0
152 152 0 0 152 0 152 152 0 152 152 0 151 151 0 151 151 0 151 151 0
151 151 0 150 150 0 150 150 0 150 150 0 150 150 0 150 150 0 149 149 0
149 149 0 0 149 0 0 149 0 0 148 0 0 148 0 0 148 0 0 148 0 0 147 0 0
147 0 0 147 0 0 147 0 0 147 0 0 146 0 0 146 0 0 146 0 0 146 0 145 145
0 145 145 0 145 145 0 145 145 0 144 144 0 144 144 0 144 144 0 0 144 0
0 143 0 0 143 0 0 143 0 0 143 0 0 143 0 0 142 0 142 142 0 142 142 0
142 142 0 141 141 0 141 141 0 141 141 0 141 141 0 140 140 0 140 140 0
140 140 0 140 140 0 139 139 0 139 139 0 139 139 0 0 139 0 0 138 0 0
138 0 0 138 0 0 138 0 0 137 0 0 137 0 0 137 0 0 137 0 0 136 0 0 136 0
0 136 0 0 136 0 0 135 0 135 135 0 0 135 0 0 135 0 223 0 0 223 0 0 223
0 0 223 0 0 222 0 0 222 0 0 222 0 0 221 0 0 221 0 0 221 0 0 255 111 0
255 111 0 220 0 0 220 0 0 220 0 0 219 0 0 219 0 0 219 0 0 218 0 0 218
0 0 218 0 0 218 0 0 217 0 0 217 0 0 217 0 0 217 0 0 216 0 0 216 0 0
216 0 0 216 0 0 215 0 0 215 0 0 215 0 0 215 0 0 214 0 0 214 0 0 214 0
0 214 0 0 213 0 0 213 0 0 213 0 0 213 0 0 212 0 0 212 0 0 212 0 0 48 0
0 48 0 0 0 124 0 0 123 0 0 123 0 0 123 0 0 123 0 0 122 0 0 122 0 0 122
0 122 122 0 122 122 0 121 121 0 121 121 0 121 121 0 121 121 0 120 120
0 120 120 0 120 120 0 120 120 0 120 120 0 119 119 0 119 119 0 119 119
0 0 119 0 119 119 0 118 118 0 118 118 0 118 118 0 118 118 0 117 117 0
117 117 0 117 117 0 117 117 0 117 117 0 116 116 0 116 116 0 116 116 0
0 116 0 0 116 0 0 115 0 0 115 0 0 115 0 0 115 0 0 115 0 0 114 0 0 114
0 0 114 0 0 114 0 0 114 0 0 113 0 0 113 0 0 113 0 113 113 0 113 113 0
112 112 0 112 112 0 112 112 0 112 112 0 112 112 0 0 112 0 0 111 0 0
111 0 0 111 0 0 111 0 0 111 0 0 110 0 110 110 0 110 110 0 110 110 0
110 110 0 109 109 0 109 109 0 109 109 0 109 109 0 109 109 0 109 109 0
108 108 0 108 108 0 108 108 0 108 108 0 0 108 0 0 107 0
163 163 0 162 162 0 162 162 0 162 162 0 162 162 0 162 162 0 162 162 0
162 162 0 161 161 0 0 161 0 0 161 0 0 161 0 0 161 0 0 161 0 0 161 0 0
160 0 0 160 0 0 160 0 0 160 0 0 160 0 0 160 0 0 159 0 0 159 0 159 159
0 0 159 0 0 159 0 0 158 0 0 158 0 0 158 0 0 158 0 0 158 0 0 158 0 0
157 0 0 157 0 0 157 0 0 157 0 0 157 0 0 156 0 156 156 0 156 156 0 156
156 0 156 156 0 155 155 0 155 155 0 155 155 0 155 155 0 155 155 0 154
154 0 154 154 0 154 154 0 154 154 0 153 153 0 0 153 0 0 153 0 0 153 0
0 153 0 0 152 0 0 152 0 0 152 0 0 152 0 151 151 0 151 151 0 151 151 0
151 151 0 151 151 0 150 150 0 0 150 0 0 150 0 0 150 0 0 149 0 0 149 0
0 149 0 0 149 0 0 148 0 0 148 0 0 148 0 0 148 0 0 148 0 0 147 0 0 147
0 0 147 0 147 147 0 146 146 0 146 146 0 146 146 0 146 146 0 145 145 0
145 145 0 145 145 0 145 145 0 144 144 0 144 144 0 144 144 0 144 144 0
143 143 0 0 143 0 0 143 0 143 143 0 142 142 0 142 142 0 142 142 0 142
142 0 141 141 0 141 141 0 141 141 0 141 141 0 141 141 0 140 140 0 140
140 0 140 140 0 0 140 0 0 139 0 0 139 0 0 139 0 0 139 0 0 138 0 0 138
0 0 138 0 0 138 0 0 137 0 0 137 0 0 137 0 0 137 0 0 136 0 136 136 0
136 136 0 136 136 0 135 135 0 224 0 0 223 0 0 223 0 0 223 0 0 222 0 0
222 0 0 222 0 0 222 0 0 221 0 0 255 111 0 255 111 0 255 111 0 255 111
0 255 111 0 255 110 0 255 110 0 255 110 0 255 110 0 219 0 0 218 0 0
218 0 0 218 0 0 218 0 0 217 0 0 217 0 0 217 0 0 217 0 0 216 0 0 216 0
0 216 0 0 215 0 0 215 0 0 215 0 0 215 0 0 214 0 0 214 0 0 214 0 0 214
0 0 213 0 0 213 0 0 213 0 0 213 0 0 212 0 0 212 0 0 48 0 0 48 0 0 48 0
0 0 124 0 0 124 0 0 124 0 0 123 0 0 123 0 0 123 0 0 123 0 123 123 0
122 122 0 122 122 0 122 122 0 122 122 0 121 121 0 121 121 0 121 121 0
121 121 0 121 121 0 120 120 0 120 120 0 120 120 0 120 120 0 120 120 0
0 119 0 0 119 0 0 119 0 0 119 0 0 118 0 0 118 0 0 118 0 0 118 0 118
118 0 117 117 0 117 117 0 117 117 0 117 117 0 117 117 0 0 116 0 0 116
0 0 116 0 0 116 0 0 116 0 0 115 0 0 115 0 0 115 0 0 115 0 0 115 0 0
114 0 0 114 0 0 114 0 0 114 0 0 114 0 113 113 0 113 113 0 113 113 0
113 113 0 113 113 0 112 112 0 112 112 0 112 112 0 112 112 0 112 112 0
111 111 0 111 111 0 111 111 0 111 111 0 0 111 0 111 111 0 110 110 0
110 110 0 110 110 0 110 110 0 110 110 0 109 109 0 109 109 0 109 109 0
109 109 0 109 109 0 109 109 0 108 108 0 108 108 0 0 108 0
164 164 0 163 163 0 163 163 0 163 163 0 163 163 0 163 163 0 0 163 0 0
163 0 0 162 0 0 162 0 0 162 0 0 162 0 0 162 0 0 162 0 0 161 0 0 161 0
0 161 0 0 161 0 0 161 0 0 161 0 0 160 0 160 160 0 160 160 0 160 160 0
160 160 0 160 160 0 159 159 0 159 159 0 159 159 0 159 159 0 0 159 0 0
158 0 0 158 0 0 158 0 0 158 0 158 158 0 157 157 0 157 157 0 157 157 0
157 157 0 157 157 0 156 156 0 156 156 0 156 156 0 156 156 0 156 156 0
155 155 0 155 155 0 155 155 0 155 155 0 0 155 0 0 154 0 0 154 0 0 154
0 0 154 0 0 153 0 0 153 0 0 153 0 0 153 0 0 152 0 0 152 0 0 152 0 0
152 0 0 152 0 0 151 0 151 151 0 0 151 0 0 151 0 0 150 0 0 150 0 0 150
0 0 150 0 0 149 0 0 149 0 0 149 0 0 149 0 0 149 0 0 148 0 0 148 0 148
148 0 148 148 0 147 147 0 147 147 0 147 147 0 147 147 0 146 146 0 146
146 0 146 146 0 146 146 0 145 145 0 145 145 0 145 145 0 145 145 0 144
144 0 0 144 0 0 144 0 0 144 0 0 143 0 0 143 0 0 143 0 0 143 0 0 142 0
0 142 0 142 142 0 142 142 0 141 141 0 141 141 0 141 141 0 141 141 0 0
140 0 0 140 0 0 140 0 0 140 0 0 139 0 0 139 0 0 139 0 0 139 0 0 138 0
0 138 0 0 138 0 0 138 0 0 137 0 0 137 0 137 137 0 137 137 0 137 137 0
136 136 0 224 0 0 224 0 0 223 0 0 223 0 0 223 0 0 223 0 0 222 0 0 222
0 0 222 0 0 221 0 0 255 112 0 255 112 0 255 111 0 255 111 0 255 111 0
255 111 0 255 111 0 255 110 0 219 110 0 219 110 0 218 110 0 218 110 0
218 110 0 218 109 0 217 109 0 217 0 0 217 0 0 217 0 0 216 0 0 216 0 0
216 0 0 216 0 0 215 0 0 215 0 0 215 0 0 215 0 0 214 0 0 214 0 0 214 0
0 214 0 0 213 0 0 213 0 0 213 0 0 213 0 0 212 0 0 48 0 0 48 0 0 48 0 0
125 125 0 0 124 0 0 124 0 0 124 0 0 124 0 0 124 0 0 123 0 123 123 0
123 123 0 123 123 0 122 122 0 122 122 0 122 122 0 122 122 0 122 122 0
121 121 0 121 121 0 121 121 0 121 121 0 121 121 0 120 120 0 0 120 0 0
120 0 0 120 0 0 119 0 0 119 0 0 119 0 0 119 0 0 119 0 0 118 0 0 118 0
0 118 0 0 118 0 0 118 0 0 117 0 0 117 0 117 117 0 117 117 0 0 117 0 0
116 0 0 116 0 0 116 0 0 116 0 0 116 0 0 115 0 0 115 0 0 115 0 0 115 0
0 115 0 0 114 0 0 114 0 114 114 0 114 114 0 114 114 0 113 113 0 113
113 0 113 113 0 113 113 0 113 113 0 112 112 0 112 112 0 112 112 0 112
112 0 112 112 0 111 111 0 0 111 0 0 111 0 0 111 0 0 111 0 0 111 0 0
110 0 0 110 0 0 110 0 0 110 0 110 110 0 109 109 0 109 109 0 109 109 0
109 109 0 109 109 0 0 109 0
165 165 0 164 164 0 164 164 0 164 164 0 0 164 0 0 164 0 0 164 0 0 164
0 0 163 0 0 163 0 0 163 0 0 163 0 0 163 0 0 163 0 0 162 0 0 162 0 0
162 0 0 162 0 162 162 0 162 162 0 161 161 0 161 161 0 161 161 0 161
161 0 161 161 0 160 160 0 160 160 0 160 160 0 160 160 0 160 160 0 159
159 0 159 159 0 159 159 0 0 159 0 0 159 0 158 158 0 158 158 0 158 158
0 158 158 0 158 158 0 157 157 0 157 157 0 157 157 0 157 157 0 157 157
0 156 156 0 156 156 0 156 156 0 0 156 0 0 156 0 0 155 0 0 155 0 0 155
0 0 155 0 0 154 0 0 154 0 0 154 0 0 154 0 0 153 0 0 153 0 0 153 0 0
153 0 0 153 0 152 152 0 152 152 0 152 152 0 152 152 0 151 151 0 151
151 0 151 151 0 151 151 0 150 150 0 0 150 0 0 150 0 0 150 0 0 149 0 0
149 0 0 149 0 149 149 0 149 149 0 148 148 0 148 148 0 148 148 0 148
148 0 147 147 0 147 147 0 147 147 0 147 147 0 146 146 0 146 146 0 146
146 0 146 146 0 145 145 0 0 145 0 0 145 0 0 145 0 0 144 0 0 144 0 0
144 0 0 144 0 0 143 0 0 143 0 0 143 0 0 143 0 0 142 0 0 142 0 0 142 0
142 142 0 141 141 0 0 141 0 0 141 0 0 141 0 0 140 0 0 140 0 0 140 0 0
140 0 0 139 0 0 139 0 0 139 0 0 139 0 0 138 0 0 138 0 138 138 0 138
138 0 137 137 0 137 137 0 137 137 0 224 0 0 224 0 0 223 0 0 223 0 0
223 0 0 223 0 0 222 0 0 222 0 0 222 0 0 255 112 0 255 112 0 255 112 0
255 112 0 255 112 0 255 111 0 255 111 0 255 111 0 219 111 0 219 111 0
219 110 0 219 110 0 218 110 0 218 110 0 218 110 0 218 110 0 217 109 0
217 109 0 217 109 0 216 109 0 216 109 0 216 108 0 216 108 0 215 0 0
215 0 0 215 0 0 215 0 0 214 0 0 214 0 0 214 0 0 214 0 0 213 0 0 213 0
0 213 0 0 213 0 0 212 0 0 48 0 0 48 0 0 48 0 0 125 125 0 125 125 0 125
125 0 125 125 0 124 124 0 124 124 0 0 124 0 0 124 0 123 123 0 123 123
0 123 123 0 123 123 0 123 123 0 122 122 0 122 122 0 122 122 0 122 122
0 122 122 0 121 121 0 121 121 0 121 121 0 0 121 0 0 120 0 0 120 0 0
120 0 0 120 0 0 120 0 0 119 0 0 119 0 0 119 0 0 119 0 0 119 0 0 118 0
0 118 0 0 118 0 0 118 0 118 118 0 117 117 0 117 117 0 117 117 0 117
117 0 117 117 0 116 116 0 116 116 0 116 116 0 0 116 0 0 116 0 0 115 0
0 115 0 0 115 0 0 115 0 115 115 0 114 114 0 114 114 0 114 114 0 114
114 0 114 114 0 113 113 0 113 113 0 113 113 0 113 113 0 113 113 0 112
112 0 112 112 0 112 112 0 112 112 0 0 112 0 0 111 0 0 111 0 0 111 0 0
111 0 0 111 0 0 111 0 0 110 0 0 110 0 0 110 0 0 110 0 0 110 0 0 109 0
0 109 0 0 109 0
0 166 0 165 165 0 165 165 0 0 165 0 0 165 0 0 165 0 0 165 0 0 165 0 0
164 0 0 164 0 0 164 0 0 164 0 0 164 0 0 164 0 0 163 0 0 163 0 163 163
0 163 163 0 163 163 0 162 162 0 162 162 0 162 162 0 162 162 0 162 162
0 162 162 0 161 161 0 161 161 0 161 161 0 161 161 0 161 161 0 160 160
0 0 160 0 0 160 0 0 160 0 0 160 0 0 159 0 0 159 0 0 159 0 0 159 0 0
158 0 158 158 0 158 158 0 158 158 0 158 158 0 157 157 0 157 157 0 0
157 0 0 157 0 0 157 0 0 156 0 0 156 0 0 156 0 0 156 0 0 155 0 0 155 0
0 155 0 0 155 0 0 154 0 0 154 0 0 154 0 0 154 0 154 154 0 153 153 0
153 153 0 153 153 0 153 153 0 152 152 0 152 152 0 152 152 0 152 152 0
151 151 0 151 151 0 151 151 0 151 151 0 150 150 0 150 150 0 0 150 0 0
150 0 149 149 0 149 149 0 149 149 0 149 149 0 148 148 0 148 148 0 148
148 0 148 148 0 147 147 0 147 147 0 147 147 0 147 147 0 146 146 0 0
146 0 0 146 0 0 146 0 0 145 0 0 145 0 0 145 0 0 145 0 0 144 0 0 144 0
0 144 0 0 144 0 0 143 0 0 143 0 0 143 0 0 143 0 142 142 0 142 142 0
142 142 0 142 142 0 141 141 0 141 141 0 141 141 0 141 141 0 140 140 0
0 140 0 0 140 0 0 140 0 0 139 0 0 139 0 0 139 0 139 139 0 138 138 0
138 138 0 138 138 0 138 138 0 137 137 0 224 0 0 224 0 0 224 0 0 223 0
0 223 0 0 223 0 0 222 0 0 222 0 0 222 0 0 255 113 0 255 113 0 255 112
0 255 112 0 255 112 0 255 112 0 255 112 0 220 111 0 219 111 0 219 111
0 219 111 0 219 111 0 218 110 0 218 110 0 218 110 0 218 110 0 217 110
0 217 110 0 217 109 0 217 109 0 216 109 0 216 109 0 216 109 0 216 108
0 215 108 0 255 108 0 255 108 0 255 108 0 235 21 0 214 0 0 214 0 0 214
0 0 213 0 0 213 0 0 213 0 0 48 0 0 48 0 0 48 0 0 48 0 0 126 126 0 126
126 0 125 125 0 125 125 0 125 125 0 125 125 0 0 125 0 0 124 0 0 124 0
0 124 0 0 124 0 0 123 0 0 123 0 0 123 0 0 123 0 123 123 0 122 122 0
122 122 0 122 122 0 122 122 0 121 121 0 0 121 0 0 121 0 0 121 0 0 121
0 0 120 0 0 120 0 0 120 0 0 120 0 0 120 0 0 119 0 0 119 0 0 119 0 0
119 0 0 118 0 0 118 0 118 118 0 118 118 0 118 118 0 117 117 0 117 117
0 117 117 0 117 117 0 117 117 0 116 116 0 116 116 0 116 116 0 116 116
0 116 116 0 115 115 0 115 115 0 0 115 0 0 115 0 115 115 0 114 114 0
114 114 0 114 114 0 114 114 0 114 114 0 113 113 0 113 113 0 113 113 0
113 113 0 113 113 0 113 113 0 112 112 0 0 112 0 0 112 0 0 112 0 0 112
0 0 111 0 0 111 0 0 111 0 0 111 0 0 111 0 0 111 0 0 110 0 0 110 0 0
110 0 0 110 0 0 110 0
167 167 0 166 166 0 166 166 0 166 166 0 166 166 0 166 166 0 166 166 0
165 165 0 0 165 0 0 165 0 0 165 0 0 165 0 0 165 0 0 164 0 164 164 0
164 164 0 164 164 0 164 164 0 164 164 0 163 163 0 163 163 0 163 163 0
163 163 0 163 163 0 162 162 0 162 162 0 162 162 0 162 162 0 162 162 0
0 161 0 0 161 0 0 161 0 0 161 0 0 161 0 0 160 0 0 160 0 0 160 0 0 160
0 0 159 0 0 159 0 0 159 0 0 159 0 0 159 0 0 158 0 158 158 0 158 158 0
0 158 0 0 158 0 0 157 0 0 157 0 0 157 0 0 157 0 0 156 0 0 156 0 0 156
0 0 156 0 0 155 0 0 155 0 0 155 0 155 155 0 154 154 0 154 154 0 154
154 0 154 154 0 154 154 0 153 153 0 153 153 0 153 153 0 153 153 0 152
152 0 152 152 0 152 152 0 152 152 0 151 151 0 0 151 0 0 151 0 0 151 0
0 150 0 0 150 0 0 150 0 0 150 0 0 149 0 0 149 0 0 149 0 149 149 0 148
148 0 148 148 0 148 148 0 148 148 0 147 147 0 0 147 0 0 147 0 0 147 0
0 146 0 0 146 0 0 146 0 0 146 0 0 145 0 0 145 0 0 145 0 0 145 0 0 144
0 0 144 0 0 144 0 0 144 0 143 143 0 143 143 0 143 143 0 143 143 0 142
142 0 142 142 0 142 142 0 142 142 0 141 141 0 141 141 0 141 141 0 141
141 0 140 140 0 140 140 0 140 140 0 0 140 0 0 139 0 139 139 0 139 139
0 139 139 0 138 138 0 225 0 0 224 0 0 224 0 0 224 0 0 223 0 0 223 0 0
223 0 0 223 0 0 222 0 0 222 0 0 255 113 0 255 113 0 255 113 0 255 113
0 255 112 0 255 112 0 220 112 0 220 112 0 220 112 0 219 111 0 219 111
0 219 111 0 219 111 0 218 111 0 218 111 0 218 110 0 217 110 0 217 110
0 217 110 0 217 110 0 216 109 0 216 109 0 216 21 0 216 21 0 236 21 0
236 21 0 236 21 0 235 21 0 235 21 0 235 21 0 235 21 0 234 21 0 234 21
0 234 21 0 234 21 0 48 0 0 48 0 0 48 0 0 48 0 0 126 126 0 126 126 0
126 126 0 126 126 0 126 126 0 125 125 0 0 125 0 0 125 0 0 125 0 0 124
0 0 124 0 0 124 0 0 124 0 0 124 0 0 123 0 0 123 0 0 123 0 0 123 0 0
122 0 0 122 0 0 122 0 122 122 0 0 122 0 0 121 0 0 121 0 0 121 0 0 121
0 0 120 0 0 120 0 0 120 0 0 120 0 0 120 0 0 119 0 0 119 0 0 119 0 0
119 0 119 119 0 118 118 0 118 118 0 118 118 0 118 118 0 118 118 0 117
117 0 117 117 0 117 117 0 117 117 0 117 117 0 116 116 0 116 116 0 116
116 0 116 116 0 0 116 0 0 115 0 0 115 0 0 115 0 0 115 0 0 115 0 0 114
0 0 114 0 0 114 0 114 114 0 114 114 0 113 113 0 113 113 0 113 113 0
113 113 0 0 113 0 0 113 0 0 112 0 0 112 0 0 112 0 0 112 0 0 112 0 0
111 0 0 111 0 0 111 0 0 111 0 0 111 0 0 110 0 0 110 0 0 110 0
167 167 0 167 167 0 167 167 0 167 167 0 167 167 0 167 167 0 167 167 0
166 166 0 166 166 0 166 166 0 166 166 0 0 166 0 0 165 0 165 165 0 165
165 0 165 165 0 165 165 0 165 165 0 164 164 0 164 164 0 164 164 0 164
164 0 164 164 0 163 163 0 163 163 0 163 163 0 163 163 0 0 163 0 0 162
0 0 162 0 0 162 0 0 162 0 0 162 0 0 161 0 0 161 0 0 161 0 0 161 0 0
160 0 0 160 0 0 160 0 0 160 0 0 160 0 159 159 0 159 159 0 159 159 0
159 159 0 158 158 0 158 158 0 158 158 0 158 158 0 158 158 0 0 157 0 0
157 0 0 157 0 0 157 0 0 156 0 0 156 0 156 156 0 156 156 0 155 155 0
155 155 0 155 155 0 155 155 0 154 154 0 154 154 0 154 154 0 154 154 0
153 153 0 153 153 0 153 153 0 153 153 0 153 153 0 152 152 0 0 152 0 0
152 0 0 152 0 0 151 0 0 151 0 0 151 0 0 151 0 0 150 0 0 150 0 0 150 0
0 150 0 0 149 0 0 149 0 0 149 0 0 149 0 148 148 0 0 148 0 0 148 0 0
148 0 0 147 0 0 147 0 0 147 0 0 146 0 0 146 0 0 146 0 0 146 0 0 145 0
0 145 0 0 145 0 0 145 0 144 144 0 144 144 0 144 144 0 144 144 0 143
143 0 143 143 0 143 143 0 143 143 0 142 142 0 142 142 0 142 142 0 142
142 0 141 141 0 141 141 0 141 141 0 141 141 0 0 140 0 0 140 0 0 140 0
0 140 0 0 139 0 0 139 0 0 139 0 225 0 0 224 0 0 224 0 0 224 0 0 224 0
0 223 0 0 223 0 0 223 0 0 222 0 0 222 114 0 222 114 0 255 113 0 255
113 0 255 113 0 255 113 0 221 113 0 220 112 0 220 112 0 220 112 0 219
112 0 219 112 0 219 111 0 219 111 0 218 111 0 218 111 0 218 111 0 218
111 0 217 21 0 217 21 0 217 21 0 217 21 0 216 21 0 216 21 0 216 21 0
236 21 0 236 21 0 236 21 0 235 21 0 235 21 0 235 21 0 235 21 0 234 21
0 234 21 0 234 21 0 234 21 0 48 0 0 48 0 0 48 0 0 48 0 0 127 127 0 127
127 0 126 126 0 126 126 0 126 126 0 0 126 0 0 126 0 0 125 0 0 125 0 0
125 0 0 125 0 0 124 0 0 124 0 0 124 0 0 124 0 0 124 0 0 123 0 0 123 0
0 123 0 0 123 0 0 123 0 122 122 0 122 122 0 122 122 0 122 122 0 121
121 0 121 121 0 121 121 0 121 121 0 0 121 0 0 120 0 0 120 0 0 120 0 0
120 0 0 120 0 0 119 0 119 119 0 119 119 0 119 119 0 119 119 0 118 118
0 118 118 0 118 118 0 118 118 0 118 118 0 117 117 0 117 117 0 117 117
0 117 117 0 117 117 0 116 116 0 0 116 0 0 116 0 0 116 0 0 116 0 0 115
0 0 115 0 0 115 0 0 115 0 0 115 0 0 114 0 0 114 0 0 114 0 0 114 0 0
114 0 0 113 0 0 113 0 113 113 0 0 113 0 0 113 0 0 112 0 0 112 0 0 112
0 0 112 0 0 112 0 0 112 0 0 111 0 0 111 0 0 111 0 0 111 0 0 111 0
168 168 0 168 168 0 168 168 0 168 168 0 168 168 0 168 168 0 167 167 0
167 167 0 167 167 0 0 167 0 0 167 0 0 167 0 0 166 0 0 166 0 0 166 0 0
166 0 0 166 0 0 165 0 165 165 0 165 165 0 165 165 0 165 165 0 164 164
0 164 164 0 164 164 0 0 164 0 0 164 0 0 163 0 0 163 0 0 163 0 0 163 0
0 163 0 0 162 0 0 162 0 0 162 0 0 162 0 0 161 0 0 161 0 0 161 0 0 161
0 161 161 0 160 160 0 160 160 0 160 160 0 160 160 0 159 159 0 159 159
0 159 159 0 159 159 0 158 158 0 158 158 0 158 158 0 158 158 0 158 158
0 157 157 0 157 157 0 157 157 0 157 157 0 156 156 0 156 156 0 156 156
0 156 156 0 155 155 0 155 155 0 155 155 0 155 155 0 154 154 0 154 154
0 154 154 0 154 154 0 153 153 0 0 153 0 0 153 0 0 153 0 0 152 0 0 152
0 0 152 0 0 152 0 0 151 0 0 151 0 0 151 0 0 151 0 0 150 0 0 150 0 0
150 0 0 150 0 0 149 0 149 149 0 149 149 0 149 149 0 148 148 0 148 148
0 148 148 0 148 148 0 147 147 0 0 147 0 0 147 0 0 147 0 0 146 0 0 146
0 0 146 0 0 146 0 145 145 0 145 145 0 145 145 0 145 145 0 144 144 0
144 144 0 144 144 0 144 144 0 143 143 0 143 143 0 143 143 0 143 143 0
142 142 0 142 142 0 142 142 0 142 142 0 0 141 0 0 141 0 0 141 0 0 141
0 0 140 0 0 140 0 0 140 0 225 0 0 225 0 0 224 0 0 224 0 0 224 0 0 224
0 0 223 0 0 223 0 0 223 0 0 223 0 0 222 114 0 222 114 0 222 114 0 221
114 0 221 113 0 221 113 0 255 113 0 255 113 0 220 113 0 220 112 0 220
112 0 219 112 0 219 112 0 219 112 0 218 111 0 218 111 0 218 21 0 218
21 0 217 21 0 217 21 0 217 21 0 217 21 0 216 21 0 216 21 0 237 21 0
236 21 0 236 21 0 236 21 0 236 21 0 235 21 0 235 21 0 235 21 0 235 21
0 234 21 0 234 21 0 234 21 0 48 0 0 48 0 0 48 0 0 48 0 0 127 127 0 127
127 0 127 127 0 127 127 0 127 127 0 0 126 0 0 126 0 0 126 0 0 126 0 0
125 0 0 125 0 0 125 0 0 125 0 0 125 0 0 124 0 0 124 0 0 124 0 0 124 0
0 123 0 0 123 0 123 123 0 123 123 0 123 123 0 122 122 0 122 122 0 122
122 0 122 122 0 122 122 0 121 121 0 121 121 0 121 121 0 121 121 0 120
120 0 120 120 0 120 120 0 120 120 0 0 120 0 119 119 0 119 119 0 119
119 0 119 119 0 119 119 0 118 118 0 118 118 0 118 118 0 118 118 0 118
118 0 117 117 0 117 117 0 117 117 0 117 117 0 0 117 0 0 116 0 0 116 0
0 116 0 0 116 0 0 116 0 0 115 0 0 115 0 0 115 0 0 115 0 0 115 0 0 114
0 0 114 0 0 114 0 0 114 0 0 114 0 114 114 0 113 113 0 113 113 0 113
113 0 113 113 0 113 113 0 112 112 0 112 112 0 0 112 0 0 112 0 0 112 0
0 111 0 0 111 0 0 111 0
169 169 0 169 169 0 169 169 0 169 169 0 169 169 0 168 168 0 168 168 0
0 168 0 0 168 0 0 168 0 0 168 0 0 167 0 0 167 0 0 167 0 0 167 0 0 167
0 0 166 0 0 166 0 0 166 0 0 166 0 0 166 0 0 165 0 0 165 0 0 165 0 0
165 0 0 165 0 0 164 0 0 164 0 0 164 0 0 164 0 0 164 0 0 163 0 0 163 0
0 163 0 0 163 0 0 162 0 0 162 0 0 162 0 162 162 0 162 162 0 161 161 0
161 161 0 161 161 0 161 161 0 160 160 0 160 160 0 160 160 0 160 160 0
159 159 0 159 159 0 159 159 0 159 159 0 158 158 0 158 158 0 0 158 0 0
158 0 0 158 0 0 157 0 0 157 0 0 157 0 0 157 0 0 156 0 156 156 0 156
156 0 156 156 0 155 155 0 155 155 0 155 155 0 155 155 0 154 154 0 0
154 0 0 154 0 0 154 0 0 153 0 0 153 0 0 153 0 0 153 0 0 152 0 0 152 0
0 152 0 0 152 0 0 151 0 0 151 0 0 151 0 0 151 0 150 150 0 150 150 0
150 150 0 149 149 0 149 149 0 149 149 0 149 149 0 148 148 0 148 148 0
148 148 0 148 148 0 147 147 0 147 147 0 147 147 0 147 147 0 146 146 0
146 146 0 146 146 0 146 146 0 145 145 0 145 145 0 145 145 0 145 145 0
144 144 0 144 144 0 144 144 0 144 144 0 143 143 0 143 143 0 143 143 0
143 143 0 142 142 0 0 142 0 0 142 0 0 142 0 0 141 0 0 141 0 0 141 0 0
141 0 0 140 0 225 0 0 225 0 0 225 0 0 224 0 0 224 0 0 224 0 0 223 0 0
223 0 0 223 0 0 223 0 0 222 114 0 222 114 0 222 114 0 222 114 0 221
114 0 255 114 0 255 113 0 255 113 0 255 113 0 255 113 0 255 113 0 255
112 0 255 112 0 255 112 0 219 21 0 218 21 0 218 21 0 218 21 0 218 21 0
217 21 0 217 21 0 217 21 0 216 21 0 237 21 0 237 21 0 236 21 0 236 21
0 236 21 0 236 21 0 235 21 0 235 21 0 235 21 0 235 21 0 234 21 0 234
21 0 48 0 0 48 0 0 48 0 0 48 0 0 0 128 0 0 128 0 0 128 0 0 128 0 0 127
0 0 127 0 0 127 0 0 127 0 0 126 0 0 126 0 0 126 0 0 126 0 0 126 0 0 26
0 0 26 0 0 26 0 0 26 0 0 26 0 0 26 0 0 26 0 0 26 0 26 26 0 26 26 0 26
26 0 26 26 0 123 123 0 122 122 0 122 122 0 122 122 0 122 122 0 122 122
0 121 121 0 121 121 0 121 121 0 121 121 0 121 121 0 120 120 0 0 120 0
0 120 0 0 120 0 0 120 0 0 119 0 0 119 0 0 119 0 0 119 0 119 119 0 118
118 0 118 118 0 118 118 0 118 118 0 118 118 0 117 117 0 0 117 0 0 117
0 0 117 0 0 117 0 0 116 0 0 116 0 0 116 0 0 116 0 0 116 0 0 115 0 0
115 0 0 115 0 0 115 0 0 115 0 0 114 0 0 114 0 114 114 0 114 114 0 114
114 0 113 113 0 113 113 0 113 113 0 113 113 0 113 113 0 113 113 0 112
112 0 112 112 0 112 112 0 112 112 0 112 112 0
170 170 0 170 170 0 170 170 0 170 170 0 169 169 0 0 169 0 0 169 0 0
169 0 0 169 0 0 169 0 0 168 0 0 168 0 0 168 0 0 168 0 0 168 0 0 167 0
0 167 0 0 167 0 0 167 0 0 167 0 166 166 0 166 166 0 166 166 0 166 166
0 166 166 0 165 165 0 165 165 0 165 165 0 0 165 0 0 164 0 0 164 0 0
164 0 0 164 0 0 164 0 0 163 0 0 163 0 163 163 0 163 163 0 162 162 0
162 162 0 162 162 0 162 162 0 162 162 0 161 161 0 161 161 0 161 161 0
161 161 0 160 160 0 160 160 0 160 160 0 160 160 0 159 159 0 0 159 0 0
159 0 0 159 0 0 158 0 0 158 0 0 158 0 0 158 0 0 157 0 0 157 0 0 157 0
0 157 0 0 156 0 0 156 0 0 156 0 0 156 0 155 155 0 0 155 0 0 155 0 0
155 0 0 154 0 0 154 0 0 154 0 0 154 0 0 153 0 0 153 0 0 153 0 0 153 0
0 152 0 0 152 0 0 152 0 0 152 0 0 151 0 151 151 0 151 151 0 151 151 0
150 150 0 150 150 0 150 150 0 150 150 0 149 149 0 149 149 0 149 149 0
149 149 0 148 148 0 148 148 0 148 148 0 148 148 0 147 147 0 0 147 0 0
147 0 0 146 0 0 146 0 0 146 0 0 146 0 0 145 0 145 145 0 145 145 0 145
145 0 144 144 0 144 144 0 144 144 0 144 144 0 143 143 0 143 143 0 0
143 0 0 143 0 0 142 0 0 142 0 0 142 0 0 142 0 0 141 0 0 141 0 0 141 0
225 0 0 225 0 0 225 0 0 224 0 0 224 0 0 224 0 0 224 0 0 223 0 0 223 0
0 223 115 0 222 115 0 222 115 0 222 114 0 222 114 0 255 114 0 255 114
0 255 114 0 255 113 0 255 113 0 255 113 0 255 113 0 255 113 0 255 113
0 240 21 0 239 21 0 239 21 0 239 21 0 239 21 0 238 21 0 238 21 0 217
21 0 217 21 0 217 21 0 237 21 0 237 21 0 236 21 0 236 21 0 236 21 0
236 21 0 235 21 0 235 21 0 235 21 0 235 21 0 234 21 0 234 21 0 48 0 0
48 0 0 48 0 0 48 0 0 0 129 0 0 129 0 0 128 0 0 128 0 0 128 0 128 128 0
127 127 0 127 127 0 26 26 0 26 26 0 26 26 0 26 26 0 0 26 0 0 26 0 0 26
0 0 26 0 0 26 0 0 26 0 0 26 0 0 26 0 0 26 0 26 26 0 26 26 0 26 26 0 26
26 0 26 26 0 26 26 0 26 26 0 26 26 0 26 26 0 26 26 0 26 26 0 122 122 0
122 122 0 121 121 0 121 121 0 121 121 0 0 121 0 0 120 0 0 120 0 0 120
0 0 120 0 0 120 0 0 119 0 0 119 0 0 119 0 0 119 0 0 119 0 0 118 0 0
118 0 0 118 0 0 118 0 118 118 0 0 117 0 0 117 0 0 117 0 0 117 0 0 117
0 0 116 0 0 116 0 0 116 0 0 116 0 0 116 0 0 115 0 0 115 0 0 115 0 0
115 0 0 115 0 115 115 0 114 114 0 114 114 0 114 114 0 114 114 0 114
114 0 113 113 0 113 113 0 113 113 0 113 113 0 113 113 0 112 112 0 112
112 0 112 112 0
171 171 0 171 171 0 0 171 0 0 170 0 0 170 0 0 170 0 0 170 0 0 170 0 0
170 0 0 169 0 0 169 0 0 169 0 0 169 0 0 169 0 0 168 0 0 168 0 0 168 0
0 168 0 168 168 0 167 167 0 167 167 0 167 167 0 167 167 0 166 166 0
166 166 0 166 166 0 166 166 0 166 166 0 165 165 0 165 165 0 165 165 0
165 165 0 165 165 0 0 164 0 164 164 0 164 164 0 164 164 0 163 163 0
163 163 0 163 163 0 163 163 0 162 162 0 162 162 0 162 162 0 162 162 0
161 161 0 161 161 0 161 161 0 161 161 0 161 161 0 0 160 0 0 160 0 0
160 0 0 160 0 0 159 0 0 159 0 0 159 0 0 159 0 0 158 0 0 158 0 0 158 0
0 158 0 0 157 0 0 157 0 0 157 0 0 157 0 156 156 0 156 156 0 156 156 0
156 156 0 155 155 0 155 155 0 155 155 0 0 155 0 0 154 0 0 154 0 0 154
0 0 153 0 0 153 0 0 153 0 0 153 0 0 152 0 152 152 0 152 152 0 152 152
0 151 151 0 151 151 0 151 151 0 151 151 0 150 150 0 150 150 0 150 150
0 150 150 0 149 149 0 149 149 0 149 149 0 149 149 0 148 148 0 0 148 0
0 148 0 0 148 0 0 147 0 0 147 0 0 147 0 0 147 0 0 146 0 0 146 0 0 146
0 0 145 0 0 145 0 0 145 0 0 145 0 0 144 0 144 144 0 0 144 0 0 144 0 0
143 0 0 143 0 0 143 0 0 143 0 0 142 0 0 142 0 0 142 0 0 142 0 226 0 0
225 0 0 225 0 0 225 0 0 224 0 0 224 0 0 224 0 0 224 0 0 223 0 0 223 0
0 223 115 0 223 115 0 222 115 0 222 115 0 255 115 0 255 114 0 255 114
0 255 114 0 255 114 0 255 114 0 255 113 0 255 113 0 240 21 0 240 21 0
240 21 0 239 21 0 239 21 0 239 21 0 239 21 0 238 21 0 238 21 0 238 21
0 238 21 0 217 21 0 216 21 0 216 21 0 216 21 0 236 21 0 236 21 0 236
21 0 236 21 0 235 21 0 235 21 0 235 21 0 235 21 0 234 21 0 48 0 0 48 0
0 48 0 0 48 0 0 0 129 0 0 129 0 0 26 0 0 26 0 0 26 0 26 26 0 26 26 0
26 26 0 26 26 0 26 26 0 26 26 0 26 26 0 26 26 0 26 26 0 26 26 0 26 26
0 26 26 0 26 26 0 26 26 0 0 26 0 0 26 0 26 26 0 26 26 0 26 26 0 26 26
0 26 26 0 26 26 0 26 26 0 26 26 0 26 26 0 26 26 0 26 26 0 26 26 0 26
26 0 26 26 0 26 26 0 26 26 0 0 26 0 0 26 0 0 121 0 0 121 0 0 120 0 0
120 0 0 120 0 0 120 0 0 120 0 0 119 0 0 119 0 0 119 0 0 119 0 0 119 0
0 118 0 0 118 0 118 118 0 118 118 0 118 118 0 117 117 0 117 117 0 117
117 0 0 117 0 0 117 0 0 116 0 0 116 0 0 116 0 0 116 0 0 116 0 0 115 0
0 115 0 0 115 0 115 115 0 115 115 0 114 114 0 114 114 0 114 114 0 114
114 0 114 114 0 114 114 0 113 113 0 113 113 0 113 113 0 113 113 0 113
113 0
0 172 0 0 172 0 0 171 0 0 171 0 0 171 0 0 171 0 0 171 0 0 170 0 0 170
0 0 170 0 0 170 0 0 170 0 0 170 0 0 169 0 0 169 0 0 169 0 169 169 0
168 168 0 168 168 0 168 168 0 168 168 0 168 168 0 167 167 0 167 167 0
167 167 0 167 167 0 167 167 0 166 166 0 166 166 0 166 166 0 166 166 0
165 165 0 0 165 0 0 165 0 0 165 0 0 165 0 0 164 0 164 164 0 164 164 0
164 164 0 163 163 0 163 163 0 163 163 0 163 163 0 162 162 0 162 162 0
162 162 0 162 162 0 161 161 0 0 161 0 0 161 0 0 161 0 0 160 0 0 160 0
0 160 0 0 160 0 0 159 0 0 159 0 0 159 0 0 159 0 0 158 0 0 158 0 0 158
0 0 158 0 0 157 0 157 157 0 157 157 0 157 157 0 156 156 0 156 156 0
156 156 0 156 156 0 155 155 0 155 155 0 155 155 0 155 155 0 154 154 0
154 154 0 0 154 0 0 154 0 0 153 0 153 153 0 153 153 0 153 153 0 152
152 0 152 152 0 152 152 0 151 151 0 151 151 0 151 151 0 151 151 0 150
150 0 150 150 0 150 150 0 150 150 0 149 149 0 149 149 0 0 149 0 0 149
0 0 148 0 0 148 0 0 148 0 0 148 0 0 147 0 0 147 0 0 147 0 0 147 0 0
146 0 0 146 0 0 146 0 0 146 0 0 145 0 0 145 0 145 145 0 144 144 0 144
144 0 144 144 0 144 144 0 0 143 0 0 143 0 0 143 0 0 143 0 0 142 0 0
142 0 226 0 0 225 0 0 225 0 0 225 0 0 225 0 0 224 0 0 224 0 0 224 0 0
223 0 0 223 0 0 223 116 0 223 116 0 222 115 0 255 115 0 255 115 0 255
115 0 255 115 0 255 114 0 255 114 0 255 114 0 241 21 0 241 21 0 240 21
0 240 21 0 240 21 0 240 21 0 239 21 0 239 21 0 239 21 0 238 21 0 238
21 0 238 21 0 217 21 0 217 21 0 217 21 0 216 21 0 216 21 0 216 21 0
216 21 0 215 21 0 215 21 0 215 21 0 215 21 0 235 21 0 235 21 0 48 109
0 48 0 0 48 0 0 48 0 0 48 0 0 0 26 0 0 26 0 0 26 0 0 26 0 26 26 0 26
26 0 26 26 0 26 26 0 26 26 0 26 26 0 26 26 0 26 26 0 26 26 0 26 26 0
26 26 0 26 26 0 26 26 0 26 26 0 26 26 0 26 26 0 0 26 0 0 26 0 0 26 0 0
26 0 0 26 0 26 26 0 26 26 0 26 26 0 26 26 0 26 26 0 26 26 0 26 26 0 26
26 0 26 26 0 26 26 0 26 26 0 26 26 0 0 26 0 0 26 0 0 26 0 0 26 0 0 26
0 0 26 0 0 26 0 0 26 0 0 26 0 0 120 0 0 120 0 0 119 0 0 119 0 0 119 0
0 119 0 0 119 0 118 118 0 118 118 0 118 118 0 118 118 0 118 118 0 117
117 0 117 117 0 117 117 0 117 117 0 117 117 0 116 116 0 116 116 0 116
116 0 0 116 0 0 116 0 0 115 0 115 115 0 115 115 0 115 115 0 115 115 0
115 115 0 114 114 0 114 114 0 114 114 0 114 114 0 114 114 0 113 113 0
113 113 0 113 113 0
173 173 0 0 172 0 0 172 0 0 172 0 0 172 0 0 172 0 0 171 0 0 171 0 0
171 0 0 171 0 0 171 0 0 170 0 0 170 0 0 170 0 170 170 0 170 170 0 169
169 0 169 169 0 169 169 0 169 169 0 169 169 0 168 168 0 168 168 0 168
168 0 168 168 0 167 167 0 167 167 0 167 167 0 167 167 0 167 167 0 0
166 0 0 166 0 0 166 0 0 166 0 0 165 0 0 165 0 0 165 0 0 165 0 0 164 0
0 164 0 0 164 0 0 164 0 163 163 0 163 163 0 163 163 0 163 163 0 163
163 0 0 162 0 0 162 0 0 162 0 0 162 0 0 161 0 0 161 0 0 161 0 0 161 0
0 160 0 0 160 0 0 160 0 0 160 0 0 159 0 0 159 0 0 159 0 0 159 0 158
158 0 158 158 0 158 158 0 157 157 0 157 157 0 157 157 0 157 157 0 156
156 0 156 156 0 156 156 0 156 156 0 155 155 0 155 155 0 155 155 0 155
155 0 154 154 0 0 154 0 0 154 0 0 154 0 0 153 0 153 153 0 153 153 0
153 153 0 152 152 0 152 152 0 152 152 0 152 152 0 151 151 0 151 151 0
151 151 0 150 150 0 150 150 0 150 150 0 0 150 0 0 149 0 0 149 0 0 149
0 0 149 0 0 148 0 0 148 0 0 148 0 0 148 0 0 147 0 0 147 0 0 147 0 0
147 0 0 146 0 0 146 0 0 146 0 146 146 0 145 145 0 145 145 0 145 145 0
144 144 0 144 144 0 144 144 0 144 144 0 143 143 0 143 143 0 143 143 0
226 0 0 226 0 0 226 0 0 225 0 0 225 0 0 225 0 0 224 0 0 224 0 0 224 0
0 224 0 0 223 116 0 223 116 0 223 116 0 222 116 0 255 115 0 255 115 0
255 115 0 255 115 0 255 115 0 255 114 0 241 21 0 241 21 0 241 21 0 240
21 0 240 21 0 240 21 0 240 21 0 239 21 0 239 21 0 239 21 0 239 21 0
238 21 0 238 21 0 217 21 0 217 21 0 217 21 0 216 21 0 216 21 0 216 21
0 216 21 0 215 21 0 215 21 0 215 21 0 215 21 0 214 21 0 214 21 0 48
110 0 48 0 0 48 0 0 48 0 0 48 0 0 0 26 0 0 26 0 0 26 0 0 26 0 26 26 0
26 26 0 26 26 0 26 26 0 26 26 0 26 26 0 26 26 0 26 26 0 26 26 0 26 26
0 26 26 0 26 26 0 26 26 0 26 26 0 26 26 0 26 26 0 0 26 0 0 26 0 0 26 0
0 26 0 0 26 0 0 26 0 0 26 0 0 26 0 0 26 0 0 26 0 0 26 0 0 26 0 26 26 0
26 26 0 26 26 0 26 26 0 0 26 0 0 26 0 0 26 0 0 26 0 0 26 0 0 26 0 0 26
0 0 26 0 0 26 0 0 26 0 0 26 0 0 26 0 0 26 0 0 26 0 0 26 0 0 26 0 0 26
0 119 119 0 119 119 0 118 118 0 118 118 0 118 118 0 118 118 0 118 118
0 117 117 0 117 117 0 117 117 0 117 117 0 117 117 0 117 117 0 116 116
0 116 116 0 116 116 0 0 116 0 0 116 0 0 115 0 0 115 0 115 115 0 115
115 0 115 115 0 114 114 0 114 114 0 114 114 0 114 114 0 114 114 0 114
114 0
173 173 0 173 173 0 173 173 0 173 173 0 173 173 0 172 172 0 0 172 0 0
172 0 0 172 0 0 172 0 0 171 0 0 171 0 171 171 0 171 171 0 171 171 0
170 170 0 170 170 0 170 170 0 170 170 0 169 169 0 169 169 0 169 169 0
169 169 0 169 169 0 168 168 0 168 168 0 168 168 0 168 168 0 0 167 0 0
167 0 0 167 0 0 167 0 0 167 0 0 166 0 0 166 0 0 166 0 0 166 0 0 165 0
0 165 0 0 165 0 0 165 0 0 164 0 0 164 0 0 164 0 0 164 0 163 163 0 163
163 0 0 163 0 0 163 0 0 162 0 0 162 0 0 162 0 0 162 0 0 161 0 0 161 0
0 161 0 0 161 0 0 160 0 0 160 0 0 160 0 0 160 0 159 159 0 159 159 0
159 159 0 159 159 0 158 158 0 158 158 0 158 158 0 158 158 0 157 157 0
157 157 0 157 157 0 156 156 0 156 156 0 156 156 0 156 156 0 155 155 0
155 155 0 0 155 0 0 155 0 0 154 0 0 154 0 0 154 0 0 154 0 0 153 0 0
153 0 0 153 0 0 153 0 0 152 0 152 152 0 152 152 0 152 152 0 151 151 0
151 151 0 151 151 0 0 150 0 0 150 0 0 150 0 0 150 0 0 149 0 0 149 0 0
149 0 0 149 0 0 148 0 0 148 0 0 148 0 0 148 0 0 147 0 0 147 0 0 147 0
0 147 0 146 146 0 146 146 0 146 146 0 146 146 0 145 145 0 145 145 0
145 145 0 144 144 0 144 144 0 144 144 0 144 144 0 143 143 0 226 0 0
226 0 0 226 0 0 225 0 0 225 0 0 225 0 0 224 0 0 224 0 0 224 0 0 224 0
0 223 117 0 135 135 135 134 134 134 134 134 134 134 134 134 134 134
134 134 134 134 133 133 133 133 133 133 133 133 133 133 133 133 133
133 133 132 132 132 132 132 132 132 132 132 132 132 132 132 132 132
239 21 0 239 21 0 239 21 0 239 21 0 238 21 0 217 21 0 217 21 0 217 21
0 217 21 0 216 21 0 216 21 0 216 21 0 216 21 0 215 21 0 215 21 0 215
21 0 215 21 0 214 21 0 214 21 0 159 110 0 48 0 0 48 0 0 48 0 0 48 0 0
0 26 0 0 26 0 0 26 0 26 26 0 26 26 0 26 26 0 26 26 0 26 26 0 26 26 0
26 26 0 26 26 0 26 26 0 26 26 0 26 26 0 26 26 0 26 26 0 26 26 0 26 26
0 26 26 0 26 26 0 0 26 0 0 26 0 0 26 0 0 26 0 0 26 0 0 26 0 0 26 0 0
26 0 0 26 0 0 26 0 0 26 0 0 26 0 0 26 0 0 26 0 0 26 0 0 26 0 26 26 0
26 26 0 26 26 0 0 26 0 0 26 0 0 26 0 0 26 0 0 26 0 0 26 0 0 26 0 0 26
0 0 26 0 0 26 0 0 26 0 0 26 0 0 26 0 0 26 0 26 26 0 26 26 0 26 26 0 26
26 0 26 26 0 26 26 0 26 26 0 118 118 0 118 118 0 118 118 0 117 117 0
117 117 0 117 117 0 117 117 0 117 117 0 116 116 0 116 116 0 0 116 0 0
116 0 0 116 0 0 115 0 0 115 0 0 115 0 0 115 0 0 115 0 0 115 0 0 114 0
114 114 0 114 114 0
174 174 0 174 174 0 174 174 0 174 174 0 173 173 0 173 173 0 173 173 0
173 173 0 173 173 0 172 172 0 0 172 0 172 172 0 172 172 0 171 171 0
171 171 0 171 171 0 171 171 0 171 171 0 170 170 0 170 170 0 170 170 0
170 170 0 169 169 0 169 169 0 169 169 0 169 169 0 0 169 0 0 168 0 0
168 0 0 168 0 0 168 0 0 167 0 0 167 0 0 167 0 0 167 0 0 166 0 0 166 0
0 166 0 0 166 0 0 165 0 0 165 0 0 165 0 0 165 0 164 164 0 164 164 0
164 164 0 164 164 0 163 163 0 163 163 0 163 163 0 163 163 0 162 162 0
0 162 0 0 162 0 0 162 0 0 161 0 0 161 0 0 161 0 0 161 0 0 160 0 160
160 0 160 160 0 160 160 0 159 159 0 159 159 0 159 159 0 159 159 0 158
158 0 158 158 0 158 158 0 158 158 0 157 157 0 157 157 0 157 157 0 157
157 0 156 156 0 156 156 0 0 156 0 0 155 0 0 155 0 0 155 0 0 155 0 0
154 0 0 154 0 0 154 0 0 154 0 0 153 0 0 153 0 0 153 0 0 153 0 0 152 0
0 152 0 0 152 0 152 152 0 0 151 0 0 151 0 0 151 0 0 150 0 0 150 0 0
150 0 0 150 0 0 149 0 0 149 0 0 149 0 0 149 0 0 148 0 0 148 0 0 148 0
0 148 0 0 147 0 147 147 0 147 147 0 147 147 0 146 146 0 146 146 0 146
146 0 145 145 0 145 145 0 138 138 138 138 138 138 138 138 138 137 137
137 137 137 137 137 137 137 137 137 137 137 137 137 136 136 136 136
136 136 136 136 136 136 136 136 136 136 136 135 135 135 135 135 135
135 135 135 135 135 135 135 135 135 134 134 134 134 134 134 134 134
134 134 134 134 134 134 134 133 133 133 133 133 133 133 133 133 133
133 133 133 133 133 132 132 132 132 132 132 132 132 132 132 132 132
132 132 132 239 21 0 239 21 0 239 21 0 238 21 0 218 21 0 217 21 0 217
21 0 217 21 0 217 21 0 216 21 0 216 21 0 216 21 0 216 21 0 215 21 0
215 21 0 215 21 0 215 21 0 159 111 0 159 111 0 48 0 0 48 0 0 48 0 0 48
0 0 26 26 0 26 26 0 26 26 0 0 26 0 26 26 0 26 26 0 26 26 0 26 26 0 26
26 0 26 26 0 26 26 0 26 26 0 26 26 0 26 26 0 26 26 0 26 26 0 26 26 0
26 26 0 26 26 0 26 26 0 0 26 0 0 26 0 0 26 0 0 26 0 0 26 0 0 26 0 0 26
0 0 26 0 0 26 0 0 26 0 0 26 0 0 26 0 0 26 0 0 26 0 0 26 0 0 26 0 26 26
0 26 26 0 26 26 0 26 26 0 26 26 0 26 26 0 26 26 0 26 26 0 26 26 0 26
26 0 0 26 0 0 26 0 0 26 0 0 26 0 0 26 0 0 26 0 0 26 0 26 26 0 26 26 0
26 26 0 26 26 0 26 26 0 26 26 0 119 119 0 118 118 0 118 118 0 118 118
0 118 118 0 118 118 0 117 117 0 117 117 0 117 117 0 117 117 0 117 117
0 0 117 0 0 116 0 0 116 0 0 116 0 0 116 0 0 116 0 0 115 0 0 115 0 0
115 0 0 115 0 0 115 0 0 114 0
175 175 0 175 175 0 174 174 0 174 174 0 174 174 0 174 174 0 174 174 0
173 173 0 0 173 0 0 173 0 0 173 0 0 173 0 0 172 0 0 172 0 0 172 0 172
172 0 171 171 0 171 171 0 171 171 0 171 171 0 171 171 0 170 170 0 170
170 0 170 170 0 0 170 0 0 169 0 0 169 0 0 169 0 0 169 0 0 168 0 0 168
0 0 168 0 0 168 0 0 168 0 0 167 0 0 167 0 0 167 0 0 167 0 0 166 0 0
166 0 0 166 0 166 166 0 165 165 0 165 165 0 165 165 0 165 165 0 164
164 0 164 164 0 164 164 0 164 164 0 163 163 0 163 163 0 163 163 0 163
163 0 162 162 0 162 162 0 162 162 0 0 161 0 161 161 0 161 161 0 161
161 0 160 160 0 160 160 0 160 160 0 160 160 0 159 159 0 159 159 0 159
159 0 159 159 0 158 158 0 158 158 0 158 158 0 158 158 0 157 157 0 157
157 0 0 157 0 0 157 0 0 156 0 0 156 0 0 156 0 0 155 0 0 155 0 0 155 0
0 155 0 0 154 0 0 154 0 0 154 0 0 154 0 0 153 0 0 153 0 0 153 0 0 153
0 152 152 0 152 152 0 152 152 0 151 151 0 151 151 0 151 151 0 151 151
0 150 150 0 0 150 0 0 150 0 142 142 142 141 141 141 141 141 141 141
141 141 141 141 141 141 141 141 140 140 140 140 140 140 140 140 140
140 140 140 140 140 140 139 139 139 139 139 139 139 139 139 139 139
139 138 138 138 138 138 138 138 138 138 138 138 138 138 138 138 137
137 137 137 137 137 137 137 137 137 137 137 137 137 137 136 136 136
136 136 136 136 136 136 136 136 136 136 136 136 135 135 135 135 135
135 135 135 135 135 135 135 135 135 135 134 134 134 134 134 134 134
134 134 134 134 134 134 134 134 133 133 133 133 133 133 133 133 133
133 133 133 133 133 133 133 133 133 132 132 132 132 132 132 132 132
132 239 21 0 239 21 0 239 21 0 218 21 0 218 21 0 217 21 0 217 21 0 217
21 0 217 21 0 216 21 0 216 21 0 216 21 0 216 21 0 215 21 0 215 21 0
215 21 0 215 21 0 160 111 0 160 111 0 48 0 0 48 0 0 48 0 0 48 0 0 26
26 0 26 26 0 0 26 0 0 26 0 0 26 0 0 26 0 0 26 0 0 26 0 0 26 0 0 26 0
26 26 0 26 26 0 26 26 0 26 26 0 26 26 0 26 26 0 26 26 0 26 26 0 26 26
0 0 26 0 0 26 0 0 26 0 0 26 0 0 26 0 0 26 0 0 26 0 0 26 0 0 26 0 0 26
0 0 26 0 0 26 0 0 26 0 0 26 0 0 26 0 0 26 0 0 26 0 26 26 0 26 26 0 26
26 0 26 26 0 26 26 0 26 26 0 26 26 0 26 26 0 26 26 0 26 26 0 26 26 0
26 26 0 26 26 0 26 26 0 26 26 0 26 26 0 0 26 0 26 26 0 26 26 0 26 26 0
26 26 0 119 119 0 119 119 0 119 119 0 119 119 0 119 119 0 118 118 0
118 118 0 118 118 0 118 118 0 118 118 0 118 118 0 117 117 0 117 117 0
0 117 0 0 117 0 0 117 0 0 116 0 0 116 0 0 116 0 0 116 0 0 116 0 0 115
0 0 115 0 0 115 0 0 115 0
176 176 0 175 175 0 175 175 0 175 175 0 175 175 0 0 175 0 0 174 0 0
174 0 0 174 0 0 174 0 0 173 0 0 173 0 0 173 0 0 173 0 0 173 0 0 172 0
0 172 0 0 172 0 0 172 0 0 171 0 171 171 0 171 171 0 0 171 0 0 171 0 0
170 0 0 170 0 0 170 0 0 170 0 0 169 0 0 169 0 0 169 0 0 169 0 0 168 0
0 168 0 0 168 0 0 168 0 0 167 0 0 167 0 0 167 0 0 167 0 166 166 0 166
166 0 166 166 0 166 166 0 165 165 0 165 165 0 165 165 0 165 165 0 164
164 0 164 164 0 164 164 0 164 164 0 163 163 0 163 163 0 163 163 0 163
163 0 162 162 0 0 162 0 0 162 0 0 162 0 0 161 0 0 161 0 161 161 0 160
160 0 160 160 0 160 160 0 160 160 0 159 159 0 159 159 0 159 159 0 159
159 0 158 158 0 158 158 0 158 158 0 0 158 0 0 157 0 0 157 0 0 157 0 0
156 0 0 156 0 0 156 0 0 156 0 0 155 0 0 155 0 0 155 0 0 155 0 0 154 0
0 154 0 0 154 0 0 154 0 0 153 0 153 153 0 153 153 0 152 152 0 152 152
0 152 152 0 152 152 0 151 151 0 143 143 143 142 142 142 142 142 142
142 142 142 142 142 142 142 142 142 141 141 141 141 141 141 141 141
141 141 141 141 141 141 141 140 140 140 140 140 140 140 140 140 140
140 140 140 140 140 139 139 139 139 139 139 139 139 139 139 139 139
138 138 138 138 138 138 138 138 138 138 138 138 138 138 138 137 137
137 137 137 137 137 137 137 137 137 137 137 137 137 136 136 136 136
136 136 136 136 136 136 136 136 136 136 136 135 135 135 135 135 135
135 135 135 135 135 135 135 135 135 134 134 134 134 134 134 134 134
134 134 134 134 134 134 134 134 134 134 133 133 133 133 133 133 133
133 133 133 133 133 133 133 133 132 132 132 132 132 132 132 132 132
239 21 0 218 21 0 218 21 0 218 21 0 218 21 0 217 21 0 217 21 0 217 21
0 216 21 0 216 21 0 216 21 0 216 21 0 215 21 0 215 21 0 215 21 0 215
21 0 160 112 0 160 112 0 48 0 0 48 0 0 48 0 0 48 0 0 26 26 0 26 26 0 0
26 0 0 26 0 0 26 0 0 26 0 0 26 0 0 26 0 0 26 0 0 26 0 0 26 0 0 26 0 0
26 0 0 26 0 0 26 0 0 26 0 26 26 0 26 26 0 26 26 0 0 26 0 0 26 0 0 26 0
0 26 0 0 26 0 0 26 0 0 26 0 0 26 0 0 26 0 0 26 0 0 26 0 0 26 0 0 26 0
0 26 0 0 26 0 0 26 0 0 26 0 26 26 0 26 26 0 26 26 0 26 26 0 26 26 0 26
26 0 26 26 0 26 26 0 26 26 0 26 26 0 26 26 0 26 26 0 26 26 0 26 26 0
26 26 0 26 26 0 26 26 0 0 26 0 0 26 0 0 26 0 0 120 0 0 120 0 0 120 0
120 120 0 119 119 0 119 119 0 119 119 0 119 119 0 119 119 0 118 118 0
118 118 0 118 118 0 118 118 0 118 118 0 0 117 0 0 117 0 0 117 0 0 117
0 0 117 0 0 116 0 0 116 0 0 116 0 0 116 0 0 116 0 0 116 0 0 115 0
176 176 0 176 176 0 176 176 0 0 176 0 0 175 0 0 175 0 0 175 0 0 175 0
0 175 0 0 174 0 0 174 0 0 174 0 0 174 0 0 173 0 0 173 0 0 173 0 0 173
0 0 173 0 0 172 0 0 172 0 0 172 0 172 172 0 171 171 0 171 171 0 0 171
0 0 171 0 0 170 0 0 170 0 0 170 0 0 170 0 0 169 0 0 169 0 0 169 0 0
169 0 0 168 0 0 168 0 0 168 0 0 168 0 167 167 0 167 167 0 167 167 0
167 167 0 166 166 0 166 166 0 166 166 0 166 166 0 165 165 0 165 165 0
165 165 0 165 165 0 164 164 0 164 164 0 164 164 0 164 164 0 163 163 0
0 163 0 0 163 0 0 163 0 0 162 0 0 162 0 0 162 0 0 161 0 0 161 0 0 161
0 0 161 0 0 160 0 0 160 0 160 160 0 160 160 0 159 159 0 159 159 0 159
159 0 0 159 0 0 158 0 0 158 0 0 158 0 0 158 0 0 157 0 0 157 0 0 157 0
0 156 0 0 156 0 0 156 0 0 156 0 0 155 0 0 155 0 0 155 0 0 155 0 0 154
0 154 154 0 154 154 0 154 154 0 153 153 0 153 153 0 153 153 0 152 152
0 152 152 0 152 152 0 143 143 143 143 143 143 142 142 142 142 142 142
142 142 142 142 142 142 142 142 142 141 141 141 141 141 141 141 141
141 141 141 141 141 141 141 140 140 140 140 140 140 140 140 140 140
140 140 140 140 140 139 139 139 139 139 139 139 139 139 139 139 139
138 138 138 138 138 138 138 138 138 138 138 138 138 138 138 137 137
137 137 137 137 137 137 137 137 137 137 137 137 137 136 136 136 136
136 136 136 136 136 136 136 136 136 136 136 135 135 135 135 135 135
135 135 135 135 135 135 135 135 135 135 135 135 134 134 134 134 134
134 134 134 134 134 134 134 134 134 134 133 133 133 133 133 133 133
133 133 133 133 133 133 133 133 132 132 132 132 132 132 219 21 0 239
21 0 218 21 0 218 21 0 218 21 0 217 21 0 217 21 0 217 21 0 217 21 0
216 21 0 216 21 0 216 21 0 216 21 0 215 21 0 215 21 0 215 21 0 161 112
0 48 0 0 48 0 0 48 0 0 48 0 0 26 26 0 26 26 0 26 26 0 0 26 0 0 26 0 0
26 0 0 26 0 0 26 0 0 26 0 0 26 0 0 26 0 0 26 0 0 26 0 0 26 0 0 26 0 0
26 0 0 26 0 0 26 0 0 26 0 0 26 0 26 26 0 26 26 0 26 26 0 0 26 0 0 26 0
0 26 0 0 26 0 0 26 0 0 26 0 0 26 0 0 26 0 0 26 0 0 26 0 0 26 0 0 26 0
0 26 0 0 26 0 26 26 0 26 26 0 26 26 0 26 26 0 26 26 0 26 26 0 26 26 0
26 26 0 26 26 0 26 26 0 26 26 0 26 26 0 26 26 0 26 26 0 26 26 0 26 26
0 26 26 0 0 26 0 0 26 0 0 121 0 0 121 0 0 120 0 0 120 0 0 120 0 0 120
0 0 120 0 0 119 0 0 119 0 0 119 0 0 119 0 119 119 0 118 118 0 118 118
0 118 118 0 118 118 0 0 118 0 0 117 0 0 117 0 0 117 0 0 117 0 0 117 0
0 117 0 0 116 0 0 116 0 0 116 0 0 116 0
177 177 0 0 177 0 0 176 0 0 176 0 0 176 0 0 176 0 0 176 0 0 175 0 0
175 0 0 175 0 0 175 0 0 174 0 0 174 0 0 174 0 0 174 0 0 174 0 0 173 0
0 173 0 0 173 0 173 173 0 172 172 0 172 172 0 172 172 0 172 172 0 171
171 0 171 171 0 171 171 0 171 171 0 170 170 0 0 170 0 0 170 0 0 170 0
0 169 0 0 169 0 0 169 0 0 169 0 168 168 0 168 168 0 168 168 0 168 168
0 167 167 0 167 167 0 167 167 0 167 167 0 166 166 0 166 166 0 166 166
0 166 166 0 165 165 0 165 165 0 165 165 0 165 165 0 164 164 0 0 164 0
0 164 0 0 164 0 0 163 0 0 163 0 0 163 0 0 163 0 0 162 0 0 162 0 0 162
0 0 161 0 0 161 0 0 161 0 0 161 0 0 160 0 0 160 0 0 160 0 0 160 0 159
159 0 0 159 0 0 159 0 0 159 0 0 158 0 0 158 0 0 158 0 0 157 0 0 157 0
0 157 0 0 157 0 0 156 0 0 156 0 0 156 0 0 156 0 0 155 0 0 155 0 155
155 0 155 155 0 154 154 0 154 154 0 154 154 0 153 153 0 153 153 0 153
153 0 153 153 0 152 152 0 143 143 143 143 143 143 143 143 143 142 142
142 142 142 142 142 142 142 142 142 142 142 142 142 141 141 141 141
141 141 141 141 141 141 141 141 141 141 141 140 140 140 140 140 140
140 140 140 140 140 140 140 140 140 139 139 139 139 139 139 139 139
139 139 139 139 138 138 138 138 138 138 138 138 138 138 138 138 138
138 138 137 137 137 137 137 137 137 137 137 137 137 137 137 137 137
136 136 136 136 136 136 136 136 136 136 136 136 136 136 136 136 136
136 135 135 135 135 135 135 135 135 135 135 135 135 135 135 135 134
134 134 134 134 134 134 134 134 134 134 134 134 134 134 133 133 133
133 133 133 133 133 133 133 133 133 133 133 133 132 132 132 132 132
132 239 21 0 239 21 0 239 21 0 238 21 0 238 21 0 238 21 0 217 21 0 217
21 0 216 21 0 216 21 0 216 21 0 216 21 0 48 21 0 215 21 0 161 113 0
161 113 0 48 0 0 48 0 0 48 0 0 48 0 0 26 26 0 26 26 0 0 26 0 0 26 0 0
26 0 0 26 0 0 26 0 0 26 0 0 26 0 0 26 0 0 26 0 0 26 0 0 26 0 0 26 0 0
26 0 0 26 0 0 26 0 0 26 0 0 26 0 0 26 0 26 26 0 26 26 0 26 26 0 26 26
0 26 26 0 26 26 0 26 26 0 26 26 0 26 26 0 26 26 0 0 26 0 0 26 0 0 26 0
0 26 0 0 26 0 0 26 0 0 26 0 26 26 0 26 26 0 26 26 0 26 26 0 26 26 0 26
26 0 26 26 0 26 26 0 26 26 0 26 26 0 26 26 0 26 26 0 26 26 0 26 26 0
26 26 0 26 26 0 26 26 0 0 26 0 0 121 0 0 121 0 0 121 0 0 121 0 0 121 0
0 120 0 0 120 0 0 120 0 0 120 0 0 120 0 0 119 0 0 119 0 0 119 0 0 119
0 0 119 0 0 118 0 0 118 0 118 118 0 0 118 0 0 118 0 0 118 0 0 117 0 0
117 0 0 117 0 0 117 0 0 117 0 0 116 0 0 116 0
0 178 0 0 177 0 0 177 0 0 177 0 0 177 0 0 176 0 0 176 0 0 176 0 0 176
0 0 176 0 0 175 0 0 175 0 0 175 0 0 175 0 0 174 0 0 174 0 0 174 0 174
174 0 173 173 0 173 173 0 173 173 0 173 173 0 173 173 0 172 172 0 172
172 0 172 172 0 172 172 0 171 171 0 171 171 0 171 171 0 171 171 0 170
170 0 170 170 0 0 170 0 170 170 0 169 169 0 169 169 0 169 169 0 169
169 0 168 168 0 168 168 0 168 168 0 167 167 0 167 167 0 167 167 0 167
167 0 166 166 0 166 166 0 166 166 0 166 166 0 165 165 0 165 165 0 0
165 0 0 165 0 0 164 0 0 164 0 0 164 0 0 164 0 0 163 0 0 163 0 0 163 0
0 162 0 0 162 0 0 162 0 0 162 0 0 161 0 0 161 0 0 161 0 0 161 0 160
160 0 160 160 0 160 160 0 160 160 0 159 159 0 159 159 0 159 159 0 158
158 0 0 158 0 0 158 0 0 158 0 0 157 0 0 157 0 0 157 0 0 157 0 0 156 0
0 156 0 0 156 0 156 156 0 155 155 0 155 155 0 155 155 0 154 154 0 154
154 0 154 154 0 154 154 0 153 153 0 153 153 0 153 153 0 143 143 143
143 143 143 143 143 143 143 143 143 142 142 142 142 142 142 142 142
142 142 142 142 142 142 142 141 141 141 141 141 141 141 141 141 141
141 141 141 141 141 140 140 140 140 140 140 140 140 140 140 140 140
139 139 139 139 139 139 139 139 139 139 139 139 139 139 139 138 138
138 138 138 138 138 138 138 138 138 138 138 138 138 137 137 137 137
137 137 137 137 137 137 137 137 137 137 137 137 137 137 136 136 136
136 136 136 136 136 136 136 136 136 136 136 136 135 135 135 135 135
135 135 135 135 135 135 135 135 135 135 134 134 134 134 134 134 134
134 134 134 134 134 134 134 134 133 133 133 133 133 133 133 133 133
133 133 133 133 133 133 132 132 132 239 21 0 239 21 0 239 21 0 238 21
0 238 21 0 238 21 0 238 21 0 69 21 0 69 21 0 69 21 0 69 21 0 69 21 0
48 21 0 48 21 0 162 113 0 161 113 0 48 0 0 48 0 0 48 0 0 48 0 0 26 26
0 26 26 0 0 26 0 0 26 0 0 26 0 0 26 0 0 26 0 0 26 0 0 26 0 0 26 0 0 26
0 0 26 0 0 26 0 0 26 0 0 26 0 0 26 0 0 26 0 0 26 0 0 26 0 26 26 0 26
26 0 26 26 0 26 26 0 26 26 0 26 26 0 26 26 0 26 26 0 26 26 0 26 26 0
26 26 0 26 26 0 26 26 0 26 26 0 26 26 0 26 26 0 26 26 0 0 26 0 26 26 0
26 26 0 26 26 0 26 26 0 26 26 0 26 26 0 26 26 0 26 26 0 26 26 0 26 26
0 26 26 0 26 26 0 26 26 0 26 26 0 26 26 0 26 26 0 26 26 0 122 122 0 0
122 0 0 122 0 0 121 0 0 121 0 0 121 0 0 121 0 0 121 0 0 120 0 0 120 0
0 120 0 0 120 0 0 120 0 0 119 0 0 119 0 0 119 0 0 119 0 0 119 0 119
119 0 118 118 0 118 118 0 118 118 0 118 118 0 118 118 0 117 117 0 117
117 0 0 117 0 0 117 0 0 117 0
0 178 0 0 178 0 0 178 0 0 177 0 0 177 0 0 177 0 0 177 0 0 177 0 0 176
0 0 176 0 0 176 0 0 176 0 0 175 0 0 175 0 0 175 0 175 175 0 174 174 0
174 174 0 174 174 0 174 174 0 174 174 0 173 173 0 173 173 0 173 173 0
173 173 0 172 172 0 172 172 0 172 172 0 172 172 0 171 171 0 171 171 0
171 171 0 0 171 0 0 170 0 0 170 0 0 170 0 0 170 0 0 169 0 169 169 0
169 169 0 169 169 0 168 168 0 168 168 0 168 168 0 167 167 0 167 167 0
167 167 0 167 167 0 166 166 0 166 166 0 0 166 0 0 166 0 0 165 0 0 165
0 0 165 0 0 165 0 0 164 0 0 164 0 0 164 0 0 163 0 0 163 0 0 163 0 0
163 0 0 162 0 0 162 0 0 162 0 0 162 0 0 161 0 161 161 0 161 161 0 161
161 0 160 160 0 160 160 0 160 160 0 159 159 0 159 159 0 159 159 0 159
159 0 158 158 0 158 158 0 158 158 0 158 158 0 0 157 0 0 157 0 0 157 0
0 156 0 156 156 0 156 156 0 156 156 0 155 155 0 155 155 0 155 155 0
155 155 0 154 154 0 154 154 0 154 154 0 154 154 0 153 153 0 143 143
143 143 143 143 143 143 143 143 143 143 143 143 143 142 142 142 142
142 142 142 142 142 142 142 142 142 142 142 141 141 141 141 141 141
141 141 141 141 141 141 140 140 140 140 140 140 140 140 140 140 140
140 140 140 140 139 139 139 139 139 139 139 139 139 139 139 139 139
139 139 138 138 138 138 138 138 138 138 138 138 138 138 138 138 138
137 137 137 137 137 137 137 137 137 137 137 137 137 137 137 137 137
137 136 136 136 136 136 136 136 136 136 136 136 136 136 136 136 135
135 135 135 135 135 135 135 135 135 135 135 135 135 135 134 134 134
134 134 134 134 134 134 134 134 134 134 134 134 133 133 133 133 133
133 133 133 133 133 133 133 133 133 133 133 133 133 239 21 0 69 21 0
69 21 0 69 21 0 69 21 0 69 21 0 69 21 0 69 21 0 69 21 0 69 21 0 69 21
0 69 21 0 69 21 0 48 114 0 48 113 0 48 0 0 48 0 0 48 0 0 48 0 0 26 26
0 0 26 0 0 26 0 0 26 0 0 26 0 0 26 0 0 26 0 0 26 0 0 26 0 0 26 0 0 26
0 0 26 0 0 26 0 0 26 0 0 26 0 0 26 0 0 26 0 0 26 0 0 26 0 26 26 0 26
26 0 26 26 0 26 26 0 26 26 0 26 26 0 26 26 0 26 26 0 26 26 0 26 26 0
26 26 0 26 26 0 26 26 0 26 26 0 26 26 0 26 26 0 26 26 0 26 26 0 0 26 0
0 26 0 0 26 0 0 26 0 0 26 0 26 26 0 26 26 0 26 26 0 26 26 0 26 26 0 26
26 0 26 26 0 26 26 0 26 26 0 26 26 0 26 26 0 123 123 0 122 122 0 0 122
0 0 122 0 0 122 0 0 122 0 0 121 0 0 121 0 0 121 0 0 121 0 0 121 0 0
120 0 0 120 0 0 120 0 0 120 0 0 120 0 0 120 0 0 119 0 0 119 0 119 119
0 119 119 0 119 119 0 118 118 0 118 118 0 118 118 0 118 118 0 118 118
0 117 117 0 117 117 0 117 117 0
0 179 0 0 179 0 0 178 0 0 178 0 0 178 0 0 178 0 0 177 0 0 177 0 0 177
0 0 177 0 0 176 0 0 176 0 0 176 0 176 176 0 176 176 0 175 175 0 175
175 0 175 175 0 175 175 0 174 174 0 174 174 0 174 174 0 174 174 0 173
173 0 173 173 0 173 173 0 173 173 0 172 172 0 172 172 0 172 172 0 172
172 0 0 171 0 0 171 0 0 171 0 0 171 0 0 170 0 0 170 0 0 170 0 0 170 0
0 169 0 0 169 0 0 169 0 168 168 0 168 168 0 168 168 0 168 168 0 167
167 0 167 167 0 0 167 0 0 167 0 0 166 0 0 166 0 0 166 0 0 166 0 0 165
0 0 165 0 0 165 0 0 164 0 0 164 0 0 164 0 0 164 0 0 163 0 0 163 0 0
163 0 0 163 0 0 162 0 162 162 0 162 162 0 162 162 0 161 161 0 161 161
0 161 161 0 160 160 0 160 160 0 160 160 0 160 160 0 159 159 0 159 159
0 159 159 0 159 159 0 158 158 0 158 158 0 158 158 0 157 157 0 0 157 0
0 157 0 0 157 0 156 156 0 156 156 0 156 156 0 156 156 0 155 155 0 155
155 0 155 155 0 155 155 0 154 154 0 154 154 0 154 154 0 144 144 144
143 143 143 143 143 143 143 143 143 143 143 143 143 143 143 142 142
142 142 142 142 142 142 142 142 142 142 141 141 141 141 141 141 141
141 141 141 141 141 141 141 141 140 140 140 140 140 140 140 140 140
140 140 140 140 140 140 139 139 139 139 139 139 139 139 139 139 139
139 139 139 139 138 138 138 138 138 138 138 138 138 138 138 138 138
138 138 137 137 137 137 137 137 137 137 137 137 137 137 137 137 137
137 137 137 136 136 136 136 136 136 136 136 136 136 136 136 136 136
136 135 135 135 135 135 135 135 135 135 135 135 135 135 135 135 134
134 134 134 134 134 134 134 134 134 134 134 134 134 134 133 133 133
133 133 133 133 133 133 133 133 133 133 133 133 133 133 133 69 21 0 69
21 0 69 21 0 69 21 0 69 21 0 69 21 0 69 21 0 69 21 0 69 21 0 69 21 0
69 21 0 48 114 0 48 114 0 48 0 0 48 0 0 48 0 0 48 0 0 0 26 0 0 26 0 26
26 0 26 26 0 26 26 0 0 26 0 0 26 0 0 26 0 0 26 0 0 26 0 0 26 0 0 26 0
0 26 0 0 26 0 0 26 0 0 26 0 0 26 0 0 26 0 0 26 0 0 26 0 26 26 0 26 26
0 26 26 0 26 26 0 26 26 0 26 26 0 26 26 0 26 26 0 26 26 0 26 26 0 26
26 0 26 26 0 26 26 0 26 26 0 26 26 0 26 26 0 26 26 0 26 26 0 0 26 0 0
26 0 0 26 0 0 26 0 0 26 0 0 26 0 0 26 0 0 26 0 0 26 0 0 26 0 0 26 0 26
26 0 26 26 0 26 26 0 123 123 0 123 123 0 123 123 0 123 123 0 0 123 0 0
122 0 0 122 0 0 122 0 0 122 0 0 122 0 0 121 0 0 121 0 0 121 0 0 121 0
0 121 0 0 120 0 0 120 0 0 120 0 0 120 0 0 120 0 0 120 0 0 119 0 119
119 0 119 119 0 119 119 0 119 119 0 118 118 0 118 118 0 118 118 0 118
118 0 118 118 0 117 117 0
179 179 0 0 179 0 0 179 0 0 179 0 0 178 0 0 178 0 0 178 0 0 178 0 0
177 0 0 177 0 0 177 0 177 177 0 177 177 0 176 176 0 176 176 0 176 176
0 176 176 0 175 175 0 175 175 0 175 175 0 175 175 0 174 174 0 174 174
0 174 174 0 174 174 0 173 173 0 173 173 0 173 173 0 173 173 0 0 172 0
0 172 0 0 172 0 0 172 0 0 171 0 0 171 0 0 171 0 0 171 0 0 170 0 0 170
0 0 170 0 0 169 0 0 169 0 0 169 0 0 169 0 0 168 0 0 168 0 0 168 0 0
168 0 0 167 0 0 167 0 0 167 0 0 167 0 0 166 0 0 166 0 0 166 0 0 165 0
0 165 0 0 165 0 0 165 0 0 164 0 0 164 0 0 164 0 0 164 0 0 163 0 0 163
0 163 163 0 163 163 0 162 162 0 162 162 0 162 162 0 161 161 0 161 161
0 161 161 0 161 161 0 160 160 0 160 160 0 160 160 0 160 160 0 159 159
0 159 159 0 159 159 0 158 158 0 158 158 0 0 158 0 0 158 0 0 157 0 0
157 0 0 157 0 0 157 0 0 156 0 0 156 0 0 156 0 155 155 0 155 155 0 155
155 0 155 155 0 154 154 0 154 154 0 144 144 144 144 144 144 143 143
143 143 143 143 143 143 143 143 143 143 142 142 142 142 142 142 142
142 142 142 142 142 142 142 142 141 141 141 141 141 141 141 141 141
141 141 141 141 141 141 140 140 140 140 140 140 140 140 140 140 140
140 140 140 140 139 139 139 139 139 139 139 139 139 139 139 139 139
139 139 138 138 138 138 138 138 138 138 138 138 138 138 138 138 138
137 137 137 137 137 137 137 137 137 137 137 137 137 137 137 137 137
137 136 136 136 136 136 136 136 136 136 136 136 136 136 136 136 135
135 135 135 135 135 135 135 135 135 135 135 135 135 135 134 134 134
134 134 134 134 134 134 134 134 134 134 134 134 134 134 134 133 133
133 133 133 133 133 133 133 133 133 133 69 21 0 69 21 0 69 21 0 69 21
0 69 21 0 69 21 0 69 21 0 69 21 0 69 21 0 69 21 0 69 21 0 48 114 0 48
114 0 48 0 0 48 0 0 48 0 0 48 0 0 0 26 0 0 26 0 26 26 0 26 26 0 26 26
0 26 26 0 26 26 0 26 26 0 26 26 0 26 26 0 0 26 0 0 26 0 0 26 0 0 26 0
0 26 0 0 26 0 0 26 0 0 26 0 0 26 0 0 26 0 26 26 0 26 26 0 26 26 0 26
26 0 26 26 0 26 26 0 26 26 0 26 26 0 26 26 0 26 26 0 26 26 0 26 26 0
26 26 0 26 26 0 26 26 0 26 26 0 26 26 0 26 26 0 0 26 0 0 26 0 0 26 0 0
26 0 0 26 0 0 26 0 0 26 0 0 26 0 0 26 0 0 26 0 0 26 0 0 26 0 0 26 0 0
124 0 0 124 0 0 124 0 0 123 0 0 123 0 0 123 0 0 123 0 0 123 0 0 122 0
0 122 0 0 122 0 0 122 0 0 122 0 0 121 0 0 121 0 0 121 0 0 121 0 0 121
0 0 121 0 0 120 0 0 120 0 0 120 0 0 120 0 120 120 0 119 119 0 119 119
0 119 119 0 119 119 0 119 119 0 118 118 0 118 118 0 118 118 0 118 118
0
180 180 0 180 180 0 179 179 0 179 179 0 179 179 0 0 179 0 0 178 0 0
178 0 0 178 0 178 178 0 178 178 0 177 177 0 177 177 0 177 177 0 177
177 0 176 176 0 176 176 0 176 176 0 176 176 0 175 175 0 175 175 0 175
175 0 175 175 0 174 174 0 174 174 0 174 174 0 174 174 0 0 173 0 0 173
0 0 173 0 0 173 0 0 172 0 0 172 0 0 172 0 0 172 0 0 171 0 0 171 0 0
171 0 0 170 0 0 170 0 0 170 0 0 170 0 0 169 0 0 169 0 0 169 0 169 169
0 168 168 0 168 168 0 168 168 0 168 168 0 167 167 0 0 167 0 0 167 0 0
166 0 0 166 0 0 166 0 0 166 0 0 165 0 0 165 0 0 165 0 0 165 0 0 164 0
0 164 0 0 164 0 163 163 0 163 163 0 163 163 0 163 163 0 162 162 0 162
162 0 162 162 0 162 162 0 161 161 0 161 161 0 161 161 0 160 160 0 160
160 0 160 160 0 160 160 0 159 159 0 159 159 0 159 159 0 0 159 0 0 158
0 0 158 0 0 158 0 0 157 0 0 157 0 0 157 0 0 157 0 0 156 0 0 156 0 0
156 0 0 156 0 0 155 0 0 155 0 0 155 0 155 155 0 154 154 0 144 144 144
143 143 143 143 143 143 143 143 143 143 143 143 143 143 143 142 142
142 142 142 142 142 142 142 142 142 142 142 142 142 141 141 141 141
141 141 141 141 141 141 141 141 141 141 141 140 140 140 140 140 140
140 140 140 140 140 140 140 140 140 139 139 139 139 139 139 139 139
139 139 139 139 139 139 139 138 138 138 138 138 138 138 138 138 138
138 138 138 138 138 137 137 137 137 137 137 137 137 137 137 137 137
137 137 137 137 137 137 136 136 136 136 136 136 136 136 136 136 136
136 136 136 136 135 135 135 135 135 135 135 135 135 135 135 135 135
135 135 134 134 134 134 134 134 134 134 134 134 134 134 134 134 134
134 134 134 133 133 133 133 133 133 133 133 133 133 133 133 69 21 0 69
21 0 69 21 0 69 21 0 69 21 0 69 21 0 69 21 0 69 21 0 69 21 0 69 21 0
48 115 0 48 115 0 48 0 0 48 0 0 48 0 0 48 0 0 0 26 0 26 26 0 26 26 0
26 26 0 26 26 0 26 26 0 26 26 0 26 26 0 26 26 0 26 26 0 26 26 0 26 26
0 26 26 0 26 26 0 26 26 0 26 26 0 0 26 0 0 26 0 0 26 0 26 26 0 26 26 0
26 26 0 26 26 0 26 26 0 26 26 0 26 26 0 26 26 0 26 26 0 26 26 0 26 26
0 26 26 0 26 26 0 26 26 0 26 26 0 26 26 0 26 26 0 26 26 0 26 26 0 0 26
0 0 26 0 0 26 0 0 26 0 0 26 0 0 26 0 0 26 0 0 26 0 0 26 0 0 26 0 0 26
0 0 26 0 0 125 0 0 124 0 0 124 0 0 124 0 0 124 0 0 124 0 123 123 0 123
123 0 123 123 0 123 123 0 123 123 0 122 122 0 0 122 0 0 122 0 0 122 0
0 122 0 0 121 0 0 121 0 0 121 0 0 121 0 0 121 0 0 121 0 0 120 0 0 120
0 120 120 0 120 120 0 120 120 0 119 119 0 119 119 0 119 119 0 119 119
0 119 119 0 118 118 0 118 118 0
180 180 0 180 180 0 180 180 0 180 180 0 179 179 0 179 179 0 179 179 0
0 179 0 0 179 0 0 178 0 178 178 0 178 178 0 178 178 0 177 177 0 177
177 0 177 177 0 177 177 0 176 176 0 176 176 0 176 176 0 176 176 0 175
175 0 175 175 0 175 175 0 175 175 0 0 174 0 0 174 0 0 174 0 0 174 0 0
173 0 0 173 0 0 173 0 0 173 0 0 172 0 0 172 0 0 172 0 0 171 0 0 171 0
0 171 0 0 171 0 0 170 0 0 170 0 0 170 0 0 170 0 169 169 0 169 169 0
169 169 0 169 169 0 168 168 0 168 168 0 168 168 0 167 167 0 167 167 0
167 167 0 167 167 0 166 166 0 0 166 0 0 166 0 0 166 0 0 165 0 0 165 0
0 165 0 164 164 0 164 164 0 164 164 0 164 164 0 163 163 0 163 163 0
163 163 0 163 163 0 162 162 0 162 162 0 162 162 0 161 161 0 161 161 0
161 161 0 161 161 0 160 160 0 160 160 0 160 160 0 160 160 0 0 159 0 0
159 0 0 159 0 0 158 0 0 158 0 0 158 0 0 158 0 0 157 0 0 157 0 0 157 0
0 157 0 0 156 0 0 156 0 0 156 0 0 155 0 0 155 0 0 155 0 0 155 0 144
144 144 144 144 144 143 143 143 143 143 143 143 143 143 143 143 143
143 143 143 142 142 142 142 142 142 142 142 142 142 142 142 142 142
142 141 141 141 141 141 141 141 141 141 141 141 141 141 141 141 140
140 140 140 140 140 140 140 140 140 140 140 140 140 140 139 139 139
139 139 139 139 139 139 139 139 139 139 139 139 138 138 138 138 138
138 138 138 138 138 138 138 138 138 138 137 137 137 137 137 137 137
137 137 137 137 137 137 137 137 137 137 137 136 136 136 136 136 136
136 136 136 136 136 136 136 136 136 135 135 135 135 135 135 135 135
135 135 135 135 135 135 135 134 134 134 134 134 134 134 134 134 134
134 134 134 134 134 134 134 134 133 133 133 133 133 133 133 133 133 69
21 0 69 21 0 69 21 0 69 21 0 69 21 0 69 21 0 69 21 0 69 21 0 69 21 0
48 115 0 48 115 0 48 0 0 48 0 0 48 0 0 48 0 0 0 26 0 0 26 0 26 26 0 26
26 0 26 26 0 26 26 0 26 26 0 26 26 0 26 26 0 26 26 0 26 26 0 26 26 0
26 26 0 26 26 0 26 26 0 26 26 0 26 26 0 26 26 0 26 26 0 26 26 0 0 26 0
0 26 0 0 26 0 26 26 0 26 26 0 26 26 0 26 26 0 26 26 0 26 26 0 26 26 0
26 26 0 26 26 0 26 26 0 26 26 0 26 26 0 26 26 0 26 26 0 26 26 0 26 26
0 0 26 0 0 26 0 0 26 0 0 26 0 0 26 0 0 26 0 0 26 0 0 26 0 0 26 0 0 26
0 0 26 0 0 125 0 0 125 0 0 125 0 0 125 0 0 124 0 0 124 0 0 124 0 124
124 0 124 124 0 123 123 0 123 123 0 123 123 0 123 123 0 123 123 0 122
122 0 122 122 0 122 122 0 122 122 0 122 122 0 0 122 0 0 121 0 0 121 0
0 121 0 0 121 0 0 121 0 0 120 0 120 120 0 120 120 0 120 120 0 120 120
0 119 119 0 119 119 0 119 119 0 119 119 0 119 119 0
181 181 0 181 181 0 180 180 0 180 180 0 180 180 0 0 180 0 0 180 0 0
179 0 0 179 0 0 179 0 0 179 0 0 178 0 0 178 0 0 178 0 178 178 0 177
177 0 177 177 0 177 177 0 177 177 0 176 176 0 176 176 0 176 176 0 176
176 0 0 175 0 0 175 0 0 175 0 0 175 0 0 174 0 0 174 0 0 174 0 0 173 0
0 173 0 0 173 0 0 173 0 0 172 0 0 172 0 0 172 0 0 172 0 0 171 0 0 171
0 0 171 0 0 171 0 170 170 0 170 170 0 170 170 0 169 169 0 169 169 0
169 169 0 169 169 0 168 168 0 168 168 0 168 168 0 168 168 0 167 167 0
167 167 0 167 167 0 166 166 0 166 166 0 166 166 0 166 166 0 0 165 0
165 165 0 165 165 0 165 165 0 164 164 0 164 164 0 164 164 0 163 163 0
163 163 0 163 163 0 163 163 0 162 162 0 162 162 0 162 162 0 162 162 0
161 161 0 161 161 0 161 161 0 160 160 0 0 160 0 0 160 0 0 160 0 0 159
0 0 159 0 0 159 0 0 159 0 0 158 0 0 158 0 0 158 0 0 157 0 0 157 0 0
157 0 0 157 0 0 156 0 0 156 0 0 156 0 0 156 0 0 155 0 155 155 0 144
144 144 144 144 144 144 144 144 143 143 143 143 143 143 143 143 143
143 143 143 143 143 143 142 142 142 142 142 142 142 142 142 142 142
142 142 142 142 141 141 141 141 141 141 141 141 141 141 141 141 141
141 141 140 140 140 140 140 140 140 140 140 140 140 140 140 140 140
139 139 139 139 139 139 139 139 139 139 139 139 139 139 139 138 138
138 138 138 138 138 138 138 138 138 138 138 138 138 137 137 137 137
137 137 137 137 137 137 137 137 137 137 137 137 137 137 136 136 136
136 136 136 136 136 136 136 136 136 136 136 136 135 135 135 135 135
135 135 135 135 135 135 135 135 135 135 134 134 134 134 134 134 134
134 134 134 134 134 134 134 134 134 134 134 133 133 133 133 133 133
133 133 133 156 107 0 48 107 0 69 21 0 69 21 0 69 21 0 69 21 0 69 21 0
69 21 0 48 116 0 48 116 0 48 0 0 48 0 0 48 0 0 48 0 0 0 26 0 26 26 0
26 26 0 26 26 0 26 26 0 26 26 0 26 26 0 26 26 0 26 26 0 26 26 0 26 26
0 26 26 0 26 26 0 26 26 0 26 26 0 26 26 0 26 26 0 26 26 0 26 26 0 26
26 0 0 26 0 0 26 0 0 26 0 0 26 0 0 26 0 0 26 0 0 26 0 0 26 0 0 26 0 26
26 0 26 26 0 26 26 0 26 26 0 26 26 0 26 26 0 26 26 0 26 26 0 26 26 0
26 26 0 0 26 0 0 26 0 0 26 0 0 26 0 0 26 0 0 26 0 0 26 0 0 26 0 0 26 0
0 26 0 0 126 0 0 126 0 0 125 0 0 125 0 0 125 0 0 125 0 0 125 0 0 124 0
124 124 0 124 124 0 124 124 0 124 124 0 123 123 0 123 123 0 123 123 0
123 123 0 123 123 0 122 122 0 122 122 0 122 122 0 122 122 0 122 122 0
122 122 0 121 121 0 121 121 0 121 121 0 0 121 0 121 121 0 120 120 0
120 120 0 120 120 0 120 120 0 120 120 0 119 119 0 119 119 0 119 119 0
181 181 0 181 181 0 181 181 0 0 181 0 0 180 0 0 180 0 0 180 0 0 180 0
0 180 0 0 179 0 0 179 0 0 179 0 0 179 0 0 178 0 0 178 0 0 178 0 0 178
0 0 177 0 177 177 0 177 177 0 177 177 0 176 176 0 0 176 0 0 176 0 0
175 0 0 175 0 0 175 0 0 175 0 0 174 0 0 174 0 0 174 0 0 174 0 0 173 0
0 173 0 0 173 0 0 173 0 0 172 0 0 172 0 0 172 0 0 172 0 171 171 0 171
171 0 171 171 0 170 170 0 170 170 0 170 170 0 170 170 0 169 169 0 169
169 0 169 169 0 169 169 0 168 168 0 168 168 0 168 168 0 167 167 0 167
167 0 167 167 0 167 167 0 166 166 0 0 166 0 0 166 0 0 166 0 0 165 0 0
165 0 0 165 0 164 164 0 164 164 0 164 164 0 164 164 0 163 163 0 163
163 0 163 163 0 163 163 0 162 162 0 162 162 0 162 162 0 161 161 0 161
161 0 0 161 0 0 161 0 0 160 0 0 160 0 0 160 0 0 159 0 0 159 0 0 159 0
0 159 0 0 158 0 0 158 0 0 158 0 0 158 0 0 157 0 0 157 0 0 157 0 0 156
0 0 156 0 0 156 0 156 156 0 155 155 0 144 144 144 144 144 144 144 144
144 144 144 144 143 143 143 143 143 143 143 143 143 143 143 143 142
142 142 142 142 142 142 142 142 142 142 142 142 142 142 141 141 141
141 141 141 141 141 141 141 141 141 141 141 141 141 141 141 140 140
140 140 140 140 140 140 140 140 140 140 140 140 140 139 139 139 139
139 139 139 139 139 139 139 139 139 139 139 138 138 138 138 138 138
138 138 138 138 138 138 138 138 138 137 137 137 137 137 137 137 137
137 137 137 137 137 137 137 136 136 136 136 136 136 136 136 136 136
136 136 136 136 136 136 136 136 135 135 135 135 135 135 135 135 135
135 135 135 135 135 135 134 134 134 134 134 134 134 134 134 134 134
134 134 134 134 134 134 134 133 133 133 133 133 133 48 108 0 48 107 0
48 107 0 48 107 0 48 107 0 48 107 0 48 106 0 48 106 0 48 116 0 48 116
0 48 0 0 48 0 0 48 0 0 48 0 0 0 26 0 26 26 0 26 26 0 26 26 0 26 26 0
26 26 0 26 26 0 26 26 0 26 26 0 26 26 0 26 26 0 26 26 0 26 26 0 26 26
0 26 26 0 26 26 0 26 26 0 26 26 0 26 26 0 26 26 0 0 26 0 0 26 0 0 26 0
0 26 0 0 26 0 0 26 0 0 26 0 0 26 0 0 26 0 0 26 0 0 26 0 0 26 0 0 26 0
0 26 0 0 26 0 26 26 0 26 26 0 26 26 0 26 26 0 0 26 0 0 26 0 0 26 0 0
26 0 0 26 0 0 26 0 0 26 0 0 26 0 0 26 0 0 126 0 0 126 0 0 126 0 0 126
0 0 126 0 0 125 0 0 125 0 0 125 0 0 125 0 125 125 0 124 124 0 124 124
0 124 124 0 124 124 0 124 124 0 123 123 0 123 123 0 123 123 0 123 123
0 123 123 0 122 122 0 122 122 0 122 122 0 122 122 0 122 122 0 122 122
0 121 121 0 121 121 0 0 121 0 0 121 0 0 121 0 0 120 0 0 120 0 0 120 0
120 120 0 120 120 0 119 119 0
182 182 0 0 182 0 0 181 0 0 181 0 0 181 0 0 181 0 0 180 0 0 180 0 0
180 0 0 180 0 0 179 0 0 179 0 0 179 0 0 179 0 0 178 0 0 178 0 0 178 0
0 178 0 0 177 0 0 177 0 177 177 0 177 177 0 0 176 0 0 176 0 0 176 0 0
176 0 0 175 0 0 175 0 0 175 0 0 175 0 0 174 0 0 174 0 0 174 0 0 174 0
0 173 0 0 173 0 0 173 0 0 172 0 0 172 0 172 172 0 172 172 0 171 171 0
171 171 0 171 171 0 171 171 0 170 170 0 170 170 0 170 170 0 169 169 0
169 169 0 169 169 0 169 169 0 168 168 0 168 168 0 168 168 0 168 168 0
167 167 0 167 167 0 0 167 0 0 166 0 0 166 0 0 166 0 0 166 0 0 165 0 0
165 0 0 165 0 0 165 0 0 164 0 0 164 0 164 164 0 163 163 0 163 163 0
163 163 0 163 163 0 162 162 0 162 162 0 162 162 0 0 162 0 0 161 0 0
161 0 0 161 0 0 160 0 0 160 0 0 160 0 0 160 0 0 159 0 0 159 0 0 159 0
0 158 0 0 158 0 0 158 0 0 158 0 0 157 0 0 157 0 0 157 0 0 157 0 156
156 0 156 156 0 156 156 0 144 144 144 144 144 144 144 144 144 144 144
144 143 143 143 143 143 143 143 143 143 143 143 143 143 143 143 142
142 142 142 142 142 142 142 142 142 142 142 142 142 142 141 141 141
141 141 141 141 141 141 141 141 141 141 141 141 140 140 140 140 140
140 140 140 140 140 140 140 140 140 140 140 140 140 139 139 139 139
139 139 139 139 139 139 139 139 139 139 139 138 138 138 138 138 138
138 138 138 138 138 138 138 138 138 137 137 137 137 137 137 137 137
137 137 137 137 137 137 137 136 136 136 136 136 136 136 136 136 136
136 136 136 136 136 136 136 136 135 135 135 135 135 135 135 135 135
135 135 135 135 135 135 134 134 134 134 134 134 134 134 134 134 134
134 134 134 134 134 134 134 133 133 133 133 133 133 156 108 0 156 107
0 156 107 0 48 21 0 48 21 0 48 21 0 48 21 0 48 117 0 48 0 0 48 0 0 48
0 0 48 0 0 48 0 0 0 26 0 26 26 0 26 26 0 26 26 0 26 26 0 26 26 0 26 26
0 26 26 0 26 26 0 26 26 0 26 26 0 26 26 0 26 26 0 26 26 0 26 26 0 26
26 0 26 26 0 26 26 0 26 26 0 26 26 0 0 26 0 0 26 0 0 26 0 0 26 0 0 26
0 0 26 0 0 26 0 0 26 0 0 26 0 0 26 0 0 26 0 0 26 0 0 26 0 0 26 0 0 26
0 0 26 0 0 26 0 0 26 0 26 26 0 26 26 0 26 26 0 0 26 0 0 26 0 0 26 0 0
26 0 0 26 0 0 26 0 0 127 0 0 127 0 0 127 0 0 126 0 0 126 0 0 126 0 0
126 0 0 126 0 0 125 0 0 125 0 125 125 0 125 125 0 125 125 0 124 124 0
124 124 0 124 124 0 124 124 0 124 124 0 123 123 0 123 123 0 123 123 0
123 123 0 123 123 0 122 122 0 122 122 0 122 122 0 122 122 0 122 122 0
122 122 0 0 121 0 0 121 0 0 121 0 0 121 0 0 121 0 0 120 0 0 120 0 0
120 0 0 120 0
0 182 0 0 182 0 0 182 0 0 182 0 0 181 0 0 181 0 0 181 0 0 181 0 0 180
0 0 180 0 0 180 0 0 180 0 0 179 0 0 179 0 0 179 0 0 179 0 0 178 0 0
178 0 178 178 0 178 178 0 177 177 0 177 177 0 177 177 0 177 177 0 176
176 0 176 176 0 0 176 0 0 176 0 0 175 0 0 175 0 0 175 0 0 174 0 0 174
0 0 174 0 0 174 0 0 173 0 0 173 0 173 173 0 173 173 0 172 172 0 172
172 0 172 172 0 172 172 0 171 171 0 171 171 0 171 171 0 170 170 0 170
170 0 170 170 0 170 170 0 169 169 0 169 169 0 169 169 0 168 168 0 168
168 0 168 168 0 0 168 0 0 167 0 0 167 0 0 167 0 0 167 0 0 166 0 0 166
0 0 166 0 0 165 0 0 165 0 0 165 0 0 165 0 0 164 0 0 164 0 0 164 0 0
164 0 0 163 0 0 163 0 163 163 0 0 162 0 0 162 0 0 162 0 0 162 0 0 161
0 0 161 0 0 161 0 0 161 0 0 160 0 0 160 0 0 160 0 0 159 0 0 159 0 0
159 0 0 159 0 0 158 0 0 158 0 0 158 0 0 157 0 0 157 0 157 157 0 157
157 0 156 156 0 156 156 0 144 144 144 144 144 144 144 144 144 144 144
144 144 144 144 143 143 143 143 143 143 143 143 143 143 143 143 143
143 143 142 142 142 142 142 142 142 142 142 142 142 142 142 142 142
141 141 141 141 141 141 141 141 141 141 141 141 141 141 141 140 140
140 140 140 140 140 140 140 140 140 140 140 140 140 139 139 139 139
139 139 139 139 139 139 139 139 139 139 139 139 139 139 138 138 138
138 138 138 138 138 138 138 138 138 138 138 138 137 137 137 137 137
137 137 137 137 137 137 137 137 137 137 136 136 136 136 136 136 136
136 136 136 136 136 136 136 136 136 136 136 135 135 135 135 135 135
135 135 135 135 135 135 135 135 135 134 134 134 134 134 134 134 134
134 134 134 134 134 134 134 134 134 134 133 133 133 69 21 0 69 21 0 69
21 0 69 21 0 69 21 0 69 21 0 69 21 0 165 117 0 48 0 0 48 0 0 48 0 0 48
0 0 0 26 0 26 26 0 26 26 0 26 26 0 26 26 0 26 26 0 26 26 0 26 26 0 26
26 0 26 26 0 26 26 0 26 26 0 26 26 0 26 26 0 26 26 0 26 26 0 26 26 0
26 26 0 26 26 0 26 26 0 0 26 0 0 26 0 0 26 0 0 26 0 0 26 0 0 26 0 0 26
0 0 26 0 0 26 0 0 26 0 0 26 0 0 26 0 0 26 0 0 26 0 0 26 0 0 26 0 0 26
0 0 26 0 0 26 0 26 26 0 26 26 0 26 26 0 26 26 0 26 26 0 26 26 0 26 26
0 128 128 0 0 128 0 0 127 0 0 127 0 0 127 0 0 127 0 0 127 0 0 126 0 0
126 0 0 126 0 0 126 0 0 126 0 0 125 0 125 125 0 125 125 0 125 125 0
125 125 0 124 124 0 124 124 0 124 124 0 124 124 0 124 124 0 123 123 0
123 123 0 123 123 0 123 123 0 123 123 0 122 122 0 122 122 0 122 122 0
122 122 0 122 122 0 0 122 0 0 121 0 0 121 0 0 121 0 0 121 0 0 121 0 0
120 0 0 120 0
0 183 0 0 183 0 0 182 0 0 182 0 0 182 0 0 182 0 0 181 0 0 181 0 0 181
0 0 181 0 0 180 0 0 180 0 0 180 0 0 180 0 0 179 0 0 179 0 179 179 0
179 179 0 178 178 0 178 178 0 178 178 0 178 178 0 177 177 0 177 177 0
177 177 0 176 176 0 176 176 0 176 176 0 176 176 0 175 175 0 0 175 0 0
175 0 0 175 0 0 174 0 0 174 0 0 174 0 174 174 0 173 173 0 173 173 0
173 173 0 172 172 0 172 172 0 172 172 0 172 172 0 171 171 0 171 171 0
171 171 0 171 171 0 170 170 0 170 170 0 170 170 0 169 169 0 169 169 0
169 169 0 169 169 0 0 168 0 0 168 0 0 168 0 0 167 0 0 167 0 0 167 0 0
167 0 0 166 0 0 166 0 0 166 0 0 166 0 0 165 0 0 165 0 0 165 0 0 164 0
0 164 0 0 164 0 0 164 0 0 163 0 163 163 0 163 163 0 163 163 0 162 162
0 0 162 0 0 162 0 0 161 0 0 161 0 0 161 0 0 161 0 0 160 0 0 160 0 0
160 0 0 159 0 0 159 0 0 159 0 0 159 0 0 158 0 0 158 0 158 158 0 158
158 0 157 157 0 157 157 0 157 157 0 156 156 0 145 145 145 144 144 144
144 144 144 144 144 144 144 144 144 144 144 144 143 143 143 143 143
143 143 143 143 143 143 143 143 143 143 142 142 142 142 142 142 142
142 142 142 142 142 142 142 142 141 141 141 141 141 141 141 141 141
141 141 141 141 141 141 140 140 140 140 140 140 140 140 140 140 140
140 140 140 140 139 139 139 139 139 139 139 139 139 139 139 139 139
139 139 138 138 138 138 138 138 138 138 138 138 138 138 138 138 138
138 138 138 137 137 137 137 137 137 137 137 137 137 137 137 137 137
137 136 136 136 136 136 136 136 136 136 136 136 136 136 136 136 136
136 136 135 135 135 135 135 135 135 135 135 135 135 135 135 135 135
134 134 134 134 134 134 134 134 134 134 134 134 134 134 134 134 134
134 133 133 133 69 21 0 69 21 0 69 21 0 69 21 0 69 21 0 69 21 0 166
117 0 48 0 0 48 0 0 48 0 0 48 0 0 26 26 0 0 26 0 0 26 0 0 26 0 0 26 0
26 26 0 26 26 0 26 26 0 26 26 0 26 26 0 26 26 0 26 26 0 26 26 0 26 26
0 26 26 0 26 26 0 26 26 0 26 26 0 26 26 0 26 26 0 0 26 0 0 26 0 0 26 0
0 26 0 0 26 0 0 26 0 0 26 0 0 26 0 0 26 0 0 26 0 0 26 0 0 26 0 0 26 0
0 26 0 0 26 0 0 26 0 0 26 0 0 26 0 0 26 0 26 26 0 26 26 0 26 26 0 26
26 0 26 26 0 26 26 0 128 128 0 128 128 0 128 128 0 128 128 0 128 128 0
127 127 0 127 127 0 127 127 0 0 127 0 0 127 0 0 126 0 0 126 0 0 126 0
0 126 0 126 126 0 125 125 0 125 125 0 125 125 0 125 125 0 125 125 0
124 124 0 124 124 0 124 124 0 124 124 0 124 124 0 123 123 0 123 123 0
123 123 0 123 123 0 123 123 0 122 122 0 122 122 0 122 122 0 0 122 0 0
122 0 0 122 0 0 121 0 0 121 0 0 121 0 0 121 0 0 121 0
0 183 0 0 183 0 0 183 0 0 183 0 0 182 0 0 182 0 0 182 0 0 182 0 0 181
0 0 181 0 0 181 0 0 181 0 0 180 0 0 180 0 180 180 0 179 179 0 179 179
0 179 179 0 179 179 0 178 178 0 178 178 0 178 178 0 178 178 0 177 177
0 177 177 0 177 177 0 177 177 0 176 176 0 176 176 0 176 176 0 176 176
0 175 175 0 175 175 0 175 175 0 174 174 0 174 174 0 174 174 0 174 174
0 173 173 0 173 173 0 173 173 0 173 173 0 172 172 0 172 172 0 172 172
0 171 171 0 171 171 0 171 171 0 171 171 0 170 170 0 170 170 0 170 170
0 169 169 0 0 169 0 0 169 0 0 169 0 0 168 0 0 168 0 0 168 0 0 168 0 0
167 0 0 167 0 0 167 0 0 166 0 0 166 0 0 166 0 0 166 0 0 165 0 0 165 0
0 165 0 0 165 0 0 164 0 0 164 0 164 164 0 163 163 0 163 163 0 163 163
0 163 163 0 162 162 0 162 162 0 162 162 0 161 161 0 161 161 0 0 161 0
0 161 0 0 160 0 0 160 0 0 160 0 0 160 0 0 159 0 0 159 0 0 159 0 158
158 0 158 158 0 158 158 0 158 158 0 157 157 0 157 157 0 157 157 0 145
145 145 144 144 144 144 144 144 144 144 144 144 144 144 144 144 144
143 143 143 143 143 143 143 143 143 143 143 143 143 143 143 142 142
142 142 142 142 142 142 142 142 142 142 142 142 142 141 141 141 141
141 141 141 141 141 141 141 141 141 141 141 141 141 141 140 140 140
140 140 140 140 140 140 140 140 140 140 140 140 139 139 139 139 139
139 139 139 139 139 139 139 139 139 139 138 138 138 138 138 138 138
138 138 138 138 138 138 138 138 138 138 138 137 137 137 137 137 137
137 137 137 137 137 137 137 137 137 136 136 136 136 136 136 136 136
136 136 136 136 136 136 136 136 136 136 135 135 135 135 135 135 135
135 135 135 135 135 135 135 135 134 134 134 134 134 134 134 134 134
134 134 134 134 134 134 134 134 134 133 133 133 69 21 0 69 21 0 69 21
0 69 21 0 69 21 0 48 0 0 48 0 0 48 0 0 48 0 0 48 0 0 0 26 0 0 26 0 0
26 0 0 26 0 0 26 0 0 26 0 0 26 0 0 26 0 0 26 0 0 26 0 26 26 0 26 26 0
26 26 0 26 26 0 26 26 0 26 26 0 26 26 0 26 26 0 26 26 0 26 26 0 0 26 0
0 26 0 0 26 0 0 26 0 0 26 0 0 26 0 0 26 0 0 26 0 0 26 0 0 26 0 0 26 0
0 26 0 0 26 0 0 26 0 0 26 0 0 26 0 0 26 0 0 26 0 0 26 0 26 26 0 26 26
0 26 26 0 26 26 0 26 26 0 129 129 0 129 129 0 129 129 0 128 128 0 128
128 0 128 128 0 128 128 0 128 128 0 127 127 0 127 127 0 127 127 0 127
127 0 127 127 0 126 126 0 126 126 0 126 126 0 126 126 0 126 126 0 125
125 0 125 125 0 125 125 0 125 125 0 125 125 0 124 124 0 124 124 0 124
124 0 124 124 0 124 124 0 123 123 0 123 123 0 123 123 0 123 123 0 123
123 0 122 122 0 0 122 0 0 122 0 0 122 0 0 122 0 0 122 0 0 121 0 0 121
0 0 121 0
0 184 0 0 183 0 0 183 0 0 183 0 0 183 0 0 182 0 0 182 0 0 182 0 0 182
0 0 181 0 0 181 0 0 181 0 0 181 0 180 180 0 180 180 0 180 180 0 180
180 0 179 179 0 179 179 0 179 179 0 179 179 0 178 178 0 178 178 0 178
178 0 178 178 0 177 177 0 177 177 0 177 177 0 176 176 0 176 176 0 176
176 0 176 176 0 0 175 0 0 175 0 0 175 0 0 175 0 0 174 0 0 174 0 174
174 0 173 173 0 173 173 0 173 173 0 173 173 0 172 172 0 172 172 0 172
172 0 172 172 0 171 171 0 171 171 0 171 171 0 170 170 0 170 170 0 0
170 0 0 170 0 0 169 0 0 169 0 0 169 0 0 168 0 0 168 0 0 168 0 0 168 0
0 167 0 0 167 0 0 167 0 0 167 0 0 166 0 0 166 0 0 166 0 0 165 0 0 165
0 0 165 0 0 165 0 164 164 0 164 164 0 164 164 0 163 163 0 163 163 0
163 163 0 163 163 0 162 162 0 162 162 0 162 162 0 162 162 0 161 161 0
161 161 0 161 161 0 160 160 0 0 160 0 0 160 0 0 160 0 0 159 0 159 159
0 159 159 0 159 159 0 158 158 0 158 158 0 158 158 0 157 157 0 157 157
0 145 145 145 145 145 145 144 144 144 144 144 144 144 144 144 144 144
144 144 144 144 143 143 143 143 143 143 143 143 143 143 143 143 143
143 143 142 142 142 142 142 142 142 142 142 142 142 142 142 142 142
141 141 141 141 141 141 141 141 141 141 141 141 141 141 141 140 140
140 140 140 140 140 140 140 140 140 140 140 140 140 140 140 140 139
139 139 139 139 139 139 139 139 139 139 139 139 139 139 138 138 138
138 138 138 138 138 138 138 138 138 138 138 138 138 138 138 137 137
137 137 137 137 137 137 137 137 137 137 137 137 137 136 136 136 136
136 136 136 136 136 136 136 136 136 136 136 136 136 136 135 135 135
135 135 135 135 135 135 135 135 135 135 135 135 134 134 134 134 134
134 134 134 134 134 134 134 134 134 134 134 134 134 69 21 0 69 21 0 69
21 0 69 21 0 69 21 0 48 0 0 48 0 0 48 0 0 48 0 0 26 26 0 0 26 0 0 26 0
0 26 0 0 26 0 0 26 0 0 26 0 0 26 0 0 26 0 0 26 0 0 26 0 0 26 0 0 26 0
0 26 0 0 26 0 0 26 0 0 26 0 26 26 0 26 26 0 26 26 0 26 26 0 0 26 0 0
26 0 0 26 0 0 26 0 0 26 0 0 26 0 0 26 0 0 26 0 0 26 0 0 26 0 0 26 0 0
26 0 0 26 0 0 26 0 0 26 0 0 26 0 0 26 0 0 26 0 0 26 0 26 26 0 26 26 0
26 26 0 26 26 0 130 130 0 129 129 0 129 129 0 129 129 0 129 129 0 128
128 0 128 128 0 128 128 0 128 128 0 128 128 0 127 127 0 127 127 0 127
127 0 127 127 0 127 127 0 126 126 0 0 126 0 0 126 0 0 126 0 0 126 0 0
125 0 0 125 0 125 125 0 125 125 0 125 125 0 125 125 0 124 124 0 124
124 0 124 124 0 124 124 0 124 124 0 123 123 0 123 123 0 123 123 0 123
123 0 123 123 0 0 122 0 0 122 0 0 122 0 0 122 0 0 122 0 0 122 0 0 121
0
0 184 0 0 184 0 0 184 0 0 183 0 0 183 0 0 183 0 0 183 0 0 182 0 0 182
0 0 182 0 0 182 0 181 181 0 181 181 0 181 181 0 181 181 0 180 180 0
180 180 0 180 180 0 179 179 0 179 179 0 179 179 0 179 179 0 178 178 0
178 178 0 178 178 0 178 178 0 177 177 0 177 177 0 177 177 0 177 177 0
176 176 0 0 176 0 0 176 0 0 175 0 0 175 0 0 175 0 0 175 0 0 174 0 0
174 0 0 174 0 0 174 0 0 173 0 173 173 0 173 173 0 172 172 0 172 172 0
172 172 0 172 172 0 171 171 0 171 171 0 0 171 0 0 170 0 0 170 0 0 170
0 0 170 0 0 169 0 0 169 0 0 169 0 0 169 0 0 168 0 0 168 0 0 168 0 0
167 0 0 167 0 0 167 0 0 167 0 0 166 0 0 166 0 0 166 0 0 165 0 165 165
0 165 165 0 165 165 0 164 164 0 164 164 0 164 164 0 164 164 0 163 163
0 163 163 0 163 163 0 162 162 0 162 162 0 162 162 0 162 162 0 161 161
0 161 161 0 161 161 0 160 160 0 160 160 0 160 160 0 0 160 0 0 159 0
159 159 0 159 159 0 159 159 0 158 158 0 158 158 0 158 158 0 157 157 0
145 145 145 145 145 145 144 144 144 144 144 144 144 144 144 144 144
144 144 144 144 144 144 144 143 143 143 143 143 143 143 143 143 143
143 143 143 143 143 142 142 142 142 142 142 142 142 142 142 142 142
142 142 142 141 141 141 141 141 141 141 141 141 141 141 141 141 141
141 140 140 140 140 140 140 140 140 140 140 140 140 140 140 140 139
139 139 139 139 139 139 139 139 139 139 139 139 139 139 139 139 139
138 138 138 138 138 138 138 138 138 138 138 138 138 138 138 137 137
137 137 137 137 137 137 137 137 137 137 137 137 137 137 137 137 136
136 136 136 136 136 136 136 136 136 136 136 136 136 136 136 136 136
135 135 135 135 135 135 135 135 135 135 135 135 135 135 135 134 134
134 134 134 134 134 134 134 134 134 134 134 134 134 134 134 134 69 21
0 69 21 0 69 21 0 69 21 0 48 0 0 48 0 0 48 0 0 48 0 0 0 26 0 0 26 0 0
26 0 0 26 0 0 26 0 0 26 0 0 26 0 0 26 0 0 26 0 0 26 0 0 26 0 0 26 0 0
26 0 0 26 0 0 26 0 0 26 0 0 26 0 0 26 0 0 26 0 0 26 0 26 26 0 26 26 0
0 26 0 0 26 0 0 26 0 0 26 0 0 26 0 0 26 0 0 26 0 0 26 0 0 26 0 0 26 0
0 26 0 0 26 0 0 26 0 0 26 0 0 26 0 0 26 0 0 26 0 0 26 0 26 26 0 26 26
0 26 26 0 130 130 0 130 130 0 130 130 0 129 129 0 129 129 0 129 129 0
129 129 0 129 129 0 128 128 0 128 128 0 128 128 0 128 128 0 128 128 0
127 127 0 127 127 0 127 127 0 127 127 0 0 127 0 0 126 0 0 126 0 0 126
0 0 126 0 0 126 0 0 125 0 0 125 0 0 125 0 0 125 0 0 125 0 0 124 0 124
124 0 124 124 0 124 124 0 124 124 0 124 124 0 123 123 0 123 123 0 123
123 0 0 123 0 0 123 0 0 122 0 0 122 0 0 122 0 0 122 0 0 122 0
0 185 0 0 184 0 0 184 0 0 184 0 0 183 0 0 183 0 0 183 0 0 183 0 0 182
0 182 182 0 182 182 0 182 182 0 181 181 0 181 181 0 181 181 0 181 181
0 180 180 0 180 180 0 180 180 0 180 180 0 179 179 0 179 179 0 179 179
0 178 178 0 178 178 0 178 178 0 178 178 0 177 177 0 177 177 0 0 177 0
0 177 0 0 176 0 0 176 0 0 176 0 0 175 0 0 175 0 0 175 0 0 175 0 0 174
0 0 174 0 0 174 0 0 174 0 0 173 0 0 173 0 0 173 0 0 172 0 172 172 0
172 172 0 172 172 0 0 171 0 0 171 0 0 171 0 0 171 0 0 170 0 0 170 0 0
170 0 0 169 0 0 169 0 0 169 0 0 169 0 0 168 0 0 168 0 0 168 0 0 167 0
0 167 0 0 167 0 0 167 0 0 166 0 0 166 0 166 166 0 165 165 0 165 165 0
165 165 0 165 165 0 164 164 0 164 164 0 164 164 0 164 164 0 163 163 0
163 163 0 163 163 0 162 162 0 162 162 0 162 162 0 162 162 0 161 161 0
161 161 0 161 161 0 161 161 0 0 160 0 0 160 0 0 160 0 0 159 0 0 159 0
0 159 0 0 159 0 158 158 0 158 158 0 158 158 0 145 145 145 145 145 145
145 145 145 144 144 144 144 144 144 144 144 144 144 144 144 144 144
144 143 143 143 143 143 143 143 143 143 143 143 143 143 143 143 142
142 142 142 142 142 142 142 142 142 142 142 142 142 142 142 142 142
141 141 141 141 141 141 141 141 141 141 141 141 141 141 141 140 140
140 140 140 140 140 140 140 140 140 140 140 140 140 139 139 139 139
139 139 139 139 139 139 139 139 139 139 139 139 139 139 138 138 138
138 138 138 138 138 138 138 138 138 138 138 138 137 137 137 137 137
137 137 137 137 137 137 137 137 137 137 137 137 137 136 136 136 136
136 136 136 136 136 136 136 136 136 136 136 136 136 136 135 135 135
135 135 135 135 135 135 135 135 135 135 135 135 134 134 134 134 134
134 134 134 134 134 134 134 134 134 134 48 0 0 48 0 0 48 0 0 48 0 0 48
0 0 48 0 0 48 0 0 48 0 0 0 26 0 0 26 0 0 26 0 0 26 0 0 26 0 0 26 0 0
26 0 0 26 0 0 26 0 0 26 0 0 26 0 0 26 0 0 26 0 0 26 0 0 26 0 0 26 0 0
26 0 0 26 0 0 26 0 0 26 0 26 26 0 26 26 0 26 26 0 26 26 0 26 26 0 26
26 0 26 26 0 0 26 0 0 26 0 0 26 0 0 26 0 0 26 0 0 26 0 0 26 0 0 26 0 0
26 0 0 26 0 0 26 0 0 26 0 0 26 0 26 26 0 26 26 0 131 131 0 130 130 0
130 130 0 130 130 0 130 130 0 130 130 0 129 129 0 129 129 0 129 129 0
129 129 0 129 129 0 128 128 0 128 128 0 128 128 0 128 128 0 128 128 0
127 127 0 127 127 0 0 127 0 0 127 0 0 127 0 0 126 0 0 126 0 0 126 0 0
126 0 0 126 0 0 125 0 0 125 0 0 125 0 0 125 0 0 125 0 0 124 0 0 124 0
0 124 0 0 124 0 124 124 0 124 124 0 123 123 0 0 123 0 0 123 0 0 123 0
0 123 0 0 122 0 0 122 0 0 122 0
0 185 0 0 185 0 0 184 0 0 184 0 0 184 0 0 184 0 0 183 0 183 183 0 183
183 0 183 183 0 182 182 0 182 182 0 182 182 0 182 182 0 181 181 0 181
181 0 181 181 0 180 180 0 180 180 0 180 180 0 180 180 0 179 179 0 179
179 0 179 179 0 179 179 0 178 178 0 178 178 0 0 178 0 0 177 0 0 177 0
0 177 0 0 177 0 0 176 0 0 176 0 0 176 0 0 176 0 0 175 0 0 175 0 0 175
0 0 174 0 0 174 0 0 174 0 0 174 0 0 173 0 0 173 0 0 173 0 0 172 0 0
172 0 172 172 0 172 172 0 0 171 0 0 171 0 0 171 0 0 171 0 0 170 0 0
170 0 0 170 0 0 169 0 0 169 0 0 169 0 0 169 0 0 168 0 0 168 0 0 168 0
0 167 0 0 167 0 0 167 0 0 167 0 166 166 0 166 166 0 166 166 0 166 166
0 165 165 0 165 165 0 165 165 0 164 164 0 164 164 0 164 164 0 164 164
0 163 163 0 163 163 0 163 163 0 162 162 0 162 162 0 162 162 0 162 162
0 161 161 0 161 161 0 0 161 0 0 161 0 0 160 0 0 160 0 0 160 0 0 159 0
0 159 0 0 159 0 0 159 0 0 158 0 0 158 0 145 145 145 145 145 145 145
145 145 145 145 145 144 144 144 144 144 144 144 144 144 144 144 144
144 144 144 143 143 143 143 143 143 143 143 143 143 143 143 143 143
143 142 142 142 142 142 142 142 142 142 142 142 142 142 142 142 141
141 141 141 141 141 141 141 141 141 141 141 141 141 141 141 141 141
140 140 140 140 140 140 140 140 140 140 140 140 140 140 140 139 139
139 139 139 139 139 139 139 139 139 139 139 139 139 138 138 138 138
138 138 138 138 138 138 138 138 138 138 138 138 138 138 137 137 137
137 137 137 137 137 137 137 137 137 137 137 137 137 137 137 136 136
136 136 136 136 136 136 136 136 136 136 136 136 136 135 135 135 135
135 135 135 135 135 135 135 135 135 135 135 135 135 135 134 134 134
134 134 134 134 134 134 134 134 134 134 134 134 48 0 0 48 0 0 48 0 0
48 0 0 48 0 0 48 0 0 48 0 0 0 26 0 0 26 0 0 26 0 0 26 0 0 26 0 0 26 0
0 26 0 0 26 0 0 26 0 0 26 0 0 26 0 0 26 0 0 26 0 0 26 0 0 26 0 0 26 0
0 26 0 0 26 0 0 26 0 0 26 0 26 26 0 26 26 0 26 26 0 26 26 0 26 26 0 26
26 0 26 26 0 26 26 0 26 26 0 26 26 0 26 26 0 26 26 0 26 26 0 0 26 0 0
26 0 0 26 0 0 26 0 0 26 0 0 26 0 0 26 0 131 131 0 131 131 0 131 131 0
131 131 0 131 131 0 130 130 0 130 130 0 130 130 0 130 130 0 130 130 0
129 129 0 129 129 0 129 129 0 129 129 0 129 129 0 128 128 0 128 128 0
128 128 0 128 128 0 128 128 0 0 127 0 0 127 0 0 127 0 0 127 0 0 127 0
0 126 0 0 126 0 0 126 0 0 126 0 0 126 0 0 125 0 0 125 0 0 125 0 0 125
0 0 125 0 0 124 0 0 124 0 0 124 0 0 124 0 0 124 0 123 123 0 123 123 0
123 123 0 0 123 0 0 123 0 0 123 0 0 122 0
185 185 0 185 185 0 185 185 0 184 184 0 0 184 0 184 184 0 184 184 0
183 183 0 183 183 0 183 183 0 183 183 0 182 182 0 182 182 0 182 182 0
182 182 0 181 181 0 181 181 0 181 181 0 181 181 0 180 180 0 180 180 0
180 180 0 179 179 0 179 179 0 179 179 0 179 179 0 0 178 0 0 178 0 0
178 0 0 178 0 0 177 0 0 177 0 0 177 0 0 176 0 0 176 0 0 176 0 0 176 0
0 175 0 0 175 0 0 175 0 0 174 0 0 174 0 0 174 0 0 174 0 0 173 0 0 173
0 173 173 0 173 173 0 172 172 0 172 172 0 172 172 0 171 171 0 171 171
0 171 171 0 0 171 0 0 170 0 0 170 0 0 170 0 0 169 0 0 169 0 0 169 0 0
169 0 0 168 0 0 168 0 0 168 0 0 167 0 167 167 0 167 167 0 167 167 0
166 166 0 166 166 0 166 166 0 166 166 0 165 165 0 165 165 0 165 165 0
164 164 0 164 164 0 164 164 0 164 164 0 163 163 0 163 163 0 163 163 0
163 163 0 162 162 0 162 162 0 162 162 0 0 161 0 0 161 0 0 161 0 0 161
0 0 160 0 0 160 0 0 160 0 0 160 0 0 159 0 0 159 0 0 159 0 0 158 0 145
145 145 145 145 145 145 145 145 145 145 145 144 144 144 144 144 144
144 144 144 144 144 144 144 144 144 143 143 143 143 143 143 143 143
143 143 143 143 143 143 143 143 143 143 142 142 142 142 142 142 142
142 142 142 142 142 142 142 142 141 141 141 141 141 141 141 141 141
141 141 141 141 141 141 140 140 140 140 140 140 140 140 140 140 140
140 140 140 140 140 140 140 139 139 139 139 139 139 139 139 139 139
139 139 139 139 139 138 138 138 138 138 138 138 138 138 138 138 138
138 138 138 138 138 138 137 137 137 137 137 137 137 137 137 137 137
137 137 137 137 137 137 137 136 136 136 136 136 136 136 136 136 136
136 136 136 136 136 135 135 135 135 135 135 135 135 135 135 135 135
135 135 135 135 135 135 134 134 134 134 134 134 134 134 134 134 134
134 48 0 0 48 0 0 48 0 0 26 23 0 48 23 0 48 23 0 0 26 0 0 26 0 0 26 0
0 26 0 0 26 0 0 26 0 0 26 0 0 26 0 0 26 0 0 26 0 0 26 0 0 26 0 0 26 0
0 26 0 0 26 0 0 26 0 0 26 0 0 26 0 0 26 0 0 26 0 0 26 0 26 26 0 26 26
0 26 26 0 26 26 0 26 26 0 26 26 0 26 26 0 26 26 0 26 26 0 26 26 0 26
26 0 26 26 0 26 26 0 26 26 0 26 26 0 26 26 0 26 26 0 26 26 0 0 26 0 0
26 0 26 26 0 131 131 0 131 131 0 131 131 0 131 131 0 131 131 0 130 130
0 130 130 0 130 130 0 130 130 0 130 130 0 129 129 0 129 129 0 129 129
0 129 129 0 129 129 0 128 128 0 128 128 0 128 128 0 128 128 0 0 128 0
0 127 0 0 127 0 0 127 0 0 127 0 0 127 0 0 126 0 0 126 0 0 126 0 0 126
0 0 126 0 0 126 0 0 125 0 0 125 0 0 125 0 0 125 0 0 125 0 0 124 0 0
124 0 0 124 0 0 124 0 124 124 0 123 123 0 123 123 0 123 123 0 123 123
0 123 123 0
186 186 0 185 185 0 185 185 0 185 185 0 0 185 0 0 184 0 0 184 0 184
184 0 184 184 0 183 183 0 183 183 0 183 183 0 182 182 0 182 182 0 182
182 0 182 182 0 181 181 0 181 181 0 181 181 0 181 181 0 180 180 0 180
180 0 180 180 0 179 179 0 0 179 0 0 179 0 0 179 0 0 178 0 0 178 0 0
178 0 0 178 0 0 177 0 0 177 0 0 177 0 0 176 0 0 176 0 0 176 0 0 176 0
0 175 0 0 175 0 0 175 0 0 174 0 0 174 0 0 174 0 0 174 0 173 173 0 173
173 0 173 173 0 173 173 0 172 172 0 172 172 0 172 172 0 171 171 0 171
171 0 171 171 0 171 171 0 170 170 0 170 170 0 170 170 0 0 169 0 0 169
0 0 169 0 0 169 0 0 168 0 0 168 0 168 168 0 168 168 0 167 167 0 167
167 0 167 167 0 166 166 0 166 166 0 166 166 0 166 166 0 165 165 0 165
165 0 165 165 0 164 164 0 164 164 0 164 164 0 164 164 0 163 163 0 163
163 0 163 163 0 163 163 0 162 162 0 0 162 0 0 162 0 0 161 0 0 161 0 0
161 0 0 161 0 0 160 0 0 160 0 0 160 0 0 160 0 0 159 0 0 159 0 0 159 0
145 145 145 145 145 145 145 145 145 145 145 145 145 145 145 144 144
144 144 144 144 144 144 144 144 144 144 144 144 144 143 143 143 143
143 143 143 143 143 143 143 143 143 143 143 142 142 142 142 142 142
142 142 142 142 142 142 142 142 142 142 142 142 141 141 141 141 141
141 141 141 141 141 141 141 141 141 141 140 140 140 140 140 140 140
140 140 140 140 140 140 140 140 139 139 139 139 139 139 139 139 139
139 139 139 139 139 139 139 139 139 138 138 138 138 138 138 138 138
138 138 138 138 138 138 138 138 138 138 137 137 137 137 137 137 137
137 137 137 137 137 137 137 137 136 136 136 136 136 136 136 136 136
136 136 136 136 136 136 136 136 136 135 135 135 135 135 135 135 135
135 135 135 135 135 135 135 135 135 135 134 134 134 134 134 134 134
134 134 134 134 134 48 0 0 48 0 0 26 23 0 48 23 0 48 23 0 0 26 0 0 26
0 0 26 0 0 26 0 0 26 0 0 26 0 0 26 0 0 26 0 0 26 0 0 26 0 0 26 0 0 26
0 0 26 0 0 26 0 0 26 0 0 26 0 0 26 0 0 26 0 0 26 0 0 26 0 26 26 0 26
26 0 26 26 0 26 26 0 26 26 0 26 26 0 26 26 0 26 26 0 26 26 0 26 26 0
26 26 0 26 26 0 26 26 0 26 26 0 26 26 0 26 26 0 26 26 0 26 26 0 26 26
0 26 26 0 26 26 0 0 26 0 0 26 0 0 132 0 0 131 0 131 131 0 131 131 0
131 131 0 131 131 0 130 130 0 130 130 0 130 130 0 130 130 0 130 130 0
129 129 0 129 129 0 129 129 0 129 129 0 129 129 0 128 128 0 128 128 0
0 128 0 0 128 0 0 128 0 0 127 0 0 127 0 0 127 0 0 127 0 0 127 0 0 126
0 0 126 0 0 126 0 0 126 0 0 126 0 0 125 0 0 125 0 0 125 0 0 125 0 0
125 0 0 125 0 0 124 0 0 124 0 124 124 0 124 124 0 124 124 0 123 123 0
123 123 0 123 123 0
186 186 0 186 186 0 0 185 0 0 185 0 0 185 0 0 185 0 0 184 0 0 184 0 0
184 0 0 184 0 0 183 0 183 183 0 183 183 0 182 182 0 182 182 0 182 182
0 182 182 0 181 181 0 181 181 0 181 181 0 181 181 0 180 180 0 180 180
0 0 180 0 0 180 0 0 179 0 0 179 0 0 179 0 0 178 0 0 178 0 0 178 0 0
178 0 0 177 0 0 177 0 0 177 0 0 176 0 0 176 0 0 176 0 0 176 0 0 175 0
0 175 0 0 175 0 0 175 0 174 174 0 174 174 0 174 174 0 173 173 0 173
173 0 173 173 0 173 173 0 172 172 0 172 172 0 172 172 0 171 171 0 171
171 0 171 171 0 171 171 0 170 170 0 170 170 0 170 170 0 169 169 0 169
169 0 169 169 0 0 169 0 168 168 0 168 168 0 168 168 0 168 168 0 167
167 0 167 167 0 167 167 0 166 166 0 166 166 0 166 166 0 166 166 0 165
165 0 165 165 0 165 165 0 164 164 0 164 164 0 164 164 0 164 164 0 163
163 0 163 163 0 163 163 0 0 163 0 0 162 0 0 162 0 0 162 0 0 161 0 0
161 0 0 161 0 0 161 0 0 160 0 0 160 0 0 160 0 0 160 0 0 159 0 0 159 0
145 145 145 145 145 145 145 145 145 145 145 145 145 145 145 144 144
144 144 144 144 144 144 144 144 144 144 144 144 144 144 144 144 143
143 143 143 143 143 143 143 143 143 143 143 143 143 143 142 142 142
142 142 142 142 142 142 142 142 142 142 142 142 141 141 141 141 141
141 141 141 141 141 141 141 141 141 141 141 141 141 140 140 140 140
140 140 140 140 140 140 140 140 140 140 140 139 139 139 139 139 139
139 139 139 139 139 139 139 139 139 139 139 139 138 138 138 138 138
138 138 138 138 138 138 138 138 138 138 137 137 137 137 137 137 137
137 137 137 137 137 137 137 137 137 137 137 136 136 136 136 136 136
136 136 136 136 136 136 136 136 136 136 136 136 135 135 135 135 135
135 135 135 135 135 135 135 135 135 135 135 135 135 134 134 134 134
134 134 134 134 134 134 134 134 48 0 0 26 23 0 48 23 0 0 26 0 0 26 0 0
26 0 0 26 0 0 26 0 0 26 0 0 26 0 0 26 0 0 26 0 0 26 0 0 26 0 0 26 0 0
26 0 0 26 0 0 26 0 0 26 0 0 26 0 0 26 0 0 26 0 0 26 0 0 26 0 26 26 0
26 26 0 26 26 0 26 26 0 26 26 0 26 26 0 26 26 0 26 26 0 26 26 0 26 26
0 26 26 0 26 26 0 26 26 0 26 26 0 26 26 0 26 26 0 26 26 0 26 26 0 26
26 0 26 26 0 26 26 0 0 26 0 0 26 0 0 26 0 0 132 0 0 132 0 0 131 0 0
131 0 0 131 0 0 131 0 131 131 0 130 130 0 130 130 0 130 130 0 130 130
0 129 129 0 129 129 0 129 129 0 129 129 0 129 129 0 129 129 0 128 128
0 0 128 0 0 128 0 0 128 0 0 128 0 0 127 0 0 127 0 0 127 0 0 127 0 0
127 0 0 126 0 0 126 0 0 126 0 0 126 0 0 126 0 0 125 0 0 125 0 0 125 0
0 125 0 0 125 0 0 124 0 124 124 0 124 124 0 124 124 0 124 124 0 124
124 0 123 123 0
0 186 0 0 186 0 0 186 0 0 185 0 0 185 0 0 185 0 0 185 0 0 184 0 0 184
0 0 184 0 0 184 0 0 183 0 0 183 0 0 183 0 0 183 0 182 182 0 182 182 0
182 182 0 181 181 0 181 181 0 181 181 0 0 181 0 0 180 0 0 180 0 0 180
0 0 180 0 0 179 0 0 179 0 0 179 0 0 178 0 0 178 0 0 178 0 0 178 0 0
177 0 0 177 0 0 177 0 0 176 0 0 176 0 0 176 0 0 176 0 0 175 0 0 175 0
175 175 0 175 175 0 174 174 0 174 174 0 174 174 0 173 173 0 173 173 0
173 173 0 173 173 0 172 172 0 172 172 0 172 172 0 171 171 0 171 171 0
171 171 0 171 171 0 170 170 0 170 170 0 170 170 0 169 169 0 169 169 0
0 169 0 0 169 0 0 168 0 0 168 0 168 168 0 168 168 0 167 167 0 167 167
0 167 167 0 166 166 0 166 166 0 166 166 0 166 166 0 165 165 0 165 165
0 165 165 0 164 164 0 164 164 0 164 164 0 164 164 0 163 163 0 0 163 0
0 163 0 0 163 0 0 162 0 0 162 0 0 162 0 0 161 0 0 161 0 0 161 0 0 161
0 0 160 0 0 160 0 0 160 0 0 160 0 0 159 0 146 146 146 145 145 145 145
145 145 145 145 145 145 145 145 145 145 145 144 144 144 144 144 144
144 144 144 144 144 144 144 144 144 143 143 143 143 143 143 143 143
143 143 143 143 143 143 143 142 142 142 142 142 142 142 142 142 142
142 142 142 142 142 142 142 142 141 141 141 141 141 141 141 141 141
141 141 141 141 141 141 140 140 140 140 140 140 140 140 140 140 140
140 140 140 140 140 140 140 139 139 139 139 139 139 139 139 139 139
139 139 139 139 139 139 139 139 138 138 138 138 138 138 138 138 138
138 138 138 138 138 138 137 137 137 137 137 137 137 137 137 137 137
137 137 137 137 137 137 137 136 136 136 136 136 136 136 136 136 136
136 136 136 136 136 136 136 136 135 135 135 135 135 135 135 135 135
135 135 135 135 135 135 135 135 135 134 134 134 134 134 134 134 134
134 48 0 0 26 23 0 26 23 0 26 26 0 26 26 0 26 26 0 26 26 0 0 26 0 0 26
0 0 26 0 0 26 0 0 26 0 0 26 0 0 26 0 0 26 0 0 26 0 0 26 0 0 26 0 0 26
0 0 26 0 0 26 0 0 26 0 0 26 0 0 26 0 26 26 0 26 26 0 26 26 0 26 26 0
26 26 0 26 26 0 26 26 0 26 26 0 26 26 0 26 26 0 26 26 0 26 26 0 26 26
0 26 26 0 26 26 0 26 26 0 26 26 0 26 26 0 26 26 0 26 26 0 26 26 0 0 26
0 0 26 0 0 26 0 0 26 0 0 132 0 0 132 0 0 131 0 0 131 0 0 131 0 0 131 0
0 131 0 0 130 0 0 130 0 0 130 0 130 130 0 130 130 0 129 129 0 129 129
0 129 129 0 129 129 0 129 129 0 0 128 0 0 128 0 0 128 0 0 128 0 0 128
0 0 127 0 0 127 0 0 127 0 0 127 0 0 127 0 0 127 0 0 126 0 0 126 0 0
126 0 0 126 0 0 126 0 0 125 0 0 125 0 0 125 0 0 125 0 0 125 0 124 124
0 124 124 0 124 124 0 124 124 0 124 124 0
0 187 0 0 186 0 0 186 0 0 186 0 0 186 0 0 185 0 0 185 0 0 185 0 0 184
0 0 184 0 0 184 0 0 184 0 0 183 0 0 183 0 0 183 0 0 183 0 0 182 0 0
182 0 182 182 0 0 181 0 0 181 0 0 181 0 0 181 0 0 180 0 0 180 0 0 180
0 0 180 0 0 179 0 0 179 0 0 179 0 0 178 0 0 178 0 0 178 0 0 178 0 0
177 0 0 177 0 0 177 0 0 176 0 0 176 0 0 176 0 176 176 0 175 175 0 175
175 0 175 175 0 174 174 0 174 174 0 174 174 0 174 174 0 173 173 0 173
173 0 173 173 0 173 173 0 172 172 0 172 172 0 172 172 0 171 171 0 171
171 0 171 171 0 171 171 0 170 170 0 170 170 0 0 170 0 0 169 0 0 169 0
0 169 0 0 169 0 0 168 0 0 168 0 0 168 0 0 167 0 0 167 0 167 167 0 167
167 0 166 166 0 166 166 0 166 166 0 166 166 0 165 165 0 165 165 0 165
165 0 164 164 0 164 164 0 0 164 0 0 164 0 0 163 0 0 163 0 0 163 0 0
163 0 0 162 0 0 162 0 0 162 0 0 161 0 0 161 0 0 161 0 0 161 0 0 160 0
0 160 0 0 160 0 0 160 0 146 146 146 145 145 145 145 145 145 145 145
145 145 145 145 145 145 145 144 144 144 144 144 144 144 144 144 144
144 144 144 144 144 144 144 144 143 143 143 143 143 143 143 143 143
143 143 143 143 143 143 142 142 142 142 142 142 142 142 142 142 142
142 142 142 142 141 141 141 141 141 141 141 141 141 141 141 141 141
141 141 141 141 141 140 140 140 140 140 140 140 140 140 140 140 140
140 140 140 140 140 140 139 139 139 139 139 139 139 139 139 139 139
139 139 139 139 138 138 138 138 138 138 138 138 138 138 138 138 138
138 138 138 138 138 137 137 137 137 137 137 137 137 137 137 137 137
137 137 137 137 137 137 136 136 136 136 136 136 136 136 136 136 136
136 136 136 136 136 136 136 135 135 135 135 135 135 135 135 135 135
135 135 135 135 135 135 135 135 134 134 134 134 134 134 134 134 134 26
23 0 26 23 0 26 26 0 26 26 0 26 26 0 26 26 0 26 26 0 26 26 0 26 26 0
26 26 0 26 26 0 0 26 0 0 26 0 0 26 0 0 26 0 0 26 0 0 26 0 0 26 0 0 26
0 0 26 0 0 26 0 0 26 0 0 26 0 26 26 0 26 26 0 26 26 0 26 26 0 26 26 0
26 26 0 26 26 0 26 26 0 26 26 0 26 26 0 26 26 0 26 26 0 26 26 0 26 26
0 26 26 0 26 26 0 26 26 0 26 26 0 26 26 0 26 26 0 26 26 0 0 26 0 0 26
0 0 26 0 0 26 0 0 26 0 0 132 0 0 132 0 0 132 0 0 131 0 0 131 0 0 131 0
0 131 0 0 131 0 0 130 0 0 130 0 0 130 0 0 130 0 0 130 0 0 129 0 0 129
0 129 129 0 0 129 0 0 129 0 0 128 0 0 128 0 0 128 0 0 128 0 0 128 0 0
127 0 0 127 0 0 127 0 0 127 0 0 127 0 0 126 0 0 126 0 0 126 0 0 126 0
0 126 0 0 126 0 0 125 0 0 125 0 0 125 0 125 125 0 125 125 0 124 124 0
124 124 0 124 124 0
0 187 0 0 187 0 0 186 0 0 186 0 0 186 0 0 186 0 0 185 0 0 185 0 0 185
0 0 184 0 0 184 0 0 184 0 0 184 0 0 183 0 0 183 0 0 183 0 0 183 0 0
182 0 182 182 0 182 182 0 181 181 0 181 181 0 0 181 0 0 181 0 0 180 0
0 180 0 0 180 0 0 180 0 0 179 0 0 179 0 0 179 0 0 178 0 0 178 0 0 178
0 0 178 0 0 177 0 0 177 0 0 177 0 0 176 0 176 176 0 176 176 0 176 176
0 175 175 0 175 175 0 175 175 0 174 174 0 174 174 0 174 174 0 174 174
0 173 173 0 173 173 0 173 173 0 173 173 0 172 172 0 172 172 0 172 172
0 171 171 0 171 171 0 171 171 0 171 171 0 0 170 0 0 170 0 0 170 0 0
169 0 0 169 0 0 169 0 0 169 0 0 168 0 0 168 0 0 168 0 0 167 0 0 167 0
0 167 0 0 167 0 0 166 0 166 166 0 166 166 0 166 166 0 165 165 0 165
165 0 165 165 0 0 164 0 0 164 0 0 164 0 0 164 0 0 163 0 0 163 0 0 163
0 0 163 0 0 162 0 0 162 0 0 162 0 0 161 0 0 161 0 0 161 0 0 161 0 0
160 0 0 160 0 0 160 0 146 146 146 146 146 146 145 145 145 145 145 145
145 145 145 145 145 145 145 145 145 144 144 144 144 144 144 144 144
144 144 144 144 144 144 144 143 143 143 143 143 143 143 143 143 143
143 143 143 143 143 143 143 143 142 142 142 142 142 142 142 142 142
142 142 142 142 142 142 141 141 141 141 141 141 141 141 141 141 141
141 141 141 141 141 141 141 140 140 140 140 140 140 140 140 140 140
140 140 140 140 140 139 139 139 139 139 139 139 139 139 139 139 139
139 139 139 139 139 139 138 138 138 138 138 138 138 138 138 138 138
138 138 138 138 138 138 138 137 137 137 137 137 137 137 137 137 137
137 137 137 137 137 137 137 137 136 136 136 136 136 136 136 136 136
136 136 136 136 136 136 136 136 136 135 135 135 135 135 135 135 135
135 135 135 135 135 135 135 62 62 62 62 62 62 62 62 62 26 23 0 26 26 0
26 26 0 26 26 0 26 26 0 26 26 0 26 26 0 26 26 0 26 26 0 26 26 0 26 26
0 26 26 0 26 26 0 26 26 0 26 26 0 26 26 0 0 26 0 0 26 0 0 26 0 0 26 0
0 26 0 0 26 0 26 26 0 26 26 0 26 26 0 26 26 0 26 26 0 26 26 0 26 26 0
26 26 0 26 26 0 26 26 0 26 26 0 26 26 0 26 26 0 26 26 0 26 26 0 26 26
0 26 26 0 26 26 0 26 26 0 26 26 0 26 26 0 26 26 0 0 26 0 0 26 0 0 26 0
0 26 0 0 26 0 0 26 0 0 132 0 0 132 0 0 132 0 0 131 0 0 131 0 0 131 0 0
131 0 0 131 0 0 130 0 0 130 0 0 130 0 0 130 0 0 130 0 0 129 0 0 129 0
129 129 0 129 129 0 129 129 0 128 128 0 0 128 0 0 128 0 0 128 0 0 128
0 0 128 0 0 127 0 0 127 0 0 127 0 0 127 0 0 127 0 0 126 0 0 126 0 0
126 0 0 126 0 0 126 0 0 125 0 0 125 0 125 125 0 125 125 0 125 125 0
125 125 0 124 124 0
0 187 0 0 187 0 0 187 0 0 186 0 0 186 0 0 186 0 0 186 0 0 185 0 0 185
0 0 185 0 0 184 0 0 184 0 0 184 0 0 184 0 0 183 0 0 183 0 183 183 0
183 183 0 182 182 0 182 182 0 182 182 0 181 181 0 181 181 0 181 181 0
181 181 0 180 180 0 0 180 0 0 180 0 0 179 0 0 179 0 0 179 0 0 179 0 0
178 0 0 178 0 0 178 0 0 178 0 0 177 0 177 177 0 177 177 0 176 176 0
176 176 0 176 176 0 176 176 0 175 175 0 175 175 0 175 175 0 174 174 0
174 174 0 174 174 0 174 174 0 173 173 0 173 173 0 173 173 0 172 172 0
172 172 0 172 172 0 172 172 0 171 171 0 171 171 0 0 171 0 0 171 0 0
170 0 0 170 0 0 170 0 0 169 0 0 169 0 0 169 0 0 169 0 0 168 0 0 168 0
0 168 0 0 167 0 0 167 0 0 167 0 0 167 0 0 166 0 0 166 0 0 166 0 0 166
0 165 165 0 0 165 0 0 165 0 0 164 0 0 164 0 0 164 0 0 164 0 0 163 0 0
163 0 0 163 0 0 163 0 0 162 0 0 162 0 0 162 0 0 161 0 0 161 0 0 161 0
0 161 0 0 160 0 0 160 0 146 146 146 146 146 146 145 145 145 145 145
145 145 145 145 145 145 145 145 145 145 144 144 144 144 144 144 144
144 144 144 144 144 144 144 144 144 144 144 143 143 143 143 143 143
143 143 143 143 143 143 143 143 143 142 142 142 142 142 142 142 142
142 142 142 142 142 142 142 142 142 142 141 141 141 141 141 141 141
141 141 141 141 141 141 141 141 140 140 140 140 140 140 140 140 140
140 140 140 140 140 140 140 140 140 139 139 139 139 139 139 139 139
139 139 139 139 139 139 139 139 139 139 138 138 138 138 138 138 138
138 138 138 138 138 138 138 138 138 138 138 137 137 137 137 137 137
137 137 137 137 137 137 62 62 62 62 62 62 62 62 62 62 62 62 62 62 62
62 62 62 62 62 62 62 62 62 62 62 62 62 62 62 62 62 62 62 62 62 62 62
62 62 62 62 62 62 62 26 23 0 26 26 0 26 26 0 26 26 0 26 26 0 26 26 0
26 26 0 26 26 0 26 26 0 26 26 0 26 26 0 26 26 0 26 26 0 26 26 0 26 26
0 26 26 0 26 26 0 26 26 0 26 26 0 26 26 0 26 26 0 0 26 0 26 26 0 26 26
0 26 26 0 26 26 0 26 26 0 26 26 0 26 26 0 26 26 0 26 26 0 26 26 0 26
26 0 26 26 0 26 26 0 26 26 0 26 26 0 26 26 0 26 26 0 26 26 0 26 26 0
26 26 0 26 26 0 26 26 0 0 26 0 0 26 0 0 26 0 0 26 0 0 26 0 0 26 0 0 26
0 0 132 0 0 132 0 0 132 0 0 132 0 0 131 0 0 131 0 0 131 0 0 131 0 0
131 0 0 130 0 0 130 0 0 130 0 0 130 0 0 130 0 129 129 0 129 129 0 129
129 0 129 129 0 129 129 0 128 128 0 128 128 0 128 128 0 128 128 0 0
128 0 0 127 0 0 127 0 0 127 0 0 127 0 0 127 0 0 127 0 0 126 0 0 126 0
0 126 0 0 126 0 0 126 0 125 125 0 125 125 0 125 125 0 125 125 0 125
125 0
0 187 0 0 187 0 0 187 0 0 187 0 0 186 0 0 186 0 0 186 0 0 186 0 0 185
0 0 185 0 0 185 0 0 184 0 0 184 0 0 184 0 184 184 0 183 183 0 183 183
0 183 183 0 183 183 0 182 182 0 182 182 0 182 182 0 181 181 0 181 181
0 181 181 0 181 181 0 180 180 0 180 180 0 180 180 0 0 179 0 0 179 0 0
179 0 0 179 0 0 178 0 0 178 0 0 178 0 177 177 0 177 177 0 177 177 0
177 177 0 176 176 0 176 176 0 176 176 0 176 176 0 175 175 0 175 175 0
175 175 0 174 174 0 174 174 0 174 174 0 174 174 0 173 173 0 173 173 0
173 173 0 172 172 0 172 172 0 172 172 0 172 172 0 0 171 0 0 171 0 0
171 0 0 170 0 0 170 0 0 170 0 0 170 0 0 169 0 0 169 0 0 169 0 0 169 0
0 168 0 0 168 0 0 168 0 0 167 0 0 167 0 0 167 0 0 167 0 0 166 0 0 166
0 0 166 0 165 165 0 165 165 0 165 165 0 165 165 0 0 164 0 0 164 0 0
164 0 0 164 0 0 163 0 0 163 0 0 163 0 0 162 0 0 162 0 0 162 0 0 162 0
0 161 0 0 161 0 0 161 0 0 161 0 0 160 0 146 146 146 146 146 146 145
145 145 145 145 145 145 145 145 145 145 145 145 145 145 145 145 145
144 144 144 144 144 144 144 144 144 144 144 144 144 144 144 143 143
143 143 143 143 143 143 143 143 143 143 143 143 143 143 143 143 142
142 142 142 142 142 142 142 142 142 142 142 142 142 142 141 141 141
141 141 141 141 141 141 141 141 141 141 141 141 141 141 141 140 140
140 140 140 140 140 140 140 140 140 140 140 140 140 140 140 140 139
139 139 139 139 139 63 63 63 63 63 63 63 63 63 63 63 63 63 63 63 63 63
63 63 63 63 63 63 63 63 63 63 63 63 63 63 63 63 63 63 63 62 62 62 62
62 62 62 62 62 62 62 62 62 62 62 62 62 62 62 62 62 62 62 62 62 62 62
62 62 62 62 62 62 62 62 62 62 62 62 62 62 62 62 62 62 62 62 62 26 26 0
26 26 0 26 26 0 26 26 0 26 26 0 26 26 0 26 26 0 26 26 0 26 26 0 26 26
0 26 26 0 26 26 0 26 26 0 26 26 0 26 26 0 26 26 0 26 26 0 26 26 0 26
26 0 26 26 0 26 26 0 26 26 0 0 26 0 0 26 0 0 26 0 0 26 0 26 26 0 26 26
0 26 26 0 26 26 0 26 26 0 26 26 0 26 26 0 26 26 0 26 26 0 26 26 0 26
26 0 26 26 0 26 26 0 26 26 0 26 26 0 26 26 0 26 26 0 26 26 0 0 26 0 0
26 0 0 26 0 0 26 0 0 26 0 0 26 0 0 26 0 0 26 0 0 132 0 0 132 0 0 132 0
0 132 0 0 131 0 0 131 0 0 131 0 0 131 0 0 131 0 0 130 0 0 130 0 0 130
0 0 130 0 130 130 0 129 129 0 129 129 0 129 129 0 129 129 0 129 129 0
129 129 0 128 128 0 128 128 0 128 128 0 128 128 0 128 128 0 127 127 0
127 127 0 127 127 0 0 127 0 0 127 0 0 126 0 0 126 0 0 126 0 0 126 0 0
126 0 126 126 0 125 125 0 125 125 0 125 125 0
0 188 0 0 187 0 0 187 0 0 187 0 0 187 0 0 186 0 0 186 0 0 186 0 0 186
0 0 185 0 0 185 0 0 185 0 0 184 0 184 184 0 184 184 0 184 184 0 183
183 0 183 183 0 183 183 0 182 182 0 182 182 0 182 182 0 182 182 0 181
181 0 181 181 0 181 181 0 181 181 0 180 180 0 180 180 0 180 180 0 179
179 0 179 179 0 179 179 0 0 179 0 0 178 0 178 178 0 178 178 0 177 177
0 177 177 0 177 177 0 177 177 0 176 176 0 176 176 0 176 176 0 175 175
0 175 175 0 175 175 0 175 175 0 174 174 0 174 174 0 174 174 0 174 174
0 173 173 0 173 173 0 173 173 0 172 172 0 0 172 0 0 172 0 0 172 0 0
171 0 0 171 0 0 171 0 0 170 0 0 170 0 0 170 0 0 170 0 0 169 0 0 169 0
0 169 0 0 168 0 0 168 0 0 168 0 0 168 0 0 167 0 0 167 0 0 167 0 0 167
0 0 166 0 166 166 0 166 166 0 165 165 0 165 165 0 165 165 0 165 165 0
164 164 0 164 164 0 164 164 0 0 164 0 0 163 0 0 163 0 0 163 0 0 162 0
0 162 0 0 162 0 0 162 0 0 161 0 0 161 0 0 161 0 0 161 0 146 146 146
146 146 146 146 146 146 145 145 145 145 145 145 145 145 145 145 145
145 145 145 145 144 144 144 144 144 144 144 144 144 144 144 144 144
144 144 144 144 144 143 143 143 143 143 143 143 143 143 143 143 143
143 143 143 142 142 142 142 142 142 142 142 142 142 142 142 142 142
142 142 142 142 141 141 141 64 64 64 64 64 64 64 64 64 64 64 64 64 64
64 64 64 64 64 64 64 64 64 64 63 63 63 63 63 63 63 63 63 63 63 63 63
63 63 63 63 63 63 63 63 63 63 63 63 63 63 63 63 63 63 63 63 63 63 63
63 63 63 63 63 63 63 63 63 62 62 62 62 62 62 62 62 62 62 62 62 62 62
62 62 62 62 62 62 62 62 62 62 62 62 62 62 62 62 62 62 62 62 62 62 62
62 62 62 62 62 62 62 62 62 62 62 61 61 61 26 26 0 26 26 0 26 26 0 26
26 0 26 26 0 26 26 0 26 26 0 26 26 0 26 26 0 26 26 0 26 26 0 26 26 0
26 26 0 26 26 0 26 26 0 26 26 0 26 26 0 26 26 0 26 26 0 26 26 0 26 26
0 26 26 0 0 26 0 0 26 0 0 26 0 0 26 0 0 26 0 0 26 0 0 26 0 0 26 0 0 26
0 26 26 0 26 26 0 26 26 0 26 26 0 26 26 0 26 26 0 26 26 0 26 26 0 26
26 0 26 26 0 26 26 0 26 26 0 0 26 0 0 26 0 0 26 0 0 26 0 0 26 0 0 26 0
0 26 0 0 26 0 0 26 0 0 26 0 0 132 0 0 132 0 0 132 0 0 132 0 0 132 0 0
131 0 0 131 0 0 131 0 0 131 0 0 131 0 0 130 0 0 130 0 130 130 0 130
130 0 130 130 0 129 129 0 129 129 0 129 129 0 129 129 0 129 129 0 128
128 0 128 128 0 128 128 0 128 128 0 128 128 0 128 128 0 127 127 0 127
127 0 127 127 0 127 127 0 127 127 0 126 126 0 0 126 0 0 126 0 126 126
0 126 126 0 125 125 0 125 125 0
0 188 0 0 188 0 0 187 0 0 187 0 0 187 0 0 187 0 0 186 0 0 186 0 0 186
0 0 185 0 0 185 0 185 185 0 185 185 0 184 184 0 184 184 0 184 184 0
184 184 0 183 183 0 183 183 0 183 183 0 182 182 0 182 182 0 182 182 0
182 182 0 181 181 0 181 181 0 181 181 0 180 180 0 180 180 0 180 180 0
180 180 0 179 179 0 179 179 0 0 179 0 0 179 0 0 178 0 178 178 0 178
178 0 177 177 0 177 177 0 177 177 0 177 177 0 176 176 0 176 176 0 176
176 0 175 175 0 175 175 0 175 175 0 175 175 0 174 174 0 174 174 0 174
174 0 173 173 0 173 173 0 173 173 0 0 173 0 0 172 0 0 172 0 0 172 0 0
172 0 0 171 0 0 171 0 0 171 0 0 170 0 0 170 0 0 170 0 0 170 0 0 169 0
0 169 0 0 169 0 0 168 0 0 168 0 0 168 0 0 168 0 0 167 0 0 167 0 0 167
0 167 167 0 166 166 0 166 166 0 166 166 0 165 165 0 165 165 0 165 165
0 165 165 0 164 164 0 164 164 0 164 164 0 163 163 0 163 163 0 163 163
0 0 163 0 0 162 0 0 162 0 0 162 0 0 162 0 0 161 0 0 161 0 0 161 0 146
146 146 146 146 146 146 146 146 145 145 145 145 145 145 145 145 145
145 145 145 145 145 145 145 145 145 144 144 144 144 144 144 144 144
144 144 144 144 144 144 144 65 65 65 65 65 65 65 65 65 65 65 65 64 64
64 64 64 64 64 64 64 64 64 64 64 64 64 64 64 64 64 64 64 64 64 64 64
64 64 64 64 64 64 64 64 64 64 64 64 64 64 64 64 64 64 64 64 63 63 63
63 63 63 63 63 63 63 63 63 63 63 63 63 63 63 63 63 63 63 63 63 63 63
63 63 63 63 63 63 63 63 63 63 63 63 63 63 63 63 63 63 63 63 63 63 62
62 62 62 62 62 62 62 62 62 62 62 62 62 62 62 62 62 62 62 62 62 62 62
62 62 62 62 62 62 62 62 62 62 62 62 62 62 62 62 62 62 62 62 62 62 62
62 0 26 0 26 26 0 26 26 0 26 26 0 26 26 0 26 26 0 26 26 0 26 26 0 26
26 0 26 26 0 26 26 0 26 26 0 26 26 0 26 26 0 26 26 0 26 26 0 26 26 0
26 26 0 26 26 0 26 26 0 26 26 0 26 26 0 0 26 0 0 26 0 0 26 0 0 26 0 0
26 0 0 26 0 0 26 0 0 26 0 0 26 0 0 26 0 0 26 0 0 26 0 0 26 0 0 26 0 0
26 0 26 26 0 26 26 0 26 26 0 26 26 0 26 26 0 26 26 0 26 26 0 0 26 0 0
26 0 0 26 0 0 26 0 0 26 0 0 26 0 0 26 0 0 26 0 0 26 0 0 26 0 0 26 0 0
132 0 0 132 0 0 132 0 0 132 0 0 132 0 0 131 0 0 131 0 0 131 0 0 131 0
0 131 0 0 130 0 130 130 0 130 130 0 130 130 0 130 130 0 130 130 0 129
129 0 129 129 0 129 129 0 129 129 0 129 129 0 128 128 0 128 128 0 128
128 0 128 128 0 128 128 0 127 127 0 127 127 0 127 127 0 127 127 0 127
127 0 127 127 0 126 126 0 0 126 0 0 126 0 0 126 0 0 126 0
0 188 0 0 188 0 0 188 0 0 187 0 0 187 0 0 187 0 0 187 0 0 186 0 0 186
0 0 186 0 185 185 0 185 185 0 185 185 0 185 185 0 184 184 0 184 184 0
184 184 0 184 184 0 183 183 0 183 183 0 183 183 0 182 182 0 182 182 0
182 182 0 182 182 0 181 181 0 181 181 0 181 181 0 180 180 0 180 180 0
180 180 0 180 180 0 0 179 0 0 179 0 0 179 0 0 178 0 0 178 0 0 178 0 0
178 0 0 177 0 177 177 0 177 177 0 176 176 0 176 176 0 176 176 0 176
176 0 175 175 0 175 175 0 175 175 0 175 175 0 174 174 0 174 174 0 174
174 0 173 173 0 0 173 0 0 173 0 0 173 0 0 172 0 0 172 0 0 172 0 0 171
0 0 171 0 0 171 0 0 171 0 0 170 0 0 170 0 0 170 0 0 169 0 0 169 0 0
169 0 0 169 0 0 168 0 0 168 0 0 168 0 0 168 0 0 167 0 167 167 0 167
167 0 166 166 0 166 166 0 166 166 0 166 166 0 165 165 0 165 165 0 165
165 0 165 165 0 164 164 0 164 164 0 164 164 0 163 163 0 163 163 0 163
163 0 163 163 0 162 162 0 162 162 0 0 162 0 0 162 0 0 161 0 161 161 0
146 146 146 146 146 146 65 65 65 65 65 65 65 65 65 65 65 65 65 65 65
65 65 65 65 65 65 65 65 65 65 65 65 65 65 65 65 65 65 65 65 65 65 65
65 65 65 65 65 65 65 64 64 64 64 64 64 64 64 64 64 64 64 64 64 64 64
64 64 64 64 64 64 64 64 64 64 64 64 64 64 64 64 64 64 64 64 64 64 64
64 64 64 64 64 64 63 63 63 63 63 63 63 63 63 63 63 63 63 63 63 63 63
63 63 63 63 63 63 63 63 63 63 63 63 63 63 63 63 63 63 63 63 63 63 63
63 63 63 63 63 63 63 63 62 62 62 62 62 62 62 62 62 62 62 62 62 62 62
62 62 62 62 62 62 62 62 62 62 62 62 62 62 62 62 62 62 62 62 62 62 62
62 62 62 62 62 62 62 62 62 62 61 61 61 26 26 0 26 26 0 26 26 0 26 26 0
26 26 0 26 26 0 26 26 0 26 26 0 26 26 0 26 26 0 26 26 0 26 26 0 26 26
0 26 26 0 26 26 0 26 26 0 26 26 0 26 26 0 26 26 0 26 26 0 26 26 0 26
26 0 0 26 0 0 26 0 0 26 0 0 26 0 0 26 0 0 26 0 0 26 0 0 26 0 0 26 0 0
26 0 0 26 0 0 26 0 0 26 0 0 26 0 0 26 0 0 26 0 0 26 0 0 26 0 0 26 0 0
26 0 26 26 0 26 26 0 0 26 0 0 26 0 0 26 0 0 26 0 0 26 0 0 26 0 0 26 0
0 26 0 0 26 0 0 26 0 0 26 0 0 26 0 0 133 0 0 132 0 0 132 0 0 132 0 0
132 0 0 132 0 0 131 0 0 131 0 0 131 0 0 131 0 131 131 0 130 130 0 130
130 0 130 130 0 130 130 0 130 130 0 129 129 0 129 129 0 129 129 0 129
129 0 129 129 0 128 128 0 128 128 0 128 128 0 128 128 0 128 128 0 128
128 0 127 127 0 127 127 0 127 127 0 127 127 0 127 127 0 0 126 0 0 126
0 0 126 0 0 126 0
0 188 0 0 188 0 0 188 0 0 188 0 0 187 0 0 187 0 0 187 0 0 186 0 186
186 0 186 186 0 186 186 0 185 185 0 185 185 0 185 185 0 185 185 0 184
184 0 184 184 0 184 184 0 183 183 0 183 183 0 183 183 0 183 183 0 182
182 0 182 182 0 182 182 0 181 181 0 181 181 0 181 181 0 181 181 0 180
180 0 0 180 0 0 180 0 0 180 0 0 179 0 0 179 0 0 179 0 0 178 0 0 178 0
0 178 0 0 178 0 0 177 0 0 177 0 0 177 0 0 176 0 176 176 0 176 176 0
176 176 0 175 175 0 175 175 0 175 175 0 174 174 0 174 174 0 0 174 0 0
174 0 0 173 0 0 173 0 0 173 0 0 172 0 0 172 0 0 172 0 0 172 0 0 171 0
0 171 0 0 171 0 0 171 0 0 170 0 0 170 0 0 170 0 0 169 0 0 169 0 0 169
0 0 169 0 0 168 0 0 168 0 0 168 0 167 167 0 167 167 0 167 167 0 167
167 0 166 166 0 166 166 0 166 166 0 166 166 0 165 165 0 165 165 0 165
165 0 164 164 0 164 164 0 164 164 0 164 164 0 163 163 0 163 163 0 163
163 0 163 163 0 162 162 0 162 162 0 162 162 0 0 162 0 0 161 0 66 66 66
66 66 66 65 65 65 65 65 65 65 65 65 65 65 65 65 65 65 65 65 65 65 65
65 65 65 65 65 65 65 65 65 65 65 65 65 65 65 65 65 65 65 65 65 65 65
65 65 64 64 64 64 64 64 64 64 64 64 64 64 64 64 64 64 64 64 64 64 64
64 64 64 64 64 64 64 64 64 64 64 64 64 64 64 64 64 64 64 64 64 64 64
64 63 63 63 63 63 63 63 63 63 63 63 63 63 63 63 63 63 63 63 63 63 63
63 63 63 63 63 63 63 63 63 63 63 63 63 63 63 63 63 63 63 63 63 63 63
62 62 62 62 62 62 62 62 62 62 62 62 62 62 62 62 62 62 62 62 62 62 62
62 62 62 62 62 62 62 62 62 62 62 62 62 62 62 62 62 62 62 62 62 62 62
62 62 61 61 61 61 61 61 26 26 0 26 26 0 26 26 0 26 26 0 26 26 0 26 26
0 26 26 0 26 26 0 26 26 0 26 26 0 26 26 0 26 26 0 26 26 0 26 26 0 26
26 0 26 26 0 26 26 0 26 26 0 26 26 0 26 26 0 26 26 0 26 26 0 0 26 0 0
26 0 0 26 0 0 26 0 0 26 0 0 26 0 0 26 0 0 26 0 0 26 0 0 26 0 0 26 0 0
26 0 0 26 0 0 26 0 0 26 0 0 26 0 0 26 0 0 26 0 0 26 0 0 26 0 0 26 0 0
26 0 26 26 0 26 26 0 26 26 0 0 26 0 0 26 0 0 26 0 0 26 0 0 26 0 0 26 0
0 26 0 0 26 0 0 26 0 0 26 0 0 133 0 0 132 0 0 132 0 0 132 0 0 132 0 0
132 0 0 131 0 0 131 0 0 131 0 131 131 0 131 131 0 130 130 0 130 130 0
130 130 0 130 130 0 130 130 0 130 130 0 129 129 0 129 129 0 129 129 0
129 129 0 129 129 0 128 128 0 128 128 0 128 128 0 128 128 0 128 128 0
127 127 0 127 127 0 127 127 0 127 127 0 127 127 0 0 127 0 0 126 0 0
126 0
0 189 0 0 188 0 0 188 0 0 188 0 0 188 0 0 187 0 187 187 0 187 187 0
186 186 0 186 186 0 186 186 0 186 186 0 185 185 0 185 185 0 185 185 0
184 184 0 184 184 0 184 184 0 184 184 0 183 183 0 183 183 0 183 183 0
183 183 0 182 182 0 182 182 0 182 182 0 181 181 0 181 181 0 181 181 0
0 181 0 0 180 0 0 180 0 0 180 0 0 179 0 0 179 0 0 179 0 0 179 0 0 178
0 0 178 0 0 178 0 0 177 0 0 177 0 0 177 0 0 177 0 0 176 0 0 176 0 0
176 0 176 176 0 175 175 0 175 175 0 175 175 0 0 174 0 0 174 0 0 174 0
0 174 0 0 173 0 0 173 0 0 173 0 0 172 0 0 172 0 0 172 0 0 172 0 0 171
0 0 171 0 0 171 0 0 170 0 0 170 0 0 170 0 0 170 0 0 169 0 0 169 0 0
169 0 0 169 0 0 168 0 168 168 0 168 168 0 167 167 0 167 167 0 167 167
0 167 167 0 166 166 0 166 166 0 166 166 0 166 166 0 165 165 0 165 165
0 165 165 0 164 164 0 164 164 0 164 164 0 164 164 0 163 163 0 163 163
0 163 163 0 163 163 0 162 162 0 0 162 0 0 162 0 0 161 0 66 66 66 65 65
65 65 65 65 65 65 65 65 65 65 65 65 65 65 65 65 65 65 65 65 65 65 65
65 65 65 65 65 65 65 65 65 65 65 65 65 65 65 65 65 65 65 65 64 64 64
64 64 64 64 64 64 64 64 64 64 64 64 64 64 64 64 64 64 64 64 64 64 64
64 64 64 64 64 64 64 64 64 64 64 64 64 64 64 64 64 64 64 63 63 63 63
63 63 63 63 63 63 63 63 63 63 63 63 63 63 63 63 63 63 63 63 63 63 63
63 63 63 63 63 63 63 63 63 63 63 63 63 63 63 63 63 63 63 63 63 62 62
62 62 62 62 62 62 62 62 62 62 62 62 62 62 62 62 62 62 62 62 62 62 62
62 62 62 62 62 62 62 62 62 62 62 62 62 62 62 62 62 62 62 62 61 61 61
61 61 61 61 61 61 26 26 0 26 26 0 26 26 0 26 26 0 26 26 0 26 26 0 26
26 0 26 26 0 26 26 0 26 26 0 26 26 0 26 26 0 26 26 0 26 26 0 26 26 0
26 26 0 26 26 0 26 26 0 26 26 0 26 26 0 26 26 0 26 26 0 0 26 0 0 26 0
0 26 0 0 26 0 0 26 0 0 26 0 0 26 0 0 26 0 0 26 0 0 26 0 0 26 0 0 26 0
0 26 0 0 26 0 0 26 0 0 26 0 0 26 0 0 26 0 0 26 0 0 26 0 0 26 0 0 26 0
26 26 0 26 26 0 26 26 0 26 26 0 26 26 0 26 26 0 26 26 0 26 26 0 0 26 0
0 26 0 0 26 0 0 26 0 0 26 0 0 133 0 0 133 0 0 133 0 0 132 0 0 132 0 0
132 0 0 132 0 0 132 0 0 131 0 0 131 0 131 131 0 131 131 0 131 131 0
130 130 0 130 130 0 130 130 0 130 130 0 130 130 0 129 129 0 129 129 0
129 129 0 129 129 0 129 129 0 129 129 0 128 128 0 128 128 0 128 128 0
128 128 0 128 128 0 127 127 0 127 127 0 127 127 0 0 127 0 0 127 0 0
127 0
0 189 0 0 189 0 0 188 0 0 188 0 0 188 0 187 187 0 187 187 0 187 187 0
187 187 0 186 186 0 186 186 0 186 186 0 186 186 0 185 185 0 185 185 0
185 185 0 184 184 0 184 184 0 184 184 0 184 184 0 183 183 0 183 183 0
183 183 0 182 182 0 182 182 0 182 182 0 182 182 0 0 181 0 0 181 0 0
181 0 0 180 0 0 180 0 0 180 0 0 180 0 0 179 0 0 179 0 0 179 0 0 179 0
0 178 0 0 178 0 0 178 0 0 177 0 0 177 0 0 177 0 0 177 0 0 176 0 0 176
0 0 176 0 0 175 0 0 175 0 175 175 0 0 175 0 0 174 0 0 174 0 0 174 0 0
173 0 0 173 0 0 173 0 0 173 0 0 172 0 0 172 0 0 172 0 0 172 0 0 171 0
0 171 0 0 171 0 0 170 0 0 170 0 0 170 0 0 170 0 0 169 0 0 169 0 0 169
0 168 168 0 168 168 0 168 168 0 168 168 0 167 167 0 167 167 0 167 167
0 167 167 0 166 166 0 166 166 0 166 166 0 165 165 0 165 165 0 165 165
0 165 165 0 164 164 0 164 164 0 164 164 0 164 164 0 163 163 0 163 163
0 163 163 0 0 163 0 0 162 0 0 162 0 0 162 0 65 65 65 65 65 65 65 65 65
65 65 65 65 65 65 65 65 65 65 65 65 65 65 65 65 65 65 65 65 65 65 65
65 65 65 65 65 65 65 65 65 65 65 65 65 64 64 64 64 64 64 64 64 64 64
64 64 64 64 64 64 64 64 64 64 64 64 64 64 64 64 64 64 64 64 64 64 64
64 64 64 64 64 64 64 64 64 64 64 64 63 63 63 63 63 63 63 63 63 63 63
63 63 63 63 63 63 63 63 63 63 63 63 63 63 63 63 63 63 63 63 63 63 63
63 63 63 63 63 63 63 63 63 63 63 63 63 63 62 62 62 62 62 62 62 62 62
62 62 62 62 62 62 62 62 62 62 62 62 62 62 62 62 62 62 62 62 62 62 62
62 62 62 62 62 62 62 62 62 62 62 62 62 61 61 61 61 61 61 61 61 61 61
61 61 26 26 0 26 26 0 26 26 0 26 26 0 26 26 0 26 26 0 26 26 0 26 26 0
26 26 0 26 26 0 26 26 0 26 26 0 26 26 0 26 26 0 26 26 0 26 26 0 26 26
0 26 26 0 26 26 0 26 26 0 26 26 0 26 26 0 0 26 0 0 26 0 0 26 0 0 26 0
0 26 0 0 26 0 0 26 0 0 26 0 0 26 0 0 26 0 0 26 0 0 26 0 0 26 0 0 26 0
0 26 0 0 26 0 0 26 0 0 26 0 0 26 0 0 26 0 0 26 0 0 26 0 26 26 0 26 26
0 26 26 0 26 26 0 26 26 0 26 26 0 26 26 0 26 26 0 26 26 0 26 26 0 26
26 0 26 26 0 26 26 0 0 26 0 0 133 0 0 133 0 0 133 0 0 132 0 0 132 0 0
132 0 0 132 0 0 132 0 0 131 0 131 131 0 131 131 0 131 131 0 131 131 0
130 130 0 130 130 0 130 130 0 130 130 0 130 130 0 130 130 0 129 129 0
129 129 0 129 129 0 129 129 0 129 129 0 128 128 0 128 128 0 128 128 0
128 128 0 128 128 0 128 128 0 127 127 0 0 127 0 0 127 0 0 127 0
0 189 0 0 189 0 0 188 0 188 188 0 188 188 0 188 188 0 187 187 0 187
187 0 187 187 0 187 187 0 186 186 0 186 186 0 186 186 0 185 185 0 185
185 0 185 185 0 185 185 0 184 184 0 184 184 0 184 184 0 183 183 0 183
183 0 183 183 0 183 183 0 182 182 0 182 182 0 0 182 0 0 182 0 0 181 0
0 181 0 0 181 0 0 180 0 0 180 0 0 180 0 0 180 0 0 179 0 0 179 0 0 179
0 0 178 0 0 178 0 0 178 0 0 178 0 0 177 0 0 177 0 0 177 0 0 176 0 0
176 0 0 176 0 0 176 0 175 175 0 175 175 0 175 175 0 174 174 0 174 174
0 174 174 0 0 174 0 0 173 0 0 173 0 0 173 0 0 173 0 0 172 0 0 172 0 0
172 0 0 171 0 0 171 0 0 171 0 0 171 0 0 170 0 0 170 0 0 170 0 0 169 0
169 169 0 169 169 0 169 169 0 168 168 0 168 168 0 168 168 0 168 168 0
167 167 0 167 167 0 167 167 0 166 166 0 166 166 0 166 166 0 166 166 0
165 165 0 165 165 0 165 165 0 165 165 0 164 164 0 164 164 0 164 164 0
164 164 0 163 163 0 0 163 0 0 163 0 0 162 0 0 162 0 0 162 0 65 65 65
65 65 65 65 65 65 65 65 65 65 65 65 65 65 65 65 65 65 65 65 65 65 65
65 65 65 65 65 65 65 65 65 65 65 65 65 65 65 65 65 65 65 64 64 64 64
64 64 64 64 64 64 64 64 64 64 64 64 64 64 64 64 64 64 64 64 64 64 64
64 64 64 64 64 64 64 64 64 64 64 64 64 64 64 64 64 64 63 63 63 63 63
63 63 63 63 63 63 63 63 63 63 63 63 63 63 63 63 63 63 63 63 63 63 63
63 63 63 63 63 63 63 63 63 63 63 63 63 63 63 63 63 62 62 62 62 62 62
62 62 62 62 62 62 62 62 62 62 62 62 62 62 62 62 62 62 62 62 62 62 62
62 62 62 62 62 62 62 62 62 62 62 62 62 62 62 62 62 62 62 61 61 61 61
61 61 61 61 61 61 61 61 0 26 0 0 26 0 0 26 0 0 26 0 0 26 0 26 26 0 26
26 0 26 26 0 26 26 0 26 26 0 26 26 0 26 26 0 26 26 0 26 26 0 26 26 0
26 26 0 26 26 0 26 26 0 26 26 0 26 26 0 26 26 0 0 26 0 0 26 0 0 26 0 0
26 0 0 26 0 0 26 0 0 26 0 0 26 0 0 26 0 0 26 0 0 26 0 0 26 0 0 26 0 0
26 0 0 26 0 0 26 0 0 26 0 0 26 0 0 26 0 0 26 0 0 26 0 0 26 0 0 26 0 26
26 0 26 26 0 26 26 0 26 26 0 26 26 0 26 26 0 26 26 0 26 26 0 26 26 0
26 26 0 26 26 0 26 26 0 26 26 0 26 26 0 26 26 0 133 133 0 133 133 0
133 133 0 0 132 0 0 132 0 0 132 0 0 132 0 0 132 0 132 132 0 131 131 0
131 131 0 131 131 0 131 131 0 131 131 0 130 130 0 130 130 0 130 130 0
130 130 0 130 130 0 129 129 0 129 129 0 129 129 0 129 129 0 129 129 0
129 129 0 128 128 0 128 128 0 128 128 0 128 128 0 128 128 0 127 127 0
0 127 0 0 127 0
189 189 0 189 189 0 189 189 0 188 188 0 188 188 0 188 188 0 188 188 0
187 187 0 187 187 0 187 187 0 186 186 0 186 186 0 186 186 0 186 186 0
185 185 0 185 185 0 185 185 0 185 185 0 184 184 0 184 184 0 184 184 0
183 183 0 183 183 0 183 183 0 0 183 0 0 182 0 0 182 0 0 182 0 0 181 0
0 181 0 0 181 0 0 181 0 0 180 0 0 180 0 0 180 0 0 179 0 0 179 0 0 179
0 0 179 0 0 178 0 0 178 0 0 178 0 0 177 0 0 177 0 0 177 0 0 177 0 0
176 0 176 176 0 176 176 0 176 176 0 175 175 0 175 175 0 175 175 0 174
174 0 174 174 0 174 174 0 174 174 0 173 173 0 0 173 0 0 173 0 0 172 0
0 172 0 0 172 0 0 172 0 0 171 0 0 171 0 0 171 0 0 171 0 0 170 0 0 170
0 170 170 0 169 169 0 169 169 0 169 169 0 169 169 0 168 168 0 168 168
0 168 168 0 167 167 0 167 167 0 167 167 0 167 167 0 166 166 0 166 166
0 166 166 0 166 166 0 165 165 0 165 165 0 165 165 0 165 165 0 164 164
0 164 164 0 164 164 0 0 163 0 0 163 0 0 163 0 0 163 0 0 162 0 0 162 0
0 162 0 65 65 65 65 65 65 65 65 65 65 65 65 65 65 65 65 65 65 65 65 65
65 65 65 65 65 65 65 65 65 65 65 65 65 65 65 65 65 65 64 64 64 64 64
64 64 64 64 64 64 64 64 64 64 64 64 64 64 64 64 64 64 64 64 64 64 64
64 64 64 64 64 64 64 64 64 64 64 64 64 64 64 64 64 63 63 63 63 63 63
63 63 63 63 63 63 63 63 63 63 63 63 63 63 63 63 63 63 63 63 63 63 63
63 63 63 63 63 63 63 63 63 63 63 63 63 63 63 63 62 62 62 62 62 62 62
62 62 62 62 62 62 62 62 62 62 62 62 62 62 62 62 62 62 62 62 62 62 62
62 62 62 62 62 62 62 62 62 62 62 62 62 62 62 62 62 62 61 61 61 61 61
61 61 61 61 61 61 61 61 61 61 0 26 0 0 26 0 0 26 0 0 26 0 0 26 0 0 26
0 0 26 0 0 26 0 0 26 0 26 26 0 26 26 0 26 26 0 26 26 0 26 26 0 26 26 0
26 26 0 26 26 0 26 26 0 26 26 0 26 26 0 26 26 0 0 26 0 0 26 0 0 26 0 0
26 0 0 26 0 0 26 0 0 26 0 0 26 0 0 26 0 0 26 0 0 26 0 0 26 0 0 26 0 0
26 0 0 26 0 0 26 0 0 26 0 0 26 0 0 26 0 0 26 0 0 26 0 0 26 0 0 26 0 26
26 0 26 26 0 26 26 0 26 26 0 26 26 0 26 26 0 26 26 0 26 26 0 26 26 0
26 26 0 26 26 0 26 26 0 26 26 0 26 26 0 26 26 0 26 26 0 133 133 0 133
133 0 133 133 0 133 133 0 132 132 0 132 132 0 0 132 0 132 132 0 132
132 0 131 131 0 131 131 0 131 131 0 131 131 0 131 131 0 130 130 0 130
130 0 130 130 0 130 130 0 130 130 0 130 130 0 129 129 0 129 129 0 129
129 0 129 129 0 129 129 0 128 128 0 128 128 0 128 128 0 128 128 0 128
128 0 0 128 0 0 127 0
0 189 0 0 189 0 0 189 0 0 189 0 188 188 0 188 188 0 188 188 0 187 187
0 187 187 0 187 187 0 187 187 0 186 186 0 186 186 0 186 186 0 186 186
0 185 185 0 185 185 0 185 185 0 184 184 0 184 184 0 184 184 0 184 184
0 183 183 0 0 183 0 0 183 0 0 182 0 0 182 0 0 182 0 0 182 0 0 181 0 0
181 0 0 181 0 0 180 0 0 180 0 0 180 0 0 180 0 0 179 0 0 179 0 0 179 0
0 178 0 0 178 0 0 178 0 0 178 0 0 177 0 0 177 0 0 177 0 177 177 0 176
176 0 176 176 0 176 176 0 175 175 0 175 175 0 175 175 0 175 175 0 174
174 0 174 174 0 174 174 0 173 173 0 173 173 0 173 173 0 173 173 0 172
172 0 0 172 0 0 172 0 0 172 0 0 171 0 0 171 0 0 171 0 0 170 0 170 170
0 170 170 0 170 170 0 169 169 0 169 169 0 169 169 0 168 168 0 168 168
0 168 168 0 168 168 0 167 167 0 167 167 0 167 167 0 167 167 0 166 166
0 166 166 0 166 166 0 166 166 0 165 165 0 165 165 0 165 165 0 164 164
0 164 164 0 0 164 0 0 164 0 0 163 0 0 163 0 0 163 0 0 163 0 0 162 0 0
162 0 65 65 65 65 65 65 65 65 65 65 65 65 65 65 65 65 65 65 65 65 65
65 65 65 65 65 65 65 65 65 65 65 65 65 65 65 64 64 64 64 64 64 64 64
64 64 64 64 64 64 64 64 64 64 64 64 64 64 64 64 64 64 64 64 64 64 64
64 64 64 64 64 64 64 64 64 64 64 64 64 64 63 63 63 63 63 63 63 63 63
63 63 63 63 63 63 63 63 63 63 63 63 63 63 63 63 63 63 63 63 63 63 63
63 63 63 63 63 63 63 63 63 63 63 63 63 63 63 63 62 62 62 62 62 62 62
62 62 62 62 62 62 62 62 62 62 62 62 62 62 62 62 62 62 62 62 62 62 62
62 62 62 62 62 62 62 62 62 62 62 62 62 62 62 61 61 61 61 61 61 61 61
61 61 61 61 61 61 61 0 26 0 0 26 0 0 26 0 0 26 0 0 26 0 0 26 0 0 26 0
0 26 0 0 26 0 0 26 0 0 26 0 0 26 0 0 26 0 0 26 0 0 26 0 26 26 0 26 26
0 26 26 0 26 26 0 26 26 0 26 26 0 26 26 0 0 26 0 0 26 0 0 26 0 0 26 0
0 26 0 0 26 0 0 26 0 0 26 0 0 26 0 0 26 0 0 26 0 0 26 0 0 26 0 0 26 0
0 26 0 0 26 0 0 26 0 0 26 0 0 26 0 0 26 0 0 26 0 0 26 0 0 26 0 26 26 0
26 26 0 26 26 0 26 26 0 26 26 0 26 26 0 26 26 0 26 26 0 26 26 0 26 26
0 26 26 0 26 26 0 26 26 0 26 26 0 26 26 0 26 26 0 26 26 0 133 133 0
133 133 0 133 133 0 133 133 0 132 132 0 132 132 0 0 132 0 0 132 0 0
132 0 0 131 0 131 131 0 131 131 0 131 131 0 131 131 0 131 131 0 130
130 0 130 130 0 130 130 0 130 130 0 130 130 0 129 129 0 129 129 0 129
129 0 129 129 0 129 129 0 129 129 0 128 128 0 128 128 0 128 128 0 0
128 0 0 128 0
0 190 0 0 189 0 0 189 0 0 189 0 0 188 0 0 188 0 0 188 0 188 188 0 187
187 0 187 187 0 187 187 0 187 187 0 186 186 0 186 186 0 186 186 0 185
185 0 185 185 0 185 185 0 185 185 0 184 184 0 184 184 0 184 184 0 0
183 0 0 183 0 0 183 0 0 183 0 0 182 0 0 182 0 0 182 0 0 181 0 0 181 0
0 181 0 0 181 0 0 180 0 0 180 0 0 180 0 0 180 0 0 179 0 0 179 0 0 179
0 0 178 0 0 178 0 0 178 0 0 178 0 0 177 0 177 177 0 177 177 0 176 176
0 176 176 0 176 176 0 176 176 0 175 175 0 175 175 0 175 175 0 174 174
0 174 174 0 174 174 0 174 174 0 173 173 0 173 173 0 173 173 0 173 173
0 172 172 0 172 172 0 172 172 0 171 171 0 0 171 0 0 171 0 171 171 0
170 170 0 170 170 0 170 170 0 169 169 0 169 169 0 169 169 0 169 169 0
168 168 0 168 168 0 168 168 0 168 168 0 167 167 0 167 167 0 167 167 0
167 167 0 166 166 0 166 166 0 166 166 0 165 165 0 165 165 0 165 165 0
165 165 0 0 164 0 0 164 0 0 164 0 0 164 0 0 163 0 0 163 0 0 163 0 0
163 0 0 162 0 65 65 65 65 65 65 65 65 65 65 65 65 65 65 65 65 65 65 65
65 65 65 65 65 65 65 65 65 65 65 65 65 65 65 65 65 64 64 64 64 64 64
64 64 64 64 64 64 64 64 64 64 64 64 64 64 64 64 64 64 64 64 64 64 64
64 64 64 64 64 64 64 64 64 64 64 64 64 64 64 64 63 63 63 63 63 63 63
63 63 63 63 63 63 63 63 63 63 63 63 63 63 63 63 63 63 63 63 63 63 63
63 63 63 63 63 63 63 63 63 63 63 63 63 63 63 62 62 62 62 62 62 62 62
62 62 62 62 62 62 62 62 62 62 62 62 62 62 62 62 62 62 62 62 62 62 62
62 62 62 62 62 62 62 62 62 62 62 62 62 62 61 61 61 61 61 61 61 61 61
61 61 61 61 61 61 61 61 61 0 26 0 0 26 0 0 26 0 0 26 0 0 26 0 0 26 0 0
26 0 0 26 0 0 26 0 0 26 0 0 26 0 0 26 0 0 26 0 0 26 0 0 26 0 0 26 0 0
26 0 0 26 0 0 26 0 26 26 0 26 26 0 26 26 0 0 26 0 0 26 0 0 26 0 0 26 0
0 26 0 0 26 0 0 26 0 0 26 0 0 26 0 0 26 0 0 26 0 0 26 0 0 26 0 0 26 0
0 26 0 0 26 0 0 26 0 0 26 0 0 26 0 0 26 0 0 26 0 0 26 0 0 26 0 26 26 0
26 26 0 26 26 0 26 26 0 26 26 0 26 26 0 26 26 0 26 26 0 26 26 0 26 26
0 26 26 0 26 26 0 26 26 0 26 26 0 26 26 0 26 26 0 26 26 0 26 26 0 133
133 0 133 133 0 133 133 0 133 133 0 133 133 0 0 132 0 0 132 0 0 132 0
0 132 0 0 132 0 0 131 0 0 131 0 0 131 0 0 131 0 131 131 0 130 130 0
130 130 0 130 130 0 130 130 0 130 130 0 130 130 0 129 129 0 129 129 0
129 129 0 129 129 0 129 129 0 128 128 0 128 128 0 0 128 0 0 128 0
0 190 0 0 189 0 0 189 0 0 189 0 0 189 0 0 188 0 0 188 0 0 188 0 0 188
0 0 187 0 0 187 0 187 187 0 186 186 0 186 186 0 186 186 0 186 186 0
185 185 0 185 185 0 185 185 0 184 184 0 0 184 0 0 184 0 0 184 0 0 183
0 0 183 0 0 183 0 0 182 0 0 182 0 0 182 0 0 182 0 0 181 0 0 181 0 0
181 0 0 181 0 0 180 0 0 180 0 0 180 0 0 179 0 0 179 0 0 179 0 0 179 0
0 178 0 0 178 0 0 178 0 177 177 0 177 177 0 177 177 0 177 177 0 176
176 0 176 176 0 176 176 0 175 175 0 175 175 0 175 175 0 175 175 0 174
174 0 174 174 0 174 174 0 174 174 0 173 173 0 173 173 0 173 173 0 172
172 0 172 172 0 172 172 0 172 172 0 171 171 0 0 171 0 0 171 0 170 170
0 170 170 0 170 170 0 170 170 0 169 169 0 169 169 0 169 169 0 169 169
0 168 168 0 168 168 0 168 168 0 167 167 0 167 167 0 167 167 0 167 167
0 166 166 0 166 166 0 166 166 0 166 166 0 165 165 0 165 165 0 0 165 0
0 165 0 0 164 0 0 164 0 0 164 0 0 163 0 0 163 0 0 163 0 0 163 0 0 162
0 65 65 65 65 65 65 65 65 65 65 65 65 65 65 65 65 65 65 65 65 65 65 65
65 65 65 65 65 65 65 65 65 65 64 64 64 64 64 64 64 64 64 64 64 64 64
64 64 64 64 64 64 64 64 64 64 64 64 64 64 64 64 64 64 64 64 64 64 64
64 64 64 64 64 64 64 64 64 63 63 63 63 63 63 63 63 63 63 63 63 63 63
63 63 63 63 63 63 63 63 63 63 63 63 63 63 63 63 63 63 63 63 63 63 63
63 63 63 63 63 63 63 63 62 62 62 62 62 62 62 62 62 62 62 62 62 62 62
62 62 62 62 62 62 62 62 62 62 62 62 62 62 62 62 62 62 62 62 62 62 62
62 62 62 62 62 62 62 62 62 62 61 61 61 61 61 61 61 61 61 61 61 61 61
61 61 61 61 61 0 26 0 0 26 0 0 26 0 0 26 0 0 26 0 0 26 0 0 26 0 0 26 0
0 26 0 0 26 0 0 26 0 0 26 0 0 26 0 0 26 0 0 26 0 0 26 0 0 26 0 0 26 0
0 26 0 0 26 0 0 26 0 26 26 0 26 26 0 26 26 0 0 26 0 0 26 0 0 26 0 0 26
0 0 26 0 0 26 0 0 26 0 0 26 0 0 26 0 0 26 0 0 26 0 0 26 0 0 26 0 0 26
0 0 26 0 0 26 0 0 26 0 0 26 0 0 26 0 0 26 0 0 26 0 26 26 0 26 26 0 26
26 0 26 26 0 26 26 0 26 26 0 26 26 0 26 26 0 26 26 0 26 26 0 26 26 0
26 26 0 26 26 0 26 26 0 26 26 0 26 26 0 26 26 0 26 26 0 26 26 0 133
133 0 133 133 0 133 133 0 133 133 0 0 133 0 0 132 0 0 132 0 0 132 0 0
132 0 0 132 0 0 131 0 0 131 0 0 131 0 0 131 0 0 131 0 0 131 0 0 130 0
0 130 0 130 130 0 130 130 0 130 130 0 129 129 0 129 129 0 129 129 0
129 129 0 129 129 0 129 129 0 128 128 0 0 128 0
0 190 0 0 190 0 0 189 0 0 189 0 0 189 0 0 189 0 0 188 0 0 188 0 0 188
0 0 187 0 0 187 0 0 187 0 0 187 0 0 186 0 186 186 0 186 186 0 185 185
0 185 185 0 185 185 0 0 185 0 0 184 0 0 184 0 0 184 0 0 183 0 0 183 0
0 183 0 0 183 0 0 182 0 0 182 0 0 182 0 0 182 0 0 181 0 0 181 0 0 181
0 0 180 0 0 180 0 0 180 0 0 180 0 0 179 0 0 179 0 0 179 0 0 178 0 178
178 0 178 178 0 178 178 0 177 177 0 177 177 0 177 177 0 176 176 0 176
176 0 176 176 0 176 176 0 175 175 0 175 175 0 175 175 0 175 175 0 174
174 0 174 174 0 174 174 0 173 173 0 173 173 0 173 173 0 173 173 0 172
172 0 172 172 0 172 172 0 0 171 0 0 171 0 0 171 0 0 171 0 0 170 0 0
170 0 0 170 0 170 170 0 169 169 0 169 169 0 169 169 0 168 168 0 168
168 0 168 168 0 168 168 0 167 167 0 167 167 0 167 167 0 167 167 0 166
166 0 166 166 0 166 166 0 166 166 0 165 165 0 0 165 0 0 165 0 0 164 0
0 164 0 0 164 0 0 164 0 0 163 0 0 163 0 0 163 0 0 163 0 65 65 65 65 65
65 65 65 65 65 65 65 65 65 65 65 65 65 65 65 65 65 65 65 65 65 65 65
65 65 64 64 64 64 64 64 64 64 64 64 64 64 64 64 64 64 64 64 64 64 64
64 64 64 64 64 64 64 64 64 64 64 64 64 64 64 64 64 64 64 64 64 64 64
64 63 63 63 63 63 63 63 63 63 63 63 63 63 63 63 63 63 63 63 63 63 63
63 63 63 63 63 63 63 63 63 63 63 63 63 63 63 63 63 63 63 63 63 63 63
62 62 62 62 62 62 62 62 62 62 62 62 62 62 62 62 62 62 62 62 62 62 62
62 62 62 62 62 62 62 62 62 62 62 62 62 62 62 62 62 62 62 62 62 62 62
62 62 61 61 61 61 61 61 61 61 61 61 61 61 61 61 61 61 61 61 61 61 61 0
26 0 0 26 0 0 26 0 0 26 0 0 26 0 0 26 0 0 26 0 0 26 0 0 26 0 0 26 0 0
26 0 0 26 0 0 26 0 0 26 0 0 26 0 0 26 0 0 26 0 0 26 0 0 26 0 0 26 0 0
26 0 26 26 0 26 26 0 26 26 0 26 26 0 26 26 0 26 26 0 26 26 0 0 26 0 0
26 0 0 26 0 0 26 0 0 26 0 0 26 0 0 26 0 0 26 0 0 26 0 0 26 0 0 26 0 0
26 0 0 26 0 0 26 0 0 26 0 0 26 0 0 26 0 26 26 0 26 26 0 26 26 0 26 26
0 26 26 0 26 26 0 26 26 0 26 26 0 26 26 0 26 26 0 26 26 0 26 26 0 26
26 0 26 26 0 26 26 0 26 26 0 26 26 0 26 26 0 26 26 0 26 26 0 133 133 0
133 133 0 133 133 0 0 133 0 0 133 0 0 132 0 0 132 0 0 132 0 0 132 0 0
132 0 0 132 0 0 131 0 0 131 0 0 131 0 0 131 0 0 131 0 0 130 0 0 130 0
0 130 0 0 130 0 0 130 0 0 130 0 129 129 0 129 129 0 129 129 0 129 129
0 129 129 0 0 128 0
0 190 0 0 190 0 0 189 0 0 189 0 0 189 0 0 189 0 0 188 0 0 188 0 0 188
0 0 188 0 0 187 0 0 187 0 0 187 0 0 186 0 0 186 0 0 186 0 0 186 0 0
185 0 0 185 0 0 185 0 0 184 0 0 184 0 0 184 0 0 184 0 0 183 0 0 183 0
0 183 0 0 182 0 0 182 0 0 182 0 0 182 0 0 181 0 0 181 0 0 181 0 0 181
0 0 180 0 0 180 0 0 180 0 0 179 0 0 179 0 0 179 0 179 179 0 178 178 0
178 178 0 178 178 0 177 177 0 177 177 0 177 177 0 177 177 0 176 176 0
176 176 0 176 176 0 175 175 0 175 175 0 175 175 0 175 175 0 174 174 0
174 174 0 174 174 0 174 174 0 173 173 0 173 173 0 173 173 0 172 172 0
172 172 0 0 172 0 0 172 0 0 171 0 0 171 0 0 171 0 0 171 0 0 170 0 0
170 0 0 170 0 0 169 0 0 169 0 0 169 0 169 169 0 168 168 0 168 168 0
168 168 0 168 168 0 167 167 0 167 167 0 167 167 0 166 166 0 166 166 0
166 166 0 166 166 0 0 165 0 0 165 0 0 165 0 0 165 0 0 164 0 0 164 0 0
164 0 0 164 0 0 163 0 0 163 0 0 163 0 65 65 65 65 65 65 65 65 65 65 65
65 65 65 65 65 65 65 65 65 65 65 65 65 65 65 65 64 64 64 64 64 64 64
64 64 64 64 64 64 64 64 64 64 64 64 64 64 64 64 64 64 64 64 64 64 64
64 64 64 64 64 64 64 64 64 64 64 64 64 64 64 63 63 63 63 63 63 63 63
63 63 63 63 63 63 63 63 63 63 63 63 63 63 63 63 63 63 63 63 63 63 63
63 63 63 63 63 63 63 63 63 63 63 63 63 63 63 63 63 62 62 62 62 62 62
62 62 62 62 62 62 62 62 62 62 62 62 62 62 62 62 62 62 62 62 62 62 62
62 62 62 62 62 62 62 62 62 62 62 62 62 62 62 62 61 61 61 61 61 61 61
61 61 61 61 61 61 61 61 61 61 61 61 61 61 61 61 61 0 26 0 0 26 0 0 26
0 0 26 0 0 26 0 0 26 0 0 26 0 0 26 0 0 26 0 0 26 0 0 26 0 0 26 0 0 26
0 0 26 0 0 26 0 0 26 0 0 26 0 0 26 0 0 26 0 0 26 0 0 26 0 26 26 0 26
26 0 26 26 0 26 26 0 26 26 0 26 26 0 26 26 0 26 26 0 26 26 0 26 26 0
26 26 0 26 26 0 0 26 0 0 26 0 0 26 0 0 26 0 0 26 0 0 26 0 0 26 0 0 26
0 0 26 0 0 26 0 0 26 0 0 26 0 26 26 0 26 26 0 26 26 0 26 26 0 26 26 0
26 26 0 26 26 0 26 26 0 26 26 0 26 26 0 26 26 0 26 26 0 26 26 0 26 26
0 26 26 0 26 26 0 26 26 0 26 26 0 26 26 0 26 26 0 26 26 0 133 133 0
133 133 0 0 133 0 0 133 0 0 133 0 0 133 0 0 132 0 0 132 0 0 132 0 0
132 0 0 132 0 0 131 0 0 131 0 0 131 0 0 131 0 0 131 0 0 131 0 0 130 0
0 130 0 0 130 0 0 130 0 0 130 0 0 129 0 0 129 0 0 129 0 0 129 0 0 129
0
0 190 0 0 190 0 0 190 0 0 189 0 0 189 0 0 189 0 0 189 0 0 188 0 0 188
0 0 188 0 0 187 0 0 187 0 0 187 0 0 187 0 0 186 0 0 186 0 186 186 0
185 185 0 185 185 0 185 185 0 0 185 0 0 184 0 0 184 0 0 184 0 0 183 0
0 183 0 0 183 0 0 183 0 0 182 0 0 182 0 0 182 0 0 182 0 0 181 0 0 181
0 0 181 0 0 180 0 0 180 0 0 180 0 0 180 0 0 179 0 179 179 0 179 179 0
178 178 0 178 178 0 178 178 0 178 178 0 177 177 0 177 177 0 177 177 0
176 176 0 176 176 0 176 176 0 176 176 0 175 175 0 175 175 0 175 175 0
175 175 0 174 174 0 174 174 0 174 174 0 173 173 0 173 173 0 173 173 0
173 173 0 0 172 0 0 172 0 0 172 0 0 172 0 0 171 0 0 171 0 0 171 0 0
170 0 0 170 0 0 170 0 0 170 0 0 169 0 0 169 0 0 169 0 0 169 0 0 168 0
168 168 0 168 168 0 167 167 0 167 167 0 167 167 0 167 167 0 166 166 0
166 166 0 0 166 0 0 166 0 0 165 0 0 165 0 0 165 0 0 165 0 0 164 0 0
164 0 0 164 0 0 164 0 0 163 0 0 163 0 65 65 65 65 65 65 65 65 65 65 65
65 65 65 65 65 65 65 65 65 65 65 65 65 65 65 65 64 64 64 64 64 64 64
64 64 64 64 64 64 64 64 64 64 64 64 64 64 64 64 64 64 64 64 64 64 64
64 64 64 64 64 64 64 64 64 64 64 64 64 64 64 63 63 63 63 63 63 63 63
63 63 63 63 63 63 63 63 63 63 63 63 63 63 63 63 63 63 63 63 63 63 63
63 63 63 63 63 63 63 63 63 63 63 63 63 63 62 62 62 62 62 62 62 62 62
62 62 62 62 62 62 62 62 62 62 62 62 62 62 62 62 62 62 62 62 62 62 62
62 62 62 62 62 62 62 62 62 62 62 62 62 61 61 61 61 61 61 61 61 61 61
61 61 61 61 61 61 61 61 61 61 61 61 61 61 61 61 61 0 26 0 0 26 0 0 26
0 0 26 0 0 26 0 0 26 0 0 26 0 0 26 0 0 26 0 0 26 0 0 26 0 0 26 0 0 26
0 0 26 0 0 26 0 0 26 0 0 26 0 0 26 0 0 26 0 0 26 0 0 26 0 26 26 0 26
26 0 26 26 0 26 26 0 26 26 0 26 26 0 26 26 0 26 26 0 26 26 0 26 26 0
26 26 0 26 26 0 26 26 0 26 26 0 26 26 0 26 26 0 0 26 0 0 26 0 0 26 0 0
26 0 0 26 0 0 26 0 0 26 0 0 26 0 26 26 0 26 26 0 26 26 0 26 26 0 26 26
0 26 26 0 26 26 0 26 26 0 26 26 0 26 26 0 26 26 0 26 26 0 26 26 0 26
26 0 26 26 0 26 26 0 26 26 0 26 26 0 26 26 0 26 26 0 26 26 0 26 26 0
134 134 0 133 133 0 0 133 0 0 133 0 0 133 0 0 133 0 0 132 0 0 132 0 0
132 0 0 132 0 0 132 0 0 132 0 0 131 0 0 131 0 0 131 0 0 131 0 0 131 0
0 130 0 0 130 0 0 130 0 0 130 0 0 130 0 0 130 0 0 129 0 0 129 0 0 129
0
0 190 0 0 190 0 0 190 0 0 189 0 0 189 0 0 189 0 0 189 0 0 188 0 0 188
0 0 188 0 0 188 0 0 187 0 0 187 0 0 187 0 186 186 0 186 186 0 186 186
0 186 186 0 185 185 0 185 185 0 185 185 0 184 184 0 184 184 0 184 184
0 0 184 0 0 183 0 0 183 0 0 183 0 0 182 0 0 182 0 0 182 0 0 182 0 0
181 0 0 181 0 0 181 0 0 181 0 0 180 0 0 180 0 180 180 0 179 179 0 179
179 0 179 179 0 179 179 0 178 178 0 178 178 0 178 178 0 177 177 0 177
177 0 177 177 0 177 177 0 176 176 0 176 176 0 176 176 0 176 176 0 175
175 0 175 175 0 175 175 0 174 174 0 174 174 0 174 174 0 174 174 0 173
173 0 173 173 0 0 173 0 0 172 0 0 172 0 0 172 0 0 172 0 0 171 0 0 171
0 0 171 0 0 171 0 0 170 0 0 170 0 0 170 0 0 170 0 0 169 0 0 169 0 0
169 0 0 168 0 0 168 0 0 168 0 0 168 0 0 167 0 167 167 0 167 167 0 167
167 0 0 166 0 0 166 0 0 166 0 0 166 0 0 165 0 0 165 0 0 165 0 0 164 0
0 164 0 0 164 0 0 164 0 0 163 0 0 163 0 65 65 65 65 65 65 65 65 65 65
65 65 65 65 65 65 65 65 65 65 65 65 65 65 64 64 64 64 64 64 64 64 64
64 64 64 64 64 64 64 64 64 64 64 64 64 64 64 64 64 64 64 64 64 64 64
64 64 64 64 64 64 64 64 64 64 64 64 64 63 63 63 63 63 63 63 63 63 63
63 63 63 63 63 63 63 63 63 63 63 63 63 63 63 63 63 63 63 63 63 63 63
63 63 63 63 63 63 63 63 63 63 63 63 62 62 62 62 62 62 62 62 62 62 62
62 62 62 62 62 62 62 62 62 62 62 62 62 62 62 62 62 62 62 62 62 62 62
62 62 62 62 62 62 62 62 62 62 62 61 61 61 61 61 61 61 61 61 61 61 61
61 61 61 61 61 61 61 61 61 61 61 61 61 61 61 61 61 61 0 26 0 0 26 0 0
26 0 0 26 0 0 26 0 0 26 0 0 26 0 0 26 0 0 26 0 0 26 0 0 26 0 0 26 0 0
26 0 0 26 0 0 26 0 0 26 0 0 26 0 0 26 0 0 26 0 0 26 0 26 26 0 26 26 0
26 26 0 26 26 0 26 26 0 26 26 0 26 26 0 26 26 0 26 26 0 26 26 0 26 26
0 26 26 0 26 26 0 26 26 0 26 26 0 26 26 0 26 26 0 26 26 0 26 26 0 26
26 0 26 26 0 26 26 0 0 26 0 0 26 0 0 26 0 26 26 0 26 26 0 26 26 0 26
26 0 26 26 0 26 26 0 26 26 0 26 26 0 26 26 0 26 26 0 26 26 0 26 26 0
26 26 0 26 26 0 26 26 0 26 26 0 26 26 0 26 26 0 26 26 0 26 26 0 26 26
0 26 26 0 26 26 0 134 134 0 0 133 0 0 133 0 0 133 0 0 133 0 0 133 0 0
132 0 0 132 0 0 132 0 0 132 0 0 132 0 0 132 0 0 131 0 0 131 0 0 131 0
0 131 0 0 131 0 0 130 0 0 130 0 0 130 0 0 130 0 0 130 0 0 130 0 0 129
0 0 129 0
0 190 0 0 190 0 0 190 0 0 190 0 0 189 0 0 189 0 0 189 0 0 188 0 0 188
0 0 188 0 0 188 0 0 187 0 0 187 0 187 187 0 187 187 0 186 186 0 186
186 0 186 186 0 185 185 0 185 185 0 185 185 0 185 185 0 184 184 0 184
184 0 184 184 0 183 183 0 183 183 0 0 183 0 0 183 0 0 182 0 0 182 0 0
182 0 0 181 0 0 181 0 0 181 0 0 181 0 0 180 0 180 180 0 180 180 0 180
180 0 179 179 0 179 179 0 179 179 0 178 178 0 178 178 0 178 178 0 178
178 0 177 177 0 177 177 0 177 177 0 176 176 0 176 176 0 176 176 0 176
176 0 175 175 0 175 175 0 175 175 0 175 175 0 174 174 0 174 174 0 174
174 0 0 173 0 0 173 0 0 173 0 0 173 0 0 172 0 0 172 0 0 172 0 0 172 0
0 171 0 0 171 0 0 171 0 0 170 0 0 170 0 0 170 0 0 170 0 0 169 0 0 169
0 0 169 0 0 169 0 0 168 0 0 168 0 0 168 0 0 168 0 0 167 0 0 167 0 167
167 0 166 166 0 0 166 0 0 166 0 0 166 0 0 165 0 0 165 0 0 165 0 0 165
0 0 164 0 0 164 0 0 164 0 0 164 0 0 163 0 0 163 0 65 65 65 65 65 65 65
65 65 65 65 65 65 65 65 65 65 65 64 64 64 64 64 64 64 64 64 64 64 64
64 64 64 64 64 64 64 64 64 64 64 64 64 64 64 64 64 64 64 64 64 64 64
64 64 64 64 64 64 64 64 64 64 63 63 63 63 63 63 63 63 63 63 63 63 63
63 63 63 63 63 63 63 63 63 63 63 63 63 63 63 63 63 63 63 63 63 63 63
63 63 63 63 63 63 63 63 63 62 62 62 62 62 62 62 62 62 62 62 62 62 62
62 62 62 62 62 62 62 62 62 62 62 62 62 62 62 62 62 62 62 62 62 62 62
62 62 62 62 62 62 62 62 62 62 62 61 61 61 61 61 61 61 61 61 61 61 61
61 61 61 61 61 61 61 61 61 61 61 61 61 61 61 0 26 0 0 26 0 0 26 0 0 26
0 0 26 0 0 26 0 0 26 0 0 26 0 0 26 0 0 26 0 0 26 0 0 26 0 0 26 0 0 26
0 0 26 0 0 26 0 0 26 0 0 26 0 0 26 0 0 26 0 0 26 0 26 26 0 26 26 0 26
26 0 26 26 0 26 26 0 26 26 0 26 26 0 26 26 0 26 26 0 26 26 0 26 26 0
26 26 0 26 26 0 26 26 0 26 26 0 26 26 0 26 26 0 26 26 0 26 26 0 26 26
0 26 26 0 26 26 0 26 26 0 26 26 0 0 26 0 0 26 0 26 26 0 26 26 0 26 26
0 26 26 0 26 26 0 26 26 0 26 26 0 26 26 0 26 26 0 26 26 0 26 26 0 26
26 0 26 26 0 26 26 0 26 26 0 26 26 0 26 26 0 26 26 0 26 26 0 26 26 0
26 26 0 26 26 0 26 26 0 0 134 0 0 133 0 0 133 0 0 133 0 0 133 0 0 133
0 0 133 0 0 132 0 0 132 0 0 132 0 0 132 0 0 132 0 0 131 0 0 131 0 0
131 0 0 131 0 0 131 0 0 131 0 0 130 0 0 130 0 0 130 0 0 130 0 0 130 0
0 129 0
0 191 0 0 190 0 0 190 0 0 190 0 0 189 0 0 189 0 0 189 0 0 189 0 0 188
0 0 188 0 0 188 0 187 187 0 187 187 0 187 187 0 187 187 0 186 186 0
186 186 0 186 186 0 186 186 0 185 185 0 185 185 0 185 185 0 184 184 0
184 184 0 184 184 0 184 184 0 183 183 0 183 183 0 183 183 0 182 182 0
0 182 0 0 182 0 0 182 0 0 181 0 0 181 0 0 181 0 180 180 0 180 180 0
180 180 0 180 180 0 179 179 0 179 179 0 179 179 0 179 179 0 178 178 0
178 178 0 178 178 0 177 177 0 177 177 0 177 177 0 177 177 0 176 176 0
176 176 0 176 176 0 176 176 0 175 175 0 175 175 0 175 175 0 174 174 0
174 174 0 0 174 0 0 174 0 0 173 0 0 173 0 0 173 0 0 173 0 0 172 0 0
172 0 0 172 0 0 171 0 0 171 0 0 171 0 0 171 0 0 170 0 0 170 0 0 170 0
0 170 0 0 169 0 0 169 0 0 169 0 0 168 0 0 168 0 0 168 0 0 168 0 0 167
0 167 167 0 167 167 0 167 167 0 166 166 0 166 166 0 166 166 0 0 166 0
0 165 0 0 165 0 0 165 0 0 165 0 0 164 0 0 164 0 0 164 0 0 163 0 0 163
0 65 65 65 65 65 65 65 65 65 65 65 65 65 65 65 65 65 65 64 64 64 64 64
64 64 64 64 64 64 64 64 64 64 64 64 64 64 64 64 64 64 64 64 64 64 64
64 64 64 64 64 64 64 64 64 64 64 64 64 64 63 63 63 63 63 63 63 63 63
63 63 63 63 63 63 63 63 63 63 63 63 63 63 63 63 63 63 63 63 63 63 63
63 63 63 63 63 63 63 63 63 63 63 63 63 62 62 62 62 62 62 62 62 62 62
62 62 62 62 62 62 62 62 62 62 62 62 62 62 62 62 62 62 62 62 62 62 62
62 62 62 62 62 62 62 62 62 62 62 62 62 62 62 61 61 61 61 61 61 61 61
61 61 61 61 61 61 61 61 61 61 61 61 61 61 61 61 61 61 61 61 61 61 0 26
0 0 26 0 0 26 0 0 26 0 0 26 0 0 26 0 0 26 0 0 26 0 0 26 0 0 26 0 0 26
0 0 26 0 0 26 0 0 26 0 0 26 0 0 26 0 0 26 0 0 26 0 0 26 0 0 26 0 0 26
0 26 26 0 26 26 0 26 26 0 26 26 0 26 26 0 26 26 0 26 26 0 26 26 0 26
26 0 26 26 0 26 26 0 26 26 0 26 26 0 26 26 0 26 26 0 26 26 0 26 26 0
26 26 0 26 26 0 26 26 0 26 26 0 26 26 0 26 26 0 26 26 0 0 26 0 0 26 0
0 26 0 0 26 0 0 26 0 0 26 0 0 26 0 26 26 0 26 26 0 26 26 0 26 26 0 26
26 0 26 26 0 26 26 0 26 26 0 26 26 0 26 26 0 26 26 0 26 26 0 26 26 0
26 26 0 26 26 0 26 26 0 26 26 0 26 26 0 0 26 0 0 134 0 0 134 0 0 133 0
0 133 0 0 133 0 0 133 0 0 133 0 0 132 0 0 132 0 0 132 0 0 132 0 0 132
0 0 132 0 0 131 0 0 131 0 0 131 0 0 131 0 0 131 0 0 130 0 0 130 0 0
130 0 0 130 0 0 130 0
0 191 0 0 190 0 0 190 0 0 190 0 0 190 0 0 189 0 0 189 0 0 189 0 0 188
0 0 188 0 188 188 0 188 188 0 187 187 0 187 187 0 187 187 0 186 186 0
186 186 0 186 186 0 186 186 0 185 185 0 185 185 0 185 185 0 185 185 0
184 184 0 184 184 0 184 184 0 183 183 0 183 183 0 183 183 0 183 183 0
182 182 0 182 182 0 182 182 0 0 181 0 0 181 0 181 181 0 181 181 0 180
180 0 180 180 0 180 180 0 180 180 0 179 179 0 179 179 0 179 179 0 178
178 0 178 178 0 178 178 0 178 178 0 177 177 0 177 177 0 177 177 0 176
176 0 176 176 0 176 176 0 176 176 0 175 175 0 175 175 0 175 175 0 175
175 0 0 174 0 0 174 0 0 174 0 0 173 0 0 173 0 0 173 0 0 173 0 0 172 0
0 172 0 0 172 0 0 172 0 0 171 0 0 171 0 0 171 0 0 170 0 0 170 0 0 170
0 0 170 0 0 169 0 0 169 0 0 169 0 0 169 0 0 168 0 0 168 0 0 168 0 168
168 0 167 167 0 167 167 0 167 167 0 167 167 0 166 166 0 166 166 0 166
166 0 165 165 0 165 165 0 165 165 0 0 165 0 0 164 0 0 164 0 0 164 0 0
164 0 0 163 0 65 65 65 65 65 65 65 65 65 65 65 65 65 65 65 64 64 64 64
64 64 64 64 64 64 64 64 64 64 64 64 64 64 64 64 64 64 64 64 64 64 64
64 64 64 64 64 64 64 64 64 64 64 64 64 64 64 64 64 64 63 63 63 63 63
63 63 63 63 63 63 63 63 63 63 63 63 63 63 63 63 63 63 63 63 63 63 63
63 63 63 63 63 63 63 63 63 63 63 63 63 63 63 63 63 62 62 62 62 62 62
62 62 62 62 62 62 62 62 62 62 62 62 62 62 62 62 62 62 62 62 62 62 62
62 62 62 62 62 62 62 62 62 62 62 62 62 62 62 62 61 61 61 61 61 61 61
61 61 61 61 61 61 61 61 61 61 61 61 61 61 61 61 61 61 61 61 61 61 61
61 61 61 0 26 0 0 26 0 0 26 0 0 26 0 0 26 0 0 26 0 0 26 0 0 26 0 0 26
0 0 26 0 0 26 0 0 26 0 0 26 0 0 26 0 0 26 0 0 26 0 0 26 0 0 26 0 0 26
0 0 26 0 0 26 0 26 26 0 26 26 0 26 26 0 26 26 0 26 26 0 26 26 0 26 26
0 26 26 0 26 26 0 26 26 0 26 26 0 26 26 0 26 26 0 26 26 0 26 26 0 26
26 0 26 26 0 26 26 0 26 26 0 26 26 0 26 26 0 26 26 0 26 26 0 26 26 0 0
26 0 0 26 0 0 26 0 0 26 0 0 26 0 0 26 0 0 26 0 0 26 0 0 26 0 0 26 0 0
26 0 26 26 0 26 26 0 26 26 0 26 26 0 26 26 0 26 26 0 26 26 0 26 26 0
26 26 0 26 26 0 26 26 0 26 26 0 26 26 0 26 26 0 0 26 0 0 26 0 0 134 0
0 134 0 0 133 0 0 133 0 0 133 0 0 133 0 0 133 0 0 132 0 0 132 0 0 132
0 0 132 0 0 132 0 0 132 0 0 131 0 0 131 0 0 131 0 0 131 0 0 131 0 0
131 0 0 130 0 0 130 0 0 130 0
0 191 0 0 190 0 0 190 0 0 190 0 0 190 0 0 189 0 0 189 0 0 189 0 189
189 0 188 188 0 188 188 0 188 188 0 187 187 0 187 187 0 187 187 0 187
187 0 186 186 0 186 186 0 186 186 0 185 185 0 185 185 0 185 185 0 185
185 0 184 184 0 184 184 0 184 184 0 184 184 0 183 183 0 183 183 0 183
183 0 182 182 0 182 182 0 182 182 0 0 182 0 0 181 0 0 181 0 181 181 0
180 180 0 180 180 0 180 180 0 180 180 0 179 179 0 179 179 0 179 179 0
179 179 0 178 178 0 178 178 0 178 178 0 177 177 0 177 177 0 177 177 0
177 177 0 176 176 0 176 176 0 176 176 0 175 175 0 175 175 0 175 175 0
0 175 0 0 174 0 0 174 0 0 174 0 0 174 0 0 173 0 0 173 0 0 173 0 0 172
0 0 172 0 0 172 0 0 172 0 0 171 0 0 171 0 0 171 0 0 171 0 0 170 0 0
170 0 0 170 0 0 170 0 0 169 0 0 169 0 0 169 0 0 168 0 0 168 0 168 168
0 168 168 0 167 167 0 167 167 0 167 167 0 167 167 0 166 166 0 166 166
0 166 166 0 166 166 0 165 165 0 165 165 0 165 165 0 165 165 0 164 164
0 164 164 0 0 164 0 0 164 0 65 65 65 65 65 65 65 65 65 65 65 65 64 64
64 64 64 64 64 64 64 64 64 64 64 64 64 64 64 64 64 64 64 64 64 64 64
64 64 64 64 64 64 64 64 64 64 64 64 64 64 64 64 64 64 64 64 63 63 63
63 63 63 63 63 63 63 63 63 63 63 63 63 63 63 63 63 63 63 63 63 63 63
63 63 63 63 63 63 63 63 63 63 63 63 63 63 63 63 63 63 63 62 62 62 62
62 62 62 62 62 62 62 62 62 62 62 62 62 62 62 62 62 62 62 62 62 62 62
62 62 62 62 62 62 62 62 62 62 62 62 62 62 62 62 62 62 61 61 61 61 61
61 61 61 61 61 61 61 61 61 61 61 61 61 61 61 61 61 61 61 61 61 61 61
61 61 61 61 61 61 61 61 0 26 0 0 26 0 0 26 0 0 26 0 0 26 0 0 26 0 0 26
0 0 26 0 0 26 0 0 26 0 0 26 0 0 26 0 0 26 0 0 26 0 0 26 0 0 26 0 0 26
0 0 26 0 0 26 0 0 26 0 26 26 0 26 26 0 26 26 0 26 26 0 26 26 0 26 26 0
26 26 0 26 26 0 26 26 0 26 26 0 26 26 0 26 26 0 26 26 0 26 26 0 26 26
0 26 26 0 26 26 0 26 26 0 26 26 0 26 26 0 26 26 0 26 26 0 26 26 0 26
26 0 26 26 0 0 26 0 0 26 0 0 26 0 0 26 0 0 26 0 0 26 0 0 26 0 0 26 0 0
26 0 0 26 0 0 26 0 0 26 0 0 26 0 0 26 0 0 26 0 0 26 0 26 26 0 26 26 0
26 26 0 26 26 0 26 26 0 26 26 0 26 26 0 26 26 0 26 26 0 0 26 0 0 26 0
0 26 0 0 134 0 0 134 0 0 133 0 0 133 0 0 133 0 0 133 0 0 133 0 0 133 0
0 132 0 0 132 0 0 132 0 0 132 0 0 132 0 0 131 0 0 131 0 0 131 0 0 131
0 0 131 0 0 131 0 0 130 0 0 130 0
0 191 0 0 191 0 0 190 0 0 190 0 0 190 0 0 189 0 0 189 0 189 189 0 189
189 0 188 188 0 188 188 0 188 188 0 188 188 0 187 187 0 187 187 0 187
187 0 186 186 0 186 186 0 186 186 0 186 186 0 185 185 0 185 185 0 185
185 0 184 184 0 184 184 0 184 184 0 184 184 0 183 183 0 183 183 0 183
183 0 183 183 0 182 182 0 0 182 0 0 182 0 0 181 0 0 181 0 0 181 0 0
181 0 0 180 0 0 180 0 180 180 0 179 179 0 179 179 0 179 179 0 179 179
0 178 178 0 178 178 0 178 178 0 178 178 0 177 177 0 177 177 0 177 177
0 176 176 0 176 176 0 176 176 0 176 176 0 175 175 0 0 175 0 0 175 0 0
175 0 0 174 0 0 174 0 0 174 0 0 173 0 0 173 0 0 173 0 0 173 0 0 172 0
0 172 0 0 172 0 0 172 0 0 171 0 0 171 0 0 171 0 0 170 0 0 170 0 0 170
0 0 170 0 0 169 0 0 169 0 0 169 0 0 169 0 168 168 0 168 168 0 168 168
0 168 168 0 167 167 0 167 167 0 167 167 0 167 167 0 166 166 0 166 166
0 166 166 0 165 165 0 165 165 0 165 165 0 165 165 0 164 164 0 164 164
0 164 164 0 164 164 0 65 65 65 65 65 65 65 65 65 64 64 64 64 64 64 64
64 64 64 64 64 64 64 64 64 64 64 64 64 64 64 64 64 64 64 64 64 64 64
64 64 64 64 64 64 64 64 64 64 64 64 64 64 64 63 63 63 63 63 63 63 63
63 63 63 63 63 63 63 63 63 63 63 63 63 63 63 63 63 63 63 63 63 63 63
63 63 63 63 63 63 63 63 63 63 63 63 63 63 62 62 62 62 62 62 62 62 62
62 62 62 62 62 62 62 62 62 62 62 62 62 62 62 62 62 62 62 62 62 62 62
62 62 62 62 62 62 62 62 62 62 62 62 62 61 61 61 61 61 61 61 61 61 61
61 61 61 61 61 61 61 61 61 61 61 61 61 61 61 61 61 61 61 61 61 61 61
61 61 61 61 61 61 26 26 0 26 26 0 26 26 0 0 26 0 0 26 0 0 26 0 0 26 0
0 26 0 0 26 0 0 26 0 0 26 0 0 26 0 0 26 0 0 26 0 0 26 0 0 26 0 0 26 0
0 26 0 0 26 0 0 26 0 26 26 0 26 26 0 26 26 0 26 26 0 26 26 0 26 26 0
26 26 0 26 26 0 26 26 0 26 26 0 26 26 0 26 26 0 26 26 0 26 26 0 26 26
0 26 26 0 26 26 0 26 26 0 26 26 0 26 26 0 26 26 0 26 26 0 26 26 0 26
26 0 26 26 0 0 26 0 0 26 0 0 26 0 0 26 0 0 26 0 0 26 0 0 26 0 0 26 0 0
26 0 0 26 0 0 26 0 0 26 0 0 26 0 0 26 0 0 26 0 0 26 0 0 26 0 0 26 0 0
26 0 0 26 0 26 26 0 26 26 0 26 26 0 26 26 0 26 26 0 0 26 0 0 26 0 0 26
0 0 26 0 0 134 0 0 134 0 0 134 0 0 133 0 0 133 0 0 133 0 0 133 0 0 133
0 0 132 0 0 132 0 0 132 0 0 132 0 0 132 0 0 132 0 0 131 0 0 131 0 0
131 0 0 131 0 0 131 0 0 130 0
0 191 0 0 191 0 0 190 0 0 190 0 0 190 0 0 190 0 189 189 0 189 189 0
189 189 0 188 188 0 188 188 0 188 188 0 188 188 0 187 187 0 187 187 0
187 187 0 187 187 0 186 186 0 186 186 0 186 186 0 185 185 0 185 185 0
185 185 0 185 185 0 184 184 0 184 184 0 184 184 0 183 183 0 183 183 0
183 183 0 183 183 0 0 182 0 0 182 0 0 182 0 0 182 0 0 181 0 0 181 0 0
181 0 0 180 0 0 180 0 0 180 0 0 180 0 0 179 0 179 179 0 179 179 0 178
178 0 178 178 0 178 178 0 178 178 0 177 177 0 177 177 0 177 177 0 177
177 0 176 176 0 176 176 0 176 176 0 0 175 0 0 175 0 0 175 0 0 175 0 0
174 0 0 174 0 0 174 0 0 174 0 0 173 0 0 173 0 0 173 0 0 172 0 0 172 0
0 172 0 0 172 0 0 171 0 0 171 0 0 171 0 0 171 0 0 170 0 0 170 0 0 170
0 0 170 0 0 169 0 0 169 0 169 169 0 168 168 0 168 168 0 168 168 0 168
168 0 167 167 0 167 167 0 167 167 0 167 167 0 166 166 0 166 166 0 166
166 0 166 166 0 165 165 0 165 165 0 165 165 0 165 165 0 164 164 0 164
164 0 164 164 0 65 65 65 65 65 65 65 65 65 64 64 64 64 64 64 64 64 64
64 64 64 64 64 64 64 64 64 64 64 64 64 64 64 64 64 64 64 64 64 64 64
64 64 64 64 64 64 64 64 64 64 63 63 63 63 63 63 63 63 63 63 63 63 63
63 63 63 63 63 63 63 63 63 63 63 63 63 63 63 63 63 63 63 63 63 63 63
63 63 63 63 63 63 63 63 63 62 62 62 62 62 62 62 62 62 62 62 62 62 62
62 62 62 62 62 62 62 62 62 62 62 62 62 62 62 62 62 62 62 62 62 62 62
62 62 62 62 62 62 62 62 61 61 61 61 61 61 61 61 61 61 61 61 61 61 61
61 61 61 61 61 61 61 61 61 61 61 61 61 61 61 61 61 61 61 61 61 61 61
61 61 61 61 26 26 0 26 26 0 26 26 0 26 26 0 26 26 0 26 26 0 26 26 0 0
26 0 0 26 0 0 26 0 0 26 0 0 26 0 0 26 0 0 26 0 0 26 0 0 26 0 0 26 0 0
26 0 0 26 0 0 26 0 26 26 0 26 26 0 26 26 0 26 26 0 26 26 0 26 26 0 26
26 0 26 26 0 26 26 0 26 26 0 26 26 0 26 26 0 26 26 0 26 26 0 26 26 0
26 26 0 26 26 0 26 26 0 26 26 0 26 26 0 26 26 0 26 26 0 26 26 0 26 26
0 26 26 0 0 26 0 0 26 0 0 26 0 0 26 0 0 26 0 0 26 0 0 26 0 0 26 0 0 26
0 0 26 0 0 26 0 0 26 0 0 26 0 0 26 0 0 26 0 0 26 0 0 26 0 0 26 0 0 26
0 0 26 0 0 26 0 0 26 0 0 26 0 0 26 0 0 26 0 0 26 0 0 26 0 0 26 0 0 26
0 0 26 0 0 134 0 0 134 0 0 134 0 0 133 0 0 133 0 0 133 0 0 133 0 0 133
0 0 132 0 0 132 0 0 132 0 0 132 0 0 132 0 0 132 0 0 131 0 0 131 0 0
131 0 0 131 0 0 131 0
0 191 0 0 191 0 0 191 0 0 190 0 190 190 0 190 190 0 189 189 0 189 189
0 189 189 0 189 189 0 188 188 0 188 188 0 188 188 0 187 187 0 187 187
0 187 187 0 187 187 0 186 186 0 186 186 0 186 186 0 185 185 0 185 185
0 185 185 0 185 185 0 184 184 0 184 184 0 184 184 0 184 184 0 183 183
0 0 183 0 0 183 0 0 182 0 0 182 0 0 182 0 0 182 0 0 181 0 0 181 0 0
181 0 0 180 0 0 180 0 0 180 0 0 180 0 0 179 0 0 179 0 0 179 0 0 179 0
178 178 0 178 178 0 178 178 0 177 177 0 177 177 0 177 177 0 177 177 0
176 176 0 176 176 0 0 176 0 0 176 0 0 175 0 0 175 0 0 175 0 0 174 0 0
174 0 0 174 0 0 174 0 0 173 0 0 173 0 0 173 0 0 173 0 0 172 0 0 172 0
0 172 0 0 172 0 0 171 0 0 171 0 0 171 0 0 170 0 0 170 0 0 170 0 0 170
0 0 169 0 169 169 0 169 169 0 169 169 0 168 168 0 168 168 0 168 168 0
168 168 0 167 167 0 167 167 0 167 167 0 167 167 0 166 166 0 166 166 0
166 166 0 166 166 0 165 165 0 165 165 0 165 165 0 165 165 0 164 164 0
164 164 0 65 65 65 65 65 65 64 64 64 64 64 64 64 64 64 64 64 64 64 64
64 64 64 64 64 64 64 64 64 64 64 64 64 64 64 64 64 64 64 64 64 64 64
64 64 64 64 64 64 64 64 63 63 63 63 63 63 63 63 63 63 63 63 63 63 63
63 63 63 63 63 63 63 63 63 63 63 63 63 63 63 63 63 63 63 63 63 63 63
63 63 63 63 63 63 63 62 62 62 62 62 62 62 62 62 62 62 62 62 62 62 62
62 62 62 62 62 62 62 62 62 62 62 62 62 62 62 62 62 62 62 62 62 62 62
62 62 62 62 62 62 61 61 61 61 61 61 61 61 61 61 61 61 61 61 61 61 61
61 61 61 61 61 61 61 61 61 61 61 61 61 61 61 61 61 61 61 61 61 61 26
26 0 26 26 0 26 26 0 26 26 0 26 26 0 26 26 0 26 26 0 26 26 0 26 26 0
26 26 0 26 26 0 26 26 0 0 26 0 0 26 0 0 26 0 0 26 0 0 26 0 0 26 0 0 26
0 0 26 0 0 26 0 26 26 0 26 26 0 26 26 0 26 26 0 26 26 0 26 26 0 26 26
0 26 26 0 26 26 0 26 26 0 26 26 0 26 26 0 26 26 0 26 26 0 26 26 0 26
26 0 26 26 0 26 26 0 26 26 0 26 26 0 26 26 0 26 26 0 26 26 0 26 26 0
26 26 0 0 26 0 0 26 0 0 26 0 0 26 0 0 26 0 0 26 0 0 26 0 0 26 0 0 26 0
0 26 0 0 26 0 0 26 0 0 26 0 0 26 0 0 26 0 0 26 0 0 26 0 0 26 0 0 26 0
0 26 0 0 26 0 0 26 0 0 26 0 0 26 0 0 26 0 26 26 0 26 26 0 26 26 0 26
26 0 0 134 0 0 134 0 0 134 0 0 134 0 0 134 0 0 133 0 0 133 0 0 133 0 0
133 0 0 133 0 0 133 0 0 132 0 0 132 0 0 132 0 0 132 0 0 132 0 0 131 0
0 131 0 0 131 0 0 131 0
0 191 0 0 191 0 0 191 0 190 190 0 190 190 0 190 190 0 189 189 0 189
189 0 189 189 0 189 189 0 188 188 0 188 188 0 188 188 0 188 188 0 187
187 0 187 187 0 187 187 0 186 186 0 186 186 0 186 186 0 186 186 0 185
185 0 185 185 0 185 185 0 184 184 0 184 184 0 184 184 0 184 184 0 0
183 0 0 183 0 0 183 0 0 183 0 0 182 0 0 182 0 0 182 0 0 181 0 0 181 0
0 181 0 0 181 0 0 180 0 0 180 0 0 180 0 0 179 0 0 179 0 0 179 0 0 179
0 0 178 0 0 178 0 0 178 0 178 178 0 177 177 0 177 177 0 177 177 0 176
176 0 0 176 0 0 176 0 0 176 0 0 175 0 0 175 0 0 175 0 0 175 0 0 174 0
0 174 0 0 174 0 0 174 0 0 173 0 0 173 0 0 173 0 0 172 0 0 172 0 0 172
0 0 172 0 0 171 0 0 171 0 0 171 0 0 171 0 0 170 0 0 170 0 0 170 0 170
170 0 169 169 0 169 169 0 169 169 0 168 168 0 168 168 0 168 168 0 168
168 0 167 167 0 167 167 0 167 167 0 167 167 0 166 166 0 166 166 0 166
166 0 166 166 0 165 165 0 165 165 0 165 165 0 165 165 0 164 164 0 164
164 0 65 65 65 64 64 64 64 64 64 64 64 64 64 64 64 64 64 64 64 64 64
64 64 64 64 64 64 64 64 64 64 64 64 64 64 64 64 64 64 64 64 64 64 64
64 64 64 64 63 63 63 63 63 63 63 63 63 63 63 63 63 63 63 63 63 63 63
63 63 63 63 63 63 63 63 63 63 63 63 63 63 63 63 63 63 63 63 63 63 63
63 63 63 62 62 62 62 62 62 62 62 62 62 62 62 62 62 62 62 62 62 62 62
62 62 62 62 62 62 62 62 62 62 62 62 62 62 62 62 62 62 62 62 62 62 62
62 62 61 61 61 61 61 61 61 61 61 61 61 61 61 61 61 61 61 61 61 61 61
61 61 61 61 61 61 61 61 61 61 61 61 61 61 61 61 61 61 61 61 61 26 26 0
26 26 0 26 26 0 26 26 0 26 26 0 26 26 0 26 26 0 26 26 0 26 26 0 26 26
0 26 26 0 26 26 0 26 26 0 26 26 0 26 26 0 26 26 0 0 26 0 0 26 0 0 26 0
0 26 0 26 26 0 26 26 0 26 26 0 26 26 0 26 26 0 26 26 0 26 26 0 26 26 0
26 26 0 26 26 0 26 26 0 26 26 0 26 26 0 26 26 0 26 26 0 26 26 0 26 26
0 26 26 0 26 26 0 26 26 0 26 26 0 26 26 0 26 26 0 26 26 0 26 26 0 26
26 0 0 26 0 0 26 0 0 26 0 0 26 0 0 26 0 0 26 0 0 26 0 0 26 0 0 26 0 0
26 0 0 26 0 0 26 0 0 26 0 0 26 0 0 26 0 0 26 0 0 26 0 0 26 0 0 26 0 0
26 0 0 26 0 0 26 0 0 26 0 0 26 0 0 26 0 0 26 0 135 135 0 135 135 0 135
135 0 135 135 0 134 134 0 134 134 0 134 134 0 134 134 0 0 134 0 0 133
0 0 133 0 0 133 0 0 133 0 0 133 0 0 133 0 0 132 0 0 132 0 0 132 0 0
132 0 0 132 0 0 132 0 0 131 0 0 131 0
0 191 0 191 191 0 191 191 0 190 190 0 190 190 0 190 190 0 190 190 0
189 189 0 189 189 0 189 189 0 188 188 0 188 188 0 188 188 0 188 188 0
187 187 0 187 187 0 187 187 0 186 186 0 186 186 0 186 186 0 186 186 0
185 185 0 185 185 0 185 185 0 185 185 0 184 184 0 184 184 0 0 184 0 0
183 0 0 183 0 0 183 0 0 183 0 0 182 0 0 182 0 0 182 0 0 182 0 0 181 0
0 181 0 0 181 0 0 180 0 0 180 0 0 180 0 0 180 0 0 179 0 0 179 0 0 179
0 0 178 0 0 178 0 0 178 0 0 178 0 0 177 0 0 177 0 0 177 0 0 177 0 0
176 0 0 176 0 0 176 0 0 176 0 0 175 0 0 175 0 0 175 0 0 174 0 0 174 0
0 174 0 0 174 0 0 173 0 0 173 0 0 173 0 0 173 0 0 172 0 0 172 0 0 172
0 0 172 0 0 171 0 0 171 0 0 171 0 0 170 0 0 170 0 170 170 0 170 170 0
169 169 0 169 169 0 169 169 0 169 169 0 168 168 0 168 168 0 168 168 0
168 168 0 167 167 0 167 167 0 167 167 0 167 167 0 166 166 0 166 166 0
166 166 0 166 166 0 165 165 0 165 165 0 165 165 0 165 165 0 164 164 0
64 64 64 64 64 64 64 64 64 64 64 64 64 64 64 64 64 64 64 64 64 64 64
64 64 64 64 64 64 64 64 64 64 64 64 64 64 64 64 64 64 64 64 64 64 63
63 63 63 63 63 63 63 63 63 63 63 63 63 63 63 63 63 63 63 63 63 63 63
63 63 63 63 63 63 63 63 63 63 63 63 63 63 63 63 63 63 63 63 63 62 62
62 62 62 62 62 62 62 62 62 62 62 62 62 62 62 62 62 62 62 62 62 62 62
62 62 62 62 62 62 62 62 62 62 62 62 62 62 62 62 62 62 62 62 61 61 61
61 61 61 61 61 61 61 61 61 61 61 61 61 61 61 61 61 61 61 61 61 61 61
61 61 61 61 61 61 61 61 61 61 61 61 61 61 61 61 61 61 61 26 26 0 26 26
0 26 26 0 26 26 0 26 26 0 26 26 0 26 26 0 26 26 0 26 26 0 26 26 0 26
26 0 26 26 0 26 26 0 26 26 0 26 26 0 26 26 0 26 26 0 26 26 0 26 26 0
26 26 0 26 26 0 26 26 0 26 26 0 26 26 0 26 26 0 26 26 0 26 26 0 26 26
0 26 26 0 26 26 0 26 26 0 26 26 0 26 26 0 26 26 0 26 26 0 26 26 0 26
26 0 26 26 0 26 26 0 26 26 0 26 26 0 26 26 0 26 26 0 26 26 0 26 26 0
26 26 0 0 26 0 0 26 0 0 26 0 0 26 0 0 26 0 0 26 0 0 26 0 0 26 0 0 26 0
0 26 0 0 26 0 0 26 0 0 26 0 0 26 0 0 26 0 0 26 0 0 26 0 0 26 0 0 26 0
0 26 0 0 26 0 0 26 0 0 136 0 0 136 0 0 136 0 0 136 0 135 135 0 135 135
0 135 135 0 135 135 0 135 135 0 134 134 0 134 134 0 134 134 0 134 134
0 134 134 0 134 134 0 133 133 0 0 133 0 0 133 0 0 133 0 0 133 0 0 132
0 0 132 0 0 132 0 0 132 0 0 132 0 0 132 0 0 131 0
191 191 0 191 191 0 191 191 0 190 190 0 190 190 0 190 190 0 190 190 0
189 189 0 189 189 0 189 189 0 189 189 0 188 188 0 188 188 0 188 188 0
187 187 0 187 187 0 187 187 0 187 187 0 186 186 0 186 186 0 186 186 0
185 185 0 185 185 0 185 185 0 185 185 0 184 184 0 0 184 0 0 184 0 0
184 0 0 183 0 0 183 0 0 183 0 0 182 0 0 182 0 0 182 0 0 182 0 0 181 0
0 181 0 0 181 0 0 180 0 0 180 0 0 180 0 0 180 0 0 179 0 0 179 0 0 179
0 0 179 0 0 178 0 0 178 0 0 178 0 0 177 0 0 177 0 177 177 0 177 177 0
176 176 0 176 176 0 0 176 0 0 176 0 0 175 0 0 175 0 0 175 0 0 175 0 0
174 0 0 174 0 0 174 0 0 173 0 0 173 0 0 173 0 0 173 0 0 172 0 0 172 0
0 172 0 0 172 0 0 171 0 0 171 0 0 171 0 0 171 0 170 170 0 170 170 0
170 170 0 170 170 0 169 169 0 169 169 0 169 169 0 168 168 0 168 168 0
168 168 0 168 168 0 167 167 0 167 167 0 167 167 0 167 167 0 166 166 0
166 166 0 166 166 0 166 166 0 165 165 0 165 165 0 165 165 0 165 165 0
164 164 0 164 164 0 64 64 64 64 64 64 64 64 64 64 64 64 64 64 64 64 64
64 64 64 64 64 64 64 64 64 64 64 64 64 64 64 64 64 64 64 64 64 64 63
63 63 63 63 63 63 63 63 63 63 63 63 63 63 63 63 63 63 63 63 63 63 63
63 63 63 63 63 63 63 63 63 63 63 63 63 63 63 63 63 63 63 63 63 62 62
62 62 62 62 62 62 62 62 62 62 62 62 62 62 62 62 62 62 62 62 62 62 62
62 62 62 62 62 62 62 62 62 62 62 62 62 62 62 62 62 62 62 62 61 61 61
61 61 61 61 61 61 61 61 61 61 61 61 61 61 61 61 61 61 61 61 61 61 61
61 61 61 61 61 61 61 61 61 61 61 61 61 61 61 61 61 61 61 60 60 60 26
26 0 26 26 0 26 26 0 26 26 0 26 26 0 26 26 0 26 26 0 26 26 0 26 26 0
26 26 0 26 26 0 26 26 0 26 26 0 26 26 0 26 26 0 26 26 0 26 26 0 26 26
0 26 26 0 26 26 0 0 26 0 0 26 0 0 26 0 0 26 0 26 26 0 26 26 0 26 26 0
26 26 0 26 26 0 26 26 0 26 26 0 26 26 0 26 26 0 26 26 0 26 26 0 26 26
0 26 26 0 26 26 0 26 26 0 26 26 0 26 26 0 26 26 0 26 26 0 26 26 0 26
26 0 26 26 0 0 26 0 0 26 0 0 26 0 0 26 0 0 26 0 0 26 0 0 26 0 0 26 0 0
26 0 0 26 0 0 26 0 0 26 0 0 26 0 0 26 0 0 26 0 0 26 0 0 26 0 0 26 0 0
137 0 0 137 0 0 137 0 0 136 0 0 136 0 0 136 0 0 136 0 0 136 0 136 136
0 135 135 0 135 135 0 135 135 0 135 135 0 135 135 0 134 134 0 134 134
0 134 134 0 134 134 0 134 134 0 134 134 0 133 133 0 133 133 0 133 133
0 133 133 0 133 133 0 0 133 0 0 132 0 0 132 0 0 132 0 0 132 0 0 132 0
191 191 0 191 191 0 191 191 0 191 191 0 190 190 0 190 190 0 190 190 0
189 189 0 189 189 0 189 189 0 189 189 0 188 188 0 188 188 0 188 188 0
187 187 0 187 187 0 187 187 0 187 187 0 186 186 0 186 186 0 186 186 0
186 186 0 185 185 0 185 185 0 0 185 0 0 184 0 0 184 0 0 184 0 0 184 0
0 183 0 0 183 0 0 183 0 0 182 0 0 182 0 0 182 0 0 182 0 0 181 0 0 181
0 0 181 0 0 181 0 0 180 0 0 180 0 0 180 0 0 179 0 0 179 0 0 179 0 0
179 0 0 178 0 0 178 0 0 178 0 178 178 0 177 177 0 177 177 0 177 177 0
177 177 0 176 176 0 176 176 0 176 176 0 175 175 0 0 175 0 0 175 0 0
175 0 0 174 0 0 174 0 0 174 0 0 174 0 0 173 0 0 173 0 0 173 0 0 173 0
0 172 0 0 172 0 0 172 0 0 171 0 0 171 0 0 171 0 0 171 0 170 170 0 170
170 0 170 170 0 170 170 0 169 169 0 169 169 0 169 169 0 169 169 0 168
168 0 168 168 0 168 168 0 168 168 0 167 167 0 167 167 0 167 167 0 167
167 0 166 166 0 166 166 0 166 166 0 166 166 0 165 165 0 165 165 0 165
165 0 165 165 0 164 164 0 64 64 64 64 64 64 64 64 64 64 64 64 64 64 64
64 64 64 64 64 64 64 64 64 64 64 64 64 64 64 64 64 64 64 64 64 64 64
64 63 63 63 63 63 63 63 63 63 63 63 63 63 63 63 63 63 63 63 63 63 63
63 63 63 63 63 63 63 63 63 63 63 63 63 63 63 63 63 63 63 63 62 62 62
62 62 62 62 62 62 62 62 62 62 62 62 62 62 62 62 62 62 62 62 62 62 62
62 62 62 62 62 62 62 62 62 62 62 62 62 62 62 62 62 62 62 61 61 61 61
61 61 61 61 61 61 61 61 61 61 61 61 61 61 61 61 61 61 61 61 61 61 61
61 61 61 61 61 61 61 61 61 61 61 61 61 61 61 61 61 61 60 60 60 60 60
60 26 26 0 26 26 0 26 26 0 26 26 0 26 26 0 26 26 0 26 26 0 26 26 0 26
26 0 26 26 0 26 26 0 26 26 0 26 26 0 26 26 0 26 26 0 26 26 0 26 26 0
26 26 0 26 26 0 26 26 0 0 26 0 0 26 0 0 26 0 0 26 0 0 26 0 0 26 0 0 26
0 0 26 0 26 26 0 26 26 0 26 26 0 26 26 0 26 26 0 26 26 0 26 26 0 26 26
0 26 26 0 26 26 0 26 26 0 26 26 0 26 26 0 26 26 0 26 26 0 26 26 0 26
26 0 26 26 0 0 26 0 0 26 0 0 26 0 0 26 0 0 26 0 0 26 0 0 26 0 0 26 0 0
26 0 0 26 0 0 26 0 0 26 0 0 26 0 0 26 0 0 138 0 0 138 0 0 138 0 0 137
0 0 137 0 0 137 0 0 137 0 0 137 0 0 137 0 0 136 0 0 136 0 0 136 0 136
136 0 136 136 0 135 135 0 135 135 0 135 135 0 135 135 0 135 135 0 135
135 0 134 134 0 134 134 0 134 134 0 134 134 0 134 134 0 133 133 0 133
133 0 133 133 0 133 133 0 133 133 0 133 133 0 132 132 0 132 132 0 0
132 0 0 132 0
191 191 0 191 191 0 191 191 0 191 191 0 190 190 0 190 190 0 190 190 0
189 189 0 189 189 0 189 189 0 189 189 0 188 188 0 188 188 0 188 188 0
188 188 0 187 187 0 187 187 0 187 187 0 186 186 0 186 186 0 186 186 0
186 186 0 185 185 0 0 185 0 0 185 0 0 184 0 0 184 0 0 184 0 0 184 0 0
183 0 0 183 0 0 183 0 0 183 0 0 182 0 0 182 0 0 182 0 0 181 0 0 181 0
0 181 0 0 181 0 0 180 0 0 180 0 0 180 0 0 180 0 0 179 0 0 179 0 0 179
0 0 178 0 0 178 0 178 178 0 178 178 0 177 177 0 177 177 0 177 177 0
177 177 0 176 176 0 176 176 0 176 176 0 176 176 0 175 175 0 175 175 0
175 175 0 0 174 0 0 174 0 0 174 0 0 174 0 0 173 0 0 173 0 0 173 0 0
173 0 0 172 0 0 172 0 0 172 0 0 172 0 0 171 0 0 171 0 171 171 0 171
171 0 170 170 0 170 170 0 170 170 0 169 169 0 169 169 0 169 169 0 169
169 0 168 168 0 168 168 0 168 168 0 168 168 0 167 167 0 167 167 0 167
167 0 167 167 0 166 166 0 166 166 0 166 166 0 166 166 0 165 165 0 165
165 0 165 165 0 165 165 0 164 164 0 64 64 64 64 64 64 64 64 64 64 64
64 64 64 64 64 64 64 64 64 64 64 64 64 64 64 64 64 64 64 64 64 64 64
64 64 63 63 63 63 63 63 63 63 63 63 63 63 63 63 63 63 63 63 63 63 63
63 63 63 63 63 63 63 63 63 63 63 63 63 63 63 63 63 63 63 63 63 62 62
62 62 62 62 62 62 62 62 62 62 62 62 62 62 62 62 62 62 62 62 62 62 62
62 62 62 62 62 62 62 62 62 62 62 62 62 62 62 62 62 62 62 62 61 61 61
61 61 61 61 61 61 61 61 61 61 61 61 61 61 61 61 61 61 61 61 61 61 61
61 61 61 61 61 61 61 61 61 61 61 61 61 61 61 61 61 61 61 61 61 61 60
60 60 60 60 60 26 26 0 26 26 0 26 26 0 26 26 0 26 26 0 26 26 0 26 26 0
26 26 0 26 26 0 26 26 0 26 26 0 26 26 0 26 26 0 26 26 0 26 26 0 26 26
0 26 26 0 26 26 0 26 26 0 0 26 0 0 26 0 0 26 0 0 26 0 0 26 0 0 26 0 0
26 0 0 26 0 0 26 0 0 26 0 0 26 0 0 26 0 0 26 0 26 26 0 26 26 0 26 26 0
26 26 0 26 26 0 26 26 0 26 26 0 26 26 0 26 26 0 26 26 0 26 26 0 26 26
0 26 26 0 26 26 0 0 26 0 0 26 0 0 26 0 0 26 0 0 26 0 0 26 0 0 26 0 0
26 0 0 26 0 0 26 0 0 26 0 0 139 0 0 139 0 0 138 0 0 138 0 0 138 0 0
138 0 0 138 0 0 137 0 0 137 0 0 137 0 0 137 0 0 137 0 0 137 0 0 136 0
0 136 0 136 136 0 136 136 0 136 136 0 135 135 0 135 135 0 135 135 0
135 135 0 135 135 0 135 135 0 134 134 0 134 134 0 134 134 0 134 134 0
134 134 0 133 133 0 133 133 0 133 133 0 133 133 0 133 133 0 133 133 0
132 132 0 132 132 0 132 132 0
191 191 0 191 191 0 191 191 0 191 191 0 190 190 0 190 190 0 190 190 0
190 190 0 189 189 0 189 189 0 189 189 0 188 188 0 188 188 0 188 188 0
188 188 0 187 187 0 187 187 0 187 187 0 186 186 0 186 186 0 186 186 0
186 186 0 0 185 0 0 185 0 0 185 0 0 185 0 0 184 0 0 184 0 0 184 0 0
183 0 0 183 0 0 183 0 0 183 0 0 182 0 0 182 0 0 182 0 0 182 0 0 181 0
0 181 0 0 181 0 0 180 0 0 180 0 0 180 0 0 180 0 0 179 0 0 179 0 0 179
0 0 179 0 178 178 0 178 178 0 178 178 0 177 177 0 177 177 0 177 177 0
177 177 0 176 176 0 176 176 0 176 176 0 176 176 0 175 175 0 175 175 0
175 175 0 175 175 0 174 174 0 174 174 0 0 174 0 0 174 0 0 173 0 0 173
0 0 173 0 0 172 0 0 172 0 0 172 0 0 172 0 0 171 0 171 171 0 171 171 0
171 171 0 170 170 0 170 170 0 170 170 0 170 170 0 169 169 0 169 169 0
169 169 0 169 169 0 168 168 0 168 168 0 168 168 0 168 168 0 167 167 0
167 167 0 167 167 0 167 167 0 166 166 0 166 166 0 166 166 0 166 166 0
165 165 0 165 165 0 165 165 0 0 165 0 64 64 64 64 64 64 64 64 64 64 64
64 64 64 64 64 64 64 64 64 64 64 64 64 64 64 64 64 64 64 64 64 64 63
63 63 63 63 63 63 63 63 63 63 63 63 63 63 63 63 63 63 63 63 63 63 63
63 63 63 63 63 63 63 63 63 63 63 63 63 63 63 63 63 63 63 63 63 62 62
62 62 62 62 62 62 62 62 62 62 62 62 62 62 62 62 62 62 62 62 62 62 62
62 62 62 62 62 62 62 62 62 62 62 62 62 62 62 62 62 62 62 62 61 61 61
61 61 61 61 61 61 61 61 61 61 61 61 61 61 61 61 61 61 61 61 61 61 61
61 61 61 61 61 61 61 61 61 61 61 61 61 61 61 61 61 61 61 60 60 60 60
60 60 60 60 60 26 26 0 26 26 0 26 26 0 26 26 0 26 26 0 26 26 0 26 26 0
26 26 0 26 26 0 26 26 0 26 26 0 26 26 0 26 26 0 26 26 0 26 26 0 26 26
0 26 26 0 26 26 0 26 26 0 0 26 0 0 26 0 0 26 0 0 26 0 0 26 0 0 26 0 0
26 0 0 26 0 0 26 0 0 26 0 0 26 0 0 26 0 0 26 0 0 26 0 0 26 0 0 26 0 0
26 0 26 26 0 26 26 0 26 26 0 26 26 0 26 26 0 26 26 0 26 26 0 26 26 0
26 26 0 26 26 0 0 26 0 0 26 0 0 26 0 0 26 0 0 26 0 0 26 0 0 26 0 0 140
0 0 140 0 0 139 0 0 139 0 0 139 0 0 139 0 0 139 0 0 138 0 0 138 0 0
138 0 0 138 0 0 138 0 0 137 0 0 137 0 0 137 0 0 137 0 0 137 0 0 137 0
0 136 0 136 136 0 136 136 0 136 136 0 136 136 0 135 135 0 135 135 0
135 135 0 135 135 0 135 135 0 135 135 0 134 134 0 134 134 0 134 134 0
134 134 0 134 134 0 134 134 0 133 133 0 133 133 0 133 133 0 133 133 0
133 133 0 132 132 0 132 132 0
0 192 0 0 191 0 191 191 0 191 191 0 190 190 0 190 190 0 190 190 0 190
190 0 189 189 0 189 189 0 189 189 0 188 188 0 188 188 0 188 188 0 188
188 0 187 187 0 187 187 0 187 187 0 187 187 0 186 186 0 186 186 0 0
186 0 0 185 0 0 185 0 0 185 0 0 185 0 0 184 0 0 184 0 0 184 0 0 184 0
0 183 0 0 183 0 0 183 0 0 182 0 0 182 0 0 182 0 0 182 0 0 181 0 0 181
0 0 181 0 0 181 0 0 180 0 0 180 0 0 180 0 0 179 0 0 179 0 0 179 0 179
179 0 178 178 0 178 178 0 178 178 0 178 178 0 177 177 0 177 177 0 177
177 0 177 177 0 176 176 0 176 176 0 176 176 0 175 175 0 175 175 0 175
175 0 175 175 0 174 174 0 174 174 0 174 174 0 174 174 0 173 173 0 173
173 0 0 173 0 0 173 0 0 172 0 0 172 0 0 172 0 172 172 0 171 171 0 171
171 0 171 171 0 170 170 0 170 170 0 170 170 0 170 170 0 169 169 0 169
169 0 169 169 0 169 169 0 168 168 0 168 168 0 168 168 0 168 168 0 167
167 0 167 167 0 167 167 0 167 167 0 166 166 0 166 166 0 166 166 0 166
166 0 165 165 0 165 165 0 0 165 0 0 165 0 64 64 64 64 64 64 64 64 64
64 64 64 64 64 64 64 64 64 64 64 64 64 64 64 64 64 64 64 64 64 63 63
63 63 63 63 63 63 63 63 63 63 63 63 63 63 63 63 63 63 63 63 63 63 63
63 63 63 63 63 63 63 63 63 63 63 63 63 63 63 63 63 63 63 63 62 62 62
62 62 62 62 62 62 62 62 62 62 62 62 62 62 62 62 62 62 62 62 62 62 62
62 62 62 62 62 62 62 62 62 62 62 62 62 62 62 62 62 62 62 61 61 61 61
61 61 61 61 61 61 61 61 61 61 61 61 61 61 61 61 61 61 61 61 61 61 61
61 61 61 61 61 61 61 61 61 61 61 61 61 61 61 61 61 61 60 60 60 60 60
60 60 60 60 26 26 0 26 26 0 26 26 0 26 26 0 26 26 0 26 26 0 26 26 0 26
26 0 26 26 0 26 26 0 26 26 0 26 26 0 26 26 0 26 26 0 26 26 0 26 26 0
26 26 0 26 26 0 26 26 0 26 26 0 0 26 0 0 26 0 0 26 0 0 26 0 0 26 0 0
26 0 0 26 0 0 26 0 0 26 0 0 26 0 0 26 0 0 26 0 0 26 0 0 26 0 0 26 0 0
26 0 0 26 0 0 26 0 0 26 0 0 26 0 0 26 0 0 26 0 26 26 0 26 26 0 26 26 0
26 26 0 26 26 0 0 26 0 0 26 0 0 26 0 0 141 0 0 141 0 0 140 0 0 140 0 0
140 0 0 140 0 0 140 0 0 139 0 0 139 0 0 139 0 0 139 0 0 139 0 0 138 0
0 138 0 0 138 0 0 138 0 0 138 0 0 138 0 0 137 0 0 137 0 0 137 0 0 137
0 0 137 0 136 136 0 136 136 0 136 136 0 136 136 0 136 136 0 136 136 0
135 135 0 135 135 0 135 135 0 135 135 0 135 135 0 134 134 0 134 134 0
134 134 0 134 134 0 134 134 0 134 134 0 133 133 0 133 133 0 133 133 0
133 133 0 133 133 0 133 133 0
0 192 0 0 191 0 0 191 0 0 191 0 0 190 0 190 190 0 190 190 0 190 190 0
189 189 0 189 189 0 189 189 0 189 189 0 188 188 0 188 188 0 188 188 0
187 187 0 187 187 0 187 187 0 187 187 0 0 186 0 0 186 0 0 186 0 0 186
0 0 185 0 0 185 0 0 185 0 0 184 0 0 184 0 0 184 0 0 184 0 0 183 0 0
183 0 0 183 0 0 183 0 0 182 0 0 182 0 0 182 0 0 181 0 0 181 0 0 181 0
0 181 0 0 180 0 0 180 0 0 180 0 0 180 0 0 179 0 179 179 0 179 179 0
178 178 0 178 178 0 178 178 0 178 178 0 177 177 0 177 177 0 177 177 0
177 177 0 176 176 0 176 176 0 176 176 0 176 176 0 175 175 0 175 175 0
175 175 0 174 174 0 174 174 0 174 174 0 174 174 0 173 173 0 173 173 0
173 173 0 173 173 0 172 172 0 0 172 0 172 172 0 172 172 0 171 171 0
171 171 0 171 171 0 171 171 0 170 170 0 170 170 0 170 170 0 170 170 0
169 169 0 169 169 0 169 169 0 169 169 0 168 168 0 168 168 0 168 168 0
168 168 0 167 167 0 167 167 0 167 167 0 167 167 0 166 166 0 166 166 0
166 166 0 166 166 0 165 165 0 0 165 0 0 165 0 64 64 64 64 64 64 64 64
64 64 64 64 64 64 64 64 64 64 64 64 64 64 64 64 64 64 64 63 63 63 63
63 63 63 63 63 63 63 63 63 63 63 63 63 63 63 63 63 63 63 63 63 63 63
63 63 63 63 63 63 63 63 63 63 63 63 63 63 63 63 63 63 62 62 62 62 62
62 62 62 62 62 62 62 62 62 62 62 62 62 62 62 62 62 62 62 62 62 62 62
62 62 62 62 62 62 62 62 62 62 62 62 62 62 62 62 62 61 61 61 61 61 61
61 61 61 61 61 61 61 61 61 61 61 61 61 61 61 61 61 61 61 61 61 61 61
61 61 61 61 61 61 61 61 61 61 61 61 61 61 61 61 60 60 60 60 60 60 60
60 60 60 60 60 26 26 0 26 26 0 26 26 0 26 26 0 26 26 0 26 26 0 26 26 0
26 26 0 26 26 0 26 26 0 26 26 0 26 26 0 26 26 0 26 26 0 26 26 0 26 26
0 26 26 0 26 26 0 26 26 0 26 26 0 0 26 0 0 26 0 0 26 0 0 26 0 0 26 0 0
26 0 0 26 0 0 26 0 0 26 0 0 26 0 0 26 0 0 26 0 0 26 0 0 26 0 0 26 0 0
26 0 0 26 0 0 26 0 0 26 0 0 26 0 0 26 0 0 26 0 0 26 0 0 26 0 0 26 0 0
26 0 142 142 0 0 141 0 0 141 0 0 141 0 0 141 0 0 141 0 0 141 0 0 140 0
0 140 0 0 140 0 0 140 0 0 140 0 0 139 0 0 139 0 0 139 0 0 139 0 0 139
0 0 138 0 0 138 0 0 138 0 0 138 0 0 138 0 0 138 0 0 137 0 0 137 0 0
137 0 0 137 0 137 137 0 136 136 0 136 136 0 136 136 0 136 136 0 136
136 0 136 136 0 135 135 0 135 135 0 135 135 0 135 135 0 135 135 0 134
134 0 134 134 0 134 134 0 134 134 0 134 134 0 134 134 0 133 133 0 133
133 0 133 133 0 133 133 0 133 133 0
0 192 0 0 191 0 0 191 0 0 191 0 0 191 0 0 190 0 0 190 0 0 190 0 189
189 0 189 189 0 189 189 0 189 189 0 188 188 0 188 188 0 188 188 0 187
187 0 187 187 0 187 187 0 0 187 0 0 186 0 0 186 0 0 186 0 0 186 0 0
185 0 0 185 0 0 185 0 0 184 0 0 184 0 0 184 0 0 184 0 0 183 0 0 183 0
0 183 0 0 183 0 0 182 0 0 182 0 0 182 0 0 181 0 0 181 0 0 181 0 0 181
0 0 180 0 0 180 0 0 180 0 0 180 0 179 179 0 179 179 0 179 179 0 179
179 0 178 178 0 178 178 0 178 178 0 177 177 0 177 177 0 177 177 0 177
177 0 176 176 0 176 176 0 176 176 0 176 176 0 175 175 0 175 175 0 175
175 0 175 175 0 174 174 0 174 174 0 174 174 0 174 174 0 173 173 0 173
173 0 173 173 0 172 172 0 0 172 0 0 172 0 0 172 0 171 171 0 171 171 0
171 171 0 171 171 0 170 170 0 170 170 0 170 170 0 170 170 0 169 169 0
169 169 0 169 169 0 169 169 0 168 168 0 168 168 0 168 168 0 168 168 0
167 167 0 167 167 0 167 167 0 167 167 0 166 166 0 166 166 0 166 166 0
166 166 0 0 165 0 0 165 0 0 165 0 64 64 64 64 64 64 64 64 64 64 64 64
64 64 64 64 64 64 64 64 64 64 64 64 63 63 63 63 63 63 63 63 63 63 63
63 63 63 63 63 63 63 63 63 63 63 63 63 63 63 63 63 63 63 63 63 63 63
63 63 63 63 63 63 63 63 63 63 63 62 62 62 62 62 62 62 62 62 62 62 62
62 62 62 62 62 62 62 62 62 62 62 62 62 62 62 62 62 62 62 62 62 62 62
62 62 62 62 62 62 62 62 62 62 61 61 61 61 61 61 61 61 61 61 61 61 61
61 61 61 61 61 61 61 61 61 61 61 61 61 61 61 61 61 61 61 61 61 61 61
61 61 61 61 61 61 61 61 61 60 60 60 60 60 60 60 60 60 60 60 60 60 60
60 26 26 0 26 26 0 26 26 0 26 26 0 26 26 0 26 26 0 26 26 0 26 26 0 26
26 0 26 26 0 26 26 0 26 26 0 26 26 0 26 26 0 26 26 0 26 26 0 26 26 0
26 26 0 26 26 0 26 26 0 0 26 0 0 26 0 0 26 0 0 26 0 0 26 0 0 26 0 0 26
0 0 26 0 0 26 0 0 26 0 0 26 0 0 26 0 0 26 0 0 26 0 0 26 0 0 26 0 0 26
0 0 26 0 0 26 0 0 26 0 0 26 0 0 26 0 0 143 0 0 142 0 0 142 0 0 142 0
142 142 0 142 142 0 141 141 0 141 141 0 0 141 0 0 141 0 0 141 0 0 141
0 0 140 0 0 140 0 0 140 0 0 140 0 0 140 0 0 139 0 0 139 0 0 139 0 0
139 0 0 139 0 0 138 0 0 138 0 0 138 0 0 138 0 0 138 0 0 138 0 0 137 0
0 137 0 0 137 0 137 137 0 137 137 0 136 136 0 136 136 0 136 136 0 136
136 0 136 136 0 136 136 0 135 135 0 135 135 0 135 135 0 135 135 0 135
135 0 135 135 0 134 134 0 134 134 0 134 134 0 134 134 0 134 134 0 133
133 0 133 133 0 133 133 0 133 133 0
0 192 0 0 191 0 0 191 0 0 191 0 0 191 0 0 190 0 0 190 0 0 190 0 0 189
0 0 189 0 0 189 0 189 189 0 188 188 0 188 188 0 188 188 0 188 188 0
187 187 0 0 187 0 0 187 0 0 186 0 0 186 0 0 186 0 0 186 0 0 185 0 0
185 0 0 185 0 0 185 0 0 184 0 0 184 0 0 184 0 0 183 0 0 183 0 0 183 0
0 183 0 0 182 0 0 182 0 0 182 0 0 182 0 0 181 0 0 181 0 0 181 0 0 180
0 0 180 0 0 180 0 180 180 0 179 179 0 179 179 0 179 179 0 179 179 0
178 178 0 178 178 0 178 178 0 178 178 0 177 177 0 177 177 0 177 177 0
176 176 0 176 176 0 176 176 0 176 176 0 175 175 0 175 175 0 175 175 0
175 175 0 174 174 0 174 174 0 174 174 0 174 174 0 173 173 0 173 173 0
173 173 0 0 173 0 0 172 0 0 172 0 0 172 0 0 172 0 0 171 0 0 171 0 171
171 0 171 171 0 170 170 0 170 170 0 170 170 0 169 169 0 169 169 0 169
169 0 169 169 0 168 168 0 168 168 0 168 168 0 168 168 0 167 167 0 167
167 0 167 167 0 167 167 0 166 166 0 166 166 0 166 166 0 0 166 0 0 166
0 0 165 0 0 165 0 64 64 64 64 64 64 64 64 64 64 64 64 64 64 64 64 64
64 64 64 64 64 64 64 63 63 63 63 63 63 63 63 63 63 63 63 63 63 63 63
63 63 63 63 63 63 63 63 63 63 63 63 63 63 63 63 63 63 63 63 63 63 63
63 63 63 62 62 62 62 62 62 62 62 62 62 62 62 62 62 62 62 62 62 62 62
62 62 62 62 62 62 62 62 62 62 62 62 62 62 62 62 62 62 62 62 62 62 62
62 62 61 61 61 61 61 61 61 61 61 61 61 61 61 61 61 61 61 61 61 61 61
61 61 61 61 61 61 61 61 61 61 61 61 61 61 61 61 61 61 61 61 61 61 61
61 60 60 60 60 60 60 60 60 60 60 60 60 60 60 60 60 60 60 26 26 0 26 26
0 26 26 0 26 26 0 26 26 0 26 26 0 26 26 0 26 26 0 26 26 0 26 26 0 26
26 0 26 26 0 26 26 0 26 26 0 26 26 0 26 26 0 26 26 0 26 26 0 26 26 0 0
26 0 0 26 0 0 26 0 0 26 0 0 26 0 0 26 0 0 26 0 0 26 0 0 26 0 0 26 0 0
26 0 0 26 0 0 26 0 0 26 0 0 26 0 0 26 0 0 26 0 0 26 0 0 26 0 0 26 0 0
143 0 0 143 0 0 143 0 0 143 0 0 143 0 0 142 0 0 142 0 142 142 0 142
142 0 142 142 0 141 141 0 141 141 0 141 141 0 141 141 0 141 141 0 0
141 0 0 140 0 0 140 0 0 140 0 0 140 0 0 140 0 0 139 0 0 139 0 0 139 0
0 139 0 0 139 0 0 138 0 0 138 0 0 138 0 0 138 0 0 138 0 0 138 0 0 137
0 0 137 0 137 137 0 137 137 0 137 137 0 136 136 0 136 136 0 136 136 0
136 136 0 136 136 0 136 136 0 135 135 0 135 135 0 135 135 0 135 135 0
135 135 0 135 135 0 134 134 0 134 134 0 134 134 0 134 134 0 134 134 0
134 134 0 133 133 0 133 133 0
0 192 0 0 191 0 0 191 0 0 191 0 0 191 0 0 190 0 0 190 0 0 190 0 0 189
0 0 189 0 0 189 0 0 189 0 0 188 0 188 188 0 188 188 0 0 188 0 0 187 0
0 187 0 0 187 0 0 186 0 0 186 0 0 186 0 0 186 0 0 185 0 0 185 0 0 185
0 0 185 0 0 184 0 0 184 0 0 184 0 0 183 0 0 183 0 0 183 0 0 183 0 0
182 0 0 182 0 0 182 0 0 182 0 0 181 0 0 181 0 0 181 0 0 181 0 0 180 0
180 180 0 180 180 0 179 179 0 179 179 0 179 179 0 179 179 0 178 178 0
178 178 0 178 178 0 178 178 0 177 177 0 177 177 0 177 177 0 177 177 0
176 176 0 176 176 0 176 176 0 175 175 0 175 175 0 175 175 0 175 175 0
174 174 0 174 174 0 174 174 0 174 174 0 173 173 0 173 173 0 0 173 0 0
173 0 0 172 0 0 172 0 0 172 0 0 172 0 0 171 0 0 171 0 0 171 0 0 171 0
0 170 0 0 170 0 170 170 0 170 170 0 169 169 0 169 169 0 169 169 0 169
169 0 168 168 0 168 168 0 168 168 0 168 168 0 167 167 0 167 167 0 167
167 0 167 167 0 166 166 0 0 166 0 0 166 0 0 166 0 0 165 0 0 165 0 0
165 0 64 64 64 64 64 64 64 64 64 64 64 64 64 64 64 64 64 64 63 63 63
63 63 63 63 63 63 63 63 63 63 63 63 63 63 63 63 63 63 63 63 63 63 63
63 63 63 63 63 63 63 63 63 63 63 63 63 63 63 63 62 62 62 62 62 62 62
62 62 62 62 62 62 62 62 62 62 62 62 62 62 62 62 62 62 62 62 62 62 62
62 62 62 62 62 62 62 62 62 62 62 62 62 62 62 61 61 61 61 61 61 61 61
61 61 61 61 61 61 61 61 61 61 61 61 61 61 61 61 61 61 61 61 61 61 61
61 61 61 61 61 61 61 61 61 61 61 61 61 61 60 60 60 60 60 60 60 60 60
60 60 60 60 60 60 60 60 60 60 60 60 26 26 0 26 26 0 26 26 0 26 26 0 26
26 0 26 26 0 26 26 0 26 26 0 26 26 0 26 26 0 26 26 0 26 26 0 26 26 0
26 26 0 26 26 0 26 26 0 26 26 0 26 26 0 26 26 0 0 26 0 0 26 0 0 26 0 0
26 0 0 26 0 0 26 0 0 26 0 0 26 0 0 26 0 0 26 0 0 26 0 0 26 0 0 26 0 0
26 0 0 26 0 0 26 0 0 144 0 0 144 0 0 144 0 0 144 0 0 144 0 0 143 0 0
143 0 0 143 0 0 143 0 0 143 0 0 142 0 142 142 0 142 142 0 142 142 0
142 142 0 141 141 0 141 141 0 141 141 0 141 141 0 141 141 0 141 141 0
140 140 0 140 140 0 0 140 0 0 140 0 0 140 0 0 139 0 0 139 0 0 139 0 0
139 0 0 139 0 0 138 0 0 138 0 0 138 0 0 138 0 0 138 0 0 138 0 0 137 0
0 137 0 137 137 0 137 137 0 137 137 0 137 137 0 136 136 0 136 136 0
136 136 0 136 136 0 136 136 0 135 135 0 135 135 0 135 135 0 135 135 0
135 135 0 135 135 0 134 134 0 134 134 0 134 134 0 134 134 0 134 134 0
134 134 0 133 133 0
0 192 0 0 191 0 0 191 0 0 191 0 0 191 0 0 190 0 0 190 0 0 190 0 0 190
0 0 189 0 0 189 0 0 189 0 0 188 0 0 188 0 188 188 0 188 188 0 0 187 0
0 187 0 0 187 0 0 187 0 0 186 0 0 186 0 0 186 0 0 185 0 0 185 0 0 185
0 0 185 0 0 184 0 0 184 0 0 184 0 0 184 0 0 183 0 0 183 0 0 183 0 0
182 0 0 182 0 0 182 0 0 182 0 0 181 0 0 181 0 0 181 0 0 181 0 180 180
0 180 180 0 180 180 0 180 180 0 179 179 0 179 179 0 179 179 0 178 178
0 178 178 0 178 178 0 178 178 0 177 177 0 177 177 0 177 177 0 177 177
0 176 176 0 176 176 0 176 176 0 176 176 0 175 175 0 175 175 0 175 175
0 175 175 0 174 174 0 174 174 0 174 174 0 173 173 0 0 173 0 0 173 0 0
173 0 0 172 0 0 172 0 0 172 0 0 172 0 0 171 0 0 171 0 0 171 0 0 171 0
0 170 0 0 170 0 0 170 0 0 170 0 0 169 0 169 169 0 169 169 0 169 169 0
168 168 0 168 168 0 168 168 0 168 168 0 167 167 0 167 167 0 167 167 0
167 167 0 166 166 0 0 166 0 0 166 0 0 166 0 0 165 0 0 165 0 0 165 0 64
64 64 64 64 64 64 64 64 64 64 64 64 64 64 63 63 63 63 63 63 63 63 63
63 63 63 63 63 63 63 63 63 63 63 63 63 63 63 63 63 63 63 63 63 63 63
63 63 63 63 63 63 63 63 63 63 63 63 63 62 62 62 62 62 62 62 62 62 62
62 62 62 62 62 62 62 62 62 62 62 62 62 62 62 62 62 62 62 62 62 62 62
62 62 62 62 62 62 62 62 62 61 61 61 61 61 61 61 61 61 61 61 61 61 61
61 61 61 61 61 61 61 61 61 61 61 61 61 61 61 61 61 61 61 61 61 61 61
61 61 61 61 61 61 61 61 60 60 60 60 60 60 60 60 60 60 60 60 60 60 60
60 60 60 60 60 60 60 60 60 26 26 0 26 26 0 26 26 0 26 26 0 26 26 0 26
26 0 26 26 0 26 26 0 26 26 0 26 26 0 26 26 0 26 26 0 26 26 0 26 26 0
26 26 0 26 26 0 26 26 0 26 26 0 26 26 0 0 26 0 0 26 0 0 26 0 0 26 0 0
26 0 0 26 0 0 26 0 0 26 0 0 26 0 0 26 0 0 26 0 0 26 0 0 145 0 0 145 0
0 145 0 0 145 0 0 145 0 0 144 0 0 144 0 0 144 0 0 144 0 0 144 0 0 143
0 0 143 0 0 143 0 0 143 0 0 143 0 142 142 0 142 142 0 142 142 0 142
142 0 142 142 0 141 141 0 141 141 0 141 141 0 141 141 0 141 141 0 141
141 0 140 140 0 140 140 0 140 140 0 140 140 0 140 140 0 0 139 0 0 139
0 0 139 0 0 139 0 0 139 0 0 138 0 0 138 0 0 138 0 0 138 0 0 138 0 0
138 0 0 137 0 137 137 0 137 137 0 137 137 0 137 137 0 137 137 0 136
136 0 136 136 0 136 136 0 136 136 0 136 136 0 135 135 0 135 135 0 135
135 0 135 135 0 135 135 0 135 135 0 134 134 0 134 134 0 134 134 0 134
134 0 134 134 0 134 134 0
0 192 0 0 191 0 0 191 0 0 191 0 0 191 0 0 190 0 0 190 0 0 190 0 0 190
0 0 189 0 0 189 0 0 189 0 0 188 0 188 188 0 188 188 0 188 188 0 187
187 0 187 187 0 187 187 0 0 187 0 0 186 0 0 186 0 0 186 0 0 185 0 0
185 0 0 185 0 0 185 0 0 184 0 0 184 0 0 184 0 0 184 0 0 183 0 0 183 0
0 183 0 0 183 0 0 182 0 0 182 0 0 182 0 0 181 0 0 181 0 0 181 0 181
181 0 180 180 0 180 180 0 180 180 0 180 180 0 179 179 0 179 179 0 179
179 0 179 179 0 178 178 0 178 178 0 178 178 0 177 177 0 177 177 0 177
177 0 177 177 0 176 176 0 176 176 0 176 176 0 176 176 0 175 175 0 175
175 0 175 175 0 175 175 0 174 174 0 174 174 0 174 174 0 0 174 0 0 173
0 0 173 0 0 173 0 0 173 0 0 172 0 0 172 0 0 172 0 0 172 0 0 171 0 0
171 0 0 171 0 0 171 0 0 170 0 0 170 0 0 170 0 0 170 0 0 169 0 0 169 0
0 169 0 169 169 0 168 168 0 168 168 0 168 168 0 168 168 0 167 167 0
167 167 0 167 167 0 0 167 0 0 166 0 0 166 0 0 166 0 0 166 0 0 165 0 0
165 0 64 64 64 64 64 64 64 64 64 64 64 64 63 63 63 63 63 63 63 63 63
63 63 63 63 63 63 63 63 63 63 63 63 63 63 63 63 63 63 63 63 63 63 63
63 63 63 63 63 63 63 63 63 63 63 63 63 62 62 62 62 62 62 62 62 62 62
62 62 62 62 62 62 62 62 62 62 62 62 62 62 62 62 62 62 62 62 62 62 62
62 62 62 62 62 62 62 62 62 61 61 61 61 61 61 61 61 61 61 61 61 61 61
61 61 61 61 61 61 61 61 61 61 61 61 61 61 61 61 61 61 61 61 61 61 61
61 61 61 61 61 61 61 61 60 60 60 60 60 60 60 60 60 60 60 60 60 60 60
60 60 60 60 60 60 60 60 60 60 60 60 26 26 0 26 26 0 26 26 0 26 26 0 26
26 0 26 26 0 26 26 0 26 26 0 26 26 0 26 26 0 26 26 0 26 26 0 26 26 0
26 26 0 26 26 0 26 26 0 26 26 0 26 26 0 26 26 0 0 26 0 0 26 0 0 26 0 0
26 0 0 26 0 0 26 0 0 26 0 0 26 0 0 146 0 0 146 0 0 146 0 0 146 0 0 146
0 0 145 0 0 145 0 0 145 0 0 145 0 0 145 0 0 144 0 0 144 0 0 144 0 0
144 0 0 144 0 0 143 0 0 143 0 0 143 0 0 143 0 143 143 0 142 142 0 142
142 0 142 142 0 142 142 0 142 142 0 141 141 0 141 141 0 141 141 0 141
141 0 141 141 0 141 141 0 140 140 0 140 140 0 140 140 0 140 140 0 140
140 0 139 139 0 139 139 0 139 139 0 0 139 0 0 139 0 0 139 0 0 138 0 0
138 0 0 138 0 0 138 0 0 138 0 137 137 0 137 137 0 137 137 0 137 137 0
137 137 0 137 137 0 136 136 0 136 136 0 136 136 0 136 136 0 136 136 0
135 135 0 135 135 0 135 135 0 135 135 0 135 135 0 135 135 0 134 134 0
134 134 0 134 134 0 134 134 0 134 134 0
0 192 0 0 191 0 0 191 0 0 191 0 0 191 0 0 190 0 0 190 0 0 190 0 0 190
0 0 189 0 0 189 0 0 189 0 188 188 0 188 188 0 188 188 0 188 188 0 187
187 0 187 187 0 187 187 0 187 187 0 186 186 0 186 186 0 0 186 0 0 186
0 0 185 0 0 185 0 0 185 0 0 184 0 0 184 0 0 184 0 0 184 0 0 183 0 0
183 0 0 183 0 0 183 0 0 182 0 0 182 0 0 182 0 0 181 0 181 181 0 181
181 0 181 181 0 180 180 0 180 180 0 180 180 0 180 180 0 179 179 0 179
179 0 179 179 0 179 179 0 178 178 0 178 178 0 178 178 0 178 178 0 177
177 0 177 177 0 177 177 0 176 176 0 176 176 0 176 176 0 176 176 0 175
175 0 175 175 0 175 175 0 175 175 0 174 174 0 174 174 0 0 174 0 0 174
0 0 173 0 0 173 0 0 173 0 0 173 0 0 172 0 0 172 0 0 172 0 0 172 0 0
171 0 0 171 0 0 171 0 0 171 0 0 170 0 0 170 0 0 170 0 0 170 0 0 169 0
0 169 0 0 169 0 0 169 0 0 168 0 0 168 0 168 168 0 168 168 0 167 167 0
167 167 0 0 167 0 0 167 0 0 166 0 0 166 0 0 166 0 0 166 0 0 165 0 0
165 0 64 64 64 64 64 64 64 64 64 63 63 63 63 63 63 63 63 63 63 63 63
63 63 63 63 63 63 63 63 63 63 63 63 63 63 63 63 63 63 63 63 63 63 63
63 63 63 63 63 63 63 63 63 63 62 62 62 62 62 62 62 62 62 62 62 62 62
62 62 62 62 62 62 62 62 62 62 62 62 62 62 62 62 62 62 62 62 62 62 62
62 62 62 62 62 62 61 61 61 61 61 61 61 61 61 61 61 61 61 61 61 61 61
61 61 61 61 61 61 61 61 61 61 61 61 61 61 61 61 61 61 61 61 61 61 61
61 61 61 61 61 60 60 60 60 60 60 60 60 60 60 60 60 60 60 60 60 60 60
60 60 60 60 60 60 60 60 60 0 26 0 0 26 0 26 26 0 26 26 0 26 26 0 26 26
0 26 26 0 26 26 0 26 26 0 26 26 0 26 26 0 26 26 0 26 26 0 26 26 0 26
26 0 26 26 0 26 26 0 26 26 0 26 26 0 0 26 0 0 26 0 0 26 0 0 26 0 0 26
0 0 26 0 0 147 0 0 147 0 0 147 0 0 146 0 0 146 0 0 146 0 0 146 0 0 146
0 0 145 0 0 145 0 0 145 0 0 145 0 0 145 0 0 145 0 0 144 0 0 144 0 0
144 0 0 144 0 0 144 0 0 143 0 0 143 0 0 143 0 143 143 0 143 143 0 142
142 0 142 142 0 142 142 0 142 142 0 142 142 0 141 141 0 141 141 0 141
141 0 141 141 0 141 141 0 141 141 0 140 140 0 140 140 0 140 140 0 140
140 0 140 140 0 139 139 0 139 139 0 139 139 0 139 139 0 139 139 0 139
139 0 0 138 0 0 138 0 0 138 0 0 138 0 138 138 0 137 137 0 137 137 0
137 137 0 137 137 0 137 137 0 137 137 0 136 136 0 136 136 0 136 136 0
136 136 0 136 136 0 136 136 0 135 135 0 135 135 0 135 135 0 135 135 0
135 135 0 134 134 0 134 134 0 134 134 0 134 134 0
0 192 0 0 191 0 0 191 0 0 191 0 0 191 0 0 190 0 0 190 0 0 190 0 0 190
0 0 189 0 189 189 0 189 189 0 189 189 0 188 188 0 188 188 0 188 188 0
187 187 0 187 187 0 187 187 0 187 187 0 186 186 0 186 186 0 186 186 0
186 186 0 0 185 0 0 185 0 0 185 0 0 184 0 0 184 0 0 184 0 0 184 0 0
183 0 0 183 0 0 183 0 0 183 0 0 182 0 0 182 0 0 182 0 182 182 0 181
181 0 181 181 0 181 181 0 180 180 0 180 180 0 180 180 0 180 180 0 179
179 0 179 179 0 179 179 0 179 179 0 178 178 0 178 178 0 178 178 0 178
178 0 177 177 0 177 177 0 177 177 0 177 177 0 176 176 0 176 176 0 176
176 0 176 176 0 175 175 0 175 175 0 175 175 0 174 174 0 0 174 0 0 174
0 0 174 0 0 173 0 0 173 0 0 173 0 0 173 0 0 172 0 0 172 0 0 172 0 0
172 0 0 171 0 0 171 0 0 171 0 0 171 0 0 170 0 0 170 0 0 170 0 0 170 0
0 169 0 0 169 0 0 169 0 0 169 0 0 168 0 0 168 0 0 168 0 0 168 0 0 167
0 0 167 0 0 167 0 0 167 0 0 167 0 0 166 0 0 166 0 0 166 0 0 166 0 0
165 0 64 64 64 64 64 64 63 63 63 63 63 63 63 63 63 63 63 63 63 63 63
63 63 63 63 63 63 63 63 63 63 63 63 63 63 63 63 63 63 63 63 63 63 63
63 63 63 63 63 63 63 62 62 62 62 62 62 62 62 62 62 62 62 62 62 62 62
62 62 62 62 62 62 62 62 62 62 62 62 62 62 62 62 62 62 62 62 62 62 62
62 62 62 62 62 62 61 61 61 61 61 61 61 61 61 61 61 61 61 61 61 61 61
61 61 61 61 61 61 61 61 61 61 61 61 61 61 61 61 61 61 61 61 61 61 61
61 61 60 60 60 60 60 60 60 60 60 60 60 60 60 60 60 60 60 60 60 60 60
60 60 60 60 60 60 60 60 60 0 26 0 0 26 0 0 26 0 0 26 0 0 26 0 26 26 0
26 26 0 26 26 0 26 26 0 26 26 0 26 26 0 26 26 0 26 26 0 26 26 0 26 26
0 26 26 0 26 26 0 26 26 0 26 26 0 0 26 0 0 26 0 0 148 0 0 148 0 0 148
0 0 147 0 0 147 0 0 147 0 0 147 0 0 147 0 0 146 0 0 146 0 0 146 0 0
146 0 0 146 0 0 145 0 0 145 0 0 145 0 0 145 0 0 145 0 0 144 0 0 144 0
0 144 0 0 144 0 0 144 0 0 144 0 0 143 0 0 143 0 143 143 0 143 143 0
143 143 0 142 142 0 142 142 0 142 142 0 142 142 0 142 142 0 141 141 0
141 141 0 141 141 0 141 141 0 141 141 0 141 141 0 140 140 0 140 140 0
140 140 0 140 140 0 140 140 0 139 139 0 139 139 0 139 139 0 139 139 0
139 139 0 139 139 0 138 138 0 138 138 0 138 138 0 138 138 0 138 138 0
137 137 0 137 137 0 137 137 0 137 137 0 137 137 0 137 137 0 136 136 0
136 136 0 136 136 0 136 136 0 136 136 0 136 136 0 135 135 0 135 135 0
135 135 0 135 135 0 135 135 0 135 135 0 134 134 0 134 134 0
0 192 0 0 192 0 0 191 0 0 191 0 0 191 0 0 190 0 0 190 0 0 190 0 0 190
0 189 189 0 189 189 0 189 189 0 189 189 0 188 188 0 188 188 0 188 188
0 187 187 0 187 187 0 187 187 0 187 187 0 186 186 0 186 186 0 186 186
0 186 186 0 185 185 0 185 185 0 185 185 0 0 185 0 0 184 0 0 184 0 0
184 0 0 183 0 0 183 0 0 183 0 0 183 0 0 182 0 0 182 0 182 182 0 182
182 0 181 181 0 181 181 0 181 181 0 181 181 0 180 180 0 180 180 0 180
180 0 179 179 0 179 179 0 179 179 0 179 179 0 178 178 0 178 178 0 178
178 0 178 178 0 177 177 0 177 177 0 177 177 0 177 177 0 176 176 0 176
176 0 176 176 0 176 176 0 175 175 0 175 175 0 175 175 0 0 175 0 0 174
0 0 174 0 0 174 0 0 174 0 0 173 0 0 173 0 0 173 0 0 173 0 0 172 0 0
172 0 0 172 0 0 172 0 0 171 0 0 171 0 0 171 0 0 171 0 0 170 0 0 170 0
0 170 0 0 170 0 0 169 0 0 169 0 0 169 0 0 169 0 0 168 0 0 168 0 0 168
0 168 168 0 167 167 0 167 167 0 167 167 0 167 167 0 0 166 0 0 166 0 0
166 0 0 166 0 0 165 0 64 64 64 64 64 64 63 63 63 63 63 63 63 63 63 63
63 63 63 63 63 63 63 63 63 63 63 63 63 63 63 63 63 63 63 63 63 63 63
63 63 63 63 63 63 63 63 63 62 62 62 62 62 62 62 62 62 62 62 62 62 62
62 62 62 62 62 62 62 62 62 62 62 62 62 62 62 62 62 62 62 62 62 62 62
62 62 62 62 62 62 62 62 61 61 61 61 61 61 61 61 61 61 61 61 61 61 61
61 61 61 61 61 61 61 61 61 61 61 61 61 61 61 61 61 61 61 61 61 61 61
61 61 61 61 60 60 60 60 60 60 60 60 60 60 60 60 60 60 60 60 60 60 60
60 60 60 60 60 60 60 60 60 60 60 60 60 60 0 26 0 0 26 0 0 26 0 0 26 0
0 26 0 0 26 0 0 26 0 0 26 0 0 26 0 26 26 0 26 26 0 26 26 0 26 26 0 26
26 0 26 26 0 26 26 0 26 26 0 149 149 0 149 149 0 0 149 0 0 148 0 0 148
0 0 148 0 0 148 0 0 148 0 0 147 0 0 147 0 0 147 0 0 147 0 0 147 0 0
146 0 0 146 0 0 146 0 0 146 0 0 146 0 0 145 0 0 145 0 0 145 0 0 145 0
0 145 0 0 144 0 0 144 0 0 144 0 0 144 0 0 144 0 0 144 0 0 143 0 143
143 0 143 143 0 143 143 0 143 143 0 142 142 0 142 142 0 142 142 0 142
142 0 142 142 0 141 141 0 141 141 0 141 141 0 141 141 0 141 141 0 141
141 0 140 140 0 140 140 0 140 140 0 140 140 0 140 140 0 139 139 0 139
139 0 139 139 0 139 139 0 139 139 0 139 139 0 138 138 0 138 138 0 0
138 0 0 138 0 0 138 0 0 137 0 137 137 0 137 137 0 137 137 0 137 137 0
137 137 0 136 136 0 136 136 0 136 136 0 136 136 0 136 136 0 136 136 0
135 135 0 135 135 0 135 135 0 135 135 0 135 135 0 135 135 0 134 134 0
0 192 0 0 192 0 0 191 0 0 191 0 0 191 0 0 190 0 0 190 0 0 190 0 190
190 0 189 189 0 189 189 0 189 189 0 189 189 0 188 188 0 188 188 0 188
188 0 187 187 0 187 187 0 187 187 0 187 187 0 186 186 0 186 186 0 186
186 0 186 186 0 185 185 0 185 185 0 185 185 0 185 185 0 184 184 0 184
184 0 0 184 0 0 183 0 0 183 0 0 183 0 0 183 0 0 182 0 182 182 0 182
182 0 182 182 0 181 181 0 181 181 0 181 181 0 181 181 0 180 180 0 180
180 0 180 180 0 180 180 0 179 179 0 179 179 0 179 179 0 178 178 0 178
178 0 178 178 0 178 178 0 177 177 0 177 177 0 177 177 0 177 177 0 176
176 0 176 176 0 176 176 0 176 176 0 175 175 0 175 175 0 0 175 0 0 175
0 0 174 0 0 174 0 0 174 0 0 174 0 0 173 0 0 173 0 0 173 0 0 173 0 0
172 0 0 172 0 0 172 0 0 172 0 0 171 0 0 171 0 0 171 0 0 171 0 0 170 0
0 170 0 0 170 0 0 170 0 0 169 0 0 169 0 0 169 0 0 169 0 0 168 0 0 168
0 0 168 0 168 168 0 167 167 0 167 167 0 167 167 0 167 167 0 166 166 0
166 166 0 166 166 0 0 166 0 0 165 0 64 64 64 63 63 63 63 63 63 63 63
63 63 63 63 63 63 63 63 63 63 63 63 63 63 63 63 63 63 63 63 63 63 63
63 63 63 63 63 63 63 63 63 63 63 62 62 62 62 62 62 62 62 62 62 62 62
62 62 62 62 62 62 62 62 62 62 62 62 62 62 62 62 62 62 62 62 62 62 62
62 62 62 62 62 62 62 62 62 62 61 61 61 61 61 61 61 61 61 61 61 61 61
61 61 61 61 61 61 61 61 61 61 61 61 61 61 61 61 61 61 61 61 61 61 61
61 61 61 61 61 61 60 60 60 60 60 60 60 60 60 60 60 60 60 60 60 60 60
60 60 60 60 60 60 60 60 60 60 60 60 60 60 60 60 60 60 60 0 26 0 0 26 0
0 26 0 0 26 0 0 26 0 0 26 0 0 26 0 0 26 0 0 26 0 0 26 0 0 26 0 0 26 0
0 26 0 150 150 0 150 150 0 150 150 0 149 149 0 149 149 0 149 149 0 0
149 0 0 149 0 0 148 0 0 148 0 0 148 0 0 148 0 0 148 0 0 147 0 0 147 0
0 147 0 0 147 0 0 147 0 0 146 0 0 146 0 0 146 0 0 146 0 0 146 0 0 145
0 0 145 0 0 145 0 0 145 0 0 145 0 0 144 0 0 144 0 0 144 0 0 144 0 0
144 0 0 143 0 143 143 0 143 143 0 143 143 0 143 143 0 143 143 0 142
142 0 142 142 0 142 142 0 142 142 0 142 142 0 141 141 0 141 141 0 141
141 0 141 141 0 141 141 0 141 141 0 140 140 0 140 140 0 140 140 0 140
140 0 140 140 0 139 139 0 139 139 0 139 139 0 139 139 0 139 139 0 139
139 0 138 138 0 0 138 0 0 138 0 0 138 0 0 138 0 0 137 0 0 137 0 0 137
0 0 137 0 137 137 0 137 137 0 136 136 0 136 136 0 136 136 0 136 136 0
136 136 0 136 136 0 135 135 0 135 135 0 135 135 0 135 135 0 135 135 0
135 135 0
0 192 0 0 192 0 0 191 0 0 191 0 0 191 0 0 190 0 0 190 0 190 190 0 190
190 0 189 189 0 189 189 0 189 189 0 189 189 0 188 188 0 188 188 0 188
188 0 187 187 0 187 187 0 187 187 0 187 187 0 186 186 0 186 186 0 186
186 0 186 186 0 185 185 0 185 185 0 185 185 0 185 185 0 184 184 0 184
184 0 184 184 0 183 183 0 183 183 0 0 183 0 0 183 0 182 182 0 182 182
0 182 182 0 182 182 0 181 181 0 181 181 0 181 181 0 181 181 0 180 180
0 180 180 0 180 180 0 180 180 0 179 179 0 179 179 0 179 179 0 179 179
0 178 178 0 178 178 0 178 178 0 177 177 0 177 177 0 177 177 0 177 177
0 176 176 0 176 176 0 176 176 0 176 176 0 175 175 0 0 175 0 0 175 0 0
175 0 0 174 0 0 174 0 0 174 0 0 174 0 0 173 0 0 173 0 0 173 0 0 173 0
0 172 0 0 172 0 0 172 0 0 172 0 0 171 0 0 171 0 0 171 0 0 171 0 0 170
0 0 170 0 0 170 0 0 170 0 0 169 0 0 169 0 0 169 0 0 169 0 0 168 0 0
168 0 168 168 0 168 168 0 167 167 0 167 167 0 167 167 0 167 167 0 167
167 0 166 166 0 166 166 0 166 166 0 166 166 0 63 63 63 63 63 63 63 63
63 63 63 63 63 63 63 63 63 63 63 63 63 63 63 63 63 63 63 63 63 63 63
63 63 63 63 63 63 63 63 63 63 63 62 62 62 62 62 62 62 62 62 62 62 62
62 62 62 62 62 62 62 62 62 62 62 62 62 62 62 62 62 62 62 62 62 62 62
62 62 62 62 62 62 62 62 62 62 61 61 61 61 61 61 61 61 61 61 61 61 61
61 61 61 61 61 61 61 61 61 61 61 61 61 61 61 61 61 61 61 61 61 61 61
61 61 61 61 61 61 60 60 60 60 60 60 60 60 60 60 60 60 60 60 60 60 60
60 60 60 60 60 60 60 60 60 60 60 60 60 60 60 60 60 60 60 60 60 60 0 26
0 0 26 0 0 26 0 0 26 0 0 26 0 0 26 0 0 26 0 0 26 0 0 26 0 0 151 0 0
151 0 0 151 0 0 150 0 0 150 0 0 150 0 0 150 0 150 150 0 149 149 0 0
149 0 0 149 0 0 149 0 0 149 0 0 148 0 0 148 0 0 148 0 0 148 0 0 148 0
0 147 0 0 147 0 0 147 0 0 147 0 0 147 0 0 146 0 0 146 0 0 146 0 0 146
0 0 146 0 0 145 0 0 145 0 0 145 0 0 145 0 0 145 0 0 144 0 0 144 0 0
144 0 0 144 0 0 144 0 143 143 0 143 143 0 143 143 0 143 143 0 143 143
0 143 143 0 142 142 0 142 142 0 142 142 0 142 142 0 142 142 0 141 141
0 141 141 0 141 141 0 141 141 0 141 141 0 141 141 0 140 140 0 140 140
0 140 140 0 140 140 0 140 140 0 139 139 0 139 139 0 139 139 0 139 139
0 139 139 0 139 139 0 0 138 0 0 138 0 0 138 0 0 138 0 0 138 0 0 137 0
0 137 0 0 137 0 0 137 0 0 137 0 0 137 0 0 136 0 136 136 0 136 136 0
136 136 0 136 136 0 136 136 0 135 135 0 135 135 0 135 135 0 135 135 0
135 135 0
0 192 0 0 192 0 0 191 0 0 191 0 0 191 0 190 190 0 190 190 0 190 190 0
190 190 0 189 189 0 189 189 0 189 189 0 189 189 0 188 188 0 188 188 0
188 188 0 188 188 0 187 187 0 187 187 0 187 187 0 186 186 0 186 186 0
186 186 0 186 186 0 185 185 0 185 185 0 185 185 0 185 185 0 184 184 0
184 184 0 184 184 0 184 184 0 183 183 0 183 183 0 0 183 0 0 182 0 182
182 0 182 182 0 182 182 0 181 181 0 181 181 0 181 181 0 181 181 0 180
180 0 180 180 0 180 180 0 180 180 0 179 179 0 179 179 0 179 179 0 179
179 0 178 178 0 178 178 0 178 178 0 178 178 0 177 177 0 177 177 0 177
177 0 177 177 0 176 176 0 176 176 0 176 176 0 175 175 0 0 175 0 0 175
0 0 175 0 0 174 0 0 174 0 0 174 0 0 174 0 0 173 0 0 173 0 0 173 0 0
173 0 0 172 0 0 172 0 0 172 0 0 172 0 0 171 0 0 171 0 0 171 0 0 171 0
0 170 0 0 170 0 0 170 0 0 170 0 0 170 0 0 169 0 0 169 0 0 169 0 0 169
0 168 168 0 168 168 0 168 168 0 168 168 0 167 167 0 167 167 0 167 167
0 167 167 0 166 166 0 166 166 0 166 166 0 166 166 0 165 165 0 63 63 63
63 63 63 63 63 63 63 63 63 63 63 63 63 63 63 63 63 63 63 63 63 63 63
63 63 63 63 63 63 63 63 63 63 62 62 62 62 62 62 62 62 62 62 62 62 62
62 62 62 62 62 62 62 62 62 62 62 62 62 62 62 62 62 62 62 62 62 62 62
62 62 62 62 62 62 62 62 62 61 61 61 61 61 61 61 61 61 61 61 61 61 61
61 61 61 61 61 61 61 61 61 61 61 61 61 61 61 61 61 61 61 61 61 61 61
61 61 61 61 61 61 61 61 60 60 60 60 60 60 60 60 60 60 60 60 60 60 60
60 60 60 60 60 60 60 60 60 60 60 60 60 60 60 60 60 60 60 60 60 60 60
60 0 26 0 0 26 0 0 26 0 0 26 0 0 26 0 0 26 0 0 152 0 0 151 0 0 151 0 0
151 0 0 151 0 0 151 0 0 150 0 0 150 0 0 150 0 0 150 0 0 150 0 0 149 0
149 149 0 149 149 0 0 149 0 0 149 0 0 148 0 0 148 0 0 148 0 0 148 0 0
148 0 0 147 0 0 147 0 0 147 0 0 147 0 0 147 0 0 146 0 0 146 0 0 146 0
0 146 0 0 146 0 0 146 0 0 145 0 0 145 0 0 145 0 0 145 0 0 145 0 0 144
0 0 144 0 0 144 0 0 144 0 144 144 0 143 143 0 143 143 0 143 143 0 143
143 0 143 143 0 143 143 0 142 142 0 142 142 0 142 142 0 142 142 0 142
142 0 141 141 0 141 141 0 141 141 0 141 141 0 141 141 0 140 140 0 140
140 0 140 140 0 140 140 0 140 140 0 140 140 0 139 139 0 139 139 0 139
139 0 139 139 0 139 139 0 0 139 0 0 138 0 0 138 0 0 138 0 0 138 0 0
138 0 0 138 0 0 137 0 0 137 0 0 137 0 0 137 0 0 137 0 0 136 0 0 136 0
0 136 0 0 136 0 0 136 0 136 136 0 135 135 0 135 135 0 135 135 0 135
135 0
0 192 0 0 192 0 0 191 0 0 191 0 191 191 0 190 190 0 190 190 0 190 190
0 190 190 0 189 189 0 189 189 0 189 189 0 189 189 0 188 188 0 188 188
0 188 188 0 188 188 0 187 187 0 187 187 0 187 187 0 186 186 0 186 186
0 186 186 0 186 186 0 185 185 0 185 185 0 185 185 0 185 185 0 184 184
0 184 184 0 184 184 0 184 184 0 183 183 0 0 183 0 0 183 0 0 183 0 0
182 0 0 182 0 182 182 0 181 181 0 181 181 0 181 181 0 181 181 0 180
180 0 180 180 0 180 180 0 180 180 0 179 179 0 179 179 0 179 179 0 179
179 0 178 178 0 178 178 0 178 178 0 178 178 0 177 177 0 177 177 0 177
177 0 177 177 0 176 176 0 176 176 0 176 176 0 0 176 0 0 175 0 0 175 0
0 175 0 0 175 0 0 174 0 0 174 0 0 174 0 0 174 0 0 173 0 0 173 0 0 173
0 0 173 0 0 172 0 0 172 0 0 172 0 0 172 0 0 171 0 0 171 0 0 171 0 0
171 0 0 170 0 0 170 0 0 170 0 0 170 0 0 169 0 0 169 0 0 169 0 169 169
0 168 168 0 168 168 0 168 168 0 168 168 0 167 167 0 167 167 0 167 167
0 167 167 0 166 166 0 166 166 0 166 166 0 166 166 0 166 166 0 63 63 63
63 63 63 63 63 63 63 63 63 63 63 63 63 63 63 63 63 63 63 63 63 63 63
63 63 63 63 63 63 63 62 62 62 62 62 62 62 62 62 62 62 62 62 62 62 62
62 62 62 62 62 62 62 62 62 62 62 62 62 62 62 62 62 62 62 62 62 62 62
62 62 62 62 62 62 61 61 61 61 61 61 61 61 61 61 61 61 61 61 61 61 61
61 61 61 61 61 61 61 61 61 61 61 61 61 61 61 61 61 61 61 61 61 61 61
61 61 61 61 61 60 60 60 60 60 60 60 60 60 60 60 60 60 60 60 60 60 60
60 60 60 60 60 60 60 60 60 60 60 60 60 60 60 60 60 60 60 60 60 60 60
60 0 26 0 0 26 0 0 153 0 0 152 0 0 152 0 0 152 0 0 152 0 0 152 0 0 151
0 0 151 0 0 151 0 0 151 0 0 151 0 0 150 0 0 150 0 0 150 0 0 150 0 0
150 0 149 149 0 149 149 0 149 149 0 149 149 0 149 149 0 148 148 0 0
148 0 0 148 0 0 148 0 0 148 0 0 147 0 0 147 0 0 147 0 0 147 0 0 147 0
0 146 0 0 146 0 0 146 0 0 146 0 0 146 0 0 145 0 0 145 0 0 145 0 0 145
0 0 145 0 0 145 0 0 144 0 0 144 0 0 144 0 144 144 0 144 144 0 143 143
0 143 143 0 143 143 0 143 143 0 143 143 0 142 142 0 142 142 0 142 142
0 142 142 0 142 142 0 142 142 0 141 141 0 141 141 0 141 141 0 141 141
0 141 141 0 140 140 0 140 140 0 140 140 0 140 140 0 140 140 0 140 140
0 139 139 0 139 139 0 139 139 0 139 139 0 139 139 0 0 139 0 0 138 0 0
138 0 0 138 0 0 138 0 0 138 0 0 138 0 0 137 0 0 137 0 0 137 0 0 137 0
0 137 0 0 136 0 0 136 0 0 136 0 0 136 0 0 136 0 0 136 0 0 135 0 0 135
0 135 135 0
0 192 0 0 192 0 0 191 0 191 191 0 191 191 0 190 190 0 190 190 0 190
190 0 190 190 0 189 189 0 189 189 0 189 189 0 189 189 0 188 188 0 188
188 0 188 188 0 188 188 0 187 187 0 187 187 0 187 187 0 186 186 0 186
186 0 186 186 0 186 186 0 185 185 0 185 185 0 185 185 0 185 185 0 184
184 0 184 184 0 184 184 0 184 184 0 0 183 0 0 183 0 0 183 0 0 183 0 0
182 0 0 182 0 0 182 0 0 181 0 0 181 0 181 181 0 181 181 0 180 180 0
180 180 0 180 180 0 180 180 0 179 179 0 179 179 0 179 179 0 179 179 0
178 178 0 178 178 0 178 178 0 178 178 0 177 177 0 177 177 0 177 177 0
177 177 0 176 176 0 176 176 0 0 176 0 0 176 0 0 175 0 0 175 0 0 175 0
0 175 0 0 174 0 0 174 0 0 174 0 0 174 0 0 173 0 0 173 0 0 173 0 0 173
0 0 172 0 0 172 0 0 172 0 0 172 0 0 171 0 0 171 0 0 171 0 0 171 0 0
170 0 0 170 0 0 170 0 0 170 0 0 169 0 0 169 0 0 169 0 169 169 0 168
168 0 168 168 0 168 168 0 168 168 0 168 168 0 167 167 0 167 167 0 167
167 0 167 167 0 166 166 0 166 166 0 166 166 0 166 166 0 63 63 63 63 63
63 63 63 63 63 63 63 63 63 63 63 63 63 63 63 63 63 63 63 63 63 63 63
63 63 63 63 63 62 62 62 62 62 62 62 62 62 62 62 62 62 62 62 62 62 62
62 62 62 62 62 62 62 62 62 62 62 62 62 62 62 62 62 62 62 62 62 62 62
62 61 61 61 61 61 61 61 61 61 61 61 61 61 61 61 61 61 61 61 61 61 61
61 61 61 61 61 61 61 61 61 61 61 61 61 61 61 61 61 61 61 61 61 61 61
60 60 60 60 60 60 60 60 60 60 60 60 60 60 60 60 60 60 60 60 60 60 60
60 60 60 60 60 60 60 60 60 60 0 154 0 0 154 0 0 154 0 0 153 0 0 153 0
0 153 0 0 153 0 0 153 0 0 152 0 0 152 0 0 152 0 0 152 0 0 152 0 0 151
0 0 151 0 0 151 0 0 151 0 0 151 0 0 150 0 0 150 0 0 150 0 0 150 0 150
150 0 149 149 0 149 149 0 149 149 0 149 149 0 149 149 0 148 148 0 148
148 0 148 148 0 0 148 0 0 148 0 0 147 0 0 147 0 0 147 0 0 147 0 0 147
0 0 146 0 0 146 0 0 146 0 0 146 0 0 146 0 0 145 0 0 145 0 0 145 0 0
145 0 0 145 0 0 145 0 0 144 0 0 144 0 144 144 0 144 144 0 144 144 0
143 143 0 143 143 0 143 143 0 143 143 0 143 143 0 142 142 0 142 142 0
142 142 0 142 142 0 142 142 0 142 142 0 141 141 0 141 141 0 141 141 0
141 141 0 141 141 0 140 140 0 140 140 0 140 140 0 140 140 0 140 140 0
140 140 0 139 139 0 139 139 0 139 139 0 139 139 0 0 139 0 0 139 0 0
138 0 0 138 0 0 138 0 0 138 0 0 138 0 0 138 0 0 137 0 0 137 0 0 137 0
0 137 0 0 137 0 0 136 0 0 136 0 0 136 0 0 136 0 0 136 0 0 136 0 0 135
0 0 135 0
0 192 0 192 192 0 191 191 0 191 191 0 191 191 0 190 190 0 190 190 0
190 190 0 190 190 0 189 189 0 189 189 0 189 189 0 189 189 0 188 188 0
188 188 0 188 188 0 188 188 0 187 187 0 187 187 0 187 187 0 186 186 0
186 186 0 186 186 0 186 186 0 185 185 0 185 185 0 185 185 0 185 185 0
184 184 0 184 184 0 184 184 0 0 184 0 0 183 0 0 183 0 0 183 0 0 183 0
0 182 0 0 182 0 0 182 0 0 182 0 0 181 0 0 181 0 0 181 0 0 180 0 180
180 0 180 180 0 180 180 0 179 179 0 179 179 0 179 179 0 179 179 0 178
178 0 178 178 0 178 178 0 178 178 0 177 177 0 177 177 0 177 177 0 177
177 0 176 176 0 0 176 0 0 176 0 0 176 0 0 175 0 0 175 0 0 175 0 0 175
0 0 174 0 0 174 0 0 174 0 0 174 0 0 173 0 0 173 0 0 173 0 0 173 0 0
172 0 0 172 0 0 172 0 0 172 0 0 171 0 0 171 0 0 171 0 0 171 0 0 170 0
0 170 0 0 170 0 0 170 0 0 169 0 0 169 0 169 169 0 169 169 0 169 169 0
168 168 0 168 168 0 168 168 0 168 168 0 167 167 0 167 167 0 167 167 0
167 167 0 166 166 0 166 166 0 166 166 0 166 166 0 63 63 63 63 63 63 63
63 63 63 63 63 63 63 63 63 63 63 63 63 63 63 63 63 63 63 63 63 63 63
62 62 62 62 62 62 62 62 62 62 62 62 62 62 62 62 62 62 62 62 62 62 62
62 62 62 62 62 62 62 62 62 62 62 62 62 62 62 62 62 62 62 61 61 61 61
61 61 61 61 61 61 61 61 61 61 61 61 61 61 61 61 61 61 61 61 61 61 61
61 61 61 61 61 61 61 61 61 61 61 61 61 61 61 61 61 61 60 60 60 60 60
60 60 60 60 156 156 0 0 156 0 0 156 0 0 155 0 0 155 0 0 155 0 0 155 0
0 155 0 0 154 0 0 154 0 0 154 0 0 154 0 0 154 0 0 153 0 0 153 0 0 153
0 0 153 0 0 153 0 0 152 0 0 152 0 0 152 0 0 152 0 0 151 0 0 151 0 0
151 0 0 151 0 0 151 0 0 150 0 0 150 0 0 150 0 150 150 0 150 150 0 149
149 0 149 149 0 149 149 0 149 149 0 149 149 0 149 149 0 148 148 0 148
148 0 148 148 0 148 148 0 148 148 0 147 147 0 0 147 0 0 147 0 0 147 0
0 147 0 0 146 0 0 146 0 0 146 0 0 146 0 0 146 0 0 145 0 0 145 0 0 145
0 0 145 0 0 145 0 0 144 0 0 144 0 144 144 0 144 144 0 144 144 0 144
144 0 143 143 0 143 143 0 143 143 0 143 143 0 143 143 0 142 142 0 142
142 0 142 142 0 142 142 0 142 142 0 142 142 0 141 141 0 141 141 0 141
141 0 141 141 0 141 141 0 140 140 0 140 140 0 140 140 0 140 140 0 140
140 0 140 140 0 139 139 0 139 139 0 139 139 0 0 139 0 0 139 0 0 139 0
0 138 0 0 138 0 0 138 0 0 138 0 0 138 0 0 138 0 0 137 0 0 137 0 0 137
0 0 137 0 0 137 0 0 137 0 0 136 0 0 136 0 0 136 0 0 136 0 0 136 0 0
136 0
192 192 0 192 192 0 191 191 0 191 191 0 191 191 0 190 190 0 190 190 0
190 190 0 190 190 0 189 189 0 189 189 0 189 189 0 189 189 0 188 188 0
188 188 0 188 188 0 188 188 0 187 187 0 187 187 0 187 187 0 186 186 0
186 186 0 186 186 0 186 186 0 185 185 0 185 185 0 185 185 0 185 185 0
184 184 0 0 184 0 0 184 0 0 184 0 0 183 0 0 183 0 0 183 0 0 183 0 0
182 0 0 182 0 0 182 0 0 182 0 0 181 0 0 181 0 0 181 0 0 181 0 0 180 0
0 180 0 0 180 0 179 179 0 179 179 0 179 179 0 179 179 0 178 178 0 178
178 0 178 178 0 178 178 0 177 177 0 177 177 0 177 177 0 177 177 0 0
176 0 0 176 0 0 176 0 0 176 0 0 175 0 0 175 0 0 175 0 0 175 0 0 174 0
0 174 0 0 174 0 0 174 0 0 173 0 0 173 0 0 173 0 0 173 0 0 172 0 0 172
0 0 172 0 0 172 0 0 171 0 0 171 0 0 171 0 0 171 0 0 171 0 0 170 0 0
170 0 0 170 0 0 170 0 169 169 0 169 169 0 169 169 0 169 169 0 168 168
0 168 168 0 168 168 0 168 168 0 167 167 0 167 167 0 167 167 0 167 167
0 166 166 0 166 166 0 166 166 0 166 166 0 63 63 63 63 63 63 63 63 63
63 63 63 63 63 63 63 63 63 63 63 63 63 63 63 63 63 63 62 62 62 62 62
62 62 62 62 62 62 62 62 62 62 62 62 62 62 62 62 62 62 62 62 62 62 62
62 62 62 62 62 62 62 62 62 62 62 62 62 62 61 61 61 61 61 61 61 61 61
61 61 61 61 61 61 61 61 61 61 61 61 61 61 61 61 61 61 61 61 61 158 158
0 158 158 0 158 158 0 157 157 0 157 157 0 157 157 0 157 157 0 157 157
0 156 156 0 156 156 0 0 156 0 0 156 0 0 156 0 0 155 0 0 155 0 0 155 0
0 155 0 0 155 0 0 154 0 0 154 0 0 154 0 0 154 0 0 153 0 0 153 0 0 153
0 0 153 0 0 153 0 0 152 0 0 152 0 0 152 0 0 152 0 0 152 0 0 151 0 0
151 0 0 151 0 0 151 0 0 151 0 0 150 0 0 150 0 150 150 0 150 150 0 150
150 0 149 149 0 149 149 0 149 149 0 149 149 0 149 149 0 148 148 0 148
148 0 148 148 0 148 148 0 148 148 0 147 147 0 147 147 0 147 147 0 147
147 0 147 147 0 0 147 0 0 146 0 0 146 0 0 146 0 0 146 0 0 146 0 0 145
0 0 145 0 0 145 0 0 145 0 0 145 0 0 144 0 144 144 0 144 144 0 144 144
0 144 144 0 144 144 0 143 143 0 143 143 0 143 143 0 143 143 0 143 143
0 142 142 0 142 142 0 142 142 0 142 142 0 142 142 0 142 142 0 141 141
0 141 141 0 141 141 0 141 141 0 141 141 0 140 140 0 140 140 0 140 140
0 140 140 0 140 140 0 140 140 0 139 139 0 139 139 0 0 139 0 0 139 0 0
139 0 0 139 0 0 138 0 0 138 0 0 138 0 0 138 0 0 138 0 0 138 0 0 137 0
0 137 0 0 137 0 0 137 0 0 137 0 0 137 0 0 136 0 0 136 0 0 136 0 0 136
0 0 136 0
192 192 0 192 192 0 191 191 0 191 191 0 191 191 0 190 190 0 190 190 0
190 190 0 190 190 0 189 189 0 189 189 0 189 189 0 189 189 0 188 188 0
188 188 0 188 188 0 188 188 0 187 187 0 187 187 0 187 187 0 187 187 0
186 186 0 186 186 0 186 186 0 185 185 0 185 185 0 185 185 0 185 185 0
0 184 0 0 184 0 0 184 0 0 184 0 0 183 0 0 183 0 0 183 0 0 183 0 0 182
0 0 182 0 0 182 0 0 182 0 0 181 0 0 181 0 0 181 0 0 181 0 0 180 0 0
180 0 0 180 0 0 180 0 0 179 0 0 179 0 179 179 0 179 179 0 178 178 0
178 178 0 178 178 0 177 177 0 177 177 0 177 177 0 0 177 0 0 176 0 0
176 0 0 176 0 0 176 0 0 175 0 0 175 0 0 175 0 0 175 0 0 174 0 0 174 0
0 174 0 0 174 0 0 174 0 0 173 0 0 173 0 0 173 0 0 173 0 0 172 0 0 172
0 0 172 0 0 172 0 0 171 0 0 171 0 0 171 0 0 171 0 0 170 0 0 170 0 0
170 0 170 170 0 169 169 0 169 169 0 169 169 0 169 169 0 168 168 0 168
168 0 168 168 0 168 168 0 167 167 0 167 167 0 167 167 0 167 167 0 167
167 0 166 166 0 166 166 0 166 166 0 63 63 63 63 63 63 63 63 63 63 63
63 63 63 63 63 63 63 63 63 63 63 63 63 62 62 62 62 62 62 62 62 62 62
62 62 62 62 62 62 62 62 62 62 62 62 62 62 62 62 62 62 62 62 62 62 62
62 62 62 62 62 62 62 62 62 61 61 61 61 61 61 160 160 0 160 160 0 160
160 0 160 160 0 159 159 0 159 159 0 159 159 0 159 159 0 158 158 0 158
158 0 158 158 0 158 158 0 158 158 0 157 157 0 157 157 0 157 157 0 157
157 0 157 157 0 0 156 0 0 156 0 0 156 0 0 156 0 0 155 0 0 155 0 0 155
0 0 155 0 0 155 0 0 154 0 0 154 0 0 154 0 0 154 0 0 154 0 0 153 0 0
153 0 0 153 0 0 153 0 0 153 0 0 152 0 0 152 0 0 152 0 0 152 0 0 152 0
0 151 0 0 151 0 0 151 0 0 151 0 0 151 0 0 150 0 150 150 0 150 150 0
150 150 0 150 150 0 149 149 0 149 149 0 149 149 0 149 149 0 149 149 0
148 148 0 148 148 0 148 148 0 148 148 0 148 148 0 147 147 0 147 147 0
147 147 0 147 147 0 147 147 0 146 146 0 146 146 0 0 146 0 0 146 0 0
146 0 0 146 0 0 145 0 0 145 0 0 145 0 0 145 0 145 145 0 144 144 0 144
144 0 144 144 0 144 144 0 144 144 0 144 144 0 143 143 0 143 143 0 143
143 0 143 143 0 143 143 0 142 142 0 142 142 0 142 142 0 142 142 0 142
142 0 142 142 0 141 141 0 141 141 0 141 141 0 141 141 0 141 141 0 140
140 0 140 140 0 140 140 0 140 140 0 140 140 0 140 140 0 139 139 0 0
139 0 0 139 0 0 139 0 0 139 0 0 139 0 0 138 0 0 138 0 0 138 0 0 138 0
0 138 0 0 138 0 0 137 0 0 137 0 0 137 0 0 137 0 0 137 0 0 137 0 0 136
0 0 136 0 0 136 0 0 136 0
192 192 0 192 192 0 191 191 0 191 191 0 191 191 0 190 190 0 190 190 0
190 190 0 190 190 0 189 189 0 189 189 0 189 189 0 189 189 0 188 188 0
188 188 0 188 188 0 188 188 0 187 187 0 187 187 0 187 187 0 187 187 0
186 186 0 186 186 0 186 186 0 185 185 0 185 185 0 185 185 0 0 185 0 0
184 0 0 184 0 0 184 0 0 184 0 0 183 0 0 183 0 0 183 0 0 183 0 0 182 0
0 182 0 0 182 0 0 182 0 0 181 0 0 181 0 0 181 0 0 181 0 0 180 0 0 180
0 0 180 0 0 180 0 0 179 0 0 179 0 0 179 0 0 179 0 178 178 0 178 178 0
178 178 0 178 178 0 177 177 0 0 177 0 0 177 0 0 177 0 0 176 0 0 176 0
0 176 0 0 176 0 0 175 0 0 175 0 0 175 0 0 175 0 0 174 0 0 174 0 0 174
0 0 174 0 0 173 0 0 173 0 0 173 0 0 173 0 0 172 0 0 172 0 0 172 0 0
172 0 0 171 0 0 171 0 0 171 0 0 171 0 0 170 0 0 170 0 0 170 0 170 170
0 169 169 0 169 169 0 169 169 0 169 169 0 169 169 0 168 168 0 168 168
0 168 168 0 168 168 0 167 167 0 167 167 0 167 167 0 167 167 0 166 166
0 166 166 0 166 166 0 63 63 63 63 63 63 63 63 63 63 63 63 63 63 63 63
63 63 63 63 63 62 62 62 62 62 62 62 62 62 62 62 62 62 62 62 62 62 62
62 62 62 62 62 62 0 162 0 0 162 0 0 162 0 0 162 0 0 161 0 0 161 0 0
161 0 0 161 0 161 161 0 160 160 0 160 160 0 160 160 0 160 160 0 159
159 0 159 159 0 159 159 0 159 159 0 159 159 0 158 158 0 158 158 0 158
158 0 158 158 0 157 157 0 157 157 0 157 157 0 157 157 0 157 157 0 0
156 0 0 156 0 0 156 0 0 156 0 0 156 0 0 155 0 0 155 0 0 155 0 0 155 0
0 155 0 0 154 0 0 154 0 0 154 0 0 154 0 0 154 0 0 153 0 0 153 0 0 153
0 0 153 0 0 152 0 0 152 0 0 152 0 0 152 0 0 152 0 0 151 0 0 151 0 0
151 0 0 151 0 0 151 0 0 150 0 150 150 0 150 150 0 150 150 0 150 150 0
150 150 0 149 149 0 149 149 0 149 149 0 149 149 0 149 149 0 148 148 0
148 148 0 148 148 0 148 148 0 148 148 0 147 147 0 147 147 0 147 147 0
147 147 0 147 147 0 146 146 0 146 146 0 146 146 0 146 146 0 146 146 0
0 145 0 0 145 0 0 145 0 0 145 0 145 145 0 145 145 0 144 144 0 144 144
0 144 144 0 144 144 0 144 144 0 143 143 0 143 143 0 143 143 0 143 143
0 143 143 0 143 143 0 142 142 0 142 142 0 142 142 0 142 142 0 142 142
0 142 142 0 141 141 0 141 141 0 141 141 0 141 141 0 141 141 0 140 140
0 140 140 0 140 140 0 140 140 0 140 140 0 140 140 0 0 139 0 0 139 0 0
139 0 0 139 0 0 139 0 0 139 0 0 138 0 0 138 0 0 138 0 0 138 0 0 138 0
0 138 0 0 137 0 0 137 0 0 137 0 0 137 0 0 137 0 0 137 0 0 136 0 0 136
0 0 136 0
192 192 0 192 192 0 191 191 0 191 191 0 191 191 0 190 190 0 190 190 0
190 190 0 190 190 0 189 189 0 189 189 0 189 189 0 189 189 0 188 188 0
188 188 0 188 188 0 188 188 0 187 187 0 187 187 0 187 187 0 187 187 0
186 186 0 186 186 0 186 186 0 185 185 0 185 185 0 0 185 0 0 185 0 0
184 0 0 184 0 0 184 0 0 184 0 0 183 0 0 183 0 0 183 0 0 183 0 0 182 0
0 182 0 0 182 0 0 182 0 0 181 0 0 181 0 0 181 0 0 181 0 0 180 0 0 180
0 0 180 0 0 180 0 0 179 0 0 179 0 0 179 0 0 179 0 0 178 0 0 178 0 0
178 0 178 178 0 0 177 0 0 177 0 0 177 0 0 177 0 0 176 0 0 176 0 0 176
0 0 176 0 0 175 0 0 175 0 0 175 0 0 175 0 0 174 0 0 174 0 0 174 0 0
174 0 0 173 0 0 173 0 0 173 0 0 173 0 0 172 0 0 172 0 0 172 0 0 172 0
0 171 0 0 171 0 0 171 0 0 171 0 0 170 0 0 170 0 170 170 0 170 170 0
170 170 0 169 169 0 169 169 0 169 169 0 169 169 0 168 168 0 168 168 0
168 168 0 168 168 0 167 167 0 167 167 0 167 167 0 167 167 0 166 166 0
166 166 0 166 166 0 63 63 63 63 63 63 63 63 63 63 63 63 63 63 63 63 63
63 164 164 0 164 164 0 164 164 0 164 164 0 164 164 0 163 163 0 0 163 0
0 163 0 0 163 0 0 162 0 0 162 0 0 162 0 0 162 0 0 162 0 0 161 0 0 161
0 0 161 0 0 161 0 0 160 0 0 160 0 160 160 0 160 160 0 160 160 0 159
159 0 159 159 0 159 159 0 159 159 0 158 158 0 158 158 0 158 158 0 158
158 0 158 158 0 157 157 0 157 157 0 157 157 0 157 157 0 0 157 0 0 156
0 0 156 0 0 156 0 0 156 0 0 155 0 0 155 0 0 155 0 0 155 0 0 155 0 0
154 0 0 154 0 0 154 0 0 154 0 0 154 0 0 153 0 0 153 0 0 153 0 0 153 0
0 153 0 0 152 0 0 152 0 0 152 0 0 152 0 0 152 0 0 151 0 0 151 0 0 151
0 0 151 0 151 151 0 150 150 0 150 150 0 150 150 0 150 150 0 150 150 0
149 149 0 149 149 0 149 149 0 149 149 0 149 149 0 148 148 0 148 148 0
148 148 0 148 148 0 148 148 0 148 148 0 147 147 0 147 147 0 147 147 0
147 147 0 147 147 0 146 146 0 146 146 0 146 146 0 146 146 0 146 146 0
145 145 0 145 145 0 0 145 0 145 145 0 145 145 0 145 145 0 144 144 0
144 144 0 144 144 0 144 144 0 144 144 0 143 143 0 143 143 0 143 143 0
143 143 0 143 143 0 143 143 0 142 142 0 142 142 0 142 142 0 142 142 0
142 142 0 141 141 0 141 141 0 141 141 0 141 141 0 141 141 0 141 141 0
140 140 0 140 140 0 140 140 0 140 140 0 140 140 0 0 140 0 0 139 0 0
139 0 0 139 0 0 139 0 0 139 0 0 139 0 0 138 0 0 138 0 0 138 0 0 138 0
0 138 0 0 138 0 0 137 0 0 137 0 0 137 0 0 137 0 0 137 0 0 137 0 0 136
0 0 136 0
192 192 0 191 191 0 191 191 0 191 191 0 191 191 0 190 190 0 190 190 0
190 190 0 190 190 0 189 189 0 189 189 0 189 189 0 189 189 0 188 188 0
188 188 0 188 188 0 188 188 0 187 187 0 187 187 0 187 187 0 187 187 0
186 186 0 186 186 0 186 186 0 185 185 0 0 185 0 0 185 0 0 185 0 0 184
0 0 184 0 0 184 0 0 184 0 0 183 0 0 183 0 0 183 0 0 183 0 0 182 0 0
182 0 0 182 0 0 182 0 0 181 0 0 181 0 0 181 0 0 181 0 0 180 0 0 180 0
0 180 0 0 180 0 0 179 0 0 179 0 0 179 0 0 179 0 0 178 0 0 178 0 0 178
0 178 178 0 177 177 0 177 177 0 0 177 0 0 177 0 0 176 0 0 176 0 0 176
0 0 176 0 0 175 0 0 175 0 0 175 0 0 175 0 0 174 0 0 174 0 0 174 0 0
174 0 0 173 0 0 173 0 0 173 0 0 173 0 0 172 0 0 172 0 0 172 0 0 172 0
0 171 0 0 171 0 0 171 0 0 171 0 0 171 0 170 170 0 170 170 0 170 170 0
170 170 0 169 169 0 169 169 0 169 169 0 169 169 0 168 168 0 168 168 0
168 168 0 168 168 0 167 167 0 167 167 0 167 167 0 167 167 0 167 167 0
166 166 0 166 166 0 166 166 0 166 166 0 165 165 0 165 165 0 165 165 0
165 165 0 165 165 0 164 164 0 164 164 0 164 164 0 164 164 0 0 163 0 0
163 0 0 163 0 0 163 0 0 162 0 0 162 0 0 162 0 0 162 0 0 162 0 0 161 0
0 161 0 0 161 0 0 161 0 0 161 0 0 160 0 0 160 0 0 160 0 0 160 0 159
159 0 159 159 0 159 159 0 159 159 0 159 159 0 158 158 0 158 158 0 158
158 0 158 158 0 157 157 0 157 157 0 157 157 0 0 157 0 0 157 0 0 156 0
0 156 0 0 156 0 0 156 0 0 156 0 0 155 0 0 155 0 0 155 0 0 155 0 0 155
0 0 154 0 0 154 0 0 154 0 0 154 0 0 154 0 0 153 0 0 153 0 0 153 0 0
153 0 0 153 0 0 152 0 0 152 0 0 152 0 0 152 0 0 152 0 0 151 0 0 151 0
0 151 0 151 151 0 151 151 0 150 150 0 150 150 0 150 150 0 150 150 0
150 150 0 149 149 0 149 149 0 149 149 0 149 149 0 149 149 0 148 148 0
148 148 0 148 148 0 148 148 0 148 148 0 147 147 0 147 147 0 147 147 0
147 147 0 147 147 0 147 147 0 146 146 0 146 146 0 146 146 0 146 146 0
146 146 0 145 145 0 145 145 0 0 145 0 0 145 0 0 145 0 145 145 0 144
144 0 144 144 0 144 144 0 144 144 0 144 144 0 143 143 0 143 143 0 143
143 0 143 143 0 143 143 0 143 143 0 142 142 0 142 142 0 142 142 0 142
142 0 142 142 0 141 141 0 141 141 0 141 141 0 141 141 0 141 141 0 141
141 0 140 140 0 140 140 0 140 140 0 140 140 0 0 140 0 0 140 0 0 139 0
0 139 0 0 139 0 0 139 0 0 139 0 0 139 0 0 138 0 0 138 0 0 138 0 0 138
0 0 138 0 0 138 0 0 137 0 0 137 0 0 137 0 0 137 0 0 137 0 0 137 0 0
136 0
192 192 0 191 191 0 191 191 0 191 191 0 191 191 0 190 190 0 190 190 0
190 190 0 190 190 0 189 189 0 189 189 0 189 189 0 189 189 0 188 188 0
188 188 0 188 188 0 188 188 0 187 187 0 187 187 0 187 187 0 187 187 0
186 186 0 186 186 0 186 186 0 0 185 0 0 185 0 0 185 0 0 185 0 0 184 0
0 184 0 0 184 0 0 184 0 0 183 0 0 183 0 0 183 0 0 183 0 0 182 0 0 182
0 0 182 0 0 182 0 0 181 0 0 181 0 0 181 0 0 181 0 0 180 0 0 180 0 0
180 0 0 180 0 0 179 0 0 179 0 0 179 0 0 179 0 0 178 0 0 178 0 178 178
0 178 178 0 177 177 0 177 177 0 177 177 0 177 177 0 176 176 0 0 176 0
0 176 0 0 176 0 0 175 0 0 175 0 0 175 0 0 175 0 0 174 0 0 174 0 0 174
0 0 174 0 0 173 0 0 173 0 0 173 0 0 173 0 0 172 0 0 172 0 0 172 0 0
172 0 0 172 0 0 171 0 0 171 0 0 171 0 171 171 0 170 170 0 170 170 0
170 170 0 170 170 0 169 169 0 169 169 0 169 169 0 169 169 0 168 168 0
168 168 0 168 168 0 168 168 0 168 168 0 167 167 0 167 167 0 167 167 0
167 167 0 166 166 0 166 166 0 166 166 0 166 166 0 165 165 0 165 165 0
165 165 0 165 165 0 165 165 0 164 164 0 164 164 0 164 164 0 164 164 0
0 163 0 0 163 0 0 163 0 0 163 0 0 163 0 0 162 0 0 162 0 0 162 0 0 162
0 0 161 0 0 161 0 0 161 0 0 161 0 0 161 0 0 160 0 0 160 0 0 160 0 0
160 0 0 160 0 0 159 0 0 159 0 159 159 0 159 159 0 158 158 0 158 158 0
158 158 0 158 158 0 158 158 0 157 157 0 157 157 0 0 157 0 0 157 0 0
157 0 0 156 0 0 156 0 0 156 0 0 156 0 0 156 0 0 155 0 0 155 0 0 155 0
0 155 0 0 154 0 0 154 0 0 154 0 0 154 0 0 154 0 0 153 0 0 153 0 0 153
0 0 153 0 0 153 0 0 152 0 0 152 0 0 152 0 0 152 0 0 152 0 0 151 0 0
151 0 0 151 0 151 151 0 151 151 0 150 150 0 150 150 0 150 150 0 150
150 0 150 150 0 150 150 0 149 149 0 149 149 0 149 149 0 149 149 0 149
149 0 148 148 0 148 148 0 148 148 0 148 148 0 148 148 0 147 147 0 147
147 0 147 147 0 147 147 0 147 147 0 146 146 0 146 146 0 146 146 0 146
146 0 146 146 0 146 146 0 145 145 0 0 145 0 0 145 0 0 145 0 0 145 0 0
144 0 0 144 0 0 144 0 144 144 0 144 144 0 144 144 0 143 143 0 143 143
0 143 143 0 143 143 0 143 143 0 143 143 0 142 142 0 142 142 0 142 142
0 142 142 0 142 142 0 141 141 0 141 141 0 141 141 0 141 141 0 141 141
0 141 141 0 140 140 0 140 140 0 140 140 0 0 140 0 0 140 0 0 140 0 0
139 0 0 139 0 0 139 0 0 139 0 0 139 0 0 139 0 0 138 0 0 138 0 0 138 0
0 138 0 0 138 0 0 138 0 0 137 0 0 137 0 0 137 0 0 137 0 0 137 0 0 137
0
192 192 0 191 191 0 191 191 0 191 191 0 191 191 0 190 190 0 190 190 0
190 190 0 190 190 0 189 189 0 189 189 0 189 189 0 189 189 0 188 188 0
188 188 0 188 188 0 188 188 0 187 187 0 187 187 0 187 187 0 187 187 0
186 186 0 186 186 0 0 186 0 0 185 0 0 185 0 0 185 0 0 185 0 0 184 0 0
184 0 0 184 0 0 184 0 0 183 0 0 183 0 0 183 0 0 183 0 0 182 0 0 182 0
0 182 0 0 182 0 0 181 0 0 181 0 0 181 0 0 181 0 0 180 0 0 180 0 0 180
0 0 180 0 0 179 0 0 179 0 0 179 0 0 179 0 0 178 0 178 178 0 178 178 0
178 178 0 177 177 0 177 177 0 177 177 0 177 177 0 176 176 0 176 176 0
176 176 0 176 176 0 0 175 0 0 175 0 0 175 0 0 175 0 0 174 0 0 174 0 0
174 0 0 174 0 0 174 0 0 173 0 0 173 0 0 173 0 0 173 0 0 172 0 0 172 0
0 172 0 0 172 0 0 171 0 0 171 0 0 171 0 171 171 0 170 170 0 170 170 0
170 170 0 170 170 0 169 169 0 169 169 0 169 169 0 169 169 0 169 169 0
168 168 0 168 168 0 168 168 0 168 168 0 167 167 0 167 167 0 167 167 0
167 167 0 166 166 0 166 166 0 166 166 0 166 166 0 166 166 0 165 165 0
165 165 0 165 165 0 165 165 0 164 164 0 164 164 0 164 164 0 0 164 0 0
164 0 0 163 0 0 163 0 0 163 0 0 163 0 0 162 0 0 162 0 0 162 0 0 162 0
0 162 0 0 161 0 0 161 0 0 161 0 0 161 0 0 160 0 0 160 0 0 160 0 0 160
0 0 160 0 0 159 0 0 159 0 0 159 0 0 159 0 0 159 0 158 158 0 158 158 0
158 158 0 158 158 0 157 157 0 0 157 0 0 157 0 0 157 0 0 157 0 0 156 0
0 156 0 0 156 0 0 156 0 0 156 0 0 155 0 0 155 0 0 155 0 0 155 0 0 155
0 0 154 0 0 154 0 0 154 0 0 154 0 0 154 0 0 153 0 0 153 0 0 153 0 0
153 0 0 153 0 0 152 0 0 152 0 0 152 0 0 152 0 0 152 0 0 151 0 0 151 0
151 151 0 151 151 0 151 151 0 150 150 0 150 150 0 150 150 0 150 150 0
150 150 0 149 149 0 149 149 0 149 149 0 149 149 0 149 149 0 149 149 0
148 148 0 148 148 0 148 148 0 148 148 0 148 148 0 147 147 0 147 147 0
147 147 0 147 147 0 147 147 0 146 146 0 146 146 0 146 146 0 146 146 0
146 146 0 146 146 0 0 145 0 0 145 0 0 145 0 0 145 0 0 145 0 0 144 0 0
144 0 0 144 0 0 144 0 0 144 0 144 144 0 143 143 0 143 143 0 143 143 0
143 143 0 143 143 0 142 142 0 142 142 0 142 142 0 142 142 0 142 142 0
142 142 0 141 141 0 141 141 0 141 141 0 141 141 0 141 141 0 141 141 0
140 140 0 140 140 0 140 140 0 0 140 0 0 140 0 0 140 0 0 139 0 0 139 0
0 139 0 0 139 0 0 139 0 0 139 0 0 138 0 0 138 0 0 138 0 0 138 0 0 138
0 0 138 0 0 137 0 0 137 0 0 137 0 0 137 0 0 137 0
192 192 0 191 191 0 191 191 0 191 191 0 191 191 0 190 190 0 190 190 0
190 190 0 190 190 0 189 189 0 189 189 0 189 189 0 189 189 0 188 188 0
188 188 0 188 188 0 188 188 0 187 187 0 187 187 0 187 187 0 187 187 0
186 186 0 0 186 0 0 186 0 0 185 0 0 185 0 0 185 0 0 185 0 0 184 0 0
184 0 0 184 0 0 184 0 0 183 0 0 183 0 0 183 0 0 183 0 0 182 0 0 182 0
0 182 0 0 182 0 0 181 0 0 181 0 0 181 0 0 181 0 0 180 0 0 180 0 0 180
0 0 180 0 0 179 0 0 179 0 0 179 0 0 179 0 178 178 0 178 178 0 178 178
0 178 178 0 177 177 0 177 177 0 177 177 0 177 177 0 176 176 0 176 176
0 176 176 0 176 176 0 175 175 0 175 175 0 0 175 0 0 175 0 0 175 0 0
174 0 0 174 0 0 174 0 0 174 0 0 173 0 0 173 0 0 173 0 0 173 0 0 172 0
0 172 0 0 172 0 0 172 0 0 171 0 0 171 0 171 171 0 171 171 0 170 170 0
170 170 0 170 170 0 170 170 0 170 170 0 169 169 0 169 169 0 169 169 0
169 169 0 168 168 0 168 168 0 168 168 0 168 168 0 167 167 0 167 167 0
167 167 0 167 167 0 167 167 0 166 166 0 166 166 0 166 166 0 166 166 0
165 165 0 165 165 0 165 165 0 165 165 0 165 165 0 164 164 0 0 164 0 0
164 0 0 164 0 0 163 0 0 163 0 0 163 0 0 163 0 0 163 0 0 162 0 0 162 0
0 162 0 0 162 0 0 161 0 0 161 0 0 161 0 0 161 0 0 161 0 0 160 0 0 160
0 0 160 0 0 160 0 0 159 0 0 159 0 0 159 0 0 159 0 0 159 0 0 158 0 0
158 0 0 158 0 0 158 0 158 158 0 0 157 0 0 157 0 0 157 0 0 157 0 0 157
0 0 156 0 0 156 0 0 156 0 0 156 0 0 156 0 0 155 0 0 155 0 0 155 0 0
155 0 0 155 0 0 154 0 0 154 0 0 154 0 0 154 0 0 154 0 0 153 0 0 153 0
0 153 0 0 153 0 0 153 0 0 152 0 0 152 0 0 152 0 0 152 0 0 152 0 0 151
0 151 151 0 151 151 0 151 151 0 151 151 0 150 150 0 150 150 0 150 150
0 150 150 0 150 150 0 149 149 0 149 149 0 149 149 0 149 149 0 149 149
0 148 148 0 148 148 0 148 148 0 148 148 0 148 148 0 148 148 0 147 147
0 147 147 0 147 147 0 147 147 0 147 147 0 146 146 0 146 146 0 146 146
0 146 146 0 146 146 0 0 145 0 0 145 0 0 145 0 0 145 0 0 145 0 0 145 0
0 144 0 0 144 0 0 144 0 0 144 0 0 144 0 0 144 0 0 143 0 0 143 0 143
143 0 143 143 0 143 143 0 142 142 0 142 142 0 142 142 0 142 142 0 142
142 0 142 142 0 141 141 0 141 141 0 141 141 0 141 141 0 141 141 0 141
141 0 140 140 0 140 140 0 0 140 0 0 140 0 0 140 0 0 140 0 0 139 0 0
139 0 0 139 0 0 139 0 0 139 0 0 139 0 0 138 0 0 138 0 0 138 0 0 138 0
0 138 0 0 138 0 0 137 0 0 137 0 0 137 0 0 137 0
192 192 0 191 191 0 191 191 0 191 191 0 191 191 0 190 190 0 190 190 0
190 190 0 190 190 0 189 189 0 189 189 0 189 189 0 189 189 0 188 188 0
188 188 0 188 188 0 188 188 0 187 187 0 187 187 0 187 187 0 186 186 0
0 186 0 0 186 0 0 186 0 0 185 0 0 185 0 0 185 0 0 185 0 0 184 0 0 184
0 0 184 0 0 184 0 0 183 0 0 183 0 0 183 0 0 183 0 0 182 0 0 182 0 0
182 0 0 182 0 0 181 0 0 181 0 0 181 0 0 181 0 0 180 0 0 180 0 0 180 0
0 180 0 0 179 0 0 179 0 0 179 0 179 179 0 178 178 0 178 178 0 178 178
0 178 178 0 177 177 0 177 177 0 177 177 0 177 177 0 176 176 0 176 176
0 176 176 0 176 176 0 176 176 0 175 175 0 175 175 0 175 175 0 175 175
0 0 174 0 0 174 0 0 174 0 0 174 0 0 173 0 0 173 0 0 173 0 0 173 0 0
172 0 0 172 0 0 172 0 0 172 0 0 171 0 171 171 0 171 171 0 171 171 0
171 171 0 170 170 0 170 170 0 170 170 0 170 170 0 169 169 0 169 169 0
169 169 0 169 169 0 168 168 0 168 168 0 168 168 0 168 168 0 168 168 0
167 167 0 167 167 0 167 167 0 167 167 0 166 166 0 166 166 0 166 166 0
166 166 0 165 165 0 165 165 0 165 165 0 165 165 0 165 165 0 164 164 0
0 164 0 0 164 0 0 164 0 0 163 0 0 163 0 0 163 0 0 163 0 0 163 0 0 162
0 0 162 0 0 162 0 0 162 0 0 162 0 0 161 0 0 161 0 0 161 0 0 161 0 0
160 0 0 160 0 0 160 0 0 160 0 0 160 0 0 159 0 0 159 0 0 159 0 0 159 0
0 159 0 0 158 0 0 158 0 0 158 0 0 158 0 157 157 0 157 157 0 0 157 0 0
157 0 0 157 0 0 156 0 0 156 0 0 156 0 0 156 0 0 156 0 0 155 0 0 155 0
0 155 0 0 155 0 0 155 0 0 154 0 0 154 0 0 154 0 0 154 0 0 154 0 0 153
0 0 153 0 0 153 0 0 153 0 0 153 0 0 152 0 0 152 0 0 152 0 0 152 0 0
152 0 151 151 0 151 151 0 151 151 0 151 151 0 151 151 0 150 150 0 150
150 0 150 150 0 150 150 0 150 150 0 150 150 0 149 149 0 149 149 0 149
149 0 149 149 0 149 149 0 148 148 0 148 148 0 148 148 0 148 148 0 148
148 0 147 147 0 147 147 0 147 147 0 147 147 0 147 147 0 147 147 0 146
146 0 146 146 0 146 146 0 146 146 0 0 146 0 0 145 0 0 145 0 0 145 0 0
145 0 0 145 0 0 145 0 0 144 0 0 144 0 0 144 0 0 144 0 0 144 0 0 143 0
0 143 0 0 143 0 0 143 0 0 143 0 0 143 0 142 142 0 142 142 0 142 142 0
142 142 0 142 142 0 142 142 0 141 141 0 141 141 0 141 141 0 141 141 0
141 141 0 141 141 0 140 140 0 0 140 0 0 140 0 0 140 0 0 140 0 0 140 0
0 139 0 0 139 0 0 139 0 0 139 0 0 139 0 0 139 0 0 138 0 0 138 0 0 138
0 0 138 0 0 138 0 0 138 0 0 137 0 0 137 0 0 137 0
192 192 0 191 191 0 191 191 0 191 191 0 191 191 0 190 190 0 190 190 0
190 190 0 190 190 0 189 189 0 189 189 0 189 189 0 189 189 0 188 188 0
188 188 0 188 188 0 188 188 0 187 187 0 187 187 0 187 187 0 0 186 0 0
186 0 0 186 0 0 186 0 0 185 0 0 185 0 0 185 0 0 185 0 0 184 0 0 184 0
0 184 0 0 184 0 0 183 0 0 183 0 0 183 0 0 183 0 0 182 0 0 182 0 0 182
0 0 182 0 0 181 0 0 181 0 0 181 0 0 181 0 0 180 0 0 180 0 0 180 0 0
180 0 0 179 0 0 179 0 179 179 0 179 179 0 178 178 0 178 178 0 178 178
0 178 178 0 177 177 0 177 177 0 177 177 0 177 177 0 177 177 0 176 176
0 176 176 0 176 176 0 176 176 0 175 175 0 175 175 0 175 175 0 175 175
0 174 174 0 174 174 0 174 174 0 0 174 0 0 173 0 0 173 0 0 173 0 0 173
0 0 172 0 0 172 0 0 172 0 0 172 0 172 172 0 171 171 0 171 171 0 171
171 0 171 171 0 170 170 0 170 170 0 170 170 0 170 170 0 169 169 0 169
169 0 169 169 0 169 169 0 168 168 0 168 168 0 168 168 0 168 168 0 168
168 0 167 167 0 167 167 0 167 167 0 167 167 0 166 166 0 166 166 0 166
166 0 166 166 0 166 166 0 165 165 0 165 165 0 165 165 0 165 165 0 0
164 0 0 164 0 0 164 0 0 164 0 0 164 0 0 163 0 0 163 0 0 163 0 0 163 0
0 162 0 0 162 0 0 162 0 0 162 0 0 162 0 0 161 0 0 161 0 0 161 0 0 161
0 0 161 0 0 160 0 0 160 0 0 160 0 0 160 0 0 159 0 0 159 0 0 159 0 0
159 0 0 159 0 0 158 0 0 158 0 0 158 0 158 158 0 158 158 0 157 157 0
157 157 0 157 157 0 157 157 0 0 157 0 0 156 0 0 156 0 0 156 0 0 156 0
0 156 0 0 155 0 0 155 0 0 155 0 0 155 0 0 155 0 0 154 0 0 154 0 0 154
0 0 154 0 0 154 0 0 153 0 0 153 0 0 153 0 0 153 0 0 153 0 0 152 0 0
152 0 0 152 0 0 152 0 152 152 0 151 151 0 151 151 0 151 151 0 151 151
0 151 151 0 150 150 0 150 150 0 150 150 0 150 150 0 150 150 0 149 149
0 149 149 0 149 149 0 149 149 0 149 149 0 149 149 0 148 148 0 148 148
0 148 148 0 148 148 0 148 148 0 147 147 0 147 147 0 147 147 0 147 147
0 147 147 0 146 146 0 146 146 0 146 146 0 146 146 0 0 146 0 0 146 0 0
145 0 0 145 0 0 145 0 0 145 0 0 145 0 0 145 0 0 144 0 0 144 0 0 144 0
0 144 0 0 144 0 0 143 0 0 143 0 0 143 0 0 143 0 0 143 0 0 143 0 0 142
0 0 142 0 142 142 0 142 142 0 142 142 0 142 142 0 141 141 0 141 141 0
141 141 0 141 141 0 141 141 0 141 141 0 0 140 0 0 140 0 0 140 0 0 140
0 0 140 0 0 140 0 0 139 0 0 139 0 0 139 0 0 139 0 0 139 0 0 139 0 0
138 0 0 138 0 0 138 0 0 138 0 0 138 0 0 138 0 0 137 0 0 137 0
192 192 0 191 191 0 191 191 0 191 191 0 191 191 0 190 190 0 190 190 0
190 190 0 190 190 0 189 189 0 189 189 0 189 189 0 189 189 0 188 188 0
188 188 0 188 188 0 187 187 0 187 187 0 0 187 0 0 187 0 0 186 0 0 186
0 0 186 0 0 186 0 0 185 0 0 185 0 0 185 0 0 185 0 0 184 0 0 184 0 0
184 0 0 184 0 0 183 0 0 183 0 0 183 0 0 183 0 0 182 0 0 182 0 0 182 0
0 182 0 0 181 0 0 181 0 0 181 0 0 181 0 0 180 0 0 180 0 0 180 0 0 180
0 0 179 0 0 179 0 179 179 0 179 179 0 178 178 0 178 178 0 178 178 0
178 178 0 178 178 0 177 177 0 177 177 0 177 177 0 177 177 0 176 176 0
176 176 0 176 176 0 176 176 0 175 175 0 175 175 0 175 175 0 175 175 0
174 174 0 174 174 0 174 174 0 174 174 0 173 173 0 173 173 0 0 173 0 0
173 0 0 172 0 0 172 0 0 172 0 0 172 0 172 172 0 171 171 0 171 171 0
171 171 0 171 171 0 170 170 0 170 170 0 170 170 0 170 170 0 169 169 0
169 169 0 169 169 0 169 169 0 169 169 0 168 168 0 168 168 0 168 168 0
168 168 0 167 167 0 167 167 0 167 167 0 167 167 0 167 167 0 166 166 0
166 166 0 166 166 0 166 166 0 165 165 0 165 165 0 165 165 0 165 165 0
0 165 0 0 164 0 0 164 0 0 164 0 0 164 0 0 163 0 0 163 0 0 163 0 0 163
0 0 163 0 0 162 0 0 162 0 0 162 0 0 162 0 0 161 0 0 161 0 0 161 0 0
161 0 0 161 0 0 160 0 0 160 0 0 160 0 0 160 0 0 160 0 0 159 0 0 159 0
0 159 0 0 159 0 0 159 0 0 158 0 0 158 0 158 158 0 158 158 0 157 157 0
157 157 0 157 157 0 157 157 0 157 157 0 156 156 0 156 156 0 0 156 0 0
156 0 0 156 0 0 155 0 0 155 0 0 155 0 0 155 0 0 155 0 0 154 0 0 154 0
0 154 0 0 154 0 0 154 0 0 153 0 0 153 0 0 153 0 0 153 0 0 153 0 0 152
0 0 152 0 0 152 0 0 152 0 152 152 0 152 152 0 151 151 0 151 151 0 151
151 0 151 151 0 151 151 0 150 150 0 150 150 0 150 150 0 150 150 0 150
150 0 149 149 0 149 149 0 149 149 0 149 149 0 149 149 0 148 148 0 148
148 0 148 148 0 148 148 0 148 148 0 148 148 0 147 147 0 147 147 0 147
147 0 147 147 0 147 147 0 146 146 0 146 146 0 146 146 0 0 146 0 0 146
0 0 146 0 0 145 0 0 145 0 0 145 0 0 145 0 0 145 0 0 144 0 0 144 0 0
144 0 0 144 0 0 144 0 0 144 0 0 143 0 0 143 0 0 143 0 0 143 0 0 143 0
0 143 0 0 142 0 0 142 0 0 142 0 0 142 0 0 142 0 142 142 0 141 141 0
141 141 0 141 141 0 141 141 0 141 141 0 0 141 0 0 140 0 0 140 0 0 140
0 0 140 0 0 140 0 0 140 0 0 139 0 0 139 0 0 139 0 0 139 0 0 139 0 0
139 0 0 138 0 0 138 0 0 138 0 0 138 0 0 138 0 0 138 0 0 137 0
192 192 0 191 191 0 191 191 0 191 191 0 191 191 0 190 190 0 190 190 0
190 190 0 190 190 0 189 189 0 189 189 0 189 189 0 189 189 0 188 188 0
188 188 0 188 188 0 187 187 0 0 187 0 0 187 0 0 187 0 0 186 0 0 186 0
0 186 0 0 186 0 0 185 0 0 185 0 0 185 0 0 185 0 0 184 0 0 184 0 0 184
0 0 184 0 0 183 0 0 183 0 0 183 0 0 183 0 0 182 0 0 182 0 0 182 0 0
182 0 0 181 0 0 181 0 0 181 0 0 181 0 0 180 0 0 180 0 0 180 0 0 180 0
0 179 0 179 179 0 179 179 0 179 179 0 178 178 0 178 178 0 178 178 0
178 178 0 178 178 0 177 177 0 177 177 0 177 177 0 177 177 0 176 176 0
176 176 0 176 176 0 176 176 0 175 175 0 175 175 0 175 175 0 175 175 0
174 174 0 174 174 0 174 174 0 174 174 0 173 173 0 173 173 0 173 173 0
173 173 0 0 173 0 0 172 0 0 172 0 172 172 0 172 172 0 171 171 0 171
171 0 171 171 0 171 171 0 170 170 0 170 170 0 170 170 0 170 170 0 170
170 0 169 169 0 169 169 0 169 169 0 169 169 0 168 168 0 168 168 0 168
168 0 168 168 0 167 167 0 167 167 0 167 167 0 167 167 0 167 167 0 166
166 0 166 166 0 166 166 0 166 166 0 165 165 0 165 165 0 165 165 0 0
165 0 0 165 0 0 164 0 0 164 0 0 164 0 0 164 0 0 163 0 0 163 0 0 163 0
0 163 0 0 163 0 0 162 0 0 162 0 0 162 0 0 162 0 0 162 0 0 161 0 0 161
0 0 161 0 0 161 0 0 160 0 0 160 0 0 160 0 0 160 0 0 160 0 0 159 0 0
159 0 0 159 0 0 159 0 0 159 0 0 158 0 158 158 0 158 158 0 158 158 0
158 158 0 157 157 0 157 157 0 157 157 0 157 157 0 157 157 0 156 156 0
156 156 0 156 156 0 156 156 0 156 156 0 0 155 0 0 155 0 0 155 0 0 155
0 0 155 0 0 154 0 0 154 0 0 154 0 0 154 0 0 154 0 0 153 0 0 153 0 0
153 0 0 153 0 0 153 0 0 152 0 0 152 0 0 152 0 152 152 0 152 152 0 151
151 0 151 151 0 151 151 0 151 151 0 151 151 0 150 150 0 150 150 0 150
150 0 150 150 0 150 150 0 150 150 0 149 149 0 149 149 0 149 149 0 149
149 0 149 149 0 148 148 0 148 148 0 148 148 0 148 148 0 148 148 0 147
147 0 147 147 0 147 147 0 147 147 0 147 147 0 147 147 0 146 146 0 146
146 0 0 146 0 0 146 0 0 146 0 0 146 0 0 145 0 0 145 0 0 145 0 0 145 0
0 145 0 0 144 0 0 144 0 0 144 0 0 144 0 0 144 0 0 144 0 0 143 0 0 143
0 0 143 0 0 143 0 0 143 0 0 143 0 0 142 0 0 142 0 0 142 0 0 142 0 0
142 0 0 142 0 0 141 0 0 141 0 141 141 0 141 141 0 0 141 0 0 141 0 0
140 0 0 140 0 0 140 0 0 140 0 0 140 0 0 140 0 0 139 0 0 139 0 0 139 0
0 139 0 0 139 0 0 139 0 0 138 0 0 138 0 0 138 0 0 138 0 0 138 0 0 138
0
0 192 0 0 191 0 191 191 0 191 191 0 191 191 0 190 190 0 190 190 0 190
190 0 190 190 0 189 189 0 189 189 0 189 189 0 188 188 0 188 188 0 188
188 0 188 188 0 0 187 0 0 187 0 0 187 0 0 187 0 0 186 0 0 186 0 0 186
0 0 186 0 0 185 0 0 185 0 0 185 0 0 185 0 0 184 0 0 184 0 0 184 0 0
184 0 0 183 0 0 183 0 0 183 0 0 183 0 0 182 0 0 182 0 0 182 0 0 182 0
0 181 0 0 181 0 0 181 0 0 181 0 0 180 0 0 180 0 0 180 0 0 180 0 179
179 0 179 179 0 179 179 0 179 179 0 179 179 0 178 178 0 178 178 0 178
178 0 178 178 0 177 177 0 177 177 0 177 177 0 177 177 0 176 176 0 176
176 0 176 176 0 176 176 0 175 175 0 175 175 0 175 175 0 175 175 0 174
174 0 174 174 0 174 174 0 174 174 0 173 173 0 173 173 0 173 173 0 173
173 0 173 173 0 172 172 0 0 172 0 172 172 0 172 172 0 171 171 0 171
171 0 171 171 0 171 171 0 170 170 0 170 170 0 170 170 0 170 170 0 170
170 0 169 169 0 169 169 0 169 169 0 169 169 0 168 168 0 168 168 0 168
168 0 168 168 0 168 168 0 167 167 0 167 167 0 167 167 0 167 167 0 166
166 0 166 166 0 166 166 0 166 166 0 166 166 0 165 165 0 165 165 0 0
165 0 0 165 0 0 164 0 0 164 0 0 164 0 0 164 0 0 164 0 0 163 0 0 163 0
0 163 0 0 163 0 0 162 0 0 162 0 0 162 0 0 162 0 0 162 0 0 161 0 0 161
0 0 161 0 0 161 0 0 161 0 0 160 0 0 160 0 0 160 0 0 160 0 0 160 0 0
159 0 0 159 0 0 159 0 0 159 0 0 158 0 158 158 0 158 158 0 158 158 0
158 158 0 157 157 0 157 157 0 157 157 0 157 157 0 157 157 0 156 156 0
156 156 0 156 156 0 156 156 0 156 156 0 155 155 0 155 155 0 155 155 0
0 155 0 0 155 0 0 154 0 0 154 0 0 154 0 0 154 0 0 154 0 0 153 0 0 153
0 0 153 0 0 153 0 0 153 0 0 153 0 0 152 0 152 152 0 152 152 0 152 152
0 152 152 0 151 151 0 151 151 0 151 151 0 151 151 0 151 151 0 150 150
0 150 150 0 150 150 0 150 150 0 150 150 0 149 149 0 149 149 0 149 149
0 149 149 0 149 149 0 149 149 0 148 148 0 148 148 0 148 148 0 148 148
0 148 148 0 147 147 0 147 147 0 147 147 0 147 147 0 147 147 0 147 147
0 146 146 0 0 146 0 0 146 0 0 146 0 0 146 0 0 145 0 0 145 0 0 145 0 0
145 0 0 145 0 0 145 0 0 144 0 0 144 0 0 144 0 0 144 0 0 144 0 0 144 0
0 143 0 0 143 0 0 143 0 0 143 0 0 143 0 0 143 0 0 142 0 0 142 0 0 142
0 0 142 0 0 142 0 0 141 0 0 141 0 0 141 0 0 141 0 141 141 0 0 141 0 0
140 0 0 140 0 0 140 0 0 140 0 0 140 0 0 140 0 0 139 0 0 139 0 0 139 0
0 139 0 0 139 0 0 139 0 0 139 0 0 138 0 0 138 0 0 138 0 0 138 0 0 138
0
0 192 0 0 191 0 0 191 0 0 191 0 190 190 0 190 190 0 190 190 0 190 190
0 189 189 0 189 189 0 189 189 0 189 189 0 188 188 0 188 188 0 188 188
0 0 188 0 0 187 0 0 187 0 0 187 0 0 187 0 0 186 0 0 186 0 0 186 0 0
186 0 0 185 0 0 185 0 0 185 0 0 185 0 0 184 0 0 184 0 0 184 0 0 184 0
0 183 0 0 183 0 0 183 0 0 183 0 0 182 0 0 182 0 0 182 0 0 182 0 0 181
0 0 181 0 0 181 0 0 181 0 0 180 0 0 180 0 0 180 0 180 180 0 179 179 0
179 179 0 179 179 0 179 179 0 179 179 0 178 178 0 178 178 0 178 178 0
178 178 0 177 177 0 177 177 0 177 177 0 177 177 0 176 176 0 176 176 0
176 176 0 176 176 0 175 175 0 175 175 0 175 175 0 175 175 0 174 174 0
174 174 0 174 174 0 174 174 0 174 174 0 173 173 0 173 173 0 173 173 0
173 173 0 0 172 0 0 172 0 0 172 0 0 172 0 0 171 0 171 171 0 171 171 0
171 171 0 171 171 0 170 170 0 170 170 0 170 170 0 170 170 0 169 169 0
169 169 0 169 169 0 169 169 0 168 168 0 168 168 0 168 168 0 168 168 0
168 168 0 167 167 0 167 167 0 167 167 0 167 167 0 166 166 0 166 166 0
166 166 0 166 166 0 166 166 0 165 165 0 0 165 0 0 165 0 0 165 0 0 165
0 0 164 0 0 164 0 0 164 0 0 164 0 0 163 0 0 163 0 0 163 0 0 163 0 0
163 0 0 162 0 0 162 0 0 162 0 0 162 0 0 162 0 0 161 0 0 161 0 0 161 0
0 161 0 0 160 0 0 160 0 0 160 0 0 160 0 0 160 0 0 159 0 0 159 0 0 159
0 0 159 0 0 159 0 158 158 0 158 158 0 158 158 0 158 158 0 158 158 0
157 157 0 157 157 0 157 157 0 157 157 0 157 157 0 156 156 0 156 156 0
156 156 0 156 156 0 156 156 0 155 155 0 155 155 0 155 155 0 155 155 0
155 155 0 0 154 0 0 154 0 0 154 0 0 154 0 0 154 0 0 153 0 0 153 0 0
153 0 0 153 0 0 153 0 0 152 0 152 152 0 152 152 0 152 152 0 152 152 0
151 151 0 151 151 0 151 151 0 151 151 0 151 151 0 151 151 0 150 150 0
150 150 0 150 150 0 150 150 0 150 150 0 149 149 0 149 149 0 149 149 0
149 149 0 149 149 0 148 148 0 148 148 0 148 148 0 148 148 0 148 148 0
148 148 0 147 147 0 147 147 0 147 147 0 147 147 0 147 147 0 146 146 0
0 146 0 0 146 0 0 146 0 0 146 0 0 146 0 0 145 0 0 145 0 0 145 0 0 145
0 0 145 0 0 145 0 0 144 0 0 144 0 0 144 0 0 144 0 0 144 0 0 144 0 0
143 0 0 143 0 0 143 0 0 143 0 0 143 0 0 142 0 0 142 0 0 142 0 0 142 0
0 142 0 0 142 0 0 141 0 0 141 0 0 141 0 141 141 0 141 141 0 141 141 0
140 140 0 140 140 0 0 140 0 0 140 0 0 140 0 0 140 0 0 139 0 0 139 0 0
139 0 0 139 0 0 139 0 0 139 0 0 139 0 0 138 0 0 138 0 0 138 0 0 138 0
0 191 0 0 191 0 0 191 0 0 191 0 0 190 0 0 190 0 190 190 0 190 190 0
189 189 0 189 189 0 189 189 0 189 189 0 188 188 0 188 188 0 0 188 0 0
188 0 0 187 0 0 187 0 0 187 0 0 187 0 0 186 0 0 186 0 0 186 0 0 186 0
0 185 0 0 185 0 0 185 0 0 185 0 0 184 0 0 184 0 0 184 0 0 184 0 0 183
0 0 183 0 0 183 0 0 183 0 0 182 0 0 182 0 0 182 0 0 182 0 0 181 0 0
181 0 0 181 0 0 181 0 0 180 0 0 180 0 180 180 0 180 180 0 180 180 0
179 179 0 179 179 0 179 179 0 179 179 0 178 178 0 178 178 0 178 178 0
178 178 0 177 177 0 177 177 0 177 177 0 177 177 0 176 176 0 176 176 0
176 176 0 176 176 0 175 175 0 175 175 0 175 175 0 175 175 0 174 174 0
174 174 0 174 174 0 174 174 0 174 174 0 173 173 0 173 173 0 173 173 0
173 173 0 0 172 0 0 172 0 0 172 0 0 172 0 0 171 0 0 171 0 0 171 0 0
171 0 171 171 0 170 170 0 170 170 0 170 170 0 170 170 0 169 169 0 169
169 0 169 169 0 169 169 0 169 169 0 168 168 0 168 168 0 168 168 0 168
168 0 167 167 0 167 167 0 167 167 0 167 167 0 167 167 0 166 166 0 166
166 0 166 166 0 166 166 0 0 165 0 0 165 0 0 165 0 0 165 0 0 165 0 0
164 0 0 164 0 0 164 0 0 164 0 0 163 0 0 163 0 0 163 0 0 163 0 0 163 0
0 162 0 0 162 0 0 162 0 0 162 0 0 162 0 0 161 0 0 161 0 0 161 0 0 161
0 0 161 0 0 160 0 0 160 0 0 160 0 0 160 0 0 159 0 0 159 0 0 159 0 0
159 0 159 159 0 158 158 0 158 158 0 158 158 0 158 158 0 158 158 0 157
157 0 157 157 0 157 157 0 157 157 0 157 157 0 156 156 0 156 156 0 156
156 0 156 156 0 156 156 0 155 155 0 155 155 0 155 155 0 155 155 0 155
155 0 154 154 0 154 154 0 154 154 0 0 154 0 0 154 0 0 153 0 0 153 0 0
153 0 0 153 0 0 153 0 0 153 0 152 152 0 152 152 0 152 152 0 152 152 0
152 152 0 151 151 0 151 151 0 151 151 0 151 151 0 151 151 0 150 150 0
150 150 0 150 150 0 150 150 0 150 150 0 150 150 0 149 149 0 149 149 0
149 149 0 149 149 0 149 149 0 148 148 0 148 148 0 148 148 0 148 148 0
148 148 0 148 148 0 147 147 0 147 147 0 147 147 0 147 147 0 147 147 0
0 146 0 0 146 0 0 146 0 0 146 0 0 146 0 0 146 0 0 145 0 0 145 0 0 145
0 0 145 0 0 145 0 0 145 0 0 144 0 0 144 0 0 144 0 0 144 0 0 144 0 0
143 0 0 143 0 0 143 0 0 143 0 0 143 0 0 143 0 0 142 0 0 142 0 0 142 0
0 142 0 0 142 0 0 142 0 0 141 0 0 141 0 141 141 0 141 141 0 141 141 0
141 141 0 140 140 0 140 140 0 140 140 0 140 140 0 140 140 0 0 140 0 0
139 0 0 139 0 0 139 0 0 139 0 0 139 0 0 139 0 0 139 0 0 138 0 0 138 0
0 138 0
0 191 0 0 191 0 0 191 0 0 191 0 0 190 0 0 190 0 0 190 0 0 190 0 0 189
0 189 189 0 189 189 0 189 189 0 188 188 0 0 188 0 0 188 0 0 188 0 0
187 0 0 187 0 0 187 0 0 187 0 0 186 0 0 186 0 0 186 0 0 186 0 0 185 0
0 185 0 0 185 0 0 185 0 0 184 0 0 184 0 0 184 0 0 184 0 0 183 0 0 183
0 0 183 0 0 183 0 0 182 0 0 182 0 0 182 0 0 182 0 0 181 0 0 181 0 0
181 0 0 181 0 0 180 0 180 180 0 180 180 0 180 180 0 180 180 0 179 179
0 179 179 0 179 179 0 179 179 0 178 178 0 178 178 0 178 178 0 178 178
0 177 177 0 177 177 0 177 177 0 177 177 0 176 176 0 176 176 0 176 176
0 176 176 0 175 175 0 175 175 0 175 175 0 175 175 0 175 175 0 174 174
0 174 174 0 174 174 0 174 174 0 173 173 0 173 173 0 173 173 0 0 173 0
0 172 0 0 172 0 0 172 0 0 172 0 0 172 0 0 171 0 0 171 0 0 171 0 0 171
0 0 170 0 0 170 0 170 170 0 170 170 0 169 169 0 169 169 0 169 169 0
169 169 0 169 169 0 168 168 0 168 168 0 168 168 0 168 168 0 167 167 0
167 167 0 167 167 0 167 167 0 167 167 0 166 166 0 166 166 0 166 166 0
166 166 0 0 166 0 0 165 0 0 165 0 0 165 0 0 165 0 0 164 0 0 164 0 0
164 0 0 164 0 0 164 0 0 163 0 0 163 0 0 163 0 0 163 0 0 162 0 0 162 0
0 162 0 0 162 0 0 162 0 0 161 0 0 161 0 0 161 0 0 161 0 0 161 0 0 160
0 0 160 0 0 160 0 0 160 0 0 160 0 0 159 0 0 159 0 0 159 0 159 159 0
159 159 0 158 158 0 158 158 0 158 158 0 158 158 0 158 158 0 157 157 0
157 157 0 157 157 0 157 157 0 157 157 0 156 156 0 156 156 0 156 156 0
156 156 0 156 156 0 155 155 0 155 155 0 155 155 0 155 155 0 155 155 0
154 154 0 154 154 0 154 154 0 154 154 0 154 154 0 0 153 0 0 153 0 0
153 0 0 153 0 0 153 0 152 152 0 152 152 0 152 152 0 152 152 0 152 152
0 152 152 0 151 151 0 151 151 0 151 151 0 151 151 0 151 151 0 150 150
0 150 150 0 150 150 0 150 150 0 150 150 0 149 149 0 149 149 0 149 149
0 149 149 0 149 149 0 149 149 0 148 148 0 148 148 0 148 148 0 148 148
0 148 148 0 147 147 0 147 147 0 147 147 0 147 147 0 147 147 0 0 147 0
0 146 0 0 146 0 0 146 0 0 146 0 0 146 0 0 146 0 0 145 0 0 145 0 0 145
0 0 145 0 0 145 0 0 144 0 0 144 0 0 144 0 0 144 0 0 144 0 0 144 0 0
143 0 0 143 0 0 143 0 0 143 0 0 143 0 0 143 0 0 142 0 0 142 0 0 142 0
0 142 0 0 142 0 0 142 0 0 141 0 0 141 0 141 141 0 141 141 0 141 141 0
141 141 0 140 140 0 140 140 0 140 140 0 140 140 0 140 140 0 140 140 0
139 139 0 0 139 0 0 139 0 0 139 0 0 139 0 0 139 0 0 138 0 0 138 0 0
138 0
0 191 0 0 191 0 0 191 0 0 191 0 0 190 0 0 190 0 0 190 0 0 190 0 0 189
0 0 189 0 0 189 0 189 189 0 0 188 0 0 188 0 0 188 0 0 188 0 0 187 0 0
187 0 0 187 0 0 187 0 0 186 0 0 186 0 0 186 0 0 186 0 0 185 0 0 185 0
0 185 0 0 185 0 0 184 0 0 184 0 0 184 0 0 184 0 0 183 0 0 183 0 0 183
0 0 183 0 0 182 0 0 182 0 0 182 0 0 182 0 0 181 0 0 181 0 0 181 0 0
181 0 180 180 0 180 180 0 180 180 0 180 180 0 180 180 0 179 179 0 179
179 0 179 179 0 179 179 0 178 178 0 178 178 0 178 178 0 178 178 0 177
177 0 177 177 0 177 177 0 177 177 0 176 176 0 176 176 0 176 176 0 176
176 0 175 175 0 175 175 0 175 175 0 175 175 0 175 175 0 174 174 0 174
174 0 174 174 0 174 174 0 173 173 0 173 173 0 0 173 0 0 173 0 0 172 0
0 172 0 0 172 0 0 172 0 0 172 0 0 171 0 0 171 0 0 171 0 0 171 0 0 170
0 0 170 0 0 170 0 0 170 0 170 170 0 169 169 0 169 169 0 169 169 0 169
169 0 168 168 0 168 168 0 168 168 0 168 168 0 168 168 0 167 167 0 167
167 0 167 167 0 167 167 0 166 166 0 166 166 0 166 166 0 0 166 0 0 166
0 0 165 0 0 165 0 0 165 0 0 165 0 0 164 0 0 164 0 0 164 0 0 164 0 0
164 0 0 163 0 0 163 0 0 163 0 0 163 0 0 163 0 0 162 0 0 162 0 0 162 0
0 162 0 0 162 0 0 161 0 0 161 0 0 161 0 0 161 0 0 160 0 0 160 0 0 160
0 0 160 0 0 160 0 0 159 0 0 159 0 159 159 0 159 159 0 159 159 0 158
158 0 158 158 0 158 158 0 158 158 0 158 158 0 157 157 0 157 157 0 157
157 0 157 157 0 157 157 0 156 156 0 156 156 0 156 156 0 156 156 0 156
156 0 155 155 0 155 155 0 155 155 0 155 155 0 155 155 0 154 154 0 154
154 0 154 154 0 154 154 0 154 154 0 154 154 0 153 153 0 153 153 0 153
153 0 153 153 0 153 153 0 152 152 0 152 152 0 152 152 0 152 152 0 152
152 0 151 151 0 151 151 0 151 151 0 151 151 0 151 151 0 150 150 0 150
150 0 150 150 0 150 150 0 150 150 0 150 150 0 149 149 0 149 149 0 149
149 0 149 149 0 149 149 0 148 148 0 148 148 0 148 148 0 148 148 0 148
148 0 148 148 0 147 147 0 147 147 0 147 147 0 147 147 0 0 147 0 0 147
0 0 146 0 0 146 0 0 146 0 0 146 0 0 146 0 0 145 0 0 145 0 0 145 0 0
145 0 0 145 0 0 145 0 0 144 0 0 144 0 0 144 0 0 144 0 0 144 0 0 144 0
0 143 0 0 143 0 0 143 0 0 143 0 0 143 0 0 143 0 0 142 0 0 142 0 0 142
0 0 142 0 0 142 0 0 142 0 0 141 0 141 141 0 141 141 0 141 141 0 141
141 0 141 141 0 140 140 0 140 140 0 140 140 0 140 140 0 140 140 0 140
140 0 139 139 0 139 139 0 139 139 0 139 139 0 0 139 0 0 139 0 0 138 0
0 138 0
0 191 0 0 191 0 0 191 0 0 191 0 0 190 0 0 190 0 0 190 0 0 190 0 0 189
0 0 189 0 0 189 0 189 189 0 188 188 0 0 188 0 0 188 0 0 188 0 0 187 0
0 187 0 0 187 0 0 187 0 0 186 0 0 186 0 0 186 0 0 186 0 0 185 0 0 185
0 0 185 0 0 185 0 0 184 0 0 184 0 0 184 0 0 184 0 0 183 0 0 183 0 0
183 0 0 183 0 0 182 0 0 182 0 0 182 0 0 182 0 0 181 0 0 181 0 0 181 0
181 181 0 180 180 0 180 180 0 180 180 0 180 180 0 180 180 0 179 179 0
179 179 0 179 179 0 179 179 0 178 178 0 178 178 0 178 178 0 178 178 0
177 177 0 177 177 0 177 177 0 177 177 0 176 176 0 176 176 0 176 176 0
176 176 0 176 176 0 175 175 0 175 175 0 175 175 0 175 175 0 174 174 0
174 174 0 174 174 0 174 174 0 173 173 0 0 173 0 0 173 0 0 173 0 0 173
0 0 172 0 0 172 0 0 172 0 0 172 0 0 171 0 0 171 0 0 171 0 0 171 0 0
170 0 0 170 0 0 170 0 0 170 0 0 170 0 0 169 0 0 169 0 169 169 0 169
169 0 168 168 0 168 168 0 168 168 0 168 168 0 168 168 0 167 167 0 167
167 0 167 167 0 167 167 0 166 166 0 166 166 0 166 166 0 0 166 0 0 166
0 0 165 0 0 165 0 0 165 0 0 165 0 0 165 0 0 164 0 0 164 0 0 164 0 0
164 0 0 163 0 0 163 0 0 163 0 0 163 0 0 163 0 0 162 0 0 162 0 0 162 0
0 162 0 0 162 0 0 161 0 0 161 0 0 161 0 0 161 0 0 161 0 0 160 0 0 160
0 0 160 0 0 160 0 0 160 0 0 159 0 159 159 0 159 159 0 159 159 0 159
159 0 158 158 0 158 158 0 158 158 0 158 158 0 158 158 0 157 157 0 157
157 0 157 157 0 157 157 0 157 157 0 156 156 0 156 156 0 156 156 0 156
156 0 156 156 0 155 155 0 155 155 0 155 155 0 155 155 0 155 155 0 154
154 0 154 154 0 154 154 0 154 154 0 154 154 0 153 153 0 153 153 0 153
153 0 0 153 0 0 153 0 0 152 0 152 152 0 152 152 0 152 152 0 152 152 0
152 152 0 151 151 0 151 151 0 151 151 0 151 151 0 151 151 0 150 150 0
150 150 0 150 150 0 150 150 0 150 150 0 150 150 0 149 149 0 149 149 0
149 149 0 149 149 0 149 149 0 148 148 0 148 148 0 148 148 0 148 148 0
148 148 0 148 148 0 147 147 0 147 147 0 0 147 0 0 147 0 0 147 0 0 146
0 0 146 0 0 146 0 0 146 0 0 146 0 0 146 0 0 145 0 0 145 0 0 145 0 0
145 0 0 145 0 0 145 0 0 144 0 0 144 0 0 144 0 0 144 0 0 144 0 0 144 0
0 143 0 0 143 0 0 143 0 0 143 0 0 143 0 0 143 0 0 142 0 0 142 0 0 142
0 0 142 0 0 142 0 0 142 0 141 141 0 141 141 0 141 141 0 141 141 0 141
141 0 141 141 0 140 140 0 140 140 0 140 140 0 140 140 0 140 140 0 140
140 0 139 139 0 139 139 0 139 139 0 139 139 0 139 139 0 139 139 0 138
138 0
0 191 0 0 191 0 0 191 0 0 191 0 0 190 0 0 190 0 0 190 0 0 190 0 0 189
0 0 189 0 189 189 0 189 189 0 188 188 0 188 188 0 188 188 0 188 188 0
0 187 0 0 187 0 0 187 0 0 187 0 0 186 0 0 186 0 0 186 0 0 186 0 0 185
0 0 185 0 0 185 0 0 185 0 0 184 0 0 184 0 0 184 0 0 184 0 0 183 0 0
183 0 0 183 0 0 183 0 0 182 0 0 182 0 0 182 0 0 182 0 0 181 0 0 181 0
181 181 0 181 181 0 180 180 0 180 180 0 180 180 0 180 180 0 180 180 0
179 179 0 179 179 0 179 179 0 179 179 0 178 178 0 178 178 0 178 178 0
178 178 0 177 177 0 177 177 0 177 177 0 177 177 0 176 176 0 176 176 0
176 176 0 176 176 0 176 176 0 175 175 0 175 175 0 175 175 0 175 175 0
174 174 0 174 174 0 174 174 0 174 174 0 173 173 0 0 173 0 0 173 0 0
173 0 0 173 0 0 172 0 0 172 0 0 172 0 0 172 0 0 171 0 0 171 0 0 171 0
0 171 0 0 171 0 0 170 0 0 170 0 0 170 0 0 170 0 0 169 0 0 169 0 0 169
0 0 169 0 0 169 0 168 168 0 168 168 0 168 168 0 168 168 0 167 167 0
167 167 0 167 167 0 167 167 0 167 167 0 166 166 0 0 166 0 0 166 0 0
166 0 0 165 0 0 165 0 0 165 0 0 165 0 0 165 0 0 164 0 0 164 0 0 164 0
0 164 0 0 164 0 0 163 0 0 163 0 0 163 0 0 163 0 0 163 0 0 162 0 0 162
0 0 162 0 0 162 0 0 161 0 0 161 0 0 161 0 0 161 0 0 161 0 0 160 0 0
160 0 0 160 0 0 160 0 0 160 0 159 159 0 159 159 0 159 159 0 159 159 0
159 159 0 158 158 0 158 158 0 158 158 0 158 158 0 158 158 0 157 157 0
157 157 0 157 157 0 157 157 0 157 157 0 156 156 0 156 156 0 156 156 0
156 156 0 156 156 0 155 155 0 155 155 0 155 155 0 155 155 0 155 155 0
154 154 0 154 154 0 154 154 0 154 154 0 154 154 0 154 154 0 153 153 0
153 153 0 0 153 0 0 153 0 0 153 0 0 152 0 0 152 0 0 152 0 152 152 0
152 152 0 151 151 0 151 151 0 151 151 0 151 151 0 151 151 0 151 151 0
150 150 0 150 150 0 150 150 0 150 150 0 150 150 0 149 149 0 149 149 0
149 149 0 149 149 0 149 149 0 149 149 0 148 148 0 148 148 0 148 148 0
148 148 0 148 148 0 147 147 0 147 147 0 0 147 0 0 147 0 0 147 0 0 147
0 0 146 0 0 146 0 0 146 0 0 146 0 0 146 0 0 146 0 0 145 0 0 145 0 0
145 0 0 145 0 0 145 0 0 145 0 0 144 0 0 144 0 0 144 0 0 144 0 0 144 0
0 144 0 0 143 0 0 143 0 0 143 0 0 143 0 0 143 0 0 143 0 0 142 0 0 142
0 0 142 0 0 142 0 0 142 0 142 142 0 141 141 0 141 141 0 141 141 0 141
141 0 141 141 0 141 141 0 140 140 0 140 140 0 140 140 0 140 140 0 140
140 0 140 140 0 139 139 0 139 139 0 139 139 0 139 139 0 139 139 0 139
139 0
0 191 0 0 191 0 0 191 0 0 191 0 0 190 0 0 190 0 0 190 0 0 190 0 0 189
0 189 189 0 189 189 0 189 189 0 188 188 0 188 188 0 188 188 0 188 188
0 187 187 0 187 187 0 0 187 0 0 187 0 0 186 0 0 186 0 0 186 0 0 186 0
0 185 0 0 185 0 0 185 0 0 185 0 0 184 0 0 184 0 0 184 0 0 184 0 0 183
0 0 183 0 0 183 0 0 183 0 0 182 0 0 182 0 0 182 0 0 182 0 0 181 0 181
181 0 181 181 0 181 181 0 180 180 0 180 180 0 180 180 0 180 180 0 180
180 0 179 179 0 179 179 0 179 179 0 179 179 0 178 178 0 178 178 0 178
178 0 178 178 0 177 177 0 177 177 0 177 177 0 177 177 0 176 176 0 176
176 0 176 176 0 176 176 0 176 176 0 175 175 0 175 175 0 175 175 0 175
175 0 174 174 0 174 174 0 174 174 0 174 174 0 0 173 0 0 173 0 0 173 0
0 173 0 0 173 0 0 172 0 0 172 0 0 172 0 0 172 0 0 171 0 0 171 0 0 171
0 0 171 0 0 171 0 0 170 0 0 170 0 0 170 0 0 170 0 0 169 0 0 169 0 0
169 0 0 169 0 0 169 0 0 168 0 0 168 0 0 168 0 168 168 0 167 167 0 167
167 0 167 167 0 167 167 0 167 167 0 0 166 0 0 166 0 0 166 0 0 166 0 0
166 0 0 165 0 0 165 0 0 165 0 0 165 0 0 164 0 0 164 0 0 164 0 0 164 0
0 164 0 0 163 0 0 163 0 0 163 0 0 163 0 0 163 0 0 162 0 0 162 0 0 162
0 0 162 0 0 162 0 0 161 0 0 161 0 0 161 0 0 161 0 0 161 0 0 160 0 0
160 0 0 160 0 0 160 0 159 159 0 159 159 0 159 159 0 159 159 0 159 159
0 158 158 0 158 158 0 158 158 0 158 158 0 158 158 0 158 158 0 157 157
0 157 157 0 157 157 0 157 157 0 157 157 0 156 156 0 156 156 0 156 156
0 156 156 0 156 156 0 155 155 0 155 155 0 155 155 0 155 155 0 155 155
0 154 154 0 154 154 0 154 154 0 154 154 0 154 154 0 153 153 0 153 153
0 0 153 0 0 153 0 0 153 0 0 153 0 0 152 0 0 152 0 0 152 0 0 152 0 0
152 0 151 151 0 151 151 0 151 151 0 151 151 0 151 151 0 150 150 0 150
150 0 150 150 0 150 150 0 150 150 0 150 150 0 149 149 0 149 149 0 149
149 0 149 149 0 149 149 0 148 148 0 148 148 0 148 148 0 148 148 0 148
148 0 148 148 0 147 147 0 0 147 0 0 147 0 0 147 0 0 147 0 0 147 0 0
146 0 0 146 0 0 146 0 0 146 0 0 146 0 0 146 0 0 145 0 0 145 0 0 145 0
0 145 0 0 145 0 0 144 0 0 144 0 0 144 0 0 144 0 0 144 0 0 144 0 0 143
0 0 143 0 0 143 0 0 143 0 0 143 0 0 143 0 0 142 0 0 142 0 0 142 0 0
142 0 0 142 0 142 142 0 141 141 0 141 141 0 141 141 0 141 141 0 141
141 0 141 141 0 141 141 0 140 140 0 140 140 0 140 140 0 140 140 0 140
140 0 140 140 0 139 139 0 139 139 0 139 139 0 139 139 0 139 139 0
0 191 0 0 191 0 0 191 0 0 190 0 0 190 0 0 190 0 0 190 0 189 189 0 189
189 0 189 189 0 189 189 0 189 189 0 188 188 0 188 188 0 188 188 0 188
188 0 187 187 0 187 187 0 187 187 0 187 187 0 186 186 0 0 186 0 0 186
0 0 186 0 0 185 0 0 185 0 0 185 0 0 185 0 0 184 0 0 184 0 0 184 0 0
184 0 0 183 0 0 183 0 0 183 0 0 183 0 0 182 0 0 182 0 0 182 0 0 182 0
181 181 0 181 181 0 181 181 0 181 181 0 180 180 0 180 180 0 180 180 0
180 180 0 180 180 0 179 179 0 179 179 0 179 179 0 179 179 0 178 178 0
178 178 0 178 178 0 178 178 0 177 177 0 177 177 0 177 177 0 177 177 0
176 176 0 176 176 0 176 176 0 176 176 0 176 176 0 175 175 0 175 175 0
175 175 0 175 175 0 174 174 0 174 174 0 174 174 0 0 174 0 0 174 0 0
173 0 0 173 0 0 173 0 0 173 0 0 172 0 0 172 0 0 172 0 0 172 0 0 171 0
0 171 0 0 171 0 0 171 0 0 171 0 0 170 0 0 170 0 0 170 0 0 170 0 0 169
0 0 169 0 0 169 0 0 169 0 0 169 0 0 168 0 0 168 0 0 168 0 0 168 0 0
168 0 0 167 0 167 167 0 167 167 0 167 167 0 0 166 0 0 166 0 0 166 0 0
166 0 0 166 0 0 165 0 0 165 0 0 165 0 0 165 0 0 165 0 0 164 0 0 164 0
0 164 0 0 164 0 0 163 0 0 163 0 0 163 0 0 163 0 0 163 0 0 162 0 0 162
0 0 162 0 0 162 0 0 162 0 0 161 0 0 161 0 0 161 0 0 161 0 0 161 0 0
160 0 0 160 0 0 160 0 0 160 0 160 160 0 159 159 0 159 159 0 159 159 0
159 159 0 159 159 0 158 158 0 158 158 0 158 158 0 158 158 0 158 158 0
157 157 0 157 157 0 157 157 0 157 157 0 157 157 0 156 156 0 156 156 0
156 156 0 156 156 0 156 156 0 155 155 0 155 155 0 155 155 0 155 155 0
155 155 0 154 154 0 154 154 0 154 154 0 154 154 0 154 154 0 154 154 0
0 153 0 0 153 0 0 153 0 0 153 0 0 153 0 0 152 0 0 152 0 0 152 0 0 152
0 0 152 0 0 151 0 0 151 0 0 151 0 0 151 0 151 151 0 151 151 0 150 150
0 150 150 0 150 150 0 150 150 0 150 150 0 149 149 0 149 149 0 149 149
0 149 149 0 149 149 0 149 149 0 148 148 0 148 148 0 148 148 0 148 148
0 148 148 0 148 148 0 0 147 0 0 147 0 0 147 0 0 147 0 0 147 0 0 146 0
0 146 0 0 146 0 0 146 0 0 146 0 0 146 0 0 145 0 0 145 0 0 145 0 0 145
0 0 145 0 0 145 0 0 144 0 0 144 0 0 144 0 0 144 0 0 144 0 0 144 0 0
143 0 0 143 0 0 143 0 0 143 0 0 143 0 0 143 0 0 142 0 0 142 0 0 142 0
0 142 0 142 142 0 142 142 0 141 141 0 141 141 0 141 141 0 141 141 0
141 141 0 141 141 0 141 141 0 140 140 0 140 140 0 140 140 0 140 140 0
140 140 0 140 140 0 139 139 0 139 139 0 139 139 0 139 139 0
0 191 0 0 191 0 0 191 0 0 190 0 0 190 0 0 190 0 190 190 0 189 189 0
189 189 0 189 189 0 189 189 0 188 188 0 188 188 0 188 188 0 188 188 0
187 187 0 187 187 0 187 187 0 187 187 0 187 187 0 186 186 0 186 186 0
186 186 0 0 186 0 0 185 0 0 185 0 0 185 0 0 185 0 0 184 0 0 184 0 0
184 0 0 184 0 0 183 0 0 183 0 0 183 0 0 183 0 0 182 0 0 182 0 0 182 0
182 182 0 181 181 0 181 181 0 181 181 0 181 181 0 180 180 0 180 180 0
180 180 0 180 180 0 180 180 0 179 179 0 179 179 0 179 179 0 179 179 0
178 178 0 178 178 0 178 178 0 178 178 0 177 177 0 177 177 0 177 177 0
177 177 0 176 176 0 176 176 0 176 176 0 176 176 0 176 176 0 175 175 0
175 175 0 175 175 0 175 175 0 174 174 0 174 174 0 0 174 0 0 174 0 0
174 0 0 173 0 0 173 0 0 173 0 0 173 0 0 172 0 0 172 0 0 172 0 0 172 0
0 172 0 0 171 0 0 171 0 0 171 0 0 171 0 0 170 0 0 170 0 0 170 0 0 170
0 0 170 0 0 169 0 0 169 0 0 169 0 0 169 0 0 168 0 0 168 0 0 168 0 0
168 0 0 168 0 0 167 0 0 167 0 0 167 0 0 167 0 0 166 0 0 166 0 0 166 0
0 166 0 0 166 0 0 165 0 0 165 0 0 165 0 0 165 0 0 165 0 0 164 0 0 164
0 0 164 0 0 164 0 0 164 0 0 163 0 0 163 0 0 163 0 0 163 0 0 162 0 0
162 0 0 162 0 0 162 0 0 162 0 0 161 0 0 161 0 0 161 0 0 161 0 0 161 0
0 160 0 0 160 0 0 160 0 160 160 0 160 160 0 159 159 0 159 159 0 159
159 0 159 159 0 159 159 0 158 158 0 158 158 0 158 158 0 158 158 0 158
158 0 157 157 0 157 157 0 157 157 0 157 157 0 157 157 0 157 157 0 156
156 0 156 156 0 156 156 0 156 156 0 156 156 0 155 155 0 155 155 0 155
155 0 155 155 0 155 155 0 154 154 0 154 154 0 154 154 0 154 154 0 154
154 0 0 153 0 0 153 0 0 153 0 0 153 0 0 153 0 0 153 0 0 152 0 0 152 0
0 152 0 0 152 0 0 152 0 0 151 0 0 151 0 0 151 0 0 151 0 0 151 0 0 151
0 150 150 0 150 150 0 150 150 0 150 150 0 150 150 0 149 149 0 149 149
0 149 149 0 149 149 0 149 149 0 149 149 0 148 148 0 148 148 0 148 148
0 148 148 0 148 148 0 0 147 0 0 147 0 0 147 0 0 147 0 0 147 0 0 147 0
0 146 0 0 146 0 0 146 0 0 146 0 0 146 0 0 146 0 0 145 0 0 145 0 0 145
0 0 145 0 0 145 0 0 145 0 0 144 0 0 144 0 0 144 0 0 144 0 0 144 0 0
144 0 0 143 0 0 143 0 0 143 0 0 143 0 0 143 0 0 143 0 0 142 0 0 142 0
0 142 0 142 142 0 142 142 0 142 142 0 141 141 0 141 141 0 141 141 0
141 141 0 141 141 0 141 141 0 140 140 0 140 140 0 140 140 0 140 140 0
140 140 0 140 140 0 140 140 0 139 139 0 139 139 0 139 139 0
0 191 0 0 191 0 0 191 0 0 190 0 0 190 0 190 190 0 190 190 0 189 189 0
189 189 0 189 189 0 189 189 0 188 188 0 188 188 0 188 188 0 188 188 0
187 187 0 187 187 0 187 187 0 187 187 0 186 186 0 186 186 0 186 186 0
186 186 0 186 186 0 185 185 0 0 185 0 0 185 0 0 185 0 0 184 0 0 184 0
0 184 0 0 184 0 0 183 0 0 183 0 0 183 0 0 183 0 0 182 0 0 182 0 182
182 0 182 182 0 181 181 0 181 181 0 181 181 0 181 181 0 180 180 0 180
180 0 180 180 0 180 180 0 180 180 0 179 179 0 179 179 0 179 179 0 179
179 0 178 178 0 178 178 0 178 178 0 178 178 0 177 177 0 177 177 0 177
177 0 177 177 0 177 177 0 176 176 0 176 176 0 176 176 0 176 176 0 175
175 0 175 175 0 175 175 0 175 175 0 174 174 0 174 174 0 0 174 0 0 174
0 0 174 0 0 173 0 0 173 0 0 173 0 0 173 0 0 172 0 0 172 0 0 172 0 0
172 0 0 172 0 0 171 0 0 171 0 0 171 0 0 171 0 0 170 0 0 170 0 0 170 0
0 170 0 0 170 0 0 169 0 0 169 0 0 169 0 0 169 0 0 168 0 0 168 0 0 168
0 0 168 0 0 168 0 0 167 0 0 167 0 0 167 0 167 167 0 167 167 0 166 166
0 0 166 0 0 166 0 0 166 0 0 165 0 0 165 0 0 165 0 0 165 0 0 165 0 0
164 0 0 164 0 0 164 0 0 164 0 0 164 0 0 163 0 0 163 0 0 163 0 0 163 0
0 163 0 0 162 0 0 162 0 0 162 0 0 162 0 0 162 0 0 161 0 0 161 0 0 161
0 0 161 0 0 161 0 0 160 0 0 160 0 160 160 0 160 160 0 160 160 0 159
159 0 159 159 0 159 159 0 159 159 0 159 159 0 158 158 0 158 158 0 158
158 0 158 158 0 158 158 0 157 157 0 157 157 0 157 157 0 157 157 0 157
157 0 156 156 0 156 156 0 156 156 0 156 156 0 156 156 0 155 155 0 155
155 0 155 155 0 155 155 0 155 155 0 154 154 0 154 154 0 154 154 0 154
154 0 154 154 0 0 154 0 0 153 0 0 153 0 0 153 0 0 153 0 0 153 0 0 152
0 0 152 0 0 152 0 0 152 0 0 152 0 0 152 0 0 151 0 0 151 0 0 151 0 0
151 0 0 151 0 0 150 0 0 150 0 0 150 0 150 150 0 150 150 0 150 150 0
149 149 0 149 149 0 149 149 0 149 149 0 149 149 0 148 148 0 148 148 0
148 148 0 148 148 0 148 148 0 0 148 0 0 147 0 0 147 0 0 147 0 0 147 0
0 147 0 0 147 0 0 146 0 0 146 0 0 146 0 0 146 0 0 146 0 0 146 0 0 145
0 0 145 0 0 145 0 0 145 0 0 145 0 0 145 0 0 144 0 0 144 0 0 144 0 0
144 0 0 144 0 0 144 0 0 143 0 0 143 0 0 143 0 0 143 0 0 143 0 0 143 0
0 142 0 0 142 0 142 142 0 142 142 0 142 142 0 142 142 0 141 141 0 141
141 0 141 141 0 141 141 0 141 141 0 141 141 0 140 140 0 140 140 0 140
140 0 140 140 0 140 140 0 140 140 0 140 140 0 139 139 0 139 139 0
0 191 0 0 191 0 0 191 0 0 190 0 190 190 0 190 190 0 190 190 0 189 189
0 189 189 0 189 189 0 189 189 0 188 188 0 188 188 0 188 188 0 188 188
0 187 187 0 187 187 0 187 187 0 187 187 0 186 186 0 186 186 0 186 186
0 186 186 0 185 185 0 185 185 0 185 185 0 185 185 0 185 185 0 0 184 0
0 184 0 0 184 0 0 184 0 0 183 0 0 183 0 0 183 0 0 183 0 0 182 0 182
182 0 182 182 0 182 182 0 181 181 0 181 181 0 181 181 0 181 181 0 180
180 0 180 180 0 180 180 0 180 180 0 180 180 0 179 179 0 179 179 0 179
179 0 179 179 0 178 178 0 178 178 0 178 178 0 178 178 0 177 177 0 177
177 0 177 177 0 177 177 0 177 177 0 176 176 0 176 176 0 176 176 0 176
176 0 175 175 0 175 175 0 175 175 0 175 175 0 174 174 0 0 174 0 0 174
0 0 174 0 0 174 0 0 173 0 0 173 0 0 173 0 0 173 0 0 172 0 0 172 0 0
172 0 0 172 0 0 172 0 0 171 0 0 171 0 0 171 0 0 171 0 0 170 0 0 170 0
0 170 0 0 170 0 0 170 0 0 169 0 0 169 0 0 169 0 0 169 0 0 169 0 0 168
0 0 168 0 0 168 0 0 168 0 0 167 0 0 167 0 167 167 0 167 167 0 167 167
0 166 166 0 166 166 0 166 166 0 166 166 0 0 166 0 0 165 0 0 165 0 0
165 0 0 165 0 0 164 0 0 164 0 0 164 0 0 164 0 0 164 0 0 163 0 0 163 0
0 163 0 0 163 0 0 163 0 0 162 0 0 162 0 0 162 0 0 162 0 0 162 0 0 161
0 0 161 0 0 161 0 0 161 0 0 161 0 0 160 0 160 160 0 160 160 0 160 160
0 160 160 0 159 159 0 159 159 0 159 159 0 159 159 0 159 159 0 158 158
0 158 158 0 158 158 0 158 158 0 158 158 0 157 157 0 157 157 0 157 157
0 157 157 0 157 157 0 156 156 0 156 156 0 156 156 0 156 156 0 156 156
0 156 156 0 155 155 0 155 155 0 155 155 0 155 155 0 155 155 0 154 154
0 154 154 0 154 154 0 154 154 0 0 154 0 0 153 0 0 153 0 0 153 0 0 153
0 0 153 0 0 153 0 0 152 0 0 152 0 0 152 0 0 152 0 0 152 0 0 151 0 0
151 0 0 151 0 0 151 0 0 151 0 0 151 0 0 150 0 0 150 0 0 150 0 0 150 0
0 150 0 149 149 0 149 149 0 149 149 0 149 149 0 149 149 0 149 149 0
148 148 0 148 148 0 148 148 0 148 148 0 0 148 0 0 148 0 0 147 0 0 147
0 0 147 0 0 147 0 0 147 0 0 147 0 0 146 0 0 146 0 0 146 0 0 146 0 0
146 0 0 145 0 0 145 0 0 145 0 0 145 0 0 145 0 0 145 0 0 144 0 0 144 0
0 144 0 0 144 0 0 144 0 0 144 0 0 144 0 0 143 0 0 143 0 0 143 0 0 143
0 0 143 0 0 143 0 0 142 0 142 142 0 142 142 0 142 142 0 142 142 0 142
142 0 141 141 0 141 141 0 141 141 0 141 141 0 141 141 0 141 141 0 140
140 0 140 140 0 140 140 0 140 140 0 140 140 0 140 140 0 140 140 0 139
139 0
0 191 0 0 191 0 0 191 0 190 190 0 190 190 0 190 190 0 190 190 0 189
189 0 189 189 0 189 189 0 189 189 0 188 188 0 188 188 0 188 188 0 188
188 0 187 187 0 187 187 0 187 187 0 187 187 0 186 186 0 186 186 0 186
186 0 186 186 0 185 185 0 185 185 0 185 185 0 185 185 0 184 184 0 184
184 0 184 184 0 0 184 0 0 184 0 0 183 0 0 183 0 0 183 0 0 183 0 0 182
0 182 182 0 182 182 0 182 182 0 181 181 0 181 181 0 181 181 0 181 181
0 180 180 0 180 180 0 180 180 0 180 180 0 180 180 0 179 179 0 179 179
0 179 179 0 179 179 0 178 178 0 178 178 0 178 178 0 178 178 0 177 177
0 177 177 0 177 177 0 177 177 0 177 177 0 176 176 0 176 176 0 176 176
0 176 176 0 175 175 0 175 175 0 175 175 0 175 175 0 0 174 0 0 174 0 0
174 0 0 174 0 0 174 0 0 173 0 0 173 0 0 173 0 0 173 0 0 172 0 0 172 0
0 172 0 0 172 0 0 172 0 0 171 0 0 171 0 0 171 0 0 171 0 0 170 0 0 170
0 0 170 0 0 170 0 0 170 0 0 169 0 0 169 0 0 169 0 0 169 0 0 169 0 0
168 0 0 168 0 0 168 0 0 168 0 0 167 0 167 167 0 167 167 0 167 167 0
167 167 0 166 166 0 166 166 0 166 166 0 166 166 0 166 166 0 165 165 0
165 165 0 0 165 0 0 165 0 0 165 0 0 164 0 0 164 0 0 164 0 0 164 0 0
164 0 0 163 0 0 163 0 0 163 0 0 163 0 0 162 0 0 162 0 0 162 0 0 162 0
0 162 0 0 161 0 0 161 0 0 161 0 0 161 0 0 161 0 0 160 0 160 160 0 160
160 0 160 160 0 160 160 0 159 159 0 159 159 0 159 159 0 159 159 0 159
159 0 159 159 0 158 158 0 158 158 0 158 158 0 158 158 0 158 158 0 157
157 0 157 157 0 157 157 0 157 157 0 157 157 0 156 156 0 156 156 0 156
156 0 156 156 0 156 156 0 155 155 0 155 155 0 155 155 0 155 155 0 155
155 0 154 154 0 154 154 0 154 154 0 0 154 0 0 154 0 0 154 0 0 153 0 0
153 0 0 153 0 0 153 0 0 153 0 0 152 0 0 152 0 0 152 0 0 152 0 0 152 0
0 152 0 0 151 0 0 151 0 0 151 0 0 151 0 0 151 0 0 150 0 0 150 0 0 150
0 0 150 0 0 150 0 0 150 0 0 149 0 0 149 0 149 149 0 149 149 0 149 149
0 149 149 0 148 148 0 148 148 0 148 148 0 0 148 0 0 148 0 0 147 0 0
147 0 0 147 0 0 147 0 0 147 0 0 147 0 0 146 0 0 146 0 0 146 0 0 146 0
0 146 0 0 146 0 0 145 0 0 145 0 0 145 0 0 145 0 0 145 0 0 145 0 0 144
0 0 144 0 0 144 0 0 144 0 0 144 0 0 144 0 0 143 0 0 143 0 0 143 0 0
143 0 0 143 0 0 143 0 0 142 0 142 142 0 142 142 0 142 142 0 142 142 0
142 142 0 142 142 0 141 141 0 141 141 0 141 141 0 141 141 0 141 141 0
141 141 0 140 140 0 140 140 0 140 140 0 140 140 0 140 140 0 140 140 0
139 139 0
0 191 0 0 191 0 191 191 0 190 190 0 190 190 0 190 190 0 190 190 0 189
189 0 189 189 0 189 189 0 189 189 0 188 188 0 188 188 0 188 188 0 188
188 0 187 187 0 187 187 0 187 187 0 187 187 0 186 186 0 186 186 0 186
186 0 186 186 0 185 185 0 185 185 0 185 185 0 185 185 0 184 184 0 184
184 0 184 184 0 184 184 0 184 184 0 0 183 0 0 183 0 0 183 0 0 183 0
182 182 0 182 182 0 182 182 0 182 182 0 181 181 0 181 181 0 181 181 0
181 181 0 180 180 0 180 180 0 180 180 0 180 180 0 180 180 0 179 179 0
179 179 0 179 179 0 179 179 0 178 178 0 178 178 0 178 178 0 178 178 0
177 177 0 177 177 0 177 177 0 177 177 0 177 177 0 176 176 0 176 176 0
176 176 0 176 176 0 175 175 0 175 175 0 175 175 0 0 175 0 0 175 0 0
174 0 0 174 0 0 174 0 0 174 0 0 173 0 0 173 0 0 173 0 0 173 0 0 173 0
0 172 0 0 172 0 0 172 0 0 172 0 0 171 0 0 171 0 0 171 0 0 171 0 0 171
0 0 170 0 0 170 0 0 170 0 0 170 0 0 169 0 0 169 0 0 169 0 0 169 0 0
169 0 0 168 0 0 168 0 0 168 0 0 168 0 0 168 0 167 167 0 167 167 0 167
167 0 167 167 0 166 166 0 166 166 0 166 166 0 166 166 0 166 166 0 165
165 0 165 165 0 165 165 0 165 165 0 0 165 0 0 164 0 0 164 0 0 164 0 0
164 0 0 164 0 0 163 0 0 163 0 0 163 0 0 163 0 0 163 0 0 162 0 0 162 0
0 162 0 0 162 0 0 162 0 0 161 0 0 161 0 0 161 0 0 161 0 0 161 0 160
160 0 160 160 0 160 160 0 160 160 0 160 160 0 159 159 0 159 159 0 159
159 0 159 159 0 159 159 0 158 158 0 158 158 0 158 158 0 158 158 0 158
158 0 157 157 0 157 157 0 157 157 0 157 157 0 157 157 0 156 156 0 156
156 0 156 156 0 156 156 0 156 156 0 156 156 0 155 155 0 155 155 0 155
155 0 155 155 0 155 155 0 154 154 0 154 154 0 0 154 0 0 154 0 0 154 0
0 153 0 0 153 0 0 153 0 0 153 0 0 153 0 0 153 0 0 152 0 0 152 0 0 152
0 0 152 0 0 152 0 0 151 0 0 151 0 0 151 0 0 151 0 0 151 0 0 151 0 0
150 0 0 150 0 0 150 0 0 150 0 0 150 0 0 150 0 0 149 0 0 149 0 0 149 0
0 149 0 0 149 0 148 148 0 148 148 0 148 148 0 0 148 0 0 148 0 0 148 0
0 147 0 0 147 0 0 147 0 0 147 0 0 147 0 0 147 0 0 146 0 0 146 0 0 146
0 0 146 0 0 146 0 0 146 0 0 145 0 0 145 0 0 145 0 0 145 0 0 145 0 0
145 0 0 144 0 0 144 0 0 144 0 0 144 0 0 144 0 0 144 0 0 143 0 0 143 0
0 143 0 0 143 0 0 143 0 0 143 0 0 142 0 142 142 0 142 142 0 142 142 0
142 142 0 142 142 0 142 142 0 141 141 0 141 141 0 141 141 0 141 141 0
141 141 0 141 141 0 140 140 0 140 140 0 140 140 0 140 140 0 140 140 0
140 140 0
0 191 0 191 191 0 190 190 0 190 190 0 190 190 0 190 190 0 189 189 0
189 189 0 189 189 0 189 189 0 189 189 0 188 188 0 188 188 0 188 188 0
188 188 0 187 187 0 187 187 0 187 187 0 187 187 0 186 186 0 186 186 0
186 186 0 186 186 0 185 185 0 185 185 0 185 185 0 185 185 0 184 184 0
184 184 0 184 184 0 184 184 0 183 183 0 183 183 0 183 183 0 183 183 0
183 183 0 182 182 0 182 182 0 182 182 0 182 182 0 181 181 0 181 181 0
181 181 0 181 181 0 180 180 0 180 180 0 180 180 0 180 180 0 180 180 0
179 179 0 179 179 0 179 179 0 179 179 0 178 178 0 178 178 0 178 178 0
178 178 0 177 177 0 177 177 0 177 177 0 177 177 0 177 177 0 176 176 0
176 176 0 176 176 0 176 176 0 175 175 0 175 175 0 0 175 0 0 175 0 0
175 0 0 174 0 0 174 0 0 174 0 0 174 0 0 173 0 0 173 0 0 173 0 0 173 0
0 173 0 0 172 0 0 172 0 0 172 0 0 172 0 0 171 0 0 171 0 0 171 0 0 171
0 0 171 0 0 170 0 0 170 0 0 170 0 0 170 0 0 169 0 0 169 0 0 169 0 0
169 0 0 169 0 0 168 0 0 168 0 0 168 0 0 168 0 168 168 0 167 167 0 167
167 0 167 167 0 167 167 0 167 167 0 166 166 0 166 166 0 166 166 0 166
166 0 165 165 0 165 165 0 165 165 0 165 165 0 165 165 0 164 164 0 164
164 0 0 164 0 0 164 0 0 164 0 0 163 0 0 163 0 0 163 0 0 163 0 0 163 0
0 162 0 0 162 0 0 162 0 0 162 0 0 162 0 0 161 0 0 161 0 0 161 0 0 161
0 161 161 0 160 160 0 160 160 0 160 160 0 160 160 0 160 160 0 159 159
0 159 159 0 159 159 0 159 159 0 159 159 0 158 158 0 158 158 0 158 158
0 158 158 0 158 158 0 157 157 0 157 157 0 157 157 0 157 157 0 157 157
0 157 157 0 156 156 0 156 156 0 156 156 0 156 156 0 156 156 0 155 155
0 155 155 0 155 155 0 155 155 0 155 155 0 154 154 0 154 154 0 0 154 0
0 154 0 0 154 0 0 154 0 0 153 0 0 153 0 0 153 0 0 153 0 0 153 0 0 152
0 0 152 0 0 152 0 0 152 0 0 152 0 0 152 0 0 151 0 0 151 0 0 151 0 0
151 0 0 151 0 0 151 0 0 150 0 0 150 0 0 150 0 0 150 0 0 150 0 0 149 0
0 149 0 0 149 0 0 149 0 0 149 0 0 149 0 0 148 0 0 148 0 0 148 0 0 148
0 0 148 0 0 148 0 0 147 0 0 147 0 0 147 0 0 147 0 0 147 0 0 147 0 0
146 0 0 146 0 0 146 0 0 146 0 0 146 0 0 146 0 0 145 0 0 145 0 0 145 0
0 145 0 0 145 0 0 145 0 0 144 0 0 144 0 0 144 0 0 144 0 0 144 0 0 144
0 0 143 0 0 143 0 0 143 0 0 143 0 0 143 0 0 143 0 142 142 0 142 142 0
142 142 0 142 142 0 142 142 0 142 142 0 141 141 0 141 141 0 141 141 0
141 141 0 141 141 0 141 141 0 141 141 0 140 140 0 140 140 0 140 140 0
140 140 0 140 140 0
191 191 0 191 191 0 190 190 0 190 190 0 190 190 0 190 190 0 189 189 0
189 189 0 189 189 0 189 189 0 188 188 0 188 188 0 188 188 0 188 188 0
188 188 0 187 187 0 187 187 0 187 187 0 187 187 0 186 186 0 186 186 0
186 186 0 186 186 0 185 185 0 185 185 0 185 185 0 185 185 0 184 184 0
184 184 0 184 184 0 184 184 0 183 183 0 183 183 0 183 183 0 0 183 0 0
183 0 0 182 0 182 182 0 182 182 0 182 182 0 181 181 0 181 181 0 181
181 0 181 181 0 180 180 0 180 180 0 180 180 0 180 180 0 180 180 0 179
179 0 179 179 0 179 179 0 179 179 0 178 178 0 178 178 0 178 178 0 178
178 0 177 177 0 177 177 0 177 177 0 177 177 0 177 177 0 176 176 0 176
176 0 176 176 0 176 176 0 175 175 0 175 175 0 0 175 0 0 175 0 0 175 0
0 174 0 0 174 0 0 174 0 0 174 0 0 173 0 0 173 0 0 173 0 0 173 0 0 173
0 0 172 0 0 172 0 0 172 0 0 172 0 0 171 0 0 171 0 0 171 0 0 171 0 0
171 0 0 170 0 0 170 0 0 170 0 0 170 0 0 170 0 0 169 0 0 169 0 0 169 0
0 169 0 0 168 0 0 168 0 0 168 0 0 168 0 168 168 0 167 167 0 167 167 0
167 167 0 167 167 0 167 167 0 166 166 0 166 166 0 166 166 0 166 166 0
166 166 0 165 165 0 165 165 0 165 165 0 165 165 0 164 164 0 164 164 0
164 164 0 164 164 0 164 164 0 0 163 0 0 163 0 0 163 0 0 163 0 0 163 0
0 162 0 0 162 0 0 162 0 0 162 0 0 162 0 0 161 0 0 161 0 0 161 0 0 161
0 161 161 0 160 160 0 160 160 0 160 160 0 160 160 0 160 160 0 160 160
0 159 159 0 159 159 0 159 159 0 159 159 0 159 159 0 158 158 0 158 158
0 158 158 0 158 158 0 158 158 0 157 157 0 157 157 0 157 157 0 157 157
0 157 157 0 156 156 0 156 156 0 156 156 0 156 156 0 156 156 0 156 156
0 155 155 0 155 155 0 155 155 0 155 155 0 155 155 0 154 154 0 0 154 0
0 154 0 0 154 0 0 154 0 0 153 0 0 153 0 0 153 0 0 153 0 0 153 0 0 153
0 0 152 0 0 152 0 0 152 0 0 152 0 0 152 0 0 151 0 0 151 0 0 151 0 0
151 0 0 151 0 0 151 0 0 150 0 0 150 0 0 150 0 0 150 0 0 150 0 0 150 0
0 149 0 0 149 0 0 149 0 0 149 0 0 149 0 0 149 0 0 148 0 148 148 0 148
148 0 148 148 0 0 148 0 0 147 0 0 147 0 0 147 0 0 147 0 0 147 0 0 147
0 0 146 0 0 146 0 0 146 0 0 146 0 0 146 0 0 146 0 0 145 0 0 145 0 0
145 0 0 145 0 0 145 0 0 145 0 0 144 0 0 144 0 0 144 0 0 144 0 0 144 0
0 144 0 0 144 0 0 143 0 0 143 0 0 143 0 0 143 0 0 143 0 143 143 0 142
142 0 142 142 0 142 142 0 142 142 0 142 142 0 142 142 0 141 141 0 141
141 0 141 141 0 141 141 0 141 141 0 141 141 0 141 141 0 140 140 0 140
140 0 140 140 0 140 140 0
191 191 0 191 191 0 190 190 0 190 190 0 190 190 0 190 190 0 189 189 0
189 189 0 189 189 0 189 189 0 188 188 0 188 188 0 188 188 0 188 188 0
187 187 0 187 187 0 187 187 0 187 187 0 187 187 0 186 186 0 186 186 0
186 186 0 186 186 0 185 185 0 185 185 0 185 185 0 185 185 0 184 184 0
184 184 0 184 184 0 184 184 0 183 183 0 183 183 0 0 183 0 0 183 0 0
183 0 0 182 0 0 182 0 0 182 0 182 182 0 181 181 0 181 181 0 181 181 0
181 181 0 180 180 0 180 180 0 180 180 0 180 180 0 180 180 0 179 179 0
179 179 0 179 179 0 179 179 0 178 178 0 178 178 0 178 178 0 178 178 0
177 177 0 177 177 0 177 177 0 177 177 0 177 177 0 176 176 0 176 176 0
176 176 0 176 176 0 175 175 0 0 175 0 0 175 0 0 175 0 0 175 0 0 174 0
0 174 0 0 174 0 0 174 0 0 173 0 0 173 0 0 173 0 0 173 0 0 173 0 0 172
0 0 172 0 0 172 0 0 172 0 0 171 0 0 171 0 0 171 0 0 171 0 0 171 0 0
170 0 0 170 0 0 170 0 0 170 0 0 170 0 0 169 0 0 169 0 0 169 0 0 169 0
0 168 0 0 168 0 0 168 0 168 168 0 168 168 0 167 167 0 167 167 0 167
167 0 167 167 0 167 167 0 166 166 0 166 166 0 166 166 0 166 166 0 166
166 0 165 165 0 165 165 0 165 165 0 165 165 0 165 165 0 164 164 0 164
164 0 164 164 0 164 164 0 164 164 0 163 163 0 163 163 0 0 163 0 0 163
0 0 163 0 0 162 0 0 162 0 0 162 0 0 162 0 0 162 0 0 161 0 0 161 0 161
161 0 161 161 0 161 161 0 160 160 0 160 160 0 160 160 0 160 160 0 160
160 0 159 159 0 159 159 0 159 159 0 159 159 0 159 159 0 158 158 0 158
158 0 158 158 0 158 158 0 158 158 0 157 157 0 157 157 0 157 157 0 157
157 0 157 157 0 157 157 0 156 156 0 156 156 0 156 156 0 156 156 0 156
156 0 155 155 0 155 155 0 155 155 0 155 155 0 155 155 0 154 154 0 0
154 0 0 154 0 0 154 0 0 154 0 0 154 0 0 153 0 0 153 0 0 153 0 0 153 0
0 153 0 0 152 0 0 152 0 0 152 0 0 152 0 0 152 0 0 152 0 0 151 0 0 151
0 0 151 0 0 151 0 0 151 0 0 151 0 0 150 0 0 150 0 0 150 0 0 150 0 0
150 0 0 149 0 0 149 0 0 149 0 0 149 0 0 149 0 0 149 0 0 148 0 148 148
0 148 148 0 148 148 0 148 148 0 148 148 0 147 147 0 0 147 0 0 147 0 0
147 0 0 147 0 0 147 0 0 146 0 0 146 0 0 146 0 0 146 0 0 146 0 0 146 0
0 145 0 0 145 0 0 145 0 0 145 0 0 145 0 0 145 0 0 144 0 0 144 0 0 144
0 0 144 0 0 144 0 0 144 0 0 143 0 0 143 0 0 143 0 0 143 0 0 143 0 143
143 0 143 143 0 142 142 0 142 142 0 142 142 0 142 142 0 142 142 0 142
142 0 141 141 0 141 141 0 141 141 0 141 141 0 141 141 0 141 141 0 140
140 0 140 140 0 140 140 0 140 140 0
191 191 0 191 191 0 190 190 0 190 190 0 190 190 0 190 190 0 189 189 0
189 189 0 189 189 0 189 189 0 188 188 0 188 188 0 188 188 0 188 188 0
187 187 0 187 187 0 187 187 0 187 187 0 186 186 0 186 186 0 186 186 0
186 186 0 186 186 0 185 185 0 185 185 0 185 185 0 185 185 0 184 184 0
184 184 0 184 184 0 184 184 0 183 183 0 0 183 0 0 183 0 0 183 0 0 182
0 0 182 0 0 182 0 0 182 0 0 182 0 0 181 0 0 181 0 181 181 0 181 181 0
180 180 0 180 180 0 180 180 0 180 180 0 179 179 0 179 179 0 179 179 0
179 179 0 179 179 0 178 178 0 178 178 0 178 178 0 178 178 0 177 177 0
177 177 0 177 177 0 177 177 0 177 177 0 176 176 0 176 176 0 176 176 0
176 176 0 0 175 0 0 175 0 0 175 0 0 175 0 0 175 0 0 174 0 0 174 0 0
174 0 0 174 0 0 173 0 0 173 0 0 173 0 0 173 0 0 173 0 0 172 0 0 172 0
0 172 0 0 172 0 0 172 0 0 171 0 0 171 0 0 171 0 0 171 0 0 170 0 0 170
0 0 170 0 0 170 0 0 170 0 0 169 0 0 169 0 0 169 0 0 169 0 0 169 0 0
168 0 0 168 0 168 168 0 168 168 0 167 167 0 167 167 0 167 167 0 167
167 0 167 167 0 166 166 0 166 166 0 166 166 0 166 166 0 166 166 0 165
165 0 165 165 0 165 165 0 165 165 0 165 165 0 164 164 0 164 164 0 164
164 0 164 164 0 164 164 0 163 163 0 163 163 0 163 163 0 163 163 0 163
163 0 0 162 0 0 162 0 0 162 0 0 162 0 0 162 0 0 161 0 0 161 0 161 161
0 161 161 0 161 161 0 160 160 0 160 160 0 160 160 0 160 160 0 160 160
0 159 159 0 159 159 0 159 159 0 159 159 0 159 159 0 158 158 0 158 158
0 158 158 0 158 158 0 158 158 0 158 158 0 157 157 0 157 157 0 157 157
0 157 157 0 157 157 0 156 156 0 156 156 0 156 156 0 156 156 0 156 156
0 155 155 0 155 155 0 155 155 0 155 155 0 155 155 0 0 155 0 0 154 0 0
154 0 0 154 0 0 154 0 0 154 0 0 153 0 0 153 0 0 153 0 0 153 0 0 153 0
0 153 0 0 152 0 0 152 0 0 152 0 0 152 0 0 152 0 0 152 0 0 151 0 0 151
0 0 151 0 0 151 0 0 151 0 0 150 0 0 150 0 0 150 0 0 150 0 0 150 0 0
150 0 0 149 0 0 149 0 0 149 0 0 149 0 0 149 0 0 149 0 148 148 0 148
148 0 148 148 0 148 148 0 148 148 0 148 148 0 147 147 0 147 147 0 147
147 0 147 147 0 0 147 0 0 147 0 0 146 0 0 146 0 0 146 0 0 146 0 0 146
0 0 146 0 0 145 0 0 145 0 0 145 0 0 145 0 0 145 0 0 145 0 0 144 0 0
144 0 0 144 0 0 144 0 0 144 0 0 144 0 0 143 0 0 143 0 0 143 0 0 143 0
143 143 0 143 143 0 142 142 0 142 142 0 142 142 0 142 142 0 142 142 0
142 142 0 142 142 0 141 141 0 141 141 0 141 141 0 141 141 0 141 141 0
141 141 0 140 140 0 140 140 0 140 140 0
191 191 0 191 191 0 190 190 0 190 190 0 190 190 0 190 190 0 189 189 0
189 189 0 189 189 0 189 189 0 188 188 0 188 188 0 188 188 0 188 188 0
187 187 0 187 187 0 187 187 0 187 187 0 186 186 0 186 186 0 186 186 0
186 186 0 186 186 0 185 185 0 185 185 0 185 185 0 185 185 0 184 184 0
184 184 0 184 184 0 184 184 0 0 183 0 0 183 0 0 183 0 0 183 0 0 182 0
0 182 0 0 182 0 0 182 0 0 182 0 0 181 0 0 181 0 0 181 0 0 181 0 180
180 0 180 180 0 180 180 0 180 180 0 179 179 0 179 179 0 179 179 0 179
179 0 179 179 0 178 178 0 178 178 0 178 178 0 178 178 0 177 177 0 177
177 0 177 177 0 177 177 0 177 177 0 176 176 0 176 176 0 176 176 0 0
176 0 0 175 0 0 175 0 0 175 0 0 175 0 0 175 0 0 174 0 0 174 0 0 174 0
0 174 0 0 173 0 0 173 0 0 173 0 0 173 0 0 173 0 0 172 0 0 172 0 0 172
0 0 172 0 0 172 0 0 171 0 0 171 0 0 171 0 0 171 0 0 170 0 0 170 0 0
170 0 0 170 0 0 170 0 0 169 0 0 169 0 0 169 0 0 169 0 0 169 0 0 168 0
168 168 0 168 168 0 168 168 0 168 168 0 167 167 0 167 167 0 167 167 0
167 167 0 166 166 0 166 166 0 166 166 0 166 166 0 166 166 0 165 165 0
165 165 0 165 165 0 165 165 0 165 165 0 164 164 0 164 164 0 164 164 0
164 164 0 164 164 0 163 163 0 163 163 0 163 163 0 163 163 0 163 163 0
162 162 0 162 162 0 0 162 0 0 162 0 0 162 0 0 161 0 0 161 0 161 161 0
161 161 0 161 161 0 160 160 0 160 160 0 160 160 0 160 160 0 160 160 0
160 160 0 159 159 0 159 159 0 159 159 0 159 159 0 159 159 0 158 158 0
158 158 0 158 158 0 158 158 0 158 158 0 157 157 0 157 157 0 157 157 0
157 157 0 157 157 0 156 156 0 156 156 0 156 156 0 156 156 0 156 156 0
156 156 0 155 155 0 155 155 0 155 155 0 155 155 0 0 155 0 0 154 0 0
154 0 0 154 0 0 154 0 0 154 0 0 154 0 0 153 0 0 153 0 0 153 0 0 153 0
0 153 0 0 152 0 0 152 0 0 152 0 0 152 0 0 152 0 0 152 0 0 151 0 0 151
0 0 151 0 0 151 0 0 151 0 0 151 0 0 150 0 0 150 0 0 150 0 0 150 0 0
150 0 0 150 0 0 149 0 0 149 0 0 149 0 0 149 0 0 149 0 148 148 0 148
148 0 148 148 0 148 148 0 148 148 0 148 148 0 147 147 0 147 147 0 147
147 0 147 147 0 147 147 0 147 147 0 146 146 0 0 146 0 0 146 0 0 146 0
0 146 0 0 146 0 0 146 0 0 145 0 0 145 0 0 145 0 0 145 0 0 145 0 0 145
0 0 144 0 0 144 0 0 144 0 0 144 0 0 144 0 0 144 0 0 143 0 0 143 0 0
143 0 143 143 0 143 143 0 143 143 0 142 142 0 142 142 0 142 142 0 142
142 0 142 142 0 142 142 0 142 142 0 141 141 0 141 141 0 141 141 0 141
141 0 141 141 0 141 141 0 140 140 0 140 140 0
191 191 0 190 190 0 190 190 0 190 190 0 190 190 0 190 190 0 189 189 0
189 189 0 189 189 0 189 189 0 188 188 0 188 188 0 188 188 0 188 188 0
187 187 0 187 187 0 187 187 0 187 187 0 186 186 0 186 186 0 186 186 0
186 186 0 185 185 0 185 185 0 185 185 0 185 185 0 185 185 0 184 184 0
184 184 0 184 184 0 0 184 0 0 183 0 0 183 0 0 183 0 0 183 0 0 182 0 0
182 0 0 182 0 0 182 0 0 182 0 0 181 0 0 181 0 0 181 0 0 181 0 0 180 0
0 180 0 180 180 0 180 180 0 179 179 0 179 179 0 179 179 0 179 179 0
179 179 0 178 178 0 178 178 0 178 178 0 178 178 0 177 177 0 177 177 0
177 177 0 177 177 0 177 177 0 176 176 0 176 176 0 176 176 0 0 176 0 0
175 0 0 175 0 0 175 0 0 175 0 0 175 0 0 174 0 0 174 0 0 174 0 0 174 0
0 173 0 0 173 0 0 173 0 0 173 0 0 173 0 0 172 0 0 172 0 0 172 0 0 172
0 0 172 0 0 171 0 0 171 0 0 171 0 0 171 0 0 170 0 0 170 0 0 170 0 0
170 0 0 170 0 0 169 0 0 169 0 0 169 0 0 169 0 0 169 0 168 168 0 168
168 0 168 168 0 168 168 0 168 168 0 167 167 0 167 167 0 167 167 0 167
167 0 167 167 0 166 166 0 166 166 0 166 166 0 166 166 0 166 166 0 165
165 0 165 165 0 165 165 0 165 165 0 164 164 0 164 164 0 164 164 0 164
164 0 164 164 0 163 163 0 163 163 0 163 163 0 163 163 0 163 163 0 163
163 0 162 162 0 162 162 0 162 162 0 162 162 0 0 162 0 161 161 0 161
161 0 161 161 0 161 161 0 161 161 0 160 160 0 160 160 0 160 160 0 160
160 0 160 160 0 159 159 0 159 159 0 159 159 0 159 159 0 159 159 0 158
158 0 158 158 0 158 158 0 158 158 0 158 158 0 158 158 0 157 157 0 157
157 0 157 157 0 157 157 0 157 157 0 156 156 0 156 156 0 156 156 0 156
156 0 156 156 0 155 155 0 155 155 0 155 155 0 155 155 0 0 155 0 0 155
0 0 154 0 0 154 0 0 154 0 0 154 0 0 154 0 0 153 0 0 153 0 0 153 0 0
153 0 0 153 0 0 153 0 0 152 0 0 152 0 0 152 0 0 152 0 0 152 0 0 152 0
0 151 0 0 151 0 0 151 0 0 151 0 0 151 0 0 150 0 0 150 0 0 150 0 0 150
0 0 150 0 0 150 0 0 149 0 0 149 0 0 149 0 0 149 0 0 149 0 149 149 0
148 148 0 148 148 0 148 148 0 148 148 0 148 148 0 148 148 0 147 147 0
147 147 0 147 147 0 147 147 0 147 147 0 147 147 0 146 146 0 146 146 0
146 146 0 0 146 0 0 146 0 0 146 0 0 145 0 0 145 0 0 145 0 0 145 0 0
145 0 0 145 0 0 144 0 0 144 0 0 144 0 0 144 0 0 144 0 0 144 0 0 144 0
0 143 0 0 143 0 143 143 0 143 143 0 143 143 0 143 143 0 142 142 0 142
142 0 142 142 0 142 142 0 142 142 0 142 142 0 142 142 0 141 141 0 141
141 0 141 141 0 141 141 0 141 141 0 141 141 0 140 140 0
191 191 0 190 190 0 190 190 0 190 190 0 190 190 0 189 189 0 189 189 0
189 189 0 189 189 0 189 189 0 188 188 0 188 188 0 188 188 0 188 188 0
187 187 0 187 187 0 187 187 0 187 187 0 186 186 0 186 186 0 186 186 0
186 186 0 185 185 0 185 185 0 185 185 0 185 185 0 185 185 0 184 184 0
184 184 0 0 184 0 0 184 0 0 183 0 0 183 0 0 183 0 0 183 0 0 182 0 0
182 0 0 182 0 0 182 0 0 182 0 0 181 0 0 181 0 0 181 0 0 181 0 0 180 0
0 180 0 0 180 0 0 180 0 0 179 0 179 179 0 179 179 0 179 179 0 179 179
0 178 178 0 178 178 0 178 178 0 178 178 0 177 177 0 177 177 0 177 177
0 177 177 0 177 177 0 176 176 0 176 176 0 0 176 0 0 176 0 0 175 0 0
175 0 0 175 0 0 175 0 0 175 0 0 174 0 0 174 0 0 174 0 0 174 0 0 174 0
0 173 0 0 173 0 0 173 0 0 173 0 0 172 0 0 172 0 0 172 0 0 172 0 0 172
0 0 171 0 0 171 0 0 171 0 0 171 0 0 171 0 0 170 0 0 170 0 0 170 0 0
170 0 0 169 0 0 169 0 0 169 0 0 169 0 0 169 0 168 168 0 168 168 0 168
168 0 168 168 0 168 168 0 167 167 0 167 167 0 167 167 0 167 167 0 167
167 0 166 166 0 166 166 0 166 166 0 166 166 0 166 166 0 165 165 0 165
165 0 165 165 0 165 165 0 165 165 0 164 164 0 164 164 0 164 164 0 164
164 0 164 164 0 163 163 0 163 163 0 163 163 0 163 163 0 163 163 0 162
162 0 162 162 0 162 162 0 162 162 0 162 162 0 0 161 0 0 161 0 161 161
0 161 161 0 161 161 0 160 160 0 160 160 0 160 160 0 160 160 0 160 160
0 159 159 0 159 159 0 159 159 0 159 159 0 159 159 0 159 159 0 158 158
0 158 158 0 158 158 0 158 158 0 158 158 0 157 157 0 157 157 0 157 157
0 157 157 0 157 157 0 156 156 0 156 156 0 156 156 0 156 156 0 156 156
0 156 156 0 155 155 0 155 155 0 155 155 0 0 155 0 0 155 0 0 154 0 0
154 0 0 154 0 0 154 0 0 154 0 0 154 0 0 153 0 0 153 0 0 153 0 0 153 0
0 153 0 0 152 0 0 152 0 0 152 0 0 152 0 0 152 0 0 152 0 0 151 0 0 151
0 0 151 0 0 151 0 0 151 0 0 151 0 0 150 0 0 150 0 0 150 0 0 150 0 0
150 0 0 150 0 0 149 0 0 149 0 0 149 0 149 149 0 149 149 0 149 149 0
148 148 0 148 148 0 148 148 0 148 148 0 148 148 0 148 148 0 147 147 0
147 147 0 147 147 0 147 147 0 147 147 0 147 147 0 146 146 0 146 146 0
146 146 0 146 146 0 146 146 0 0 146 0 0 145 0 0 145 0 0 145 0 0 145 0
0 145 0 0 145 0 0 144 0 0 144 0 0 144 0 0 144 0 0 144 0 0 144 0 0 143
0 0 143 0 143 143 0 143 143 0 143 143 0 143 143 0 143 143 0 142 142 0
142 142 0 142 142 0 142 142 0 142 142 0 142 142 0 141 141 0 141 141 0
141 141 0 141 141 0 141 141 0 141 141 0 141 141 0
191 191 0 190 190 0 190 190 0 190 190 0 190 190 0 189 189 0 189 189 0
189 189 0 189 189 0 188 188 0 188 188 0 188 188 0 188 188 0 188 188 0
187 187 0 187 187 0 187 187 0 187 187 0 186 186 0 186 186 0 186 186 0
186 186 0 185 185 0 185 185 0 185 185 0 185 185 0 184 184 0 184 184 0
0 184 0 0 184 0 0 184 0 0 183 0 0 183 0 0 183 0 0 183 0 0 182 0 0 182
0 0 182 0 0 182 0 0 181 0 0 181 0 0 181 0 0 181 0 0 181 0 0 180 0 0
180 0 0 180 0 0 180 0 0 179 0 0 179 0 0 179 0 179 179 0 179 179 0 178
178 0 178 178 0 178 178 0 178 178 0 177 177 0 177 177 0 177 177 0 177
177 0 177 177 0 176 176 0 0 176 0 0 176 0 0 176 0 0 175 0 0 175 0 0
175 0 0 175 0 0 175 0 0 174 0 0 174 0 0 174 0 0 174 0 0 174 0 0 173 0
0 173 0 0 173 0 0 173 0 0 172 0 0 172 0 0 172 0 0 172 0 0 172 0 0 171
0 0 171 0 0 171 0 0 171 0 0 171 0 0 170 0 0 170 0 0 170 0 0 170 0 0
169 0 0 169 0 0 169 0 0 169 0 169 169 0 168 168 0 168 168 0 168 168 0
168 168 0 168 168 0 167 167 0 167 167 0 167 167 0 167 167 0 167 167 0
166 166 0 166 166 0 166 166 0 166 166 0 166 166 0 165 165 0 165 165 0
165 165 0 165 165 0 165 165 0 164 164 0 164 164 0 164 164 0 164 164 0
164 164 0 163 163 0 163 163 0 163 163 0 163 163 0 163 163 0 162 162 0
162 162 0 162 162 0 162 162 0 0 162 0 0 161 0 0 161 0 0 161 0 0 161 0
0 161 0 160 160 0 160 160 0 160 160 0 160 160 0 160 160 0 160 160 0
159 159 0 159 159 0 159 159 0 159 159 0 159 159 0 158 158 0 158 158 0
158 158 0 158 158 0 158 158 0 157 157 0 157 157 0 157 157 0 157 157 0
157 157 0 157 157 0 156 156 0 156 156 0 156 156 0 156 156 0 156 156 0
155 155 0 155 155 0 0 155 0 0 155 0 0 155 0 0 155 0 0 154 0 0 154 0 0
154 0 0 154 0 0 154 0 0 153 0 0 153 0 0 153 0 0 153 0 0 153 0 0 153 0
0 152 0 0 152 0 0 152 0 0 152 0 0 152 0 0 152 0 0 151 0 0 151 0 0 151
0 0 151 0 0 151 0 0 151 0 0 150 0 0 150 0 0 150 0 0 150 0 0 150 0 0
149 0 0 149 0 0 149 0 149 149 0 149 149 0 149 149 0 148 148 0 148 148
0 148 148 0 148 148 0 148 148 0 148 148 0 147 147 0 147 147 0 147 147
0 147 147 0 147 147 0 147 147 0 146 146 0 146 146 0 146 146 0 146 146
0 146 146 0 146 146 0 146 146 0 145 145 0 0 145 0 0 145 0 0 145 0 0
145 0 0 145 0 0 144 0 0 144 0 0 144 0 0 144 0 0 144 0 0 144 0 0 143 0
143 143 0 143 143 0 143 143 0 143 143 0 143 143 0 143 143 0 142 142 0
142 142 0 142 142 0 142 142 0 142 142 0 142 142 0 141 141 0 141 141 0
141 141 0 141 141 0 141 141 0 141 141 0
191 191 0 190 190 0 190 190 0 190 190 0 190 190 0 189 189 0 189 189 0
189 189 0 189 189 0 188 188 0 188 188 0 188 188 0 188 188 0 187 187 0
187 187 0 187 187 0 187 187 0 187 187 0 186 186 0 186 186 0 186 186 0
186 186 0 185 185 0 185 185 0 185 185 0 185 185 0 184 184 0 0 184 0 0
184 0 0 184 0 0 184 0 0 183 0 0 183 0 0 183 0 0 183 0 0 182 0 0 182 0
0 182 0 0 182 0 0 181 0 0 181 0 0 181 0 0 181 0 0 181 0 0 180 0 0 180
0 0 180 0 0 180 0 0 179 0 0 179 0 0 179 0 0 179 0 0 179 0 0 178 0 178
178 0 178 178 0 178 178 0 177 177 0 177 177 0 177 177 0 177 177 0 177
177 0 0 176 0 0 176 0 0 176 0 0 176 0 0 175 0 0 175 0 0 175 0 0 175 0
0 175 0 0 174 0 0 174 0 0 174 0 0 174 0 0 174 0 0 173 0 0 173 0 0 173
0 0 173 0 0 172 0 0 172 0 0 172 0 0 172 0 0 172 0 0 171 0 0 171 0 0
171 0 0 171 0 0 171 0 0 170 0 0 170 0 0 170 0 0 170 0 0 170 0 0 169 0
0 169 0 0 169 0 169 169 0 168 168 0 168 168 0 168 168 0 168 168 0 168
168 0 167 167 0 167 167 0 167 167 0 167 167 0 167 167 0 166 166 0 166
166 0 166 166 0 166 166 0 166 166 0 165 165 0 165 165 0 165 165 0 165
165 0 165 165 0 164 164 0 164 164 0 164 164 0 164 164 0 164 164 0 163
163 0 163 163 0 163 163 0 163 163 0 163 163 0 162 162 0 162 162 0 162
162 0 162 162 0 0 162 0 0 162 0 0 161 0 0 161 0 0 161 0 0 161 0 0 161
0 0 160 0 0 160 0 160 160 0 160 160 0 160 160 0 159 159 0 159 159 0
159 159 0 159 159 0 159 159 0 158 158 0 158 158 0 158 158 0 158 158 0
158 158 0 158 158 0 157 157 0 157 157 0 157 157 0 157 157 0 157 157 0
156 156 0 156 156 0 156 156 0 156 156 0 156 156 0 156 156 0 155 155 0
0 155 0 0 155 0 0 155 0 0 155 0 0 154 0 0 154 0 0 154 0 0 154 0 0 154
0 0 154 0 0 153 0 0 153 0 0 153 0 0 153 0 0 153 0 0 153 0 0 152 0 0
152 0 0 152 0 0 152 0 0 152 0 0 151 0 0 151 0 0 151 0 0 151 0 0 151 0
0 151 0 0 150 0 0 150 0 0 150 0 0 150 0 0 150 0 0 150 0 0 149 0 0 149
0 149 149 0 149 149 0 149 149 0 149 149 0 148 148 0 148 148 0 148 148
0 148 148 0 148 148 0 148 148 0 147 147 0 147 147 0 147 147 0 147 147
0 147 147 0 147 147 0 146 146 0 146 146 0 146 146 0 146 146 0 146 146
0 146 146 0 145 145 0 145 145 0 145 145 0 145 145 0 145 145 0 0 145 0
0 145 0 0 144 0 0 144 0 0 144 0 0 144 0 0 144 0 0 144 0 0 143 0 143
143 0 143 143 0 143 143 0 143 143 0 143 143 0 142 142 0 142 142 0 142
142 0 142 142 0 142 142 0 142 142 0 142 142 0 141 141 0 141 141 0 141
141 0 141 141 0 141 141 0
190 190 0 190 190 0 190 190 0 190 190 0 190 190 0 189 189 0 189 189 0
189 189 0 189 189 0 188 188 0 188 188 0 188 188 0 188 188 0 187 187 0
187 187 0 187 187 0 187 187 0 186 186 0 186 186 0 186 186 0 186 186 0
186 186 0 185 185 0 185 185 0 185 185 0 185 185 0 0 184 0 0 184 0 0
184 0 0 184 0 0 183 0 0 183 0 0 183 0 0 183 0 0 183 0 0 182 0 0 182 0
0 182 0 0 182 0 0 181 0 0 181 0 0 181 0 0 181 0 0 181 0 0 180 0 0 180
0 0 180 0 0 180 0 0 179 0 0 179 0 0 179 0 0 179 0 0 179 0 0 178 0 0
178 0 0 178 0 178 178 0 177 177 0 177 177 0 177 177 0 177 177 0 177
177 0 0 176 0 0 176 0 0 176 0 0 176 0 0 175 0 0 175 0 0 175 0 0 175 0
0 175 0 0 174 0 0 174 0 0 174 0 0 174 0 0 174 0 0 173 0 0 173 0 0 173
0 0 173 0 0 172 0 0 172 0 0 172 0 0 172 0 0 172 0 0 171 0 0 171 0 0
171 0 0 171 0 0 171 0 0 170 0 0 170 0 0 170 0 0 170 0 0 170 0 0 169 0
0 169 0 169 169 0 169 169 0 169 169 0 168 168 0 168 168 0 168 168 0
168 168 0 167 167 0 167 167 0 167 167 0 167 167 0 167 167 0 166 166 0
166 166 0 166 166 0 166 166 0 166 166 0 165 165 0 165 165 0 165 165 0
165 165 0 165 165 0 164 164 0 164 164 0 164 164 0 164 164 0 164 164 0
164 164 0 163 163 0 163 163 0 163 163 0 163 163 0 163 163 0 162 162 0
162 162 0 0 162 0 0 162 0 0 162 0 0 161 0 0 161 0 0 161 0 0 161 0 0
161 0 0 160 0 0 160 0 0 160 0 0 160 0 160 160 0 159 159 0 159 159 0
159 159 0 159 159 0 159 159 0 159 159 0 158 158 0 158 158 0 158 158 0
158 158 0 158 158 0 157 157 0 157 157 0 157 157 0 157 157 0 157 157 0
157 157 0 156 156 0 156 156 0 156 156 0 156 156 0 156 156 0 155 155 0
0 155 0 0 155 0 0 155 0 0 155 0 0 155 0 0 154 0 0 154 0 0 154 0 0 154
0 0 154 0 0 153 0 0 153 0 0 153 0 0 153 0 0 153 0 0 153 0 0 152 0 0
152 0 0 152 0 0 152 0 0 152 0 0 152 0 0 151 0 0 151 0 0 151 0 0 151 0
0 151 0 0 151 0 0 150 0 0 150 0 0 150 0 0 150 0 0 150 0 0 150 0 0 149
0 149 149 0 149 149 0 149 149 0 149 149 0 149 149 0 148 148 0 148 148
0 148 148 0 148 148 0 148 148 0 148 148 0 147 147 0 147 147 0 147 147
0 147 147 0 147 147 0 147 147 0 146 146 0 146 146 0 146 146 0 146 146
0 146 146 0 146 146 0 145 145 0 145 145 0 145 145 0 145 145 0 145 145
0 145 145 0 144 144 0 0 144 0 0 144 0 0 144 0 0 144 0 0 144 0 0 144 0
143 143 0 143 143 0 143 143 0 143 143 0 143 143 0 143 143 0 142 142 0
142 142 0 142 142 0 142 142 0 142 142 0 142 142 0 142 142 0 141 141 0
141 141 0 141 141 0 141 141 0
190 190 0 190 190 0 190 190 0 190 190 0 189 189 0 189 189 0 189 189 0
189 189 0 189 189 0 188 188 0 188 188 0 188 188 0 188 188 0 187 187 0
187 187 0 187 187 0 187 187 0 186 186 0 186 186 0 186 186 0 186 186 0
186 186 0 185 185 0 185 185 0 185 185 0 0 185 0 0 184 0 0 184 0 0 184
0 0 184 0 0 183 0 0 183 0 0 183 0 0 183 0 0 183 0 0 182 0 0 182 0 0
182 0 0 182 0 0 181 0 0 181 0 0 181 0 0 181 0 0 181 0 0 180 0 0 180 0
0 180 0 0 180 0 0 179 0 0 179 0 0 179 0 0 179 0 0 179 0 0 178 0 0 178
0 0 178 0 0 178 0 0 177 0 177 177 0 177 177 0 177 177 0 0 177 0 0 176
0 0 176 0 0 176 0 0 176 0 0 175 0 0 175 0 0 175 0 0 175 0 0 175 0 0
174 0 0 174 0 0 174 0 0 174 0 0 174 0 0 173 0 0 173 0 0 173 0 0 173 0
0 172 0 0 172 0 0 172 0 0 172 0 0 172 0 0 171 0 0 171 0 0 171 0 0 171
0 0 171 0 0 170 0 0 170 0 0 170 0 0 170 0 0 170 0 0 169 0 169 169 0
169 169 0 169 169 0 169 169 0 168 168 0 168 168 0 168 168 0 168 168 0
168 168 0 167 167 0 167 167 0 167 167 0 167 167 0 167 167 0 166 166 0
166 166 0 166 166 0 166 166 0 166 166 0 165 165 0 165 165 0 165 165 0
165 165 0 165 165 0 164 164 0 164 164 0 164 164 0 164 164 0 164 164 0
163 163 0 163 163 0 163 163 0 163 163 0 163 163 0 162 162 0 162 162 0
0 162 0 0 162 0 0 162 0 0 161 0 0 161 0 0 161 0 0 161 0 0 161 0 0 160
0 0 160 0 0 160 0 0 160 0 0 160 0 0 160 0 0 159 0 159 159 0 159 159 0
159 159 0 159 159 0 158 158 0 158 158 0 158 158 0 158 158 0 158 158 0
157 157 0 157 157 0 157 157 0 157 157 0 157 157 0 157 157 0 156 156 0
156 156 0 156 156 0 156 156 0 156 156 0 156 156 0 0 155 0 0 155 0 0
155 0 0 155 0 0 155 0 0 154 0 0 154 0 0 154 0 0 154 0 0 154 0 0 154 0
0 153 0 0 153 0 0 153 0 0 153 0 0 153 0 0 153 0 0 152 0 0 152 0 0 152
0 0 152 0 0 152 0 0 151 0 0 151 0 0 151 0 0 151 0 0 151 0 0 151 0 0
150 0 0 150 0 0 150 0 0 150 0 0 150 0 0 150 0 0 149 0 149 149 0 149
149 0 149 149 0 149 149 0 149 149 0 148 148 0 148 148 0 148 148 0 148
148 0 148 148 0 148 148 0 147 147 0 147 147 0 147 147 0 147 147 0 147
147 0 147 147 0 146 146 0 146 146 0 146 146 0 146 146 0 146 146 0 146
146 0 146 146 0 145 145 0 145 145 0 145 145 0 145 145 0 145 145 0 145
145 0 144 144 0 144 144 0 144 144 0 0 144 0 0 144 0 0 144 0 143 143 0
143 143 0 143 143 0 143 143 0 143 143 0 143 143 0 143 143 0 142 142 0
142 142 0 142 142 0 142 142 0 142 142 0 142 142 0 142 142 0 141 141 0
141 141 0 141 141 0
190 190 0 190 190 0 190 190 0 190 190 0 189 189 0 189 189 0 189 189 0
189 189 0 188 188 0 188 188 0 188 188 0 188 188 0 188 188 0 187 187 0
187 187 0 187 187 0 187 187 0 186 186 0 186 186 0 186 186 0 186 186 0
185 185 0 185 185 0 185 185 0 0 185 0 0 185 0 0 184 0 0 184 0 0 184 0
0 184 0 0 183 0 0 183 0 0 183 0 0 183 0 0 183 0 0 182 0 0 182 0 0 182
0 0 182 0 0 181 0 0 181 0 0 181 0 0 181 0 0 181 0 0 180 0 0 180 0 0
180 0 0 180 0 0 179 0 0 179 0 0 179 0 0 179 0 0 179 0 0 178 0 0 178 0
0 178 0 0 178 0 0 177 0 0 177 0 0 177 0 177 177 0 0 177 0 0 176 0 0
176 0 0 176 0 0 176 0 0 175 0 0 175 0 0 175 0 0 175 0 0 175 0 0 174 0
0 174 0 0 174 0 0 174 0 0 174 0 0 173 0 0 173 0 0 173 0 0 173 0 0 173
0 0 172 0 0 172 0 0 172 0 0 172 0 0 171 0 0 171 0 0 171 0 0 171 0 0
171 0 0 170 0 0 170 0 0 170 0 0 170 0 0 170 0 0 169 0 169 169 0 169
169 0 169 169 0 169 169 0 168 168 0 168 168 0 168 168 0 168 168 0 168
168 0 167 167 0 167 167 0 167 167 0 167 167 0 167 167 0 166 166 0 166
166 0 166 166 0 166 166 0 166 166 0 165 165 0 165 165 0 165 165 0 165
165 0 165 165 0 164 164 0 164 164 0 164 164 0 164 164 0 164 164 0 163
163 0 163 163 0 163 163 0 163 163 0 163 163 0 162 162 0 162 162 0 0
162 0 0 162 0 0 162 0 0 161 0 0 161 0 0 161 0 0 161 0 0 161 0 0 161 0
0 160 0 0 160 0 0 160 0 0 160 0 0 160 0 0 159 0 0 159 0 0 159 0 0 159
0 159 159 0 158 158 0 158 158 0 158 158 0 158 158 0 158 158 0 158 158
0 157 157 0 157 157 0 157 157 0 157 157 0 157 157 0 156 156 0 156 156
0 156 156 0 156 156 0 156 156 0 0 156 0 0 155 0 0 155 0 0 155 0 0 155
0 0 155 0 0 155 0 0 154 0 0 154 0 0 154 0 0 154 0 0 154 0 0 153 0 0
153 0 0 153 0 0 153 0 0 153 0 0 153 0 0 152 0 0 152 0 0 152 0 0 152 0
0 152 0 0 152 0 0 151 0 0 151 0 0 151 0 0 151 0 0 151 0 0 151 0 0 150
0 0 150 0 0 150 0 0 150 0 0 150 0 0 150 0 149 149 0 149 149 0 149 149
0 149 149 0 149 149 0 149 149 0 148 148 0 148 148 0 148 148 0 148 148
0 148 148 0 148 148 0 147 147 0 147 147 0 147 147 0 147 147 0 147 147
0 147 147 0 146 146 0 146 146 0 146 146 0 146 146 0 146 146 0 146 146
0 145 145 0 145 145 0 145 145 0 145 145 0 145 145 0 145 145 0 145 145
0 144 144 0 144 144 0 144 144 0 144 144 0 144 144 0 144 144 0 143 143
0 143 143 0 143 143 0 143 143 0 143 143 0 143 143 0 143 143 0 142 142
0 142 142 0 142 142 0 142 142 0 142 142 0 142 142 0 141 141 0 141 141
0 141 141 0
190 190 0 190 190 0 190 190 0 190 190 0 189 189 0 189 189 0 189 189 0
189 189 0 188 188 0 188 188 0 188 188 0 188 188 0 188 188 0 187 187 0
187 187 0 187 187 0 187 187 0 186 186 0 186 186 0 186 186 0 186 186 0
185 185 0 185 185 0 0 185 0 0 185 0 0 185 0 0 184 0 0 184 0 0 184 0 0
184 0 0 183 0 0 183 0 0 183 0 0 183 0 0 183 0 0 182 0 0 182 0 0 182 0
0 182 0 0 181 0 0 181 0 0 181 0 0 181 0 0 180 0 0 180 0 0 180 0 0 180
0 0 180 0 0 179 0 0 179 0 0 179 0 0 179 0 0 179 0 0 178 0 0 178 0 0
178 0 0 178 0 0 177 0 0 177 0 177 177 0 177 177 0 177 177 0 176 176 0
0 176 0 0 176 0 0 176 0 0 175 0 0 175 0 0 175 0 0 175 0 0 175 0 0 174
0 0 174 0 0 174 0 0 174 0 0 174 0 0 173 0 0 173 0 0 173 0 0 173 0 0
173 0 0 172 0 0 172 0 0 172 0 0 172 0 0 171 0 0 171 0 0 171 0 0 171 0
0 171 0 0 170 0 0 170 0 0 170 0 0 170 0 0 170 0 169 169 0 169 169 0
169 169 0 169 169 0 169 169 0 168 168 0 168 168 0 168 168 0 168 168 0
168 168 0 167 167 0 167 167 0 167 167 0 167 167 0 167 167 0 166 166 0
166 166 0 166 166 0 166 166 0 166 166 0 165 165 0 165 165 0 165 165 0
165 165 0 165 165 0 164 164 0 164 164 0 164 164 0 164 164 0 164 164 0
163 163 0 163 163 0 163 163 0 163 163 0 163 163 0 162 162 0 0 162 0 0
162 0 0 162 0 0 162 0 0 162 0 0 161 0 0 161 0 0 161 0 0 161 0 0 161 0
0 160 0 0 160 0 0 160 0 0 160 0 0 160 0 0 159 0 0 159 0 0 159 0 0 159
0 0 159 0 0 159 0 0 158 0 158 158 0 158 158 0 158 158 0 158 158 0 157
157 0 157 157 0 157 157 0 157 157 0 157 157 0 157 157 0 156 156 0 156
156 0 156 156 0 156 156 0 0 156 0 0 155 0 0 155 0 0 155 0 0 155 0 0
155 0 0 155 0 0 154 0 0 154 0 0 154 0 0 154 0 0 154 0 0 154 0 0 153 0
0 153 0 0 153 0 0 153 0 0 153 0 0 153 0 0 152 0 0 152 0 0 152 0 0 152
0 0 152 0 0 151 0 0 151 0 0 151 0 0 151 0 0 151 0 0 151 0 0 150 0 0
150 0 0 150 0 0 150 0 0 150 0 0 150 0 149 149 0 149 149 0 149 149 0
149 149 0 149 149 0 149 149 0 148 148 0 148 148 0 148 148 0 148 148 0
148 148 0 148 148 0 148 148 0 147 147 0 147 147 0 147 147 0 147 147 0
147 147 0 147 147 0 146 146 0 146 146 0 146 146 0 146 146 0 146 146 0
146 146 0 145 145 0 145 145 0 145 145 0 145 145 0 145 145 0 145 145 0
145 145 0 144 144 0 144 144 0 144 144 0 144 144 0 0 144 0 0 144 0 0
143 0 0 143 0 143 143 0 143 143 0 143 143 0 143 143 0 143 143 0 142
142 0 142 142 0 142 142 0 142 142 0 142 142 0 142 142 0 141 141 0 141
141 0
190 190 0 190 190 0 190 190 0 190 190 0 189 189 0 189 189 0 189 189 0
189 189 0 188 188 0 188 188 0 188 188 0 188 188 0 187 187 0 187 187 0
187 187 0 187 187 0 187 187 0 186 186 0 186 186 0 186 186 0 186 186 0
185 185 0 185 185 0 0 185 0 0 185 0 0 185 0 0 184 0 0 184 0 0 184 0 0
184 0 0 183 0 0 183 0 0 183 0 0 183 0 0 182 0 0 182 0 0 182 0 0 182 0
0 182 0 0 181 0 0 181 0 0 181 0 0 181 0 0 180 0 0 180 0 0 180 0 0 180
0 0 180 0 0 179 0 0 179 0 0 179 0 0 179 0 0 178 0 0 178 0 0 178 0 0
178 0 0 178 0 0 177 0 0 177 0 177 177 0 177 177 0 177 177 0 176 176 0
176 176 0 176 176 0 0 176 0 0 175 0 0 175 0 0 175 0 0 175 0 0 175 0 0
174 0 0 174 0 0 174 0 0 174 0 0 174 0 0 173 0 0 173 0 0 173 0 0 173 0
0 173 0 0 172 0 0 172 0 0 172 0 0 172 0 0 171 0 0 171 0 0 171 0 0 171
0 0 171 0 0 170 0 0 170 0 0 170 0 0 170 0 0 170 0 169 169 0 169 169 0
169 169 0 169 169 0 169 169 0 168 168 0 168 168 0 168 168 0 168 168 0
168 168 0 167 167 0 167 167 0 167 167 0 167 167 0 167 167 0 166 166 0
166 166 0 166 166 0 166 166 0 166 166 0 165 165 0 165 165 0 165 165 0
165 165 0 165 165 0 164 164 0 164 164 0 164 164 0 164 164 0 164 164 0
164 164 0 163 163 0 163 163 0 163 163 0 163 163 0 163 163 0 0 162 0 0
162 0 0 162 0 0 162 0 0 162 0 0 161 0 0 161 0 0 161 0 0 161 0 0 161 0
0 160 0 0 160 0 0 160 0 0 160 0 0 160 0 0 160 0 0 159 0 0 159 0 0 159
0 0 159 0 0 159 0 0 158 0 0 158 0 0 158 0 0 158 0 158 158 0 158 158 0
157 157 0 157 157 0 157 157 0 157 157 0 157 157 0 156 156 0 156 156 0
156 156 0 156 156 0 0 156 0 0 156 0 0 155 0 0 155 0 0 155 0 0 155 0 0
155 0 0 155 0 0 154 0 0 154 0 0 154 0 0 154 0 0 154 0 0 153 0 0 153 0
0 153 0 0 153 0 0 153 0 0 153 0 0 152 0 0 152 0 0 152 0 0 152 0 0 152
0 0 152 0 0 151 0 0 151 0 0 151 0 0 151 0 0 151 0 0 151 0 0 150 0 0
150 0 0 150 0 0 150 0 0 150 0 150 150 0 149 149 0 149 149 0 149 149 0
149 149 0 149 149 0 149 149 0 148 148 0 148 148 0 148 148 0 148 148 0
148 148 0 148 148 0 147 147 0 147 147 0 147 147 0 147 147 0 147 147 0
147 147 0 146 146 0 146 146 0 146 146 0 146 146 0 146 146 0 146 146 0
146 146 0 145 145 0 145 145 0 145 145 0 145 145 0 145 145 0 145 145 0
144 144 0 144 144 0 144 144 0 144 144 0 0 144 0 0 144 0 0 144 0 0 143
0 0 143 0 0 143 0 0 143 0 143 143 0 143 143 0 142 142 0 142 142 0 142
142 0 142 142 0 142 142 0 142 142 0 142 142 0 141 141 0
190 190 0 190 190 0 190 190 0 189 189 0 189 189 0 189 189 0 189 189 0
189 189 0 188 188 0 188 188 0 188 188 0 188 188 0 187 187 0 187 187 0
187 187 0 187 187 0 187 187 0 186 186 0 186 186 0 186 186 0 186 186 0
185 185 0 0 185 0 0 185 0 0 185 0 0 184 0 0 184 0 0 184 0 0 184 0 0
184 0 0 183 0 0 183 0 0 183 0 0 183 0 0 182 0 0 182 0 0 182 0 0 182 0
0 182 0 0 181 0 0 181 0 0 181 0 0 181 0 0 180 0 0 180 0 0 180 0 0 180
0 0 180 0 0 179 0 0 179 0 0 179 0 0 179 0 0 178 0 0 178 0 0 178 0 0
178 0 0 178 0 0 177 0 177 177 0 177 177 0 177 177 0 177 177 0 176 176
0 176 176 0 176 176 0 176 176 0 175 175 0 175 175 0 0 175 0 0 175 0 0
175 0 0 174 0 0 174 0 0 174 0 0 174 0 0 174 0 0 173 0 0 173 0 0 173 0
0 173 0 0 173 0 0 172 0 0 172 0 0 172 0 0 172 0 0 172 0 0 171 0 0 171
0 0 171 0 0 171 0 0 170 0 0 170 0 0 170 0 0 170 0 170 170 0 169 169 0
169 169 0 169 169 0 169 169 0 169 169 0 168 168 0 168 168 0 168 168 0
168 168 0 168 168 0 167 167 0 167 167 0 167 167 0 167 167 0 167 167 0
166 166 0 166 166 0 166 166 0 166 166 0 166 166 0 165 165 0 165 165 0
165 165 0 165 165 0 165 165 0 165 165 0 164 164 0 164 164 0 164 164 0
164 164 0 164 164 0 163 163 0 163 163 0 163 163 0 163 163 0 0 163 0 0
162 0 0 162 0 0 162 0 0 162 0 0 162 0 0 161 0 0 161 0 0 161 0 0 161 0
0 161 0 0 161 0 0 160 0 0 160 0 0 160 0 0 160 0 0 160 0 0 159 0 0 159
0 0 159 0 0 159 0 0 159 0 0 159 0 0 158 0 0 158 0 0 158 0 0 158 0 0
158 0 157 157 0 157 157 0 157 157 0 157 157 0 157 157 0 157 157 0 156
156 0 156 156 0 156 156 0 0 156 0 0 156 0 0 155 0 0 155 0 0 155 0 0
155 0 0 155 0 0 155 0 0 154 0 0 154 0 0 154 0 0 154 0 0 154 0 0 154 0
0 153 0 0 153 0 0 153 0 0 153 0 0 153 0 0 153 0 0 152 0 0 152 0 0 152
0 0 152 0 0 152 0 0 151 0 0 151 0 0 151 0 0 151 0 0 151 0 0 151 0 0
150 0 0 150 0 0 150 0 0 150 0 0 150 0 150 150 0 150 150 0 149 149 0
149 149 0 149 149 0 149 149 0 149 149 0 149 149 0 148 148 0 148 148 0
148 148 0 148 148 0 148 148 0 148 148 0 147 147 0 147 147 0 147 147 0
147 147 0 147 147 0 147 147 0 146 146 0 146 146 0 146 146 0 146 146 0
146 146 0 146 146 0 145 145 0 145 145 0 145 145 0 145 145 0 145 145 0
145 145 0 145 145 0 144 144 0 144 144 0 144 144 0 0 144 0 0 144 0 0
144 0 0 143 0 0 143 0 0 143 0 0 143 0 0 143 0 0 143 0 0 143 0 142 142
0 142 142 0 142 142 0 142 142 0 142 142 0 142 142 0 142 142 0
190 190 0 190 190 0 190 190 0 189 189 0 189 189 0 189 189 0 189 189 0
189 189 0 188 188 0 188 188 0 188 188 0 188 188 0 187 187 0 187 187 0
187 187 0 187 187 0 186 186 0 186 186 0 186 186 0 186 186 0 186 186 0
0 185 0 0 185 0 0 185 0 0 185 0 0 184 0 0 184 0 0 184 0 0 184 0 0 184
0 0 183 0 0 183 0 0 183 0 0 183 0 0 182 0 0 182 0 0 182 0 0 182 0 0
182 0 0 181 0 0 181 0 0 181 0 0 181 0 0 180 0 0 180 0 0 180 0 0 180 0
0 180 0 0 179 0 0 179 0 0 179 0 0 179 0 0 178 0 0 178 0 0 178 0 0 178
0 0 178 0 177 177 0 177 177 0 177 177 0 177 177 0 177 177 0 176 176 0
176 176 0 176 176 0 176 176 0 175 175 0 175 175 0 175 175 0 175 175 0
0 175 0 0 174 0 0 174 0 0 174 0 0 174 0 0 174 0 0 173 0 0 173 0 0 173
0 0 173 0 0 173 0 0 172 0 0 172 0 0 172 0 0 172 0 0 172 0 0 171 0 0
171 0 0 171 0 0 171 0 0 170 0 0 170 0 0 170 0 0 170 0 170 170 0 169
169 0 169 169 0 169 169 0 169 169 0 169 169 0 168 168 0 168 168 0 168
168 0 168 168 0 168 168 0 167 167 0 167 167 0 167 167 0 167 167 0 167
167 0 166 166 0 166 166 0 166 166 0 166 166 0 166 166 0 166 166 0 165
165 0 165 165 0 165 165 0 165 165 0 165 165 0 164 164 0 164 164 0 164
164 0 164 164 0 164 164 0 163 163 0 163 163 0 163 163 0 163 163 0 0
163 0 0 162 0 0 162 0 0 162 0 0 162 0 0 162 0 0 162 0 0 161 0 0 161 0
0 161 0 0 161 0 0 161 0 0 160 0 0 160 0 0 160 0 0 160 0 0 160 0 0 159
0 0 159 0 0 159 0 0 159 0 0 159 0 0 159 0 0 158 0 0 158 0 0 158 0 0
158 0 0 158 0 0 157 0 0 157 0 0 157 0 157 157 0 157 157 0 157 157 0
156 156 0 156 156 0 0 156 0 0 156 0 0 156 0 0 156 0 0 155 0 0 155 0 0
155 0 0 155 0 0 155 0 0 154 0 0 154 0 0 154 0 0 154 0 0 154 0 0 154 0
0 153 0 0 153 0 0 153 0 0 153 0 0 153 0 0 153 0 0 152 0 0 152 0 0 152
0 0 152 0 0 152 0 0 152 0 0 151 0 0 151 0 0 151 0 0 151 0 0 151 0 0
151 0 0 150 0 0 150 0 0 150 0 0 150 0 150 150 0 150 150 0 149 149 0
149 149 0 149 149 0 149 149 0 149 149 0 149 149 0 148 148 0 148 148 0
148 148 0 148 148 0 148 148 0 148 148 0 147 147 0 147 147 0 147 147 0
147 147 0 147 147 0 147 147 0 147 147 0 146 146 0 146 146 0 146 146 0
146 146 0 146 146 0 146 146 0 145 145 0 145 145 0 145 145 0 145 145 0
145 145 0 145 145 0 145 145 0 144 144 0 144 144 0 0 144 0 0 144 0 0
144 0 0 144 0 0 143 0 0 143 0 0 143 0 0 143 0 0 143 0 0 143 0 0 143 0
0 142 0 0 142 0 142 142 0 142 142 0 142 142 0 142 142 0
190 190 0 190 190 0 190 190 0 189 189 0 189 189 0 189 189 0 189 189 0
188 188 0 188 188 0 188 188 0 188 188 0 188 188 0 187 187 0 187 187 0
187 187 0 187 187 0 186 186 0 186 186 0 186 186 0 186 186 0 0 186 0 0
185 0 0 185 0 0 185 0 0 185 0 0 184 0 0 184 0 0 184 0 0 184 0 0 183 0
0 183 0 0 183 0 0 183 0 0 183 0 0 182 0 0 182 0 0 182 0 0 182 0 0 182
0 0 181 0 0 181 0 0 181 0 0 181 0 0 180 0 0 180 0 0 180 0 0 180 0 0
180 0 0 179 0 0 179 0 0 179 0 0 179 0 0 178 0 0 178 0 0 178 0 0 178 0
178 178 0 177 177 0 177 177 0 177 177 0 177 177 0 177 177 0 176 176 0
176 176 0 176 176 0 176 176 0 175 175 0 175 175 0 175 175 0 175 175 0
175 175 0 174 174 0 0 174 0 0 174 0 0 174 0 0 174 0 0 173 0 0 173 0 0
173 0 0 173 0 0 173 0 0 172 0 0 172 0 0 172 0 0 172 0 0 172 0 0 171 0
0 171 0 0 171 0 0 171 0 0 171 0 0 170 0 0 170 0 170 170 0 170 170 0
170 170 0 169 169 0 169 169 0 169 169 0 169 169 0 169 169 0 168 168 0
168 168 0 168 168 0 168 168 0 168 168 0 167 167 0 167 167 0 167 167 0
167 167 0 167 167 0 166 166 0 166 166 0 166 166 0 166 166 0 166 166 0
165 165 0 165 165 0 165 165 0 165 165 0 165 165 0 164 164 0 164 164 0
164 164 0 164 164 0 164 164 0 163 163 0 163 163 0 163 163 0 163 163 0
0 163 0 0 163 0 0 162 0 0 162 0 0 162 0 0 162 0 0 162 0 0 161 0 0 161
0 0 161 0 0 161 0 0 161 0 0 160 0 0 160 0 0 160 0 0 160 0 0 160 0 0
160 0 0 159 0 0 159 0 0 159 0 0 159 0 0 159 0 0 158 0 0 158 0 0 158 0
0 158 0 0 158 0 0 158 0 0 157 0 0 157 0 0 157 0 0 157 0 0 157 0 156
156 0 156 156 0 0 156 0 0 156 0 0 156 0 0 156 0 0 155 0 0 155 0 0 155
0 0 155 0 0 155 0 0 155 0 0 154 0 0 154 0 0 154 0 0 154 0 0 154 0 0
154 0 0 153 0 0 153 0 0 153 0 0 153 0 0 153 0 0 153 0 0 152 0 0 152 0
0 152 0 0 152 0 0 152 0 0 152 0 0 151 0 0 151 0 0 151 0 0 151 0 0 151
0 0 151 0 0 150 0 0 150 0 0 150 0 150 150 0 150 150 0 150 150 0 149
149 0 149 149 0 149 149 0 149 149 0 149 149 0 149 149 0 148 148 0 148
148 0 148 148 0 148 148 0 148 148 0 148 148 0 147 147 0 147 147 0 147
147 0 147 147 0 147 147 0 147 147 0 146 146 0 146 146 0 146 146 0 146
146 0 146 146 0 146 146 0 146 146 0 145 145 0 145 145 0 145 145 0 145
145 0 145 145 0 145 145 0 144 144 0 144 144 0 0 144 0 0 144 0 0 144 0
0 144 0 0 144 0 0 143 0 0 143 0 0 143 0 0 143 0 0 143 0 0 143 0 0 143
0 0 142 0 0 142 0 0 142 0 0 142 0 142 142 0
190 190 0 190 190 0 190 190 0 189 189 0 189 189 0 189 189 0 189 189 0
188 188 0 188 188 0 188 188 0 188 188 0 187 187 0 187 187 0 187 187 0
187 187 0 187 187 0 186 186 0 186 186 0 186 186 0 0 186 0 0 185 0 0
185 0 0 185 0 0 185 0 0 185 0 0 184 0 0 184 0 0 184 0 0 184 0 0 183 0
0 183 0 0 183 0 0 183 0 0 183 0 0 182 0 0 182 0 0 182 0 0 182 0 0 181
0 0 181 0 0 181 0 0 181 0 0 181 0 0 180 0 0 180 0 0 180 0 0 180 0 0
180 0 0 179 0 0 179 0 0 179 0 0 179 0 0 178 0 0 178 0 0 178 0 0 178 0
178 178 0 177 177 0 177 177 0 177 177 0 177 177 0 177 177 0 176 176 0
176 176 0 176 176 0 176 176 0 175 175 0 175 175 0 175 175 0 175 175 0
175 175 0 174 174 0 174 174 0 174 174 0 174 174 0 0 174 0 0 173 0 0
173 0 0 173 0 0 173 0 0 173 0 0 172 0 0 172 0 0 172 0 0 172 0 0 172 0
0 171 0 0 171 0 0 171 0 0 171 0 0 171 0 0 170 0 170 170 0 170 170 0
170 170 0 170 170 0 169 169 0 169 169 0 169 169 0 169 169 0 169 169 0
168 168 0 168 168 0 168 168 0 168 168 0 168 168 0 167 167 0 167 167 0
167 167 0 167 167 0 167 167 0 166 166 0 166 166 0 166 166 0 166 166 0
166 166 0 165 165 0 165 165 0 165 165 0 165 165 0 165 165 0 164 164 0
164 164 0 164 164 0 164 164 0 164 164 0 163 163 0 163 163 0 163 163 0
0 163 0 0 163 0 0 163 0 0 162 0 0 162 0 0 162 0 0 162 0 0 162 0 0 161
0 0 161 0 0 161 0 0 161 0 0 161 0 0 161 0 0 160 0 0 160 0 0 160 0 0
160 0 0 160 0 0 159 0 0 159 0 0 159 0 0 159 0 0 159 0 0 159 0 0 158 0
0 158 0 0 158 0 0 158 0 0 158 0 0 157 0 0 157 0 0 157 0 0 157 0 0 157
0 0 157 0 0 156 0 156 156 0 0 156 0 0 156 0 0 156 0 0 156 0 0 155 0 0
155 0 0 155 0 0 155 0 0 155 0 0 154 0 0 154 0 0 154 0 0 154 0 0 154 0
0 154 0 0 153 0 0 153 0 0 153 0 0 153 0 0 153 0 0 153 0 0 152 0 0 152
0 0 152 0 0 152 0 0 152 0 0 152 0 0 151 0 0 151 0 0 151 0 0 151 0 0
151 0 0 151 0 0 150 0 0 150 0 0 150 0 150 150 0 150 150 0 150 150 0
149 149 0 149 149 0 149 149 0 149 149 0 149 149 0 149 149 0 148 148 0
148 148 0 148 148 0 148 148 0 148 148 0 148 148 0 148 148 0 147 147 0
147 147 0 147 147 0 147 147 0 147 147 0 147 147 0 146 146 0 146 146 0
146 146 0 146 146 0 146 146 0 146 146 0 146 146 0 145 145 0 145 145 0
145 145 0 145 145 0 145 145 0 145 145 0 144 144 0 144 144 0 0 144 0 0
144 0 0 144 0 0 144 0 0 144 0 0 143 0 0 143 0 0 143 0 0 143 0 0 143 0
0 143 0 0 142 0 0 142 0 0 142 0 0 142 0 0 142 0
190 190 0 190 190 0 189 189 0 189 189 0 189 189 0 189 189 0 189 189 0
188 188 0 188 188 0 188 188 0 188 188 0 187 187 0 187 187 0 187 187 0
187 187 0 187 187 0 186 186 0 186 186 0 0 186 0 0 186 0 0 185 0 0 185
0 0 185 0 0 185 0 0 185 0 0 184 0 0 184 0 0 184 0 0 184 0 0 183 0 0
183 0 0 183 0 0 183 0 0 183 0 0 182 0 0 182 0 0 182 0 0 182 0 0 181 0
0 181 0 0 181 0 0 181 0 0 181 0 0 180 0 0 180 0 0 180 0 0 180 0 0 180
0 0 179 0 0 179 0 0 179 0 0 179 0 0 178 0 0 178 0 0 178 0 178 178 0
178 178 0 177 177 0 177 177 0 177 177 0 177 177 0 177 177 0 176 176 0
176 176 0 176 176 0 176 176 0 175 175 0 175 175 0 175 175 0 175 175 0
175 175 0 174 174 0 174 174 0 174 174 0 174 174 0 174 174 0 173 173 0
0 173 0 0 173 0 0 173 0 0 173 0 0 172 0 0 172 0 0 172 0 0 172 0 0 172
0 0 171 0 0 171 0 0 171 0 0 171 0 0 171 0 0 170 0 170 170 0 170 170 0
170 170 0 170 170 0 169 169 0 169 169 0 169 169 0 169 169 0 169 169 0
168 168 0 168 168 0 168 168 0 168 168 0 168 168 0 167 167 0 167 167 0
167 167 0 167 167 0 167 167 0 166 166 0 166 166 0 166 166 0 166 166 0
166 166 0 165 165 0 165 165 0 165 165 0 165 165 0 165 165 0 164 164 0
164 164 0 164 164 0 164 164 0 164 164 0 164 164 0 163 163 0 163 163 0
0 163 0 0 163 0 0 163 0 0 162 0 0 162 0 0 162 0 0 162 0 0 162 0 0 161
0 0 161 0 0 161 0 0 161 0 0 161 0 0 161 0 0 160 0 0 160 0 0 160 0 0
160 0 0 160 0 0 159 0 0 159 0 0 159 0 0 159 0 0 159 0 0 159 0 0 158 0
0 158 0 0 158 0 0 158 0 0 158 0 0 158 0 0 157 0 0 157 0 0 157 0 0 157
0 0 157 0 0 156 0 156 156 0 156 156 0 156 156 0 0 156 0 0 156 0 0 155
0 0 155 0 0 155 0 0 155 0 0 155 0 0 155 0 0 154 0 0 154 0 0 154 0 0
154 0 0 154 0 0 154 0 0 153 0 0 153 0 0 153 0 0 153 0 0 153 0 0 153 0
0 152 0 0 152 0 0 152 0 0 152 0 0 152 0 0 152 0 0 151 0 0 151 0 0 151
0 0 151 0 0 151 0 0 151 0 0 150 0 0 150 0 150 150 0 150 150 0 150 150
0 150 150 0 149 149 0 149 149 0 149 149 0 149 149 0 149 149 0 149 149
0 148 148 0 148 148 0 148 148 0 148 148 0 148 148 0 148 148 0 147 147
0 147 147 0 147 147 0 147 147 0 147 147 0 147 147 0 147 147 0 146 146
0 146 146 0 146 146 0 146 146 0 146 146 0 146 146 0 145 145 0 145 145
0 145 145 0 145 145 0 145 145 0 145 145 0 145 145 0 144 144 0 0 144 0
0 144 0 0 144 0 0 144 0 0 144 0 0 143 0 0 143 0 0 143 0 0 143 0 0 143
0 0 143 0 0 143 0 0 142 0 0 142 0 0 142 0 0 142 0
190 190 0 190 190 0 189 189 0 189 189 0 189 189 0 189 189 0 189 189 0
188 188 0 188 188 0 188 188 0 188 188 0 187 187 0 187 187 0 187 187 0
187 187 0 186 186 0 186 186 0 0 186 0 0 186 0 0 186 0 0 185 0 0 185 0
0 185 0 0 185 0 0 184 0 0 184 0 0 184 0 0 184 0 0 184 0 0 183 0 0 183
0 0 183 0 0 183 0 0 183 0 0 182 0 0 182 0 0 182 0 0 182 0 0 181 0 0
181 0 0 181 0 0 181 0 0 181 0 0 180 0 0 180 0 0 180 0 0 180 0 0 179 0
0 179 0 0 179 0 0 179 0 0 179 0 0 178 0 0 178 0 178 178 0 178 178 0
178 178 0 177 177 0 177 177 0 177 177 0 177 177 0 177 177 0 176 176 0
176 176 0 176 176 0 176 176 0 175 175 0 175 175 0 175 175 0 175 175 0
175 175 0 174 174 0 174 174 0 174 174 0 174 174 0 174 174 0 173 173 0
173 173 0 173 173 0 0 173 0 0 173 0 0 172 0 0 172 0 0 172 0 0 172 0 0
172 0 0 171 0 0 171 0 0 171 0 0 171 0 0 171 0 170 170 0 170 170 0 170
170 0 170 170 0 170 170 0 169 169 0 169 169 0 169 169 0 169 169 0 169
169 0 168 168 0 168 168 0 168 168 0 168 168 0 168 168 0 167 167 0 167
167 0 167 167 0 167 167 0 167 167 0 166 166 0 166 166 0 166 166 0 166
166 0 166 166 0 165 165 0 165 165 0 165 165 0 165 165 0 165 165 0 165
165 0 164 164 0 164 164 0 164 164 0 164 164 0 164 164 0 163 163 0 0
163 0 0 163 0 0 163 0 0 163 0 0 162 0 0 162 0 0 162 0 0 162 0 0 162 0
0 162 0 0 161 0 0 161 0 0 161 0 0 161 0 0 161 0 0 160 0 0 160 0 0 160
0 0 160 0 0 160 0 0 160 0 0 159 0 0 159 0 0 159 0 0 159 0 0 159 0 0
158 0 0 158 0 0 158 0 0 158 0 0 158 0 0 158 0 0 157 0 0 157 0 0 157 0
0 157 0 0 157 0 157 157 0 156 156 0 156 156 0 156 156 0 156 156 0 156
156 0 155 155 0 0 155 0 0 155 0 0 155 0 0 155 0 0 155 0 0 154 0 0 154
0 0 154 0 0 154 0 0 154 0 0 154 0 0 153 0 0 153 0 0 153 0 0 153 0 0
153 0 0 153 0 0 152 0 0 152 0 0 152 0 0 152 0 0 152 0 0 152 0 0 151 0
0 151 0 0 151 0 0 151 0 0 151 0 0 151 0 0 150 0 0 150 0 150 150 0 150
150 0 150 150 0 150 150 0 149 149 0 149 149 0 149 149 0 149 149 0 149
149 0 149 149 0 149 149 0 148 148 0 148 148 0 148 148 0 148 148 0 148
148 0 148 148 0 147 147 0 147 147 0 147 147 0 147 147 0 147 147 0 147
147 0 146 146 0 146 146 0 146 146 0 146 146 0 146 146 0 146 146 0 146
146 0 145 145 0 145 145 0 145 145 0 145 145 0 145 145 0 145 145 0 144
144 0 0 144 0 0 144 0 0 144 0 0 144 0 0 144 0 0 144 0 0 143 0 0 143 0
0 143 0 0 143 0 0 143 0 0 143 0 0 143 0 0 142 0 0 142 0 0 142 0
190 190 0 190 190 0 189 189 0 189 189 0 189 189 0 189 189 0 188 188 0
188 188 0 188 188 0 188 188 0 188 188 0 187 187 0 187 187 0 187 187 0
187 187 0 186 186 0 0 186 0 0 186 0 0 186 0 0 186 0 0 185 0 0 185 0 0
185 0 0 185 0 0 184 0 0 184 0 0 184 0 0 184 0 0 184 0 0 183 0 0 183 0
0 183 0 0 183 0 0 182 0 0 182 0 0 182 0 0 182 0 0 182 0 0 181 0 0 181
0 0 181 0 0 181 0 0 181 0 0 180 0 0 180 0 0 180 0 0 180 0 0 179 0 0
179 0 0 179 0 0 179 0 0 179 0 0 178 0 178 178 0 178 178 0 178 178 0
178 178 0 177 177 0 177 177 0 177 177 0 177 177 0 177 177 0 176 176 0
176 176 0 176 176 0 176 176 0 175 175 0 175 175 0 175 175 0 175 175 0
175 175 0 174 174 0 174 174 0 174 174 0 174 174 0 174 174 0 173 173 0
173 173 0 173 173 0 173 173 0 173 173 0 172 172 0 0 172 0 0 172 0 0
172 0 0 172 0 0 171 0 0 171 0 0 171 0 0 171 0 0 171 0 170 170 0 170
170 0 170 170 0 170 170 0 170 170 0 169 169 0 169 169 0 169 169 0 169
169 0 169 169 0 168 168 0 168 168 0 168 168 0 168 168 0 168 168 0 167
167 0 167 167 0 167 167 0 167 167 0 167 167 0 166 166 0 166 166 0 166
166 0 166 166 0 166 166 0 166 166 0 165 165 0 165 165 0 165 165 0 165
165 0 165 165 0 164 164 0 164 164 0 164 164 0 164 164 0 164 164 0 163
163 0 0 163 0 0 163 0 0 163 0 0 163 0 0 163 0 0 162 0 0 162 0 0 162 0
0 162 0 0 162 0 0 161 0 0 161 0 0 161 0 0 161 0 0 161 0 0 160 0 0 160
0 0 160 0 0 160 0 0 160 0 0 160 0 0 159 0 0 159 0 0 159 0 0 159 0 0
159 0 0 159 0 0 158 0 0 158 0 0 158 0 0 158 0 0 158 0 0 157 0 0 157 0
0 157 0 0 157 0 0 157 0 157 157 0 156 156 0 156 156 0 156 156 0 156
156 0 156 156 0 156 156 0 155 155 0 155 155 0 155 155 0 0 155 0 0 155
0 0 155 0 0 154 0 0 154 0 0 154 0 0 154 0 0 154 0 0 154 0 0 153 0 0
153 0 0 153 0 0 153 0 0 153 0 0 153 0 0 152 0 0 152 0 0 152 0 0 152 0
0 152 0 0 152 0 0 151 0 0 151 0 0 151 0 0 151 0 0 151 0 0 151 0 0 150
0 150 150 0 150 150 0 150 150 0 150 150 0 150 150 0 149 149 0 149 149
0 149 149 0 149 149 0 149 149 0 149 149 0 148 148 0 148 148 0 148 148
0 148 148 0 148 148 0 148 148 0 148 148 0 147 147 0 147 147 0 147 147
0 147 147 0 147 147 0 147 147 0 146 146 0 146 146 0 146 146 0 146 146
0 146 146 0 146 146 0 146 146 0 145 145 0 145 145 0 145 145 0 145 145
0 145 145 0 145 145 0 0 144 0 0 144 0 0 144 0 0 144 0 0 144 0 0 144 0
0 144 0 0 143 0 0 143 0 0 143 0 0 143 0 0 143 0 0 143 0 0 143 0 0 142
0 0 142 0
190 190 0 190 190 0 189 189 0 189 189 0 189 189 0 189 189 0 188 188 0
188 188 0 188 188 0 188 188 0 188 188 0 187 187 0 187 187 0 187 187 0
187 187 0 0 186 0 0 186 0 0 186 0 0 186 0 0 186 0 0 185 0 0 185 0 0
185 0 0 185 0 0 184 0 0 184 0 0 184 0 0 184 0 0 184 0 0 183 0 0 183 0
0 183 0 0 183 0 0 182 0 0 182 0 0 182 0 0 182 0 0 182 0 0 181 0 0 181
0 0 181 0 0 181 0 0 181 0 0 180 0 0 180 0 0 180 0 0 180 0 0 179 0 0
179 0 0 179 0 0 179 0 0 179 0 0 178 0 178 178 0 178 178 0 178 178 0
178 178 0 177 177 0 177 177 0 177 177 0 177 177 0 176 176 0 176 176 0
176 176 0 176 176 0 176 176 0 175 175 0 175 175 0 175 175 0 175 175 0
175 175 0 174 174 0 174 174 0 174 174 0 174 174 0 174 174 0 173 173 0
173 173 0 173 173 0 173 173 0 173 173 0 172 172 0 172 172 0 172 172 0
0 172 0 0 172 0 0 171 0 0 171 0 0 171 0 0 171 0 171 171 0 170 170 0
170 170 0 170 170 0 170 170 0 170 170 0 169 169 0 169 169 0 169 169 0
169 169 0 169 169 0 168 168 0 168 168 0 168 168 0 168 168 0 168 168 0
167 167 0 167 167 0 167 167 0 167 167 0 167 167 0 166 166 0 166 166 0
166 166 0 166 166 0 166 166 0 166 166 0 165 165 0 165 165 0 165 165 0
165 165 0 165 165 0 164 164 0 164 164 0 164 164 0 164 164 0 164 164 0
163 163 0 0 163 0 0 163 0 0 163 0 0 163 0 0 163 0 0 162 0 0 162 0 0
162 0 0 162 0 0 162 0 0 161 0 0 161 0 0 161 0 0 161 0 0 161 0 0 161 0
0 160 0 0 160 0 0 160 0 0 160 0 0 160 0 0 159 0 0 159 0 0 159 0 0 159
0 0 159 0 0 159 0 0 158 0 0 158 0 0 158 0 0 158 0 0 158 0 0 158 0 0
157 0 0 157 0 0 157 0 0 157 0 157 157 0 156 156 0 156 156 0 156 156 0
156 156 0 156 156 0 156 156 0 155 155 0 155 155 0 155 155 0 155 155 0
155 155 0 155 155 0 0 154 0 0 154 0 0 154 0 0 154 0 0 154 0 0 154 0 0
153 0 0 153 0 0 153 0 0 153 0 0 153 0 0 153 0 0 152 0 0 152 0 0 152 0
0 152 0 0 152 0 0 152 0 0 151 0 0 151 0 0 151 0 0 151 0 0 151 0 0 151
0 150 150 0 150 150 0 150 150 0 150 150 0 150 150 0 150 150 0 149 149
0 149 149 0 149 149 0 149 149 0 149 149 0 149 149 0 149 149 0 148 148
0 148 148 0 148 148 0 148 148 0 148 148 0 148 148 0 147 147 0 147 147
0 147 147 0 147 147 0 147 147 0 147 147 0 147 147 0 146 146 0 146 146
0 146 146 0 146 146 0 146 146 0 146 146 0 145 145 0 145 145 0 145 145
0 145 145 0 145 145 0 145 145 0 0 145 0 0 144 0 0 144 0 0 144 0 0 144
0 0 144 0 0 144 0 0 144 0 0 143 0 0 143 0 0 143 0 0 143 0 0 143 0 0
143 0 0 142 0 0 142 0
190 190 0 189 189 0 189 189 0 189 189 0 189 189 0 189 189 0 188 188 0
188 188 0 188 188 0 188 188 0 187 187 0 187 187 0 187 187 0 187 187 0
0 187 0 0 186 0 0 186 0 0 186 0 0 186 0 0 185 0 0 185 0 0 185 0 0 185
0 0 185 0 0 184 0 0 184 0 0 184 0 0 184 0 0 183 0 0 183 0 0 183 0 0
183 0 0 183 0 0 182 0 0 182 0 0 182 0 0 182 0 0 182 0 0 181 0 0 181 0
0 181 0 0 181 0 0 180 0 0 180 0 0 180 0 0 180 0 0 180 0 0 179 0 0 179
0 0 179 0 0 179 0 0 179 0 178 178 0 178 178 0 178 178 0 178 178 0 178
178 0 177 177 0 177 177 0 177 177 0 177 177 0 176 176 0 176 176 0 176
176 0 176 176 0 176 176 0 175 175 0 175 175 0 175 175 0 175 175 0 175
175 0 174 174 0 174 174 0 174 174 0 174 174 0 174 174 0 173 173 0 173
173 0 173 173 0 173 173 0 173 173 0 172 172 0 172 172 0 172 172 0 172
172 0 172 172 0 0 171 0 0 171 0 0 171 0 171 171 0 171 171 0 170 170 0
170 170 0 170 170 0 170 170 0 170 170 0 169 169 0 169 169 0 169 169 0
169 169 0 169 169 0 168 168 0 168 168 0 168 168 0 168 168 0 168 168 0
167 167 0 167 167 0 167 167 0 167 167 0 167 167 0 167 167 0 166 166 0
166 166 0 166 166 0 166 166 0 166 166 0 165 165 0 165 165 0 165 165 0
165 165 0 165 165 0 164 164 0 164 164 0 164 164 0 164 164 0 164 164 0
0 164 0 0 163 0 0 163 0 0 163 0 0 163 0 0 163 0 0 162 0 0 162 0 0 162
0 0 162 0 0 162 0 0 161 0 0 161 0 0 161 0 0 161 0 0 161 0 0 161 0 0
160 0 0 160 0 0 160 0 0 160 0 0 160 0 0 160 0 0 159 0 0 159 0 0 159 0
0 159 0 0 159 0 0 158 0 0 158 0 0 158 0 0 158 0 0 158 0 0 158 0 0 157
0 0 157 0 0 157 0 0 157 0 157 157 0 157 157 0 156 156 0 156 156 0 156
156 0 156 156 0 156 156 0 156 156 0 155 155 0 155 155 0 155 155 0 155
155 0 155 155 0 154 154 0 154 154 0 154 154 0 0 154 0 0 154 0 0 154 0
0 153 0 0 153 0 0 153 0 0 153 0 0 153 0 0 153 0 0 152 0 0 152 0 0 152
0 0 152 0 0 152 0 0 152 0 0 152 0 0 151 0 0 151 0 0 151 0 0 151 0 0
151 0 151 151 0 150 150 0 150 150 0 150 150 0 150 150 0 150 150 0 150
150 0 149 149 0 149 149 0 149 149 0 149 149 0 149 149 0 149 149 0 148
148 0 148 148 0 148 148 0 148 148 0 148 148 0 148 148 0 148 148 0 147
147 0 147 147 0 147 147 0 147 147 0 147 147 0 147 147 0 146 146 0 146
146 0 146 146 0 146 146 0 146 146 0 146 146 0 146 146 0 145 145 0 145
145 0 145 145 0 145 145 0 145 145 0 0 145 0 0 145 0 0 144 0 0 144 0 0
144 0 0 144 0 0 144 0 0 144 0 0 143 0 0 143 0 0 143 0 0 143 0 0 143 0
0 143 0 0 143 0 0 142 0
190 190 0 189 189 0 189 189 0 189 189 0 189 189 0 189 189 0 188 188 0
188 188 0 188 188 0 188 188 0 187 187 0 187 187 0 187 187 0 0 187 0 0
187 0 0 186 0 0 186 0 0 186 0 0 186 0 0 185 0 0 185 0 0 185 0 0 185 0
0 185 0 0 184 0 0 184 0 0 184 0 0 184 0 0 183 0 0 183 0 0 183 0 0 183
0 0 183 0 0 182 0 0 182 0 0 182 0 0 182 0 0 182 0 0 181 0 0 181 0 0
181 0 0 181 0 0 180 0 0 180 0 0 180 0 0 180 0 0 180 0 0 179 0 0 179 0
0 179 0 0 179 0 179 179 0 178 178 0 178 178 0 178 178 0 178 178 0 178
178 0 177 177 0 177 177 0 177 177 0 177 177 0 176 176 0 176 176 0 176
176 0 176 176 0 176 176 0 175 175 0 175 175 0 175 175 0 175 175 0 175
175 0 174 174 0 174 174 0 174 174 0 174 174 0 174 174 0 173 173 0 173
173 0 173 173 0 173 173 0 173 173 0 172 172 0 172 172 0 172 172 0 172
172 0 172 172 0 171 171 0 171 171 0 171 171 0 171 171 0 171 171 0 170
170 0 170 170 0 170 170 0 170 170 0 170 170 0 169 169 0 169 169 0 169
169 0 169 169 0 169 169 0 168 168 0 168 168 0 168 168 0 168 168 0 168
168 0 168 168 0 167 167 0 167 167 0 167 167 0 167 167 0 167 167 0 166
166 0 166 166 0 166 166 0 166 166 0 166 166 0 165 165 0 165 165 0 165
165 0 165 165 0 165 165 0 164 164 0 164 164 0 164 164 0 164 164 0 164
164 0 0 164 0 0 163 0 0 163 0 0 163 0 0 163 0 0 163 0 0 162 0 0 162 0
0 162 0 0 162 0 0 162 0 0 162 0 0 161 0 0 161 0 0 161 0 0 161 0 0 161
0 0 160 0 0 160 0 0 160 0 0 160 0 0 160 0 0 160 0 0 159 0 0 159 0 0
159 0 0 159 0 0 159 0 0 159 0 0 158 0 0 158 0 0 158 0 0 158 0 0 158 0
0 157 0 0 157 0 0 157 0 0 157 0 157 157 0 157 157 0 156 156 0 156 156
0 156 156 0 156 156 0 156 156 0 156 156 0 155 155 0 155 155 0 155 155
0 155 155 0 155 155 0 155 155 0 154 154 0 154 154 0 154 154 0 154 154
0 0 154 0 0 154 0 0 153 0 0 153 0 0 153 0 0 153 0 0 153 0 0 153 0 0
152 0 0 152 0 0 152 0 0 152 0 0 152 0 0 152 0 0 151 0 0 151 0 0 151 0
0 151 0 0 151 0 151 151 0 150 150 0 150 150 0 150 150 0 150 150 0 150
150 0 150 150 0 150 150 0 149 149 0 149 149 0 149 149 0 149 149 0 149
149 0 149 149 0 148 148 0 148 148 0 148 148 0 148 148 0 148 148 0 148
148 0 147 147 0 147 147 0 147 147 0 147 147 0 147 147 0 147 147 0 147
147 0 146 146 0 146 146 0 146 146 0 146 146 0 146 146 0 146 146 0 146
146 0 145 145 0 145 145 0 145 145 0 145 145 0 0 145 0 0 145 0 0 144 0
0 144 0 0 144 0 0 144 0 0 144 0 0 144 0 0 144 0 0 143 0 0 143 0 0 143
0 0 143 0 0 143 0 0 143 0 0 143 0
190 190 0 189 189 0 189 189 0 189 189 0 189 189 0 188 188 0 188 188 0
188 188 0 188 188 0 188 188 0 187 187 0 187 187 0 0 187 0 0 187 0 0
186 0 0 186 0 0 186 0 0 186 0 0 186 0 0 185 0 0 185 0 0 185 0 0 185 0
0 185 0 0 184 0 0 184 0 0 184 0 0 184 0 0 183 0 0 183 0 0 183 0 0 183
0 0 183 0 0 182 0 0 182 0 0 182 0 0 182 0 0 181 0 0 181 0 0 181 0 0
181 0 0 181 0 0 180 0 0 180 0 0 180 0 0 180 0 0 180 0 0 179 0 0 179 0
0 179 0 179 179 0 179 179 0 178 178 0 178 178 0 178 178 0 178 178 0
177 177 0 177 177 0 177 177 0 177 177 0 177 177 0 176 176 0 176 176 0
176 176 0 176 176 0 176 176 0 175 175 0 175 175 0 175 175 0 175 175 0
175 175 0 174 174 0 174 174 0 174 174 0 174 174 0 174 174 0 173 173 0
173 173 0 173 173 0 173 173 0 173 173 0 172 172 0 172 172 0 172 172 0
172 172 0 172 172 0 171 171 0 171 171 0 0 171 0 0 171 0 0 171 0 170
170 0 170 170 0 170 170 0 170 170 0 170 170 0 169 169 0 169 169 0 169
169 0 169 169 0 169 169 0 168 168 0 168 168 0 168 168 0 168 168 0 168
168 0 168 168 0 167 167 0 167 167 0 167 167 0 167 167 0 167 167 0 166
166 0 166 166 0 166 166 0 166 166 0 166 166 0 165 165 0 165 165 0 165
165 0 165 165 0 165 165 0 165 165 0 164 164 0 164 164 0 164 164 0 0
164 0 0 164 0 0 163 0 0 163 0 0 163 0 0 163 0 0 163 0 0 162 0 0 162 0
0 162 0 0 162 0 0 162 0 0 162 0 0 161 0 0 161 0 0 161 0 0 161 0 0 161
0 0 161 0 0 160 0 0 160 0 0 160 0 0 160 0 0 160 0 0 159 0 0 159 0 0
159 0 0 159 0 0 159 0 0 159 0 0 158 0 0 158 0 0 158 0 0 158 0 0 158 0
0 158 0 0 157 0 0 157 0 157 157 0 157 157 0 157 157 0 156 156 0 156
156 0 156 156 0 156 156 0 156 156 0 156 156 0 155 155 0 155 155 0 155
155 0 155 155 0 155 155 0 155 155 0 154 154 0 154 154 0 154 154 0 154
154 0 154 154 0 154 154 0 153 153 0 0 153 0 0 153 0 0 153 0 0 153 0 0
153 0 0 152 0 0 152 0 0 152 0 0 152 0 0 152 0 0 152 0 0 152 0 0 151 0
0 151 0 0 151 0 0 151 0 151 151 0 151 151 0 150 150 0 150 150 0 150
150 0 150 150 0 150 150 0 150 150 0 149 149 0 149 149 0 149 149 0 149
149 0 149 149 0 149 149 0 149 149 0 148 148 0 148 148 0 148 148 0 148
148 0 148 148 0 148 148 0 147 147 0 147 147 0 147 147 0 147 147 0 147
147 0 147 147 0 147 147 0 146 146 0 146 146 0 146 146 0 146 146 0 146
146 0 146 146 0 145 145 0 145 145 0 145 145 0 145 145 0 0 145 0 0 145
0 0 145 0 0 144 0 0 144 0 0 144 0 0 144 0 0 144 0 0 144 0 0 144 0 0
143 0 0 143 0 0 143 0 0 143 0 0 143 0 0 143 0
190 190 0 189 189 0 189 189 0 189 189 0 189 189 0 188 188 0 188 188 0
188 188 0 188 188 0 188 188 0 187 187 0 0 187 0 0 187 0 0 187 0 0 186
0 0 186 0 0 186 0 0 186 0 0 186 0 0 185 0 0 185 0 0 185 0 0 185 0 0
184 0 0 184 0 0 184 0 0 184 0 0 184 0 0 183 0 0 183 0 0 183 0 0 183 0
0 183 0 0 182 0 0 182 0 0 182 0 0 182 0 0 181 0 0 181 0 0 181 0 0 181
0 0 181 0 0 180 0 0 180 0 0 180 0 0 180 0 0 180 0 0 179 0 0 179 0 0
179 0 179 179 0 179 179 0 178 178 0 178 178 0 178 178 0 178 178 0 177
177 0 177 177 0 177 177 0 177 177 0 177 177 0 176 176 0 176 176 0 176
176 0 176 176 0 176 176 0 175 175 0 175 175 0 175 175 0 175 175 0 175
175 0 174 174 0 174 174 0 174 174 0 174 174 0 174 174 0 173 173 0 173
173 0 173 173 0 173 173 0 173 173 0 172 172 0 172 172 0 172 172 0 172
172 0 172 172 0 171 171 0 171 171 0 0 171 0 0 171 0 0 171 0 0 170 0 0
170 0 0 170 0 170 170 0 170 170 0 169 169 0 169 169 0 169 169 0 169
169 0 169 169 0 169 169 0 168 168 0 168 168 0 168 168 0 168 168 0 168
168 0 167 167 0 167 167 0 167 167 0 167 167 0 167 167 0 166 166 0 166
166 0 166 166 0 166 166 0 166 166 0 165 165 0 165 165 0 165 165 0 165
165 0 165 165 0 165 165 0 164 164 0 164 164 0 164 164 0 0 164 0 0 164
0 0 163 0 0 163 0 0 163 0 0 163 0 0 163 0 0 163 0 0 162 0 0 162 0 0
162 0 0 162 0 0 162 0 0 161 0 0 161 0 0 161 0 0 161 0 0 161 0 0 161 0
0 160 0 0 160 0 0 160 0 0 160 0 0 160 0 0 160 0 0 159 0 0 159 0 0 159
0 0 159 0 0 159 0 0 158 0 0 158 0 0 158 0 0 158 0 0 158 0 0 158 0 0
157 0 0 157 0 157 157 0 157 157 0 157 157 0 157 157 0 156 156 0 156
156 0 156 156 0 156 156 0 156 156 0 156 156 0 155 155 0 155 155 0 155
155 0 155 155 0 155 155 0 155 155 0 154 154 0 154 154 0 154 154 0 154
154 0 154 154 0 154 154 0 153 153 0 153 153 0 153 153 0 0 153 0 0 153
0 0 153 0 0 152 0 0 152 0 0 152 0 0 152 0 0 152 0 0 152 0 0 151 0 0
151 0 0 151 0 0 151 0 151 151 0 151 151 0 150 150 0 150 150 0 150 150
0 150 150 0 150 150 0 150 150 0 150 150 0 149 149 0 149 149 0 149 149
0 149 149 0 149 149 0 149 149 0 148 148 0 148 148 0 148 148 0 148 148
0 148 148 0 148 148 0 148 148 0 147 147 0 147 147 0 147 147 0 147 147
0 147 147 0 147 147 0 146 146 0 146 146 0 146 146 0 146 146 0 146 146
0 146 146 0 146 146 0 145 145 0 145 145 0 145 145 0 0 145 0 0 145 0 0
145 0 0 145 0 0 144 0 0 144 0 0 144 0 0 144 0 0 144 0 0 144 0 0 144 0
0 143 0 0 143 0 0 143 0 0 143 0 0 143 0
189 189 0 189 189 0 189 189 0 189 189 0 189 189 0 188 188 0 188 188 0
188 188 0 188 188 0 187 187 0 0 187 0 0 187 0 0 187 0 0 187 0 0 186 0
0 186 0 0 186 0 0 186 0 0 185 0 0 185 0 0 185 0 0 185 0 0 185 0 0 184
0 0 184 0 0 184 0 0 184 0 0 184 0 0 183 0 0 183 0 0 183 0 0 183 0 0
182 0 0 182 0 0 182 0 0 182 0 0 182 0 0 181 0 0 181 0 0 181 0 0 181 0
0 181 0 0 180 0 0 180 0 0 180 0 0 180 0 0 180 0 0 179 0 0 179 0 179
179 0 179 179 0 178 178 0 178 178 0 178 178 0 178 178 0 178 178 0 177
177 0 177 177 0 177 177 0 177 177 0 177 177 0 176 176 0 176 176 0 176
176 0 176 176 0 176 176 0 175 175 0 175 175 0 175 175 0 175 175 0 175
175 0 174 174 0 174 174 0 174 174 0 174 174 0 174 174 0 173 173 0 173
173 0 173 173 0 173 173 0 173 173 0 172 172 0 172 172 0 172 172 0 172
172 0 172 172 0 171 171 0 0 171 0 0 171 0 0 171 0 0 171 0 0 170 0 0
170 0 0 170 0 0 170 0 0 170 0 169 169 0 169 169 0 169 169 0 169 169 0
169 169 0 169 169 0 168 168 0 168 168 0 168 168 0 168 168 0 168 168 0
167 167 0 167 167 0 167 167 0 167 167 0 167 167 0 166 166 0 166 166 0
166 166 0 166 166 0 166 166 0 166 166 0 165 165 0 165 165 0 165 165 0
165 165 0 165 165 0 164 164 0 164 164 0 0 164 0 0 164 0 0 164 0 0 163
0 0 163 0 0 163 0 0 163 0 0 163 0 0 163 0 0 162 0 0 162 0 0 162 0 0
162 0 0 162 0 0 162 0 0 161 0 0 161 0 0 161 0 0 161 0 0 161 0 0 160 0
0 160 0 0 160 0 0 160 0 0 160 0 0 160 0 0 159 0 0 159 0 0 159 0 0 159
0 0 159 0 0 159 0 0 158 0 0 158 0 0 158 0 0 158 0 0 158 0 0 157 0 0
157 0 157 157 0 157 157 0 157 157 0 157 157 0 156 156 0 156 156 0 156
156 0 156 156 0 156 156 0 156 156 0 155 155 0 155 155 0 155 155 0 155
155 0 155 155 0 155 155 0 154 154 0 154 154 0 154 154 0 154 154 0 154
154 0 154 154 0 153 153 0 153 153 0 153 153 0 153 153 0 153 153 0 153
153 0 0 152 0 0 152 0 0 152 0 0 152 0 0 152 0 0 152 0 0 152 0 0 151 0
0 151 0 0 151 0 151 151 0 151 151 0 151 151 0 150 150 0 150 150 0 150
150 0 150 150 0 150 150 0 150 150 0 149 149 0 149 149 0 149 149 0 149
149 0 149 149 0 149 149 0 149 149 0 148 148 0 148 148 0 148 148 0 148
148 0 148 148 0 148 148 0 147 147 0 147 147 0 147 147 0 147 147 0 147
147 0 147 147 0 147 147 0 146 146 0 146 146 0 146 146 0 146 146 0 146
146 0 146 146 0 146 146 0 145 145 0 145 145 0 0 145 0 0 145 0 0 145 0
0 145 0 0 144 0 0 144 0 0 144 0 0 144 0 0 144 0 0 144 0 0 144 0 0 143
0 0 143 0 0 143 0 0 143 0 0 143 0
0 189 0 0 189 0 189 189 0 189 189 0 188 188 0 188 188 0 188 188 0 188
188 0 188 188 0 187 187 0 0 187 0 0 187 0 0 187 0 0 187 0 0 186 0 0
186 0 0 186 0 0 186 0 0 185 0 0 185 0 0 185 0 0 185 0 0 185 0 0 184 0
0 184 0 0 184 0 0 184 0 0 184 0 0 183 0 0 183 0 0 183 0 0 183 0 0 182
0 0 182 0 0 182 0 0 182 0 0 182 0 0 181 0 0 181 0 0 181 0 0 181 0 0
181 0 0 180 0 0 180 0 0 180 0 0 180 0 0 180 0 0 179 0 179 179 0 179
179 0 179 179 0 178 178 0 178 178 0 178 178 0 178 178 0 178 178 0 177
177 0 177 177 0 177 177 0 177 177 0 177 177 0 176 176 0 176 176 0 176
176 0 176 176 0 176 176 0 175 175 0 175 175 0 175 175 0 175 175 0 175
175 0 174 174 0 174 174 0 174 174 0 174 174 0 174 174 0 173 173 0 173
173 0 173 173 0 173 173 0 173 173 0 172 172 0 172 172 0 172 172 0 172
172 0 172 172 0 171 171 0 0 171 0 0 171 0 0 171 0 0 171 0 0 170 0 0
170 0 0 170 0 0 170 0 0 170 0 0 170 0 0 169 0 169 169 0 169 169 0 169
169 0 169 169 0 168 168 0 168 168 0 168 168 0 168 168 0 168 168 0 167
167 0 167 167 0 167 167 0 167 167 0 167 167 0 166 166 0 166 166 0 166
166 0 166 166 0 166 166 0 166 166 0 165 165 0 165 165 0 165 165 0 165
165 0 165 165 0 164 164 0 164 164 0 0 164 0 0 164 0 0 164 0 0 164 0 0
163 0 0 163 0 0 163 0 0 163 0 0 163 0 0 162 0 0 162 0 0 162 0 0 162 0
0 162 0 0 162 0 0 161 0 0 161 0 0 161 0 0 161 0 0 161 0 0 160 0 0 160
0 0 160 0 0 160 0 0 160 0 0 160 0 0 159 0 0 159 0 0 159 0 0 159 0 0
159 0 0 159 0 0 158 0 0 158 0 0 158 0 0 158 0 0 158 0 0 158 0 0 157 0
157 157 0 157 157 0 157 157 0 157 157 0 157 157 0 156 156 0 156 156 0
156 156 0 156 156 0 156 156 0 156 156 0 155 155 0 155 155 0 155 155 0
155 155 0 155 155 0 155 155 0 154 154 0 154 154 0 154 154 0 154 154 0
154 154 0 154 154 0 153 153 0 153 153 0 153 153 0 153 153 0 153 153 0
153 153 0 152 152 0 152 152 0 0 152 0 0 152 0 0 152 0 0 152 0 0 151 0
0 151 0 0 151 0 151 151 0 151 151 0 151 151 0 150 150 0 150 150 0 150
150 0 150 150 0 150 150 0 150 150 0 150 150 0 149 149 0 149 149 0 149
149 0 149 149 0 149 149 0 149 149 0 148 148 0 148 148 0 148 148 0 148
148 0 148 148 0 148 148 0 148 148 0 147 147 0 147 147 0 147 147 0 147
147 0 147 147 0 147 147 0 147 147 0 146 146 0 146 146 0 146 146 0 146
146 0 146 146 0 146 146 0 145 145 0 145 145 0 145 145 0 0 145 0 0 145
0 0 145 0 0 145 0 0 144 0 0 144 0 0 144 0 0 144 0 0 144 0 0 144 0 0
144 0 0 143 0 0 143 0 0 143 0 0 143 0
0 189 0 0 189 0 0 189 0 0 189 0 188 188 0 188 188 0 188 188 0 188 188
0 188 188 0 0 187 0 0 187 0 0 187 0 0 187 0 0 186 0 0 186 0 0 186 0 0
186 0 0 186 0 0 185 0 0 185 0 0 185 0 0 185 0 0 185 0 0 184 0 0 184 0
0 184 0 0 184 0 0 183 0 0 183 0 0 183 0 0 183 0 0 183 0 0 182 0 0 182
0 0 182 0 0 182 0 0 182 0 0 181 0 0 181 0 0 181 0 0 181 0 0 181 0 0
180 0 0 180 0 0 180 0 0 180 0 0 179 0 179 179 0 179 179 0 179 179 0
179 179 0 178 178 0 178 178 0 178 178 0 178 178 0 178 178 0 177 177 0
177 177 0 177 177 0 177 177 0 177 177 0 176 176 0 176 176 0 176 176 0
176 176 0 176 176 0 175 175 0 175 175 0 175 175 0 175 175 0 175 175 0
174 174 0 174 174 0 174 174 0 174 174 0 174 174 0 173 173 0 173 173 0
173 173 0 173 173 0 173 173 0 172 172 0 172 172 0 172 172 0 172 172 0
172 172 0 0 171 0 0 171 0 0 171 0 0 171 0 0 171 0 0 170 0 0 170 0 0
170 0 0 170 0 0 170 0 0 170 0 0 169 0 0 169 0 0 169 0 0 169 0 169 169
0 168 168 0 168 168 0 168 168 0 168 168 0 168 168 0 167 167 0 167 167
0 167 167 0 167 167 0 167 167 0 167 167 0 166 166 0 166 166 0 166 166
0 166 166 0 166 166 0 165 165 0 165 165 0 165 165 0 165 165 0 165 165
0 164 164 0 164 164 0 0 164 0 0 164 0 0 164 0 0 164 0 0 163 0 0 163 0
0 163 0 0 163 0 0 163 0 0 162 0 0 162 0 0 162 0 0 162 0 0 162 0 0 162
0 0 161 0 0 161 0 0 161 0 0 161 0 0 161 0 0 161 0 0 160 0 0 160 0 0
160 0 0 160 0 0 160 0 0 159 0 0 159 0 0 159 0 0 159 0 0 159 0 0 159 0
0 158 0 0 158 0 0 158 0 0 158 0 0 158 0 0 158 0 157 157 0 157 157 0
157 157 0 157 157 0 157 157 0 157 157 0 156 156 0 156 156 0 156 156 0
156 156 0 156 156 0 156 156 0 155 155 0 155 155 0 155 155 0 155 155 0
155 155 0 155 155 0 154 154 0 154 154 0 154 154 0 154 154 0 154 154 0
154 154 0 153 153 0 153 153 0 153 153 0 153 153 0 153 153 0 153 153 0
152 152 0 152 152 0 152 152 0 152 152 0 0 152 0 0 152 0 0 152 0 0 151
0 0 151 0 151 151 0 151 151 0 151 151 0 151 151 0 150 150 0 150 150 0
150 150 0 150 150 0 150 150 0 150 150 0 149 149 0 149 149 0 149 149 0
149 149 0 149 149 0 149 149 0 149 149 0 148 148 0 148 148 0 148 148 0
148 148 0 148 148 0 148 148 0 147 147 0 147 147 0 147 147 0 147 147 0
147 147 0 147 147 0 147 147 0 146 146 0 146 146 0 146 146 0 146 146 0
146 146 0 146 146 0 146 146 0 145 145 0 145 145 0 0 145 0 0 145 0 0
145 0 0 145 0 0 145 0 0 144 0 0 144 0 0 144 0 0 144 0 0 144 0 0 144 0
0 144 0 0 143 0 0 143 0 0 143 0
0 189 0 0 189 0 0 189 0 0 189 0 0 188 0 0 188 0 188 188 0 188 188 0 0
188 0 0 187 0 0 187 0 0 187 0 0 187 0 0 186 0 0 186 0 0 186 0 0 186 0
0 186 0 0 185 0 0 185 0 0 185 0 0 185 0 0 184 0 0 184 0 0 184 0 0 184
0 0 184 0 0 183 0 0 183 0 0 183 0 0 183 0 0 183 0 0 182 0 0 182 0 0
182 0 0 182 0 0 182 0 0 181 0 0 181 0 0 181 0 0 181 0 0 181 0 0 180 0
0 180 0 0 180 0 0 180 0 0 179 0 179 179 0 179 179 0 179 179 0 179 179
0 178 178 0 178 178 0 178 178 0 178 178 0 178 178 0 177 177 0 177 177
0 177 177 0 177 177 0 177 177 0 176 176 0 176 176 0 176 176 0 176 176
0 176 176 0 175 175 0 175 175 0 175 175 0 175 175 0 175 175 0 174 174
0 174 174 0 174 174 0 174 174 0 174 174 0 173 173 0 173 173 0 173 173
0 173 173 0 173 173 0 172 172 0 172 172 0 172 172 0 172 172 0 0 172 0
0 171 0 0 171 0 0 171 0 0 171 0 0 171 0 0 170 0 0 170 0 0 170 0 0 170
0 0 170 0 0 170 0 0 169 0 0 169 0 0 169 0 0 169 0 0 169 0 0 168 0 168
168 0 168 168 0 168 168 0 168 168 0 167 167 0 167 167 0 167 167 0 167
167 0 167 167 0 167 167 0 166 166 0 166 166 0 166 166 0 166 166 0 166
166 0 165 165 0 165 165 0 165 165 0 165 165 0 165 165 0 165 165 0 0
164 0 0 164 0 0 164 0 0 164 0 0 164 0 0 163 0 0 163 0 0 163 0 0 163 0
0 163 0 0 163 0 0 162 0 0 162 0 0 162 0 0 162 0 0 162 0 0 161 0 0 161
0 0 161 0 0 161 0 0 161 0 0 161 0 0 160 0 0 160 0 0 160 0 0 160 0 0
160 0 0 160 0 0 159 0 0 159 0 0 159 0 0 159 0 0 159 0 0 159 0 0 158 0
0 158 0 0 158 0 0 158 0 0 158 0 157 157 0 157 157 0 157 157 0 157 157
0 157 157 0 157 157 0 156 156 0 156 156 0 156 156 0 156 156 0 156 156
0 156 156 0 155 155 0 155 155 0 155 155 0 155 155 0 155 155 0 155 155
0 154 154 0 154 154 0 154 154 0 154 154 0 154 154 0 154 154 0 154 154
0 153 153 0 153 153 0 153 153 0 153 153 0 153 153 0 153 153 0 152 152
0 152 152 0 152 152 0 152 152 0 152 152 0 152 152 0 0 151 0 0 151 0
151 151 0 151 151 0 151 151 0 151 151 0 150 150 0 150 150 0 150 150 0
150 150 0 150 150 0 150 150 0 150 150 0 149 149 0 149 149 0 149 149 0
149 149 0 149 149 0 149 149 0 148 148 0 148 148 0 148 148 0 148 148 0
148 148 0 148 148 0 148 148 0 147 147 0 147 147 0 147 147 0 147 147 0
147 147 0 147 147 0 147 147 0 146 146 0 146 146 0 146 146 0 146 146 0
146 146 0 146 146 0 146 146 0 145 145 0 0 145 0 0 145 0 0 145 0 0 145
0 0 145 0 0 144 0 0 144 0 0 144 0 0 144 0 0 144 0 0 144 0 0 144 0 0
143 0 0 143 0 0 143 0
0 189 0 0 189 0 0 189 0 0 189 0 0 188 0 0 188 0 0 188 0 188 188 0 0
187 0 0 187 0 0 187 0 0 187 0 0 187 0 0 186 0 0 186 0 0 186 0 0 186 0
0 186 0 0 185 0 0 185 0 0 185 0 0 185 0 0 184 0 0 184 0 0 184 0 0 184
0 0 184 0 0 183 0 0 183 0 0 183 0 0 183 0 0 183 0 0 182 0 0 182 0 0
182 0 0 182 0 0 182 0 0 181 0 0 181 0 0 181 0 0 181 0 0 180 0 0 180 0
0 180 0 0 180 0 0 180 0 179 179 0 179 179 0 179 179 0 179 179 0 179
179 0 178 178 0 178 178 0 178 178 0 178 178 0 178 178 0 177 177 0 177
177 0 177 177 0 177 177 0 177 177 0 176 176 0 176 176 0 176 176 0 176
176 0 176 176 0 175 175 0 175 175 0 175 175 0 175 175 0 175 175 0 174
174 0 174 174 0 174 174 0 174 174 0 174 174 0 173 173 0 173 173 0 173
173 0 173 173 0 173 173 0 172 172 0 172 172 0 172 172 0 172 172 0 0
172 0 0 171 0 0 171 0 0 171 0 0 171 0 0 171 0 0 171 0 0 170 0 0 170 0
0 170 0 0 170 0 0 170 0 0 169 0 0 169 0 0 169 0 0 169 0 0 169 0 0 168
0 0 168 0 0 168 0 168 168 0 168 168 0 167 167 0 167 167 0 167 167 0
167 167 0 167 167 0 167 167 0 166 166 0 166 166 0 166 166 0 166 166 0
166 166 0 165 165 0 165 165 0 165 165 0 165 165 0 165 165 0 165 165 0
0 164 0 0 164 0 0 164 0 0 164 0 0 164 0 0 163 0 0 163 0 0 163 0 0 163
0 0 163 0 0 163 0 0 162 0 0 162 0 0 162 0 0 162 0 0 162 0 0 162 0 0
161 0 0 161 0 0 161 0 0 161 0 0 161 0 0 160 0 0 160 0 0 160 0 0 160 0
0 160 0 0 160 0 0 159 0 0 159 0 0 159 0 0 159 0 0 159 0 0 159 0 0 158
0 0 158 0 0 158 0 0 158 0 0 158 0 158 158 0 157 157 0 157 157 0 157
157 0 157 157 0 157 157 0 157 157 0 156 156 0 156 156 0 156 156 0 156
156 0 156 156 0 156 156 0 155 155 0 155 155 0 155 155 0 155 155 0 155
155 0 155 155 0 154 154 0 154 154 0 154 154 0 154 154 0 154 154 0 154
154 0 153 153 0 153 153 0 153 153 0 153 153 0 153 153 0 153 153 0 152
152 0 152 152 0 152 152 0 152 152 0 152 152 0 152 152 0 152 152 0 151
151 0 0 151 0 151 151 0 151 151 0 151 151 0 151 151 0 150 150 0 150
150 0 150 150 0 150 150 0 150 150 0 150 150 0 149 149 0 149 149 0 149
149 0 149 149 0 149 149 0 149 149 0 149 149 0 148 148 0 148 148 0 148
148 0 148 148 0 148 148 0 148 148 0 148 148 0 147 147 0 147 147 0 147
147 0 147 147 0 147 147 0 147 147 0 146 146 0 146 146 0 146 146 0 146
146 0 146 146 0 146 146 0 146 146 0 145 145 0 0 145 0 0 145 0 0 145 0
0 145 0 0 145 0 0 145 0 0 144 0 0 144 0 0 144 0 0 144 0 0 144 0 0 144
0 0 144 0 0 143 0 0 143 0
0 189 0 0 189 0 0 189 0 0 188 0 0 188 0 0 188 0 188 188 0 188 188 0
187 187 0 187 187 0 0 187 0 0 187 0 0 187 0 0 186 0 0 186 0 0 186 0 0
186 0 0 185 0 0 185 0 0 185 0 0 185 0 0 185 0 0 184 0 0 184 0 0 184 0
0 184 0 0 184 0 0 183 0 0 183 0 0 183 0 0 183 0 0 183 0 0 182 0 0 182
0 0 182 0 0 182 0 0 181 0 0 181 0 0 181 0 0 181 0 0 181 0 0 180 0 0
180 0 0 180 0 0 180 0 180 180 0 179 179 0 179 179 0 179 179 0 179 179
0 179 179 0 178 178 0 178 178 0 178 178 0 178 178 0 178 178 0 177 177
0 177 177 0 177 177 0 177 177 0 177 177 0 176 176 0 176 176 0 176 176
0 176 176 0 176 176 0 175 175 0 175 175 0 175 175 0 175 175 0 175 175
0 174 174 0 174 174 0 174 174 0 174 174 0 174 174 0 173 173 0 173 173
0 173 173 0 173 173 0 173 173 0 172 172 0 172 172 0 172 172 0 0 172 0
0 172 0 0 171 0 0 171 0 0 171 0 0 171 0 0 171 0 0 171 0 0 170 0 0 170
0 0 170 0 0 170 0 0 170 0 0 169 0 0 169 0 0 169 0 0 169 0 0 169 0 0
168 0 0 168 0 0 168 0 0 168 0 0 168 0 0 168 0 167 167 0 167 167 0 167
167 0 167 167 0 167 167 0 166 166 0 166 166 0 166 166 0 166 166 0 166
166 0 165 165 0 165 165 0 165 165 0 165 165 0 165 165 0 0 165 0 0 164
0 0 164 0 0 164 0 0 164 0 0 164 0 0 163 0 0 163 0 0 163 0 0 163 0 0
163 0 0 163 0 0 162 0 0 162 0 0 162 0 0 162 0 0 162 0 0 162 0 0 161 0
0 161 0 0 161 0 0 161 0 0 161 0 0 160 0 0 160 0 0 160 0 0 160 0 0 160
0 0 160 0 0 159 0 0 159 0 0 159 0 0 159 0 0 159 0 0 159 0 0 158 0 0
158 0 0 158 0 0 158 0 0 158 0 158 158 0 157 157 0 157 157 0 157 157 0
157 157 0 157 157 0 157 157 0 156 156 0 156 156 0 156 156 0 156 156 0
156 156 0 156 156 0 155 155 0 155 155 0 155 155 0 155 155 0 155 155 0
155 155 0 154 154 0 154 154 0 154 154 0 154 154 0 154 154 0 154 154 0
153 153 0 153 153 0 153 153 0 153 153 0 153 153 0 153 153 0 153 153 0
152 152 0 152 152 0 152 152 0 152 152 0 152 152 0 152 152 0 151 151 0
0 151 0 0 151 0 0 151 0 0 151 0 151 151 0 151 151 0 150 150 0 150 150
0 150 150 0 150 150 0 150 150 0 150 150 0 149 149 0 149 149 0 149 149
0 149 149 0 149 149 0 149 149 0 149 149 0 148 148 0 148 148 0 148 148
0 148 148 0 148 148 0 148 148 0 147 147 0 147 147 0 147 147 0 147 147
0 147 147 0 147 147 0 147 147 0 146 146 0 146 146 0 146 146 0 146 146
0 146 146 0 146 146 0 146 146 0 0 145 0 0 145 0 0 145 0 0 145 0 0 145
0 0 145 0 0 145 0 0 144 0 0 144 0 0 144 0 0 144 0 0 144 0 0 144 0 0
144 0 0 143 0
0 189 0 0 189 0 0 189 0 0 188 0 0 188 0 188 188 0 188 188 0 188 188 0
187 187 0 187 187 0 187 187 0 187 187 0 0 186 0 0 186 0 0 186 0 0 186
0 0 186 0 0 185 0 0 185 0 0 185 0 0 185 0 0 185 0 0 184 0 0 184 0 0
184 0 0 184 0 0 184 0 0 183 0 0 183 0 0 183 0 0 183 0 0 182 0 0 182 0
0 182 0 0 182 0 0 182 0 0 181 0 0 181 0 0 181 0 0 181 0 0 181 0 0 180
0 0 180 0 0 180 0 180 180 0 180 180 0 179 179 0 179 179 0 179 179 0
179 179 0 179 179 0 178 178 0 178 178 0 178 178 0 178 178 0 178 178 0
177 177 0 177 177 0 177 177 0 177 177 0 177 177 0 176 176 0 176 176 0
176 176 0 176 176 0 176 176 0 175 175 0 175 175 0 175 175 0 175 175 0
175 175 0 174 174 0 174 174 0 174 174 0 174 174 0 174 174 0 173 173 0
173 173 0 173 173 0 173 173 0 173 173 0 172 172 0 172 172 0 172 172 0
0 172 0 0 172 0 0 171 0 0 171 0 0 171 0 0 171 0 0 171 0 0 171 0 0 170
0 0 170 0 0 170 0 0 170 0 0 170 0 0 169 0 0 169 0 0 169 0 0 169 0 0
169 0 0 168 0 0 168 0 0 168 0 0 168 0 0 168 0 0 168 0 0 167 0 0 167 0
167 167 0 167 167 0 167 167 0 166 166 0 166 166 0 166 166 0 166 166 0
166 166 0 166 166 0 165 165 0 165 165 0 165 165 0 165 165 0 0 165 0 0
164 0 0 164 0 0 164 0 0 164 0 0 164 0 0 164 0 0 163 0 0 163 0 0 163 0
0 163 0 0 163 0 0 162 0 0 162 0 0 162 0 0 162 0 0 162 0 0 162 0 0 161
0 0 161 0 0 161 0 0 161 0 0 161 0 0 161 0 0 160 0 0 160 0 0 160 0 0
160 0 0 160 0 0 160 0 0 159 0 0 159 0 0 159 0 0 159 0 0 159 0 0 158 0
0 158 0 0 158 0 0 158 0 158 158 0 158 158 0 157 157 0 157 157 0 157
157 0 157 157 0 157 157 0 157 157 0 156 156 0 156 156 0 156 156 0 156
156 0 156 156 0 156 156 0 156 156 0 155 155 0 155 155 0 155 155 0 155
155 0 155 155 0 155 155 0 154 154 0 154 154 0 154 154 0 154 154 0 154
154 0 154 154 0 153 153 0 153 153 0 153 153 0 153 153 0 153 153 0 153
153 0 152 152 0 152 152 0 152 152 0 152 152 0 152 152 0 152 152 0 152
152 0 0 151 0 0 151 0 0 151 0 0 151 0 0 151 0 0 151 0 150 150 0 150
150 0 150 150 0 150 150 0 150 150 0 150 150 0 150 150 0 149 149 0 149
149 0 149 149 0 149 149 0 149 149 0 149 149 0 148 148 0 148 148 0 148
148 0 148 148 0 148 148 0 148 148 0 148 148 0 147 147 0 147 147 0 147
147 0 147 147 0 147 147 0 147 147 0 147 147 0 146 146 0 146 146 0 146
146 0 146 146 0 146 146 0 146 146 0 0 146 0 0 145 0 0 145 0 0 145 0 0
145 0 0 145 0 0 145 0 0 144 0 0 144 0 0 144 0 0 144 0 0 144 0 0 144 0
0 144 0 0 144 0
0 189 0 0 189 0 0 189 0 0 188 0 188 188 0 188 188 0 188 188 0 187 187
0 187 187 0 187 187 0 187 187 0 187 187 0 186 186 0 186 186 0 0 186 0
0 186 0 0 186 0 0 185 0 0 185 0 0 185 0 0 185 0 0 185 0 0 184 0 0 184
0 0 184 0 0 184 0 0 183 0 0 183 0 0 183 0 0 183 0 0 183 0 0 182 0 0
182 0 0 182 0 0 182 0 0 182 0 0 181 0 0 181 0 0 181 0 0 181 0 0 181 0
0 180 0 0 180 0 180 180 0 180 180 0 180 180 0 179 179 0 179 179 0 179
179 0 179 179 0 179 179 0 178 178 0 178 178 0 178 178 0 178 178 0 178
178 0 177 177 0 177 177 0 177 177 0 177 177 0 177 177 0 176 176 0 176
176 0 176 176 0 176 176 0 176 176 0 175 175 0 175 175 0 175 175 0 175
175 0 175 175 0 174 174 0 174 174 0 174 174 0 174 174 0 174 174 0 173
173 0 173 173 0 173 173 0 173 173 0 173 173 0 172 172 0 172 172 0 0
172 0 0 172 0 0 172 0 0 171 0 0 171 0 0 171 0 0 171 0 0 171 0 0 171 0
0 170 0 0 170 0 0 170 0 0 170 0 0 170 0 0 169 0 0 169 0 0 169 0 0 169
0 0 169 0 0 168 0 0 168 0 0 168 0 0 168 0 0 168 0 0 168 0 0 167 0 0
167 0 0 167 0 0 167 0 167 167 0 166 166 0 166 166 0 166 166 0 166 166
0 166 166 0 166 166 0 165 165 0 165 165 0 165 165 0 165 165 0 0 165 0
0 164 0 0 164 0 0 164 0 0 164 0 0 164 0 0 164 0 0 163 0 0 163 0 0 163
0 0 163 0 0 163 0 0 163 0 0 162 0 0 162 0 0 162 0 0 162 0 0 162 0 0
161 0 0 161 0 0 161 0 0 161 0 0 161 0 0 161 0 0 160 0 0 160 0 0 160 0
0 160 0 0 160 0 0 160 0 0 159 0 0 159 0 0 159 0 0 159 0 0 159 0 0 159
0 0 158 0 0 158 0 0 158 0 158 158 0 158 158 0 158 158 0 157 157 0 157
157 0 157 157 0 157 157 0 157 157 0 157 157 0 156 156 0 156 156 0 156
156 0 156 156 0 156 156 0 156 156 0 155 155 0 155 155 0 155 155 0 155
155 0 155 155 0 155 155 0 154 154 0 154 154 0 154 154 0 154 154 0 154
154 0 154 154 0 153 153 0 153 153 0 153 153 0 153 153 0 153 153 0 153
153 0 153 153 0 152 152 0 152 152 0 152 152 0 152 152 0 152 152 0 152
152 0 0 151 0 0 151 0 0 151 0 0 151 0 0 151 0 0 151 0 0 151 0 0 150 0
0 150 0 150 150 0 150 150 0 150 150 0 150 150 0 149 149 0 149 149 0
149 149 0 149 149 0 149 149 0 149 149 0 149 149 0 148 148 0 148 148 0
148 148 0 148 148 0 148 148 0 148 148 0 147 147 0 147 147 0 147 147 0
147 147 0 147 147 0 147 147 0 147 147 0 146 146 0 146 146 0 146 146 0
146 146 0 146 146 0 146 146 0 0 146 0 0 145 0 0 145 0 0 145 0 0 145 0
0 145 0 0 145 0 0 145 0 0 144 0 0 144 0 0 144 0 0 144 0 0 144 0 0 144
0 0 144 0
0 189 0 0 189 0 0 188 0 188 188 0 188 188 0 188 188 0 188 188 0 187
187 0 187 187 0 187 187 0 187 187 0 187 187 0 186 186 0 186 186 0 186
186 0 0 186 0 0 186 0 0 185 0 0 185 0 0 185 0 0 185 0 0 184 0 0 184 0
0 184 0 0 184 0 0 184 0 0 183 0 0 183 0 0 183 0 0 183 0 0 183 0 0 182
0 0 182 0 0 182 0 0 182 0 0 182 0 0 181 0 0 181 0 0 181 0 0 181 0 0
181 0 0 180 0 0 180 0 180 180 0 180 180 0 180 180 0 179 179 0 179 179
0 179 179 0 179 179 0 179 179 0 178 178 0 178 178 0 178 178 0 178 178
0 178 178 0 177 177 0 177 177 0 177 177 0 177 177 0 177 177 0 176 176
0 176 176 0 176 176 0 176 176 0 176 176 0 175 175 0 175 175 0 175 175
0 175 175 0 175 175 0 174 174 0 174 174 0 174 174 0 174 174 0 174 174
0 173 173 0 173 173 0 173 173 0 173 173 0 173 173 0 172 172 0 0 172 0
0 172 0 0 172 0 0 172 0 0 171 0 0 171 0 0 171 0 0 171 0 0 171 0 0 171
0 0 170 0 0 170 0 0 170 0 0 170 0 0 170 0 0 169 0 0 169 0 0 169 0 0
169 0 0 169 0 0 168 0 0 168 0 0 168 0 0 168 0 0 168 0 0 168 0 0 167 0
0 167 0 0 167 0 0 167 0 0 167 0 0 166 0 0 166 0 166 166 0 166 166 0
166 166 0 166 166 0 165 165 0 165 165 0 165 165 0 0 165 0 0 165 0 0
164 0 0 164 0 0 164 0 0 164 0 0 164 0 0 164 0 0 163 0 0 163 0 0 163 0
0 163 0 0 163 0 0 163 0 0 162 0 0 162 0 0 162 0 0 162 0 0 162 0 0 161
0 0 161 0 0 161 0 0 161 0 0 161 0 0 161 0 0 160 0 0 160 0 0 160 0 0
160 0 0 160 0 0 160 0 0 159 0 0 159 0 0 159 0 0 159 0 0 159 0 0 159 0
0 158 0 0 158 0 0 158 0 158 158 0 158 158 0 158 158 0 157 157 0 157
157 0 157 157 0 157 157 0 157 157 0 157 157 0 156 156 0 156 156 0 156
156 0 156 156 0 156 156 0 156 156 0 155 155 0 155 155 0 155 155 0 155
155 0 155 155 0 155 155 0 154 154 0 154 154 0 154 154 0 154 154 0 154
154 0 154 154 0 154 154 0 153 153 0 153 153 0 153 153 0 153 153 0 153
153 0 153 153 0 152 152 0 152 152 0 152 152 0 152 152 0 152 152 0 152
152 0 0 152 0 0 151 0 0 151 0 0 151 0 0 151 0 0 151 0 0 151 0 0 150 0
0 150 0 0 150 0 0 150 0 0 150 0 150 150 0 150 150 0 149 149 0 149 149
0 149 149 0 149 149 0 149 149 0 149 149 0 148 148 0 148 148 0 148 148
0 148 148 0 148 148 0 148 148 0 148 148 0 147 147 0 147 147 0 147 147
0 147 147 0 147 147 0 147 147 0 147 147 0 146 146 0 146 146 0 146 146
0 146 146 0 146 146 0 0 146 0 0 146 0 0 145 0 0 145 0 0 145 0 0 145 0
0 145 0 0 145 0 0 145 0 0 144 0 0 144 0 0 144 0 0 144 0 0 144 0 0 144
0
0 189 0 0 189 0 188 188 0 188 188 0 188 188 0 188 188 0 188 188 0 187
187 0 187 187 0 187 187 0 187 187 0 187 187 0 186 186 0 186 186 0 186
186 0 186 186 0 185 185 0 0 185 0 0 185 0 0 185 0 0 185 0 0 184 0 0
184 0 0 184 0 0 184 0 0 184 0 0 183 0 0 183 0 0 183 0 0 183 0 0 183 0
0 182 0 0 182 0 0 182 0 0 182 0 0 182 0 0 181 0 0 181 0 0 181 0 0 181
0 0 181 0 0 180 0 180 180 0 180 180 0 180 180 0 180 180 0 179 179 0
179 179 0 179 179 0 179 179 0 179 179 0 178 178 0 178 178 0 178 178 0
178 178 0 178 178 0 177 177 0 177 177 0 177 177 0 177 177 0 177 177 0
176 176 0 176 176 0 176 176 0 176 176 0 176 176 0 175 175 0 175 175 0
175 175 0 175 175 0 175 175 0 174 174 0 174 174 0 174 174 0 174 174 0
174 174 0 173 173 0 173 173 0 173 173 0 173 173 0 173 173 0 172 172 0
0 172 0 0 172 0 0 172 0 0 172 0 0 171 0 0 171 0 0 171 0 0 171 0 0 171
0 0 171 0 0 170 0 0 170 0 0 170 0 0 170 0 0 170 0 0 169 0 0 169 0 0
169 0 0 169 0 0 169 0 0 168 0 0 168 0 0 168 0 0 168 0 0 168 0 0 168 0
0 167 0 0 167 0 0 167 0 0 167 0 0 167 0 0 166 0 0 166 0 0 166 0 0 166
0 166 166 0 166 166 0 165 165 0 165 165 0 165 165 0 0 165 0 0 165 0 0
165 0 0 164 0 0 164 0 0 164 0 0 164 0 0 164 0 0 163 0 0 163 0 0 163 0
0 163 0 0 163 0 0 163 0 0 162 0 0 162 0 0 162 0 0 162 0 0 162 0 0 162
0 0 161 0 0 161 0 0 161 0 0 161 0 0 161 0 0 161 0 0 160 0 0 160 0 0
160 0 0 160 0 0 160 0 0 159 0 0 159 0 0 159 0 0 159 0 0 159 0 0 159 0
0 158 0 0 158 0 0 158 0 158 158 0 158 158 0 158 158 0 157 157 0 157
157 0 157 157 0 157 157 0 157 157 0 157 157 0 157 157 0 156 156 0 156
156 0 156 156 0 156 156 0 156 156 0 156 156 0 155 155 0 155 155 0 155
155 0 155 155 0 155 155 0 155 155 0 154 154 0 154 154 0 154 154 0 154
154 0 154 154 0 154 154 0 153 153 0 153 153 0 153 153 0 153 153 0 153
153 0 153 153 0 153 153 0 152 152 0 152 152 0 152 152 0 152 152 0 152
152 0 0 152 0 0 151 0 0 151 0 0 151 0 0 151 0 0 151 0 0 151 0 0 151 0
0 150 0 0 150 0 0 150 0 0 150 0 0 150 0 0 150 0 0 149 0 149 149 0 149
149 0 149 149 0 149 149 0 149 149 0 149 149 0 148 148 0 148 148 0 148
148 0 148 148 0 148 148 0 148 148 0 148 148 0 147 147 0 147 147 0 147
147 0 147 147 0 147 147 0 147 147 0 147 147 0 146 146 0 146 146 0 146
146 0 146 146 0 0 146 0 0 146 0 0 145 0 0 145 0 0 145 0 0 145 0 0 145
0 0 145 0 0 145 0 0 145 0 0 144 0 0 144 0 0 144 0 0 144 0 0 144 0
0 189 0 189 189 0 188 188 0 188 188 0 188 188 0 188 188 0 188 188 0
187 187 0 187 187 0 187 187 0 187 187 0 186 186 0 186 186 0 186 186 0
186 186 0 186 186 0 185 185 0 185 185 0 185 185 0 0 185 0 0 185 0 0
184 0 0 184 0 0 184 0 0 184 0 0 184 0 0 183 0 0 183 0 0 183 0 0 183 0
0 183 0 0 182 0 0 182 0 0 182 0 0 182 0 0 182 0 0 181 0 0 181 0 0 181
0 0 181 0 0 180 0 180 180 0 180 180 0 180 180 0 180 180 0 179 179 0
179 179 0 179 179 0 179 179 0 179 179 0 178 178 0 178 178 0 178 178 0
178 178 0 178 178 0 177 177 0 177 177 0 177 177 0 177 177 0 177 177 0
177 177 0 176 176 0 176 176 0 176 176 0 176 176 0 176 176 0 175 175 0
175 175 0 175 175 0 175 175 0 175 175 0 174 174 0 174 174 0 174 174 0
174 174 0 174 174 0 173 173 0 173 173 0 173 173 0 173 173 0 173 173 0
0 172 0 0 172 0 0 172 0 0 172 0 0 172 0 0 171 0 0 171 0 0 171 0 0 171
0 0 171 0 0 171 0 0 170 0 0 170 0 0 170 0 0 170 0 0 170 0 0 169 0 0
169 0 0 169 0 0 169 0 0 169 0 0 169 0 0 168 0 0 168 0 0 168 0 0 168 0
0 168 0 0 167 0 0 167 0 0 167 0 0 167 0 0 167 0 0 167 0 0 166 0 0 166
0 0 166 0 0 166 0 0 166 0 165 165 0 165 165 0 0 165 0 0 165 0 0 165 0
0 165 0 0 164 0 0 164 0 0 164 0 0 164 0 0 164 0 0 163 0 0 163 0 0 163
0 0 163 0 0 163 0 0 163 0 0 162 0 0 162 0 0 162 0 0 162 0 0 162 0 0
162 0 0 161 0 0 161 0 0 161 0 0 161 0 0 161 0 0 161 0 0 160 0 0 160 0
0 160 0 0 160 0 0 160 0 0 160 0 0 159 0 0 159 0 0 159 0 0 159 0 0 159
0 0 159 0 0 158 0 158 158 0 158 158 0 158 158 0 158 158 0 158 158 0
157 157 0 157 157 0 157 157 0 157 157 0 157 157 0 157 157 0 156 156 0
156 156 0 156 156 0 156 156 0 156 156 0 156 156 0 155 155 0 155 155 0
155 155 0 155 155 0 155 155 0 155 155 0 154 154 0 154 154 0 154 154 0
154 154 0 154 154 0 154 154 0 154 154 0 153 153 0 153 153 0 153 153 0
153 153 0 153 153 0 153 153 0 152 152 0 152 152 0 152 152 0 152 152 0
0 152 0 0 152 0 0 152 0 0 151 0 0 151 0 0 151 0 0 151 0 0 151 0 0 151
0 0 150 0 0 150 0 0 150 0 0 150 0 0 150 0 0 150 0 0 150 0 0 149 0 0
149 0 0 149 0 149 149 0 149 149 0 149 149 0 148 148 0 148 148 0 148
148 0 148 148 0 148 148 0 148 148 0 148 148 0 147 147 0 147 147 0 147
147 0 147 147 0 147 147 0 147 147 0 147 147 0 146 146 0 146 146 0 146
146 0 146 146 0 146 146 0 0 146 0 0 146 0 0 145 0 0 145 0 0 145 0 0
145 0 0 145 0 0 145 0 0 145 0 0 144 0 0 144 0 0 144 0 0 144 0 0 144 0
189 189 0 189 189 0 188 188 0 188 188 0 188 188 0 188 188 0 187 187 0
187 187 0 187 187 0 187 187 0 187 187 0 186 186 0 186 186 0 186 186 0
186 186 0 186 186 0 185 185 0 185 185 0 185 185 0 185 185 0 185 185 0
0 184 0 0 184 0 0 184 0 0 184 0 0 184 0 0 183 0 0 183 0 0 183 0 0 183
0 0 182 0 0 182 0 0 182 0 0 182 0 0 182 0 0 181 0 0 181 0 0 181 0 0
181 0 0 181 0 180 180 0 180 180 0 180 180 0 180 180 0 180 180 0 179
179 0 179 179 0 179 179 0 179 179 0 179 179 0 178 178 0 178 178 0 178
178 0 178 178 0 178 178 0 177 177 0 177 177 0 177 177 0 177 177 0 177
177 0 176 176 0 176 176 0 176 176 0 176 176 0 176 176 0 176 176 0 175
175 0 175 175 0 175 175 0 175 175 0 175 175 0 174 174 0 174 174 0 174
174 0 174 174 0 174 174 0 173 173 0 173 173 0 173 173 0 173 173 0 173
173 0 0 172 0 0 172 0 0 172 0 0 172 0 0 172 0 0 171 0 0 171 0 0 171 0
0 171 0 0 171 0 0 171 0 0 170 0 0 170 0 0 170 0 0 170 0 0 170 0 0 169
0 0 169 0 0 169 0 0 169 0 0 169 0 0 169 0 0 168 0 0 168 0 0 168 0 0
168 0 0 168 0 0 167 0 0 167 0 0 167 0 0 167 0 0 167 0 0 167 0 0 166 0
0 166 0 0 166 0 0 166 0 0 166 0 0 165 0 0 165 0 165 165 0 0 165 0 0
165 0 0 165 0 0 164 0 0 164 0 0 164 0 0 164 0 0 164 0 0 164 0 0 163 0
0 163 0 0 163 0 0 163 0 0 163 0 0 162 0 0 162 0 0 162 0 0 162 0 0 162
0 0 162 0 0 161 0 0 161 0 0 161 0 0 161 0 0 161 0 0 161 0 0 160 0 0
160 0 0 160 0 0 160 0 0 160 0 0 160 0 0 159 0 0 159 0 0 159 0 0 159 0
0 159 0 0 159 0 0 158 0 158 158 0 158 158 0 158 158 0 158 158 0 158
158 0 157 157 0 157 157 0 157 157 0 157 157 0 157 157 0 157 157 0 156
156 0 156 156 0 156 156 0 156 156 0 156 156 0 156 156 0 155 155 0 155
155 0 155 155 0 155 155 0 155 155 0 155 155 0 155 155 0 154 154 0 154
154 0 154 154 0 154 154 0 154 154 0 154 154 0 153 153 0 153 153 0 153
153 0 153 153 0 153 153 0 153 153 0 152 152 0 152 152 0 152 152 0 152
152 0 0 152 0 0 152 0 0 152 0 0 151 0 0 151 0 0 151 0 0 151 0 0 151 0
0 151 0 0 151 0 0 150 0 0 150 0 0 150 0 0 150 0 0 150 0 0 150 0 0 149
0 0 149 0 0 149 0 0 149 0 0 149 0 149 149 0 149 149 0 148 148 0 148
148 0 148 148 0 148 148 0 148 148 0 148 148 0 148 148 0 147 147 0 147
147 0 147 147 0 147 147 0 147 147 0 147 147 0 147 147 0 146 146 0 146
146 0 146 146 0 146 146 0 0 146 0 0 146 0 0 146 0 0 145 0 0 145 0 0
145 0 0 145 0 0 145 0 0 145 0 0 145 0 0 144 0 0 144 0 0 144 0 0 144 0
189 189 0 188 188 0 188 188 0 188 188 0 188 188 0 188 188 0 187 187 0
187 187 0 187 187 0 187 187 0 187 187 0 186 186 0 186 186 0 186 186 0
186 186 0 186 186 0 185 185 0 185 185 0 185 185 0 185 185 0 184 184 0
184 184 0 184 184 0 0 184 0 0 184 0 0 183 0 0 183 0 0 183 0 0 183 0 0
183 0 0 182 0 0 182 0 0 182 0 0 182 0 0 182 0 0 181 0 0 181 0 0 181 0
0 181 0 0 181 0 180 180 0 180 180 0 180 180 0 180 180 0 180 180 0 179
179 0 179 179 0 179 179 0 179 179 0 179 179 0 178 178 0 178 178 0 178
178 0 178 178 0 178 178 0 177 177 0 177 177 0 177 177 0 177 177 0 177
177 0 176 176 0 176 176 0 176 176 0 176 176 0 176 176 0 175 175 0 175
175 0 175 175 0 175 175 0 175 175 0 175 175 0 174 174 0 174 174 0 174
174 0 174 174 0 174 174 0 173 173 0 173 173 0 173 173 0 173 173 0 0
173 0 0 172 0 0 172 0 0 172 0 0 172 0 0 172 0 0 171 0 0 171 0 0 171 0
0 171 0 0 171 0 0 171 0 0 170 0 0 170 0 0 170 0 0 170 0 0 170 0 0 169
0 0 169 0 0 169 0 0 169 0 0 169 0 0 169 0 0 168 0 0 168 0 0 168 0 0
168 0 0 168 0 0 167 0 0 167 0 0 167 0 0 167 0 0 167 0 0 167 0 0 166 0
0 166 0 0 166 0 0 166 0 0 166 0 0 165 0 0 165 0 165 165 0 165 165 0
165 165 0 0 165 0 0 164 0 0 164 0 0 164 0 0 164 0 0 164 0 0 164 0 0
163 0 0 163 0 0 163 0 0 163 0 0 163 0 0 163 0 0 162 0 0 162 0 0 162 0
0 162 0 0 162 0 0 161 0 0 161 0 0 161 0 0 161 0 0 161 0 0 161 0 0 160
0 0 160 0 0 160 0 0 160 0 0 160 0 0 160 0 0 159 0 0 159 0 0 159 0 0
159 0 0 159 0 0 159 0 0 158 0 158 158 0 158 158 0 158 158 0 158 158 0
158 158 0 157 157 0 157 157 0 157 157 0 157 157 0 157 157 0 157 157 0
157 157 0 156 156 0 156 156 0 156 156 0 156 156 0 156 156 0 156 156 0
155 155 0 155 155 0 155 155 0 155 155 0 155 155 0 155 155 0 154 154 0
154 154 0 154 154 0 154 154 0 154 154 0 154 154 0 153 153 0 153 153 0
153 153 0 153 153 0 153 153 0 153 153 0 153 153 0 152 152 0 152 152 0
152 152 0 0 152 0 0 152 0 0 152 0 0 151 0 0 151 0 0 151 0 0 151 0 0
151 0 0 151 0 0 151 0 0 150 0 0 150 0 0 150 0 0 150 0 0 150 0 0 150 0
0 150 0 0 149 0 0 149 0 0 149 0 0 149 0 0 149 0 0 149 0 0 149 0 148
148 0 148 148 0 148 148 0 148 148 0 148 148 0 148 148 0 147 147 0 147
147 0 147 147 0 147 147 0 147 147 0 147 147 0 147 147 0 146 146 0 146
146 0 146 146 0 146 146 0 0 146 0 0 146 0 0 146 0 0 145 0 0 145 0 0
145 0 0 145 0 0 145 0 0 145 0 0 145 0 0 145 0 0 144 0 0 144 0 0 144 0
189 189 0 188 188 0 188 188 0 188 188 0 188 188 0 188 188 0 187 187 0
187 187 0 187 187 0 187 187 0 187 187 0 186 186 0 186 186 0 186 186 0
186 186 0 185 185 0 185 185 0 185 185 0 185 185 0 185 185 0 184 184 0
184 184 0 184 184 0 184 184 0 184 184 0 0 183 0 0 183 0 0 183 0 0 183
0 0 183 0 0 182 0 0 182 0 0 182 0 0 182 0 0 182 0 0 181 0 0 181 0 0
181 0 0 181 0 181 181 0 180 180 0 180 180 0 180 180 0 180 180 0 180
180 0 179 179 0 179 179 0 179 179 0 179 179 0 179 179 0 178 178 0 178
178 0 178 178 0 178 178 0 178 178 0 177 177 0 177 177 0 177 177 0 177
177 0 177 177 0 176 176 0 176 176 0 176 176 0 176 176 0 176 176 0 175
175 0 175 175 0 175 175 0 175 175 0 175 175 0 175 175 0 174 174 0 174
174 0 174 174 0 174 174 0 174 174 0 173 173 0 173 173 0 173 173 0 173
173 0 0 173 0 0 172 0 0 172 0 0 172 0 0 172 0 0 172 0 0 171 0 0 171 0
0 171 0 0 171 0 0 171 0 0 171 0 0 170 0 0 170 0 0 170 0 0 170 0 0 170
0 0 169 0 0 169 0 0 169 0 0 169 0 0 169 0 0 169 0 0 168 0 0 168 0 0
168 0 0 168 0 0 168 0 0 167 0 0 167 0 0 167 0 0 167 0 0 167 0 0 167 0
0 166 0 0 166 0 0 166 0 0 166 0 0 166 0 0 166 0 165 165 0 165 165 0
165 165 0 165 165 0 165 165 0 164 164 0 164 164 0 0 164 0 0 164 0 0
164 0 0 164 0 0 163 0 0 163 0 0 163 0 0 163 0 0 163 0 0 163 0 0 162 0
0 162 0 0 162 0 0 162 0 0 162 0 0 162 0 0 161 0 0 161 0 0 161 0 0 161
0 0 161 0 0 161 0 0 160 0 0 160 0 0 160 0 0 160 0 0 160 0 0 160 0 0
159 0 0 159 0 0 159 0 0 159 0 0 159 0 0 159 0 158 158 0 158 158 0 158
158 0 158 158 0 158 158 0 158 158 0 157 157 0 157 157 0 157 157 0 157
157 0 157 157 0 157 157 0 156 156 0 156 156 0 156 156 0 156 156 0 156
156 0 156 156 0 155 155 0 155 155 0 155 155 0 155 155 0 155 155 0 155
155 0 154 154 0 154 154 0 154 154 0 154 154 0 154 154 0 154 154 0 154
154 0 153 153 0 153 153 0 153 153 0 153 153 0 153 153 0 153 153 0 152
152 0 152 152 0 152 152 0 0 152 0 0 152 0 0 152 0 0 152 0 0 151 0 0
151 0 0 151 0 0 151 0 0 151 0 0 151 0 0 151 0 0 150 0 0 150 0 0 150 0
0 150 0 0 150 0 0 150 0 0 149 0 0 149 0 0 149 0 0 149 0 0 149 0 0 149
0 0 149 0 0 148 0 0 148 0 0 148 0 148 148 0 148 148 0 148 148 0 148
148 0 147 147 0 147 147 0 147 147 0 147 147 0 147 147 0 147 147 0 147
147 0 146 146 0 146 146 0 146 146 0 0 146 0 0 146 0 0 146 0 0 146 0 0
145 0 0 145 0 0 145 0 0 145 0 0 145 0 0 145 0 0 145 0 0 144 0 0 144 0
0 144 0
189 189 0 188 188 0 188 188 0 188 188 0 188 188 0 187 187 0 187 187 0
187 187 0 187 187 0 187 187 0 186 186 0 186 186 0 186 186 0 186 186 0
186 186 0 185 185 0 185 185 0 185 185 0 185 185 0 185 185 0 184 184 0
184 184 0 184 184 0 184 184 0 184 184 0 183 183 0 183 183 0 0 183 0 0
183 0 0 183 0 0 182 0 0 182 0 0 182 0 0 182 0 0 182 0 0 181 0 0 181 0
0 181 0 181 181 0 181 181 0 180 180 0 180 180 0 180 180 0 180 180 0
180 180 0 179 179 0 179 179 0 179 179 0 179 179 0 179 179 0 178 178 0
178 178 0 178 178 0 178 178 0 178 178 0 177 177 0 177 177 0 177 177 0
177 177 0 177 177 0 176 176 0 176 176 0 176 176 0 176 176 0 176 176 0
175 175 0 175 175 0 175 175 0 175 175 0 175 175 0 175 175 0 174 174 0
174 174 0 174 174 0 174 174 0 174 174 0 173 173 0 173 173 0 173 173 0
0 173 0 0 173 0 0 172 0 0 172 0 0 172 0 0 172 0 0 172 0 0 172 0 0 171
0 0 171 0 0 171 0 0 171 0 0 171 0 0 170 0 0 170 0 0 170 0 0 170 0 0
170 0 0 169 0 0 169 0 0 169 0 0 169 0 0 169 0 0 169 0 0 168 0 0 168 0
0 168 0 0 168 0 0 168 0 0 167 0 0 167 0 0 167 0 0 167 0 0 167 0 0 167
0 0 166 0 0 166 0 0 166 0 0 166 0 0 166 0 0 166 0 165 165 0 165 165 0
165 165 0 165 165 0 165 165 0 164 164 0 164 164 0 164 164 0 164 164 0
0 164 0 0 164 0 0 163 0 0 163 0 0 163 0 0 163 0 0 163 0 0 163 0 0 162
0 0 162 0 0 162 0 0 162 0 0 162 0 0 162 0 0 161 0 0 161 0 0 161 0 0
161 0 0 161 0 0 161 0 0 160 0 0 160 0 0 160 0 0 160 0 0 160 0 0 160 0
0 159 0 0 159 0 0 159 0 0 159 0 0 159 0 159 159 0 158 158 0 158 158 0
158 158 0 158 158 0 158 158 0 158 158 0 157 157 0 157 157 0 157 157 0
157 157 0 157 157 0 157 157 0 156 156 0 156 156 0 156 156 0 156 156 0
156 156 0 156 156 0 156 156 0 155 155 0 155 155 0 155 155 0 155 155 0
155 155 0 155 155 0 154 154 0 154 154 0 154 154 0 154 154 0 154 154 0
154 154 0 153 153 0 153 153 0 153 153 0 153 153 0 153 153 0 153 153 0
153 153 0 152 152 0 152 152 0 0 152 0 0 152 0 0 152 0 0 152 0 0 151 0
0 151 0 0 151 0 0 151 0 0 151 0 0 151 0 0 151 0 0 150 0 0 150 0 0 150
0 0 150 0 0 150 0 0 150 0 0 150 0 0 149 0 0 149 0 0 149 0 0 149 0 0
149 0 0 149 0 0 149 0 0 148 0 0 148 0 0 148 0 0 148 0 0 148 0 148 148
0 148 148 0 147 147 0 147 147 0 147 147 0 147 147 0 147 147 0 147 147
0 147 147 0 146 146 0 146 146 0 0 146 0 0 146 0 0 146 0 0 146 0 0 146
0 0 145 0 0 145 0 0 145 0 0 145 0 0 145 0 0 145 0 0 145 0 0 144 0 0
144 0
188 188 0 188 188 0 188 188 0 188 188 0 188 188 0 187 187 0 187 187 0
187 187 0 187 187 0 187 187 0 186 186 0 186 186 0 186 186 0 186 186 0
186 186 0 185 185 0 185 185 0 185 185 0 185 185 0 185 185 0 184 184 0
184 184 0 184 184 0 184 184 0 184 184 0 183 183 0 183 183 0 183 183 0
183 183 0 0 183 0 0 182 0 0 182 0 0 182 0 0 182 0 0 182 0 0 181 0 0
181 0 181 181 0 181 181 0 181 181 0 180 180 0 180 180 0 180 180 0 180
180 0 180 180 0 179 179 0 179 179 0 179 179 0 179 179 0 179 179 0 178
178 0 178 178 0 178 178 0 178 178 0 178 178 0 177 177 0 177 177 0 177
177 0 177 177 0 177 177 0 176 176 0 176 176 0 176 176 0 176 176 0 176
176 0 175 175 0 175 175 0 175 175 0 175 175 0 175 175 0 175 175 0 174
174 0 174 174 0 174 174 0 174 174 0 174 174 0 173 173 0 173 173 0 0
173 0 0 173 0 0 173 0 0 172 0 0 172 0 0 172 0 0 172 0 0 172 0 0 172 0
0 171 0 0 171 0 0 171 0 0 171 0 0 171 0 0 170 0 0 170 0 0 170 0 0 170
0 0 170 0 0 169 0 0 169 0 0 169 0 0 169 0 0 169 0 0 169 0 0 168 0 0
168 0 0 168 0 0 168 0 0 168 0 0 168 0 0 167 0 0 167 0 0 167 0 0 167 0
0 167 0 0 166 0 0 166 0 0 166 0 0 166 0 0 166 0 166 166 0 165 165 0
165 165 0 165 165 0 165 165 0 165 165 0 165 165 0 164 164 0 164 164 0
164 164 0 164 164 0 164 164 0 0 163 0 0 163 0 0 163 0 0 163 0 0 163 0
0 163 0 0 162 0 0 162 0 0 162 0 0 162 0 0 162 0 0 162 0 0 161 0 0 161
0 0 161 0 0 161 0 0 161 0 0 161 0 0 160 0 0 160 0 0 160 0 0 160 0 0
160 0 0 160 0 0 159 0 0 159 0 0 159 0 0 159 0 0 159 0 159 159 0 158
158 0 158 158 0 158 158 0 158 158 0 158 158 0 158 158 0 157 157 0 157
157 0 157 157 0 157 157 0 157 157 0 157 157 0 157 157 0 156 156 0 156
156 0 156 156 0 156 156 0 156 156 0 156 156 0 155 155 0 155 155 0 155
155 0 155 155 0 155 155 0 155 155 0 154 154 0 154 154 0 154 154 0 154
154 0 154 154 0 154 154 0 154 154 0 153 153 0 153 153 0 153 153 0 153
153 0 153 153 0 153 153 0 152 152 0 152 152 0 0 152 0 0 152 0 0 152 0
0 152 0 0 152 0 0 151 0 0 151 0 0 151 0 0 151 0 0 151 0 0 151 0 0 151
0 0 150 0 0 150 0 0 150 0 0 150 0 0 150 0 0 150 0 0 149 0 0 149 0 0
149 0 0 149 0 0 149 0 0 149 0 0 149 0 0 148 0 0 148 0 0 148 0 0 148 0
0 148 0 0 148 0 0 148 0 0 147 0 147 147 0 147 147 0 147 147 0 147 147
0 147 147 0 147 147 0 146 146 0 146 146 0 0 146 0 0 146 0 0 146 0 0
146 0 0 146 0 0 145 0 0 145 0 0 145 0 0 145 0 0 145 0 0 145 0 0 145 0
0 145 0 0 144 0
188 188 0 188 188 0 188 188 0 188 188 0 188 188 0 187 187 0 187 187 0
187 187 0 187 187 0 187 187 0 186 186 0 186 186 0 186 186 0 186 186 0
186 186 0 185 185 0 185 185 0 185 185 0 185 185 0 184 184 0 184 184 0
184 184 0 184 184 0 184 184 0 183 183 0 183 183 0 183 183 0 183 183 0
183 183 0 182 182 0 182 182 0 0 182 0 0 182 0 0 182 0 0 181 0 0 181 0
0 181 0 181 181 0 181 181 0 180 180 0 180 180 0 180 180 0 180 180 0
180 180 0 180 180 0 179 179 0 179 179 0 179 179 0 179 179 0 179 179 0
178 178 0 178 178 0 178 178 0 178 178 0 178 178 0 177 177 0 177 177 0
177 177 0 177 177 0 177 177 0 176 176 0 176 176 0 176 176 0 176 176 0
176 176 0 175 175 0 175 175 0 175 175 0 175 175 0 175 175 0 174 174 0
174 174 0 174 174 0 174 174 0 174 174 0 174 174 0 173 173 0 173 173 0
0 173 0 0 173 0 0 173 0 0 172 0 0 172 0 0 172 0 0 172 0 0 172 0 0 172
0 0 171 0 0 171 0 0 171 0 0 171 0 0 171 0 0 170 0 0 170 0 0 170 0 0
170 0 0 170 0 0 169 0 0 169 0 0 169 0 0 169 0 0 169 0 0 169 0 0 168 0
0 168 0 0 168 0 0 168 0 0 168 0 0 168 0 0 167 0 0 167 0 0 167 0 0 167
0 0 167 0 0 166 0 0 166 0 0 166 0 0 166 0 0 166 0 166 166 0 165 165 0
165 165 0 165 165 0 165 165 0 165 165 0 165 165 0 164 164 0 164 164 0
164 164 0 164 164 0 164 164 0 164 164 0 163 163 0 163 163 0 0 163 0 0
163 0 0 163 0 0 162 0 0 162 0 0 162 0 0 162 0 0 162 0 0 162 0 0 161 0
0 161 0 0 161 0 0 161 0 0 161 0 0 161 0 0 160 0 0 160 0 0 160 0 0 160
0 0 160 0 0 160 0 0 159 0 0 159 0 0 159 0 0 159 0 0 159 0 159 159 0
158 158 0 158 158 0 158 158 0 158 158 0 158 158 0 158 158 0 158 158 0
157 157 0 157 157 0 157 157 0 157 157 0 157 157 0 157 157 0 156 156 0
156 156 0 156 156 0 156 156 0 156 156 0 156 156 0 155 155 0 155 155 0
155 155 0 155 155 0 155 155 0 155 155 0 155 155 0 154 154 0 154 154 0
154 154 0 154 154 0 154 154 0 154 154 0 153 153 0 153 153 0 153 153 0
153 153 0 153 153 0 153 153 0 153 153 0 152 152 0 0 152 0 0 152 0 0
152 0 0 152 0 0 152 0 0 151 0 0 151 0 0 151 0 0 151 0 0 151 0 0 151 0
0 151 0 0 150 0 0 150 0 0 150 0 0 150 0 0 150 0 0 150 0 0 150 0 0 149
0 0 149 0 0 149 0 0 149 0 0 149 0 0 149 0 0 149 0 0 148 0 0 148 0 0
148 0 0 148 0 0 148 0 0 148 0 0 148 0 0 147 0 0 147 0 147 147 0 147
147 0 147 147 0 147 147 0 147 147 0 146 146 0 0 146 0 0 146 0 0 146 0
0 146 0 0 146 0 0 146 0 0 145 0 0 145 0 0 145 0 0 145 0 0 145 0 0 145
0 0 145 0 0 144 0
188 188 0 188 188 0 188 188 0 188 188 0 188 188 0 187 187 0 187 187 0
187 187 0 187 187 0 186 186 0 186 186 0 186 186 0 186 186 0 186 186 0
185 185 0 185 185 0 185 185 0 185 185 0 185 185 0 184 184 0 184 184 0
184 184 0 184 184 0 184 184 0 183 183 0 183 183 0 183 183 0 183 183 0
183 183 0 182 182 0 182 182 0 182 182 0 182 182 0 0 182 0 0 181 0 0
181 0 181 181 0 181 181 0 181 181 0 180 180 0 180 180 0 180 180 0 180
180 0 180 180 0 179 179 0 179 179 0 179 179 0 179 179 0 179 179 0 178
178 0 178 178 0 178 178 0 178 178 0 178 178 0 178 178 0 177 177 0 177
177 0 177 177 0 177 177 0 177 177 0 176 176 0 176 176 0 176 176 0 176
176 0 176 176 0 175 175 0 175 175 0 175 175 0 175 175 0 175 175 0 174
174 0 174 174 0 174 174 0 174 174 0 174 174 0 174 174 0 173 173 0 0
173 0 0 173 0 0 173 0 0 173 0 0 172 0 0 172 0 0 172 0 0 172 0 0 172 0
0 172 0 0 171 0 0 171 0 0 171 0 0 171 0 0 171 0 0 170 0 0 170 0 0 170
0 0 170 0 0 170 0 0 170 0 0 169 0 0 169 0 0 169 0 0 169 0 0 169 0 0
168 0 0 168 0 0 168 0 0 168 0 0 168 0 0 168 0 0 167 0 0 167 0 0 167 0
0 167 0 0 167 0 0 166 0 0 166 0 0 166 0 0 166 0 166 166 0 166 166 0
165 165 0 165 165 0 165 165 0 165 165 0 165 165 0 165 165 0 164 164 0
164 164 0 164 164 0 164 164 0 164 164 0 164 164 0 163 163 0 163 163 0
163 163 0 163 163 0 0 163 0 0 163 0 0 162 0 0 162 0 0 162 0 0 162 0 0
162 0 0 162 0 0 161 0 0 161 0 0 161 0 0 161 0 0 161 0 0 161 0 0 160 0
0 160 0 0 160 0 0 160 0 0 160 0 0 160 0 0 159 0 0 159 0 0 159 0 0 159
0 159 159 0 159 159 0 158 158 0 158 158 0 158 158 0 158 158 0 158 158
0 158 158 0 157 157 0 157 157 0 157 157 0 157 157 0 157 157 0 157 157
0 156 156 0 156 156 0 156 156 0 156 156 0 156 156 0 156 156 0 156 156
0 155 155 0 155 155 0 155 155 0 155 155 0 155 155 0 155 155 0 154 154
0 154 154 0 154 154 0 154 154 0 154 154 0 154 154 0 154 154 0 153 153
0 153 153 0 153 153 0 153 153 0 153 153 0 153 153 0 152 152 0 0 152 0
0 152 0 0 152 0 0 152 0 0 152 0 0 152 0 0 151 0 0 151 0 0 151 0 0 151
0 0 151 0 0 151 0 0 151 0 0 150 0 0 150 0 0 150 0 0 150 0 0 150 0 0
150 0 0 149 0 0 149 0 0 149 0 0 149 0 0 149 0 0 149 0 0 149 0 0 148 0
0 148 0 0 148 0 0 148 0 0 148 0 0 148 0 0 148 0 0 147 0 0 147 0 0 147
0 0 147 0 0 147 0 147 147 0 147 147 0 146 146 0 0 146 0 0 146 0 0 146
0 0 146 0 0 146 0 0 146 0 0 146 0 0 145 0 0 145 0 0 145 0 0 145 0 0
145 0 0 145 0 0 145 0
188 188 0 188 188 0 188 188 0 188 188 0 187 187 0 187 187 0 187 187 0
187 187 0 187 187 0 186 186 0 186 186 0 186 186 0 186 186 0 186 186 0
185 185 0 185 185 0 185 185 0 185 185 0 185 185 0 184 184 0 184 184 0
184 184 0 184 184 0 184 184 0 183 183 0 183 183 0 183 183 0 183 183 0
183 183 0 182 182 0 182 182 0 182 182 0 182 182 0 182 182 0 181 181 0
181 181 0 181 181 0 181 181 0 181 181 0 180 180 0 180 180 0 180 180 0
180 180 0 180 180 0 179 179 0 179 179 0 179 179 0 179 179 0 179 179 0
178 178 0 178 178 0 178 178 0 178 178 0 178 178 0 178 178 0 177 177 0
177 177 0 177 177 0 177 177 0 177 177 0 176 176 0 176 176 0 176 176 0
176 176 0 176 176 0 175 175 0 175 175 0 175 175 0 175 175 0 175 175 0
174 174 0 174 174 0 174 174 0 174 174 0 174 174 0 174 174 0 173 173 0
0 173 0 0 173 0 0 173 0 0 173 0 0 172 0 0 172 0 0 172 0 0 172 0 0 172
0 0 172 0 0 171 0 0 171 0 0 171 0 0 171 0 0 171 0 0 170 0 0 170 0 0
170 0 0 170 0 0 170 0 0 170 0 0 169 0 0 169 0 0 169 0 0 169 0 0 169 0
0 168 0 0 168 0 0 168 0 0 168 0 0 168 0 0 168 0 0 167 0 0 167 0 0 167
0 0 167 0 0 167 0 0 166 0 0 166 0 0 166 0 0 166 0 166 166 0 166 166 0
165 165 0 165 165 0 165 165 0 165 165 0 165 165 0 165 165 0 164 164 0
164 164 0 164 164 0 164 164 0 164 164 0 164 164 0 163 163 0 163 163 0
163 163 0 163 163 0 163 163 0 163 163 0 0 162 0 0 162 0 0 162 0 0 162
0 0 162 0 0 162 0 0 161 0 0 161 0 0 161 0 0 161 0 0 161 0 0 161 0 0
160 0 0 160 0 0 160 0 0 160 0 0 160 0 0 160 0 0 159 0 0 159 0 0 159 0
0 159 0 159 159 0 159 159 0 158 158 0 158 158 0 158 158 0 158 158 0
158 158 0 158 158 0 157 157 0 157 157 0 157 157 0 157 157 0 157 157 0
157 157 0 157 157 0 156 156 0 156 156 0 156 156 0 156 156 0 156 156 0
156 156 0 155 155 0 155 155 0 155 155 0 155 155 0 155 155 0 155 155 0
154 154 0 154 154 0 154 154 0 154 154 0 154 154 0 154 154 0 154 154 0
153 153 0 153 153 0 153 153 0 153 153 0 153 153 0 153 153 0 153 153 0
0 152 0 0 152 0 0 152 0 0 152 0 0 152 0 0 152 0 0 151 0 0 151 0 0 151
0 0 151 0 0 151 0 0 151 0 0 151 0 0 150 0 0 150 0 0 150 0 0 150 0 0
150 0 0 150 0 0 150 0 0 149 0 0 149 0 0 149 0 0 149 0 0 149 0 0 149 0
0 149 0 0 148 0 0 148 0 0 148 0 0 148 0 0 148 0 0 148 0 0 148 0 0 147
0 0 147 0 0 147 0 0 147 0 0 147 0 0 147 0 0 147 0 0 146 0 0 146 0 0
146 0 0 146 0 0 146 0 0 146 0 0 146 0 0 145 0 0 145 0 0 145 0 0 145 0
0 145 0 0 145 0 0 145 0
188 188 0 188 188 0 188 188 0 188 188 0 187 187 0 187 187 0 187 187 0
187 187 0 187 187 0 186 186 0 186 186 0 186 186 0 186 186 0 186 186 0
185 185 0 185 185 0 185 185 0 185 185 0 185 185 0 184 184 0 184 184 0
184 184 0 184 184 0 184 184 0 183 183 0 183 183 0 183 183 0 183 183 0
183 183 0 182 182 0 182 182 0 182 182 0 182 182 0 182 182 0 0 181 0 0
181 0 0 181 0 181 181 0 181 181 0 180 180 0 180 180 0 180 180 0 180
180 0 180 180 0 179 179 0 179 179 0 179 179 0 179 179 0 179 179 0 178
178 0 178 178 0 178 178 0 178 178 0 178 178 0 177 177 0 177 177 0 177
177 0 177 177 0 177 177 0 177 177 0 176 176 0 176 176 0 176 176 0 176
176 0 176 176 0 175 175 0 175 175 0 175 175 0 175 175 0 175 175 0 174
174 0 174 174 0 174 174 0 174 174 0 174 174 0 174 174 0 0 173 0 0 173
0 0 173 0 0 173 0 0 173 0 0 172 0 0 172 0 0 172 0 0 172 0 0 172 0 0
172 0 0 171 0 0 171 0 0 171 0 0 171 0 0 171 0 0 170 0 0 170 0 0 170 0
0 170 0 0 170 0 0 170 0 0 169 0 0 169 0 0 169 0 0 169 0 0 169 0 0 168
0 0 168 0 0 168 0 0 168 0 0 168 0 0 168 0 0 167 0 0 167 0 0 167 0 0
167 0 0 167 0 0 167 0 0 166 0 0 166 0 0 166 0 166 166 0 166 166 0 165
165 0 165 165 0 165 165 0 165 165 0 165 165 0 165 165 0 164 164 0 164
164 0 164 164 0 164 164 0 164 164 0 164 164 0 163 163 0 163 163 0 163
163 0 163 163 0 163 163 0 163 163 0 162 162 0 162 162 0 162 162 0 0
162 0 0 162 0 0 162 0 0 161 0 0 161 0 0 161 0 0 161 0 0 161 0 0 161 0
0 160 0 0 160 0 0 160 0 0 160 0 0 160 0 0 160 0 0 159 0 0 159 0 0 159
0 159 159 0 159 159 0 159 159 0 158 158 0 158 158 0 158 158 0 158 158
0 158 158 0 158 158 0 158 158 0 157 157 0 157 157 0 157 157 0 157 157
0 157 157 0 157 157 0 156 156 0 156 156 0 156 156 0 156 156 0 156 156
0 156 156 0 155 155 0 155 155 0 155 155 0 155 155 0 155 155 0 155 155
0 155 155 0 154 154 0 154 154 0 154 154 0 154 154 0 154 154 0 154 154
0 153 153 0 153 153 0 153 153 0 153 153 0 153 153 0 153 153 0 153 153
0 0 152 0 0 152 0 0 152 0 0 152 0 0 152 0 0 152 0 0 152 0 0 151 0 0
151 0 0 151 0 0 151 0 0 151 0 0 151 0 0 151 0 0 150 0 0 150 0 0 150 0
0 150 0 0 150 0 0 150 0 0 149 0 0 149 0 0 149 0 0 149 0 0 149 0 0 149
0 0 149 0 0 148 0 0 148 0 0 148 0 0 148 0 0 148 0 0 148 0 0 148 0 0
147 0 0 147 0 0 147 0 0 147 0 0 147 0 0 147 0 0 147 0 0 147 0 146 146
0 146 146 0 0 146 0 0 146 0 0 146 0 0 146 0 0 146 0 0 145 0 0 145 0 0
145 0 0 145 0 0 145 0 0 145 0
188 188 0 188 188 0 188 188 0 188 188 0 187 187 0 187 187 0 187 187 0
187 187 0 187 187 0 186 186 0 186 186 0 186 186 0 186 186 0 186 186 0
185 185 0 185 185 0 185 185 0 185 185 0 184 184 0 184 184 0 184 184 0
184 184 0 184 184 0 184 184 0 183 183 0 183 183 0 183 183 0 183 183 0
183 183 0 182 182 0 182 182 0 182 182 0 182 182 0 182 182 0 0 181 0 0
181 0 0 181 0 0 181 0 0 181 0 180 180 0 180 180 0 180 180 0 180 180 0
180 180 0 179 179 0 179 179 0 179 179 0 179 179 0 179 179 0 178 178 0
178 178 0 178 178 0 178 178 0 178 178 0 177 177 0 177 177 0 177 177 0
177 177 0 177 177 0 177 177 0 176 176 0 176 176 0 176 176 0 176 176 0
176 176 0 175 175 0 175 175 0 175 175 0 175 175 0 175 175 0 174 174 0
174 174 0 174 174 0 174 174 0 174 174 0 0 174 0 0 173 0 0 173 0 0 173
0 0 173 0 0 173 0 0 172 0 0 172 0 0 172 0 0 172 0 0 172 0 0 172 0 0
171 0 0 171 0 0 171 0 0 171 0 0 171 0 0 170 0 0 170 0 0 170 0 0 170 0
0 170 0 0 170 0 0 169 0 0 169 0 0 169 0 0 169 0 0 169 0 0 168 0 0 168
0 0 168 0 0 168 0 0 168 0 0 168 0 0 167 0 0 167 0 0 167 0 0 167 0 0
167 0 0 167 0 0 166 0 0 166 0 166 166 0 166 166 0 166 166 0 165 165 0
165 165 0 165 165 0 165 165 0 165 165 0 165 165 0 164 164 0 164 164 0
164 164 0 164 164 0 164 164 0 164 164 0 163 163 0 163 163 0 163 163 0
163 163 0 163 163 0 163 163 0 162 162 0 162 162 0 162 162 0 162 162 0
162 162 0 0 162 0 0 161 0 0 161 0 0 161 0 0 161 0 0 161 0 0 161 0 0
160 0 0 160 0 0 160 0 0 160 0 0 160 0 0 160 0 0 159 0 0 159 0 0 159 0
159 159 0 159 159 0 159 159 0 159 159 0 158 158 0 158 158 0 158 158 0
158 158 0 158 158 0 158 158 0 157 157 0 157 157 0 157 157 0 157 157 0
157 157 0 157 157 0 156 156 0 156 156 0 156 156 0 156 156 0 156 156 0
156 156 0 156 156 0 155 155 0 155 155 0 155 155 0 155 155 0 155 155 0
155 155 0 154 154 0 154 154 0 154 154 0 154 154 0 154 154 0 154 154 0
154 154 0 153 153 0 153 153 0 153 153 0 153 153 0 153 153 0 153 153 0
0 152 0 0 152 0 0 152 0 0 152 0 0 152 0 0 152 0 0 152 0 0 151 0 0 151
0 0 151 0 0 151 0 0 151 0 0 151 0 0 151 0 0 150 0 0 150 0 0 150 0 0
150 0 0 150 0 0 150 0 0 150 0 0 149 0 0 149 0 0 149 0 0 149 0 0 149 0
0 149 0 0 149 0 0 148 0 0 148 0 0 148 0 0 148 0 0 148 0 0 148 0 0 148
0 0 147 0 0 147 0 0 147 0 0 147 0 0 147 0 0 147 0 0 147 0 146 146 0
146 146 0 146 146 0 146 146 0 146 146 0 0 146 0 0 146 0 0 145 0 0 145
0 0 145 0 0 145 0 0 145 0 0 145 0
188 188 0 188 188 0 188 188 0 187 187 0 187 187 0 187 187 0 187 187 0
187 187 0 186 186 0 186 186 0 186 186 0 186 186 0 186 186 0 185 185 0
185 185 0 185 185 0 185 185 0 185 185 0 184 184 0 184 184 0 184 184 0
184 184 0 184 184 0 183 183 0 183 183 0 183 183 0 183 183 0 183 183 0
182 182 0 182 182 0 182 182 0 182 182 0 182 182 0 0 181 0 0 181 0 0
181 0 0 181 0 0 181 0 0 181 0 0 180 0 180 180 0 180 180 0 180 180 0
180 180 0 179 179 0 179 179 0 179 179 0 179 179 0 179 179 0 178 178 0
178 178 0 178 178 0 178 178 0 178 178 0 177 177 0 177 177 0 177 177 0
177 177 0 177 177 0 176 176 0 176 176 0 176 176 0 176 176 0 176 176 0
176 176 0 175 175 0 175 175 0 175 175 0 175 175 0 175 175 0 174 174 0
174 174 0 174 174 0 174 174 0 174 174 0 0 174 0 0 173 0 0 173 0 0 173
0 0 173 0 0 173 0 0 172 0 0 172 0 0 172 0 0 172 0 0 172 0 0 172 0 0
171 0 0 171 0 0 171 0 0 171 0 0 171 0 0 170 0 0 170 0 0 170 0 0 170 0
0 170 0 0 170 0 0 169 0 0 169 0 0 169 0 0 169 0 0 169 0 0 168 0 0 168
0 0 168 0 0 168 0 0 168 0 0 168 0 0 167 0 0 167 0 0 167 0 0 167 0 0
167 0 0 167 0 0 166 0 0 166 0 166 166 0 166 166 0 166 166 0 166 166 0
165 165 0 165 165 0 165 165 0 165 165 0 165 165 0 164 164 0 164 164 0
164 164 0 164 164 0 164 164 0 164 164 0 163 163 0 163 163 0 163 163 0
163 163 0 163 163 0 163 163 0 162 162 0 162 162 0 162 162 0 162 162 0
162 162 0 162 162 0 161 161 0 0 161 0 0 161 0 0 161 0 0 161 0 0 161 0
0 161 0 0 160 0 0 160 0 0 160 0 0 160 0 0 160 0 0 160 0 0 159 0 0 159
0 159 159 0 159 159 0 159 159 0 159 159 0 158 158 0 158 158 0 158 158
0 158 158 0 158 158 0 158 158 0 157 157 0 157 157 0 157 157 0 157 157
0 157 157 0 157 157 0 157 157 0 156 156 0 156 156 0 156 156 0 156 156
0 156 156 0 156 156 0 155 155 0 155 155 0 155 155 0 155 155 0 155 155
0 155 155 0 155 155 0 154 154 0 154 154 0 154 154 0 154 154 0 154 154
0 154 154 0 153 153 0 153 153 0 153 153 0 153 153 0 153 153 0 153 153
0 0 153 0 0 152 0 0 152 0 0 152 0 0 152 0 0 152 0 0 152 0 0 152 0 0
151 0 0 151 0 0 151 0 0 151 0 0 151 0 0 151 0 0 151 0 0 150 0 0 150 0
0 150 0 0 150 0 0 150 0 0 150 0 0 149 0 0 149 0 0 149 0 0 149 0 0 149
0 0 149 0 0 149 0 0 149 0 0 148 0 0 148 0 0 148 0 0 148 0 0 148 0 0
148 0 0 148 0 0 147 0 0 147 0 0 147 0 0 147 0 0 147 0 0 147 0 147 147
0 146 146 0 146 146 0 146 146 0 146 146 0 146 146 0 146 146 0 0 146 0
0 145 0 0 145 0 0 145 0 0 145 0 0 145 0
188 188 0 188 188 0 188 188 0 187 187 0 187 187 0 187 187 0 187 187 0
187 187 0 186 186 0 186 186 0 186 186 0 186 186 0 186 186 0 185 185 0
185 185 0 185 185 0 185 185 0 185 185 0 184 184 0 184 184 0 184 184 0
184 184 0 184 184 0 183 183 0 183 183 0 183 183 0 183 183 0 183 183 0
182 182 0 182 182 0 182 182 0 182 182 0 0 182 0 0 181 0 0 181 0 0 181
0 0 181 0 0 181 0 0 180 0 0 180 0 0 180 0 0 180 0 180 180 0 180 180 0
179 179 0 179 179 0 179 179 0 179 179 0 179 179 0 178 178 0 178 178 0
178 178 0 178 178 0 178 178 0 177 177 0 177 177 0 177 177 0 177 177 0
177 177 0 176 176 0 176 176 0 176 176 0 176 176 0 176 176 0 176 176 0
175 175 0 175 175 0 175 175 0 175 175 0 175 175 0 174 174 0 174 174 0
174 174 0 174 174 0 0 174 0 0 174 0 0 173 0 0 173 0 0 173 0 0 173 0 0
173 0 0 172 0 0 172 0 0 172 0 0 172 0 0 172 0 0 172 0 0 171 0 0 171 0
0 171 0 0 171 0 0 171 0 0 170 0 0 170 0 0 170 0 0 170 0 0 170 0 0 170
0 0 169 0 0 169 0 0 169 0 0 169 0 0 169 0 0 168 0 0 168 0 0 168 0 0
168 0 0 168 0 0 168 0 0 167 0 0 167 0 0 167 0 0 167 0 0 167 0 0 167 0
0 166 0 166 166 0 166 166 0 166 166 0 166 166 0 166 166 0 165 165 0
165 165 0 165 165 0 165 165 0 165 165 0 165 165 0 164 164 0 164 164 0
164 164 0 164 164 0 164 164 0 164 164 0 163 163 0 163 163 0 163 163 0
163 163 0 163 163 0 163 163 0 162 162 0 162 162 0 162 162 0 162 162 0
162 162 0 162 162 0 161 161 0 161 161 0 161 161 0 0 161 0 0 161 0 0
161 0 0 160 0 0 160 0 0 160 0 0 160 0 0 160 0 0 160 0 0 159 0 0 159 0
159 159 0 159 159 0 159 159 0 159 159 0 158 158 0 158 158 0 158 158 0
158 158 0 158 158 0 158 158 0 158 158 0 157 157 0 157 157 0 157 157 0
157 157 0 157 157 0 157 157 0 156 156 0 156 156 0 156 156 0 156 156 0
156 156 0 156 156 0 155 155 0 155 155 0 155 155 0 155 155 0 155 155 0
155 155 0 155 155 0 154 154 0 154 154 0 154 154 0 154 154 0 154 154 0
154 154 0 154 154 0 153 153 0 153 153 0 153 153 0 153 153 0 153 153 0
0 153 0 0 152 0 0 152 0 0 152 0 0 152 0 0 152 0 0 152 0 0 152 0 0 151
0 0 151 0 0 151 0 0 151 0 0 151 0 0 151 0 0 151 0 0 150 0 0 150 0 0
150 0 0 150 0 0 150 0 0 150 0 0 150 0 0 149 0 0 149 0 0 149 0 0 149 0
0 149 0 0 149 0 0 149 0 0 148 0 0 148 0 0 148 0 0 148 0 0 148 0 0 148
0 0 148 0 0 147 0 0 147 0 0 147 0 0 147 0 0 147 0 0 147 0 147 147 0
146 146 0 146 146 0 146 146 0 146 146 0 146 146 0 146 146 0 146 146 0
146 146 0 145 145 0 0 145 0 0 145 0 0 145 0
188 188 0 188 188 0 188 188 0 187 187 0 187 187 0 187 187 0 187 187 0
187 187 0 186 186 0 186 186 0 186 186 0 186 186 0 186 186 0 185 185 0
185 185 0 185 185 0 185 185 0 185 185 0 184 184 0 184 184 0 184 184 0
184 184 0 184 184 0 183 183 0 183 183 0 183 183 0 183 183 0 183 183 0
182 182 0 182 182 0 182 182 0 0 182 0 0 182 0 0 181 0 0 181 0 0 181 0
0 181 0 0 181 0 0 180 0 0 180 0 0 180 0 0 180 0 0 180 0 0 179 0 179
179 0 179 179 0 179 179 0 179 179 0 179 179 0 178 178 0 178 178 0 178
178 0 178 178 0 178 178 0 177 177 0 177 177 0 177 177 0 177 177 0 177
177 0 176 176 0 176 176 0 176 176 0 176 176 0 176 176 0 176 176 0 175
175 0 175 175 0 175 175 0 175 175 0 175 175 0 174 174 0 174 174 0 174
174 0 174 174 0 0 174 0 0 173 0 0 173 0 0 173 0 0 173 0 0 173 0 0 173
0 0 172 0 0 172 0 0 172 0 0 172 0 0 172 0 0 172 0 0 171 0 0 171 0 0
171 0 0 171 0 0 171 0 0 170 0 0 170 0 0 170 0 0 170 0 0 170 0 0 170 0
0 169 0 0 169 0 0 169 0 0 169 0 0 169 0 0 168 0 0 168 0 0 168 0 0 168
0 0 168 0 0 168 0 0 167 0 0 167 0 0 167 0 0 167 0 0 167 0 0 167 0 0
166 0 166 166 0 166 166 0 166 166 0 166 166 0 166 166 0 165 165 0 165
165 0 165 165 0 165 165 0 165 165 0 165 165 0 164 164 0 164 164 0 164
164 0 164 164 0 164 164 0 164 164 0 163 163 0 163 163 0 163 163 0 163
163 0 163 163 0 163 163 0 162 162 0 162 162 0 162 162 0 162 162 0 162
162 0 162 162 0 161 161 0 161 161 0 161 161 0 161 161 0 161 161 0 0
161 0 0 160 0 0 160 0 0 160 0 0 160 0 0 160 0 0 160 0 0 159 0 159 159
0 159 159 0 159 159 0 159 159 0 159 159 0 159 159 0 158 158 0 158 158
0 158 158 0 158 158 0 158 158 0 158 158 0 157 157 0 157 157 0 157 157
0 157 157 0 157 157 0 157 157 0 156 156 0 156 156 0 156 156 0 156 156
0 156 156 0 156 156 0 156 156 0 155 155 0 155 155 0 155 155 0 155 155
0 155 155 0 155 155 0 154 154 0 154 154 0 154 154 0 154 154 0 154 154
0 154 154 0 154 154 0 153 153 0 153 153 0 153 153 0 153 153 0 153 153
0 0 153 0 0 153 0 0 152 0 0 152 0 0 152 0 0 152 0 0 152 0 0 152 0 0
152 0 0 151 0 0 151 0 0 151 0 0 151 0 0 151 0 0 151 0 0 151 0 0 150 0
0 150 0 0 150 0 0 150 0 0 150 0 0 150 0 0 150 0 0 149 0 0 149 0 0 149
0 0 149 0 0 149 0 0 149 0 0 149 0 0 148 0 0 148 0 0 148 0 0 148 0 0
148 0 0 148 0 0 148 0 0 147 0 0 147 0 0 147 0 0 147 0 0 147 0 147 147
0 147 147 0 146 146 0 146 146 0 146 146 0 146 146 0 146 146 0 146 146
0 146 146 0 145 145 0 145 145 0 145 145 0 145 145 0
188 188 0 188 188 0 187 187 0 187 187 0 187 187 0 187 187 0 187 187 0
186 186 0 186 186 0 186 186 0 186 186 0 186 186 0 185 185 0 185 185 0
185 185 0 185 185 0 185 185 0 184 184 0 184 184 0 184 184 0 184 184 0
184 184 0 184 184 0 183 183 0 183 183 0 183 183 0 183 183 0 183 183 0
182 182 0 182 182 0 182 182 0 0 182 0 0 182 0 0 181 0 0 181 0 0 181 0
0 181 0 0 181 0 0 180 0 0 180 0 0 180 0 0 180 0 0 180 0 0 179 0 0 179
0 0 179 0 179 179 0 179 179 0 178 178 0 178 178 0 178 178 0 178 178 0
178 178 0 178 178 0 177 177 0 177 177 0 177 177 0 177 177 0 177 177 0
176 176 0 176 176 0 176 176 0 176 176 0 176 176 0 176 176 0 175 175 0
175 175 0 175 175 0 175 175 0 175 175 0 174 174 0 174 174 0 174 174 0
0 174 0 0 174 0 0 173 0 0 173 0 0 173 0 0 173 0 0 173 0 0 173 0 0 172
0 0 172 0 0 172 0 0 172 0 0 172 0 0 171 0 0 171 0 0 171 0 0 171 0 0
171 0 0 171 0 0 170 0 0 170 0 0 170 0 0 170 0 0 170 0 0 170 0 0 169 0
0 169 0 0 169 0 0 169 0 0 169 0 0 168 0 0 168 0 0 168 0 0 168 0 0 168
0 0 168 0 0 167 0 0 167 0 0 167 0 0 167 0 0 167 0 0 167 0 0 166 0 166
166 0 166 166 0 166 166 0 166 166 0 166 166 0 165 165 0 165 165 0 165
165 0 165 165 0 165 165 0 165 165 0 164 164 0 164 164 0 164 164 0 164
164 0 164 164 0 164 164 0 163 163 0 163 163 0 163 163 0 163 163 0 163
163 0 163 163 0 162 162 0 162 162 0 162 162 0 162 162 0 162 162 0 162
162 0 161 161 0 161 161 0 161 161 0 161 161 0 161 161 0 161 161 0 160
160 0 0 160 0 0 160 0 0 160 0 0 160 0 0 160 0 0 159 0 159 159 0 159
159 0 159 159 0 159 159 0 159 159 0 159 159 0 158 158 0 158 158 0 158
158 0 158 158 0 158 158 0 158 158 0 157 157 0 157 157 0 157 157 0 157
157 0 157 157 0 157 157 0 157 157 0 156 156 0 156 156 0 156 156 0 156
156 0 156 156 0 156 156 0 155 155 0 155 155 0 155 155 0 155 155 0 155
155 0 155 155 0 155 155 0 154 154 0 154 154 0 154 154 0 154 154 0 154
154 0 154 154 0 153 153 0 153 153 0 153 153 0 153 153 0 153 153 0 0
153 0 0 153 0 0 152 0 0 152 0 0 152 0 0 152 0 0 152 0 0 152 0 0 152 0
0 151 0 0 151 0 0 151 0 0 151 0 0 151 0 0 151 0 0 151 0 0 150 0 0 150
0 0 150 0 0 150 0 0 150 0 0 150 0 0 150 0 0 149 0 0 149 0 0 149 0 0
149 0 0 149 0 0 149 0 0 149 0 0 148 0 0 148 0 0 148 0 0 148 0 0 148 0
0 148 0 0 148 0 0 147 0 0 147 0 0 147 0 0 147 0 0 147 0 147 147 0 147
147 0 147 147 0 146 146 0 146 146 0 146 146 0 146 146 0 146 146 0 146
146 0 146 146 0 145 145 0 145 145 0 145 145 0
188 188 0 188 188 0 187 187 0 187 187 0 187 187 0 187 187 0 187 187 0
186 186 0 186 186 0 186 186 0 186 186 0 186 186 0 185 185 0 185 185 0
185 185 0 185 185 0 185 185 0 184 184 0 184 184 0 184 184 0 184 184 0
184 184 0 183 183 0 183 183 0 183 183 0 183 183 0 183 183 0 182 182 0
182 182 0 182 182 0 0 182 0 0 182 0 0 182 0 0 181 0 0 181 0 0 181 0 0
181 0 0 181 0 0 180 0 0 180 0 0 180 0 0 180 0 0 180 0 0 179 0 0 179 0
0 179 0 0 179 0 0 179 0 178 178 0 178 178 0 178 178 0 178 178 0 178
178 0 178 178 0 177 177 0 177 177 0 177 177 0 177 177 0 177 177 0 176
176 0 176 176 0 176 176 0 176 176 0 176 176 0 175 175 0 175 175 0 175
175 0 175 175 0 175 175 0 175 175 0 174 174 0 174 174 0 174 174 0 0
174 0 0 174 0 0 173 0 0 173 0 0 173 0 0 173 0 0 173 0 0 173 0 0 172 0
0 172 0 0 172 0 0 172 0 0 172 0 0 171 0 0 171 0 0 171 0 0 171 0 0 171
0 0 171 0 0 170 0 0 170 0 0 170 0 0 170 0 0 170 0 0 170 0 0 169 0 0
169 0 0 169 0 0 169 0 0 169 0 0 169 0 0 168 0 0 168 0 0 168 0 0 168 0
0 168 0 0 167 0 0 167 0 0 167 0 0 167 0 0 167 0 0 167 0 166 166 0 166
166 0 166 166 0 166 166 0 166 166 0 166 166 0 165 165 0 165 165 0 165
165 0 165 165 0 165 165 0 165 165 0 164 164 0 164 164 0 164 164 0 164
164 0 164 164 0 164 164 0 163 163 0 163 163 0 163 163 0 163 163 0 163
163 0 163 163 0 162 162 0 162 162 0 162 162 0 162 162 0 162 162 0 162
162 0 161 161 0 161 161 0 161 161 0 161 161 0 161 161 0 161 161 0 160
160 0 160 160 0 160 160 0 160 160 0 0 160 0 0 160 0 0 160 0 159 159 0
159 159 0 159 159 0 159 159 0 159 159 0 159 159 0 158 158 0 158 158 0
158 158 0 158 158 0 158 158 0 158 158 0 157 157 0 157 157 0 157 157 0
157 157 0 157 157 0 157 157 0 157 157 0 156 156 0 156 156 0 156 156 0
156 156 0 156 156 0 156 156 0 156 156 0 155 155 0 155 155 0 155 155 0
155 155 0 155 155 0 155 155 0 154 154 0 154 154 0 154 154 0 154 154 0
154 154 0 154 154 0 154 154 0 153 153 0 153 153 0 153 153 0 0 153 0 0
153 0 0 153 0 0 153 0 0 152 0 0 152 0 0 152 0 0 152 0 0 152 0 0 152 0
0 152 0 0 151 0 0 151 0 0 151 0 0 151 0 0 151 0 0 151 0 0 150 0 0 150
0 0 150 0 0 150 0 0 150 0 0 150 0 0 150 0 0 150 0 0 149 0 0 149 0 0
149 0 0 149 0 0 149 0 0 149 0 0 149 0 0 148 0 0 148 0 0 148 0 0 148 0
0 148 0 0 148 0 0 148 0 0 147 0 0 147 0 0 147 0 0 147 0 147 147 0 147
147 0 147 147 0 146 146 0 146 146 0 146 146 0 146 146 0 146 146 0 146
146 0 146 146 0 146 146 0 145 145 0 145 145 0
188 188 0 188 188 0 187 187 0 187 187 0 187 187 0 187 187 0 187 187 0
186 186 0 186 186 0 186 186 0 186 186 0 186 186 0 185 185 0 185 185 0
185 185 0 185 185 0 185 185 0 184 184 0 184 184 0 184 184 0 184 184 0
184 184 0 183 183 0 183 183 0 183 183 0 183 183 0 183 183 0 182 182 0
182 182 0 0 182 0 0 182 0 0 182 0 0 181 0 0 181 0 0 181 0 0 181 0 0
181 0 0 181 0 0 180 0 0 180 0 0 180 0 0 180 0 0 180 0 0 179 0 0 179 0
0 179 0 0 179 0 0 179 0 0 178 0 0 178 0 178 178 0 178 178 0 178 178 0
178 178 0 177 177 0 177 177 0 177 177 0 177 177 0 177 177 0 176 176 0
176 176 0 176 176 0 176 176 0 176 176 0 175 175 0 175 175 0 175 175 0
175 175 0 175 175 0 175 175 0 174 174 0 174 174 0 0 174 0 0 174 0 0
174 0 0 173 0 0 173 0 0 173 0 0 173 0 0 173 0 0 173 0 0 172 0 0 172 0
0 172 0 0 172 0 0 172 0 0 171 0 0 171 0 0 171 0 0 171 0 0 171 0 0 171
0 0 170 0 0 170 0 0 170 0 0 170 0 0 170 0 0 170 0 0 169 0 0 169 0 0
169 0 0 169 0 0 169 0 0 169 0 0 168 0 0 168 0 0 168 0 0 168 0 0 168 0
0 167 0 0 167 0 0 167 0 0 167 0 0 167 0 0 167 0 166 166 0 166 166 0
166 166 0 166 166 0 166 166 0 166 166 0 165 165 0 165 165 0 165 165 0
165 165 0 165 165 0 165 165 0 164 164 0 164 164 0 164 164 0 164 164 0
164 164 0 164 164 0 163 163 0 163 163 0 163 163 0 163 163 0 163 163 0
163 163 0 162 162 0 162 162 0 162 162 0 162 162 0 162 162 0 162 162 0
161 161 0 161 161 0 161 161 0 161 161 0 161 161 0 161 161 0 161 161 0
160 160 0 160 160 0 160 160 0 160 160 0 160 160 0 0 160 0 159 159 0
159 159 0 159 159 0 159 159 0 159 159 0 159 159 0 158 158 0 158 158 0
158 158 0 158 158 0 158 158 0 158 158 0 158 158 0 157 157 0 157 157 0
157 157 0 157 157 0 157 157 0 157 157 0 156 156 0 156 156 0 156 156 0
156 156 0 156 156 0 156 156 0 156 156 0 155 155 0 155 155 0 155 155 0
155 155 0 155 155 0 155 155 0 155 155 0 154 154 0 154 154 0 154 154 0
154 154 0 154 154 0 154 154 0 153 153 0 153 153 0 153 153 0 0 153 0 0
153 0 0 153 0 0 153 0 0 152 0 0 152 0 0 152 0 0 152 0 0 152 0 0 152 0
0 152 0 0 151 0 0 151 0 0 151 0 0 151 0 0 151 0 0 151 0 0 151 0 0 150
0 0 150 0 0 150 0 0 150 0 0 150 0 0 150 0 0 150 0 0 149 0 0 149 0 0
149 0 0 149 0 0 149 0 0 149 0 0 149 0 0 148 0 0 148 0 0 148 0 0 148 0
0 148 0 0 148 0 0 148 0 0 147 0 0 147 0 0 147 0 0 147 0 147 147 0 147
147 0 147 147 0 147 147 0 146 146 0 146 146 0 146 146 0 146 146 0 146
146 0 146 146 0 146 146 0 145 145 0 145 145 0
188 188 0 187 187 0 187 187 0 187 187 0 187 187 0 187 187 0 186 186 0
186 186 0 186 186 0 186 186 0 186 186 0 186 186 0 185 185 0 185 185 0
185 185 0 185 185 0 185 185 0 184 184 0 184 184 0 184 184 0 184 184 0
184 184 0 183 183 0 183 183 0 183 183 0 183 183 0 183 183 0 182 182 0
0 182 0 0 182 0 0 182 0 0 182 0 0 181 0 0 181 0 0 181 0 0 181 0 0 181
0 0 180 0 0 180 0 0 180 0 0 180 0 0 180 0 0 180 0 0 179 0 0 179 0 0
179 0 0 179 0 0 179 0 0 178 0 0 178 0 0 178 0 0 178 0 178 178 0 177
177 0 177 177 0 177 177 0 177 177 0 177 177 0 177 177 0 176 176 0 176
176 0 176 176 0 176 176 0 176 176 0 175 175 0 175 175 0 175 175 0 175
175 0 175 175 0 175 175 0 174 174 0 0 174 0 0 174 0 0 174 0 0 174 0 0
173 0 0 173 0 0 173 0 0 173 0 0 173 0 0 173 0 0 172 0 0 172 0 0 172 0
0 172 0 0 172 0 0 171 0 0 171 0 0 171 0 0 171 0 0 171 0 0 171 0 0 170
0 0 170 0 0 170 0 0 170 0 0 170 0 0 170 0 0 169 0 0 169 0 0 169 0 0
169 0 0 169 0 0 169 0 0 168 0 0 168 0 0 168 0 0 168 0 0 168 0 0 167 0
0 167 0 0 167 0 0 167 0 0 167 0 167 167 0 166 166 0 166 166 0 166 166
0 166 166 0 166 166 0 166 166 0 165 165 0 165 165 0 165 165 0 165 165
0 165 165 0 165 165 0 164 164 0 164 164 0 164 164 0 164 164 0 164 164
0 164 164 0 163 163 0 163 163 0 163 163 0 163 163 0 163 163 0 163 163
0 162 162 0 162 162 0 162 162 0 162 162 0 162 162 0 162 162 0 162 162
0 161 161 0 161 161 0 161 161 0 161 161 0 161 161 0 161 161 0 160 160
0 160 160 0 160 160 0 160 160 0 160 160 0 0 160 0 0 159 0 0 159 0 159
159 0 159 159 0 159 159 0 159 159 0 159 159 0 158 158 0 158 158 0 158
158 0 158 158 0 158 158 0 158 158 0 157 157 0 157 157 0 157 157 0 157
157 0 157 157 0 157 157 0 157 157 0 156 156 0 156 156 0 156 156 0 156
156 0 156 156 0 156 156 0 155 155 0 155 155 0 155 155 0 155 155 0 155
155 0 155 155 0 155 155 0 154 154 0 154 154 0 154 154 0 154 154 0 154
154 0 154 154 0 154 154 0 153 153 0 153 153 0 0 153 0 0 153 0 0 153 0
0 153 0 0 153 0 0 152 0 0 152 0 0 152 0 0 152 0 0 152 0 0 152 0 0 151
0 0 151 0 0 151 0 0 151 0 0 151 0 0 151 0 0 151 0 0 150 0 0 150 0 0
150 0 0 150 0 0 150 0 0 150 0 0 150 0 0 150 0 0 149 0 0 149 0 0 149 0
0 149 0 0 149 0 0 149 0 0 149 0 0 148 0 0 148 0 0 148 0 0 148 0 0 148
0 0 148 0 0 148 0 0 147 0 0 147 0 0 147 0 147 147 0 147 147 0 147 147
0 147 147 0 146 146 0 146 146 0 146 146 0 146 146 0 146 146 0 146 146
0 146 146 0 146 146 0 145 145 0
188 188 0 187 187 0 187 187 0 187 187 0 187 187 0 187 187 0 186 186 0
186 186 0 186 186 0 186 186 0 186 186 0 185 185 0 185 185 0 185 185 0
185 185 0 185 185 0 184 184 0 184 184 0 184 184 0 184 184 0 184 184 0
184 184 0 183 183 0 183 183 0 183 183 0 183 183 0 183 183 0 182 182 0
0 182 0 0 182 0 0 182 0 0 182 0 0 181 0 0 181 0 0 181 0 0 181 0 0 181
0 0 180 0 0 180 0 0 180 0 0 180 0 0 180 0 0 180 0 0 179 0 0 179 0 0
179 0 0 179 0 0 179 0 0 178 0 0 178 0 0 178 0 0 178 0 0 178 0 0 177 0
177 177 0 177 177 0 177 177 0 177 177 0 177 177 0 176 176 0 176 176 0
176 176 0 176 176 0 176 176 0 175 175 0 175 175 0 175 175 0 175 175 0
175 175 0 175 175 0 174 174 0 0 174 0 0 174 0 0 174 0 0 174 0 0 173 0
0 173 0 0 173 0 0 173 0 0 173 0 0 173 0 0 172 0 0 172 0 0 172 0 0 172
0 0 172 0 0 171 0 0 171 0 0 171 0 0 171 0 0 171 0 0 171 0 0 170 0 0
170 0 0 170 0 0 170 0 0 170 0 0 170 0 0 169 0 0 169 0 0 169 0 0 169 0
0 169 0 0 169 0 0 168 0 0 168 0 0 168 0 0 168 0 0 168 0 0 168 0 0 167
0 0 167 0 0 167 0 0 167 0 167 167 0 166 166 0 166 166 0 166 166 0 166
166 0 166 166 0 166 166 0 165 165 0 165 165 0 165 165 0 165 165 0 165
165 0 165 165 0 164 164 0 164 164 0 164 164 0 164 164 0 164 164 0 164
164 0 164 164 0 163 163 0 163 163 0 163 163 0 163 163 0 163 163 0 163
163 0 162 162 0 162 162 0 162 162 0 162 162 0 162 162 0 162 162 0 161
161 0 161 161 0 161 161 0 161 161 0 161 161 0 161 161 0 160 160 0 160
160 0 160 160 0 160 160 0 160 160 0 0 160 0 0 159 0 0 159 0 0 159 0 0
159 0 159 159 0 159 159 0 159 159 0 158 158 0 158 158 0 158 158 0 158
158 0 158 158 0 158 158 0 157 157 0 157 157 0 157 157 0 157 157 0 157
157 0 157 157 0 157 157 0 156 156 0 156 156 0 156 156 0 156 156 0 156
156 0 156 156 0 156 156 0 155 155 0 155 155 0 155 155 0 155 155 0 155
155 0 155 155 0 154 154 0 154 154 0 154 154 0 154 154 0 154 154 0 154
154 0 154 154 0 153 153 0 153 153 0 0 153 0 0 153 0 0 153 0 0 153 0 0
153 0 0 152 0 0 152 0 0 152 0 0 152 0 0 152 0 0 152 0 0 152 0 0 151 0
0 151 0 0 151 0 0 151 0 0 151 0 0 151 0 0 151 0 0 150 0 0 150 0 0 150
0 0 150 0 0 150 0 0 150 0 0 150 0 0 149 0 0 149 0 0 149 0 0 149 0 0
149 0 0 149 0 0 149 0 0 148 0 0 148 0 0 148 0 0 148 0 0 148 0 0 148 0
0 148 0 0 148 0 0 147 0 0 147 0 147 147 0 147 147 0 147 147 0 147 147
0 147 147 0 146 146 0 146 146 0 146 146 0 146 146 0 146 146 0 146 146
0 146 146 0 145 145 0
188 188 0 187 187 0 187 187 0 187 187 0 187 187 0 187 187 0 186 186 0
186 186 0 186 186 0 186 186 0 186 186 0 185 185 0 185 185 0 185 185 0
185 185 0 185 185 0 184 184 0 184 184 0 184 184 0 184 184 0 184 184 0
183 183 0 183 183 0 183 183 0 183 183 0 183 183 0 182 182 0 0 182 0 0
182 0 0 182 0 0 182 0 0 182 0 0 181 0 0 181 0 0 181 0 0 181 0 0 181 0
0 180 0 0 180 0 0 180 0 0 180 0 0 180 0 0 179 0 0 179 0 0 179 0 0 179
0 0 179 0 0 179 0 0 178 0 0 178 0 0 178 0 0 178 0 0 178 0 0 177 0 0
177 0 0 177 0 177 177 0 177 177 0 177 177 0 176 176 0 176 176 0 176
176 0 176 176 0 176 176 0 175 175 0 175 175 0 175 175 0 175 175 0 175
175 0 175 175 0 0 174 0 0 174 0 0 174 0 0 174 0 0 174 0 0 173 0 0 173
0 0 173 0 0 173 0 0 173 0 0 173 0 0 172 0 0 172 0 0 172 0 0 172 0 0
172 0 0 171 0 0 171 0 0 171 0 0 171 0 0 171 0 0 171 0 0 170 0 0 170 0
0 170 0 0 170 0 0 170 0 0 170 0 0 169 0 0 169 0 0 169 0 0 169 0 0 169
0 0 169 0 0 168 0 0 168 0 0 168 0 0 168 0 0 168 0 0 168 0 0 167 0 0
167 0 0 167 0 0 167 0 167 167 0 167 167 0 166 166 0 166 166 0 166 166
0 166 166 0 166 166 0 166 166 0 165 165 0 165 165 0 165 165 0 165 165
0 165 165 0 165 165 0 164 164 0 164 164 0 164 164 0 164 164 0 164 164
0 164 164 0 163 163 0 163 163 0 163 163 0 163 163 0 163 163 0 163 163
0 162 162 0 162 162 0 162 162 0 162 162 0 162 162 0 162 162 0 161 161
0 161 161 0 161 161 0 161 161 0 161 161 0 161 161 0 160 160 0 160 160
0 160 160 0 160 160 0 160 160 0 0 160 0 0 160 0 0 159 0 0 159 0 0 159
0 0 159 0 0 159 0 159 159 0 158 158 0 158 158 0 158 158 0 158 158 0
158 158 0 158 158 0 158 158 0 157 157 0 157 157 0 157 157 0 157 157 0
157 157 0 157 157 0 156 156 0 156 156 0 156 156 0 156 156 0 156 156 0
156 156 0 156 156 0 155 155 0 155 155 0 155 155 0 155 155 0 155 155 0
155 155 0 155 155 0 154 154 0 154 154 0 154 154 0 154 154 0 154 154 0
154 154 0 153 153 0 153 153 0 0 153 0 0 153 0 0 153 0 0 153 0 0 153 0
0 152 0 0 152 0 0 152 0 0 152 0 0 152 0 0 152 0 0 152 0 0 151 0 0 151
0 0 151 0 0 151 0 0 151 0 0 151 0 0 151 0 0 150 0 0 150 0 0 150 0 0
150 0 0 150 0 0 150 0 0 150 0 0 150 0 0 149 0 0 149 0 0 149 0 0 149 0
0 149 0 0 149 0 0 149 0 0 148 0 0 148 0 0 148 0 0 148 0 0 148 0 0 148
0 0 148 0 0 147 0 0 147 0 0 147 0 147 147 0 147 147 0 147 147 0 147
147 0 147 147 0 146 146 0 146 146 0 146 146 0 146 146 0 146 146 0 146
146 0 146 146 0
187 187 0 187 187 0 187 187 0 187 187 0 187 187 0 187 187 0 186 186 0
186 186 0 186 186 0 186 186 0 186 186 0 185 185 0 185 185 0 185 185 0
185 185 0 185 185 0 184 184 0 184 184 0 184 184 0 184 184 0 184 184 0
183 183 0 183 183 0 183 183 0 183 183 0 183 183 0 0 182 0 0 182 0 0
182 0 0 182 0 0 182 0 0 182 0 0 181 0 0 181 0 0 181 0 0 181 0 0 181 0
0 180 0 0 180 0 0 180 0 0 180 0 0 180 0 0 179 0 0 179 0 0 179 0 0 179
0 0 179 0 0 179 0 0 178 0 0 178 0 0 178 0 0 178 0 0 178 0 0 177 0 0
177 0 0 177 0 0 177 0 0 177 0 176 176 0 176 176 0 176 176 0 176 176 0
176 176 0 176 176 0 175 175 0 175 175 0 175 175 0 175 175 0 175 175 0
174 174 0 0 174 0 0 174 0 0 174 0 0 174 0 0 174 0 0 173 0 0 173 0 0
173 0 0 173 0 0 173 0 0 173 0 0 172 0 0 172 0 0 172 0 0 172 0 0 172 0
0 171 0 0 171 0 0 171 0 0 171 0 0 171 0 0 171 0 0 170 0 0 170 0 0 170
0 0 170 0 0 170 0 0 170 0 0 169 0 0 169 0 0 169 0 0 169 0 0 169 0 0
169 0 0 168 0 0 168 0 0 168 0 0 168 0 0 168 0 0 168 0 0 167 0 0 167 0
0 167 0 167 167 0 167 167 0 167 167 0 166 166 0 166 166 0 166 166 0
166 166 0 166 166 0 166 166 0 165 165 0 165 165 0 165 165 0 165 165 0
165 165 0 165 165 0 164 164 0 164 164 0 164 164 0 164 164 0 164 164 0
164 164 0 163 163 0 163 163 0 163 163 0 163 163 0 163 163 0 163 163 0
162 162 0 162 162 0 162 162 0 162 162 0 162 162 0 162 162 0 161 161 0
161 161 0 161 161 0 161 161 0 161 161 0 161 161 0 161 161 0 160 160 0
160 160 0 160 160 0 160 160 0 0 160 0 0 160 0 0 159 0 0 159 0 0 159 0
0 159 0 0 159 0 0 159 0 0 158 0 0 158 0 158 158 0 158 158 0 158 158 0
158 158 0 158 158 0 157 157 0 157 157 0 157 157 0 157 157 0 157 157 0
157 157 0 157 157 0 156 156 0 156 156 0 156 156 0 156 156 0 156 156 0
156 156 0 155 155 0 155 155 0 155 155 0 155 155 0 155 155 0 155 155 0
155 155 0 154 154 0 154 154 0 154 154 0 154 154 0 154 154 0 154 154 0
154 154 0 153 153 0 0 153 0 0 153 0 0 153 0 0 153 0 0 153 0 0 153 0 0
152 0 0 152 0 0 152 0 0 152 0 0 152 0 0 152 0 0 152 0 0 151 0 0 151 0
0 151 0 0 151 0 0 151 0 0 151 0 0 151 0 0 150 0 0 150 0 0 150 0 0 150
0 0 150 0 0 150 0 0 150 0 0 149 0 0 149 0 0 149 0 0 149 0 0 149 0 0
149 0 0 149 0 0 148 0 0 148 0 0 148 0 0 148 0 0 148 0 0 148 0 0 148 0
0 148 0 0 147 0 0 147 0 147 147 0 147 147 0 147 147 0 147 147 0 147
147 0 146 146 0 146 146 0 146 146 0 146 146 0 146 146 0 146 146 0 146
146 0
187 187 0 187 187 0 187 187 0 187 187 0 187 187 0 186 186 0 186 186 0
186 186 0 186 186 0 186 186 0 185 185 0 185 185 0 185 185 0 185 185 0
185 185 0 185 185 0 184 184 0 184 184 0 184 184 0 184 184 0 184 184 0
183 183 0 183 183 0 183 183 0 183 183 0 0 183 0 0 182 0 0 182 0 0 182
0 0 182 0 0 182 0 0 181 0 0 181 0 0 181 0 0 181 0 0 181 0 0 181 0 0
180 0 0 180 0 0 180 0 0 180 0 0 180 0 0 179 0 0 179 0 0 179 0 0 179 0
0 179 0 0 178 0 0 178 0 0 178 0 0 178 0 0 178 0 0 178 0 0 177 0 0 177
0 0 177 0 0 177 0 0 177 0 0 176 0 0 176 0 176 176 0 176 176 0 176 176
0 176 176 0 175 175 0 175 175 0 175 175 0 175 175 0 175 175 0 0 174 0
0 174 0 0 174 0 0 174 0 0 174 0 0 174 0 0 173 0 0 173 0 0 173 0 0 173
0 0 173 0 0 173 0 0 172 0 0 172 0 0 172 0 0 172 0 0 172 0 0 171 0 0
171 0 0 171 0 0 171 0 0 171 0 0 171 0 0 170 0 0 170 0 0 170 0 0 170 0
0 170 0 0 170 0 0 169 0 0 169 0 0 169 0 0 169 0 0 169 0 0 169 0 0 168
0 0 168 0 0 168 0 0 168 0 0 168 0 0 168 0 0 167 0 0 167 0 0 167 0 167
167 0 167 167 0 167 167 0 166 166 0 166 166 0 166 166 0 166 166 0 166
166 0 166 166 0 165 165 0 165 165 0 165 165 0 165 165 0 165 165 0 165
165 0 164 164 0 164 164 0 164 164 0 164 164 0 164 164 0 164 164 0 163
163 0 163 163 0 163 163 0 163 163 0 163 163 0 163 163 0 162 162 0 162
162 0 162 162 0 162 162 0 162 162 0 162 162 0 161 161 0 161 161 0 161
161 0 161 161 0 161 161 0 161 161 0 161 161 0 160 160 0 160 160 0 160
160 0 0 160 0 0 160 0 0 160 0 0 159 0 0 159 0 0 159 0 0 159 0 0 159 0
0 159 0 0 159 0 0 158 0 0 158 0 0 158 0 158 158 0 158 158 0 158 158 0
157 157 0 157 157 0 157 157 0 157 157 0 157 157 0 157 157 0 157 157 0
156 156 0 156 156 0 156 156 0 156 156 0 156 156 0 156 156 0 156 156 0
155 155 0 155 155 0 155 155 0 155 155 0 155 155 0 155 155 0 154 154 0
154 154 0 154 154 0 154 154 0 154 154 0 154 154 0 154 154 0 153 153 0
0 153 0 0 153 0 0 153 0 0 153 0 0 153 0 0 153 0 0 152 0 0 152 0 0 152
0 0 152 0 0 152 0 0 152 0 0 152 0 0 151 0 0 151 0 0 151 0 0 151 0 0
151 0 0 151 0 0 151 0 0 150 0 0 150 0 0 150 0 0 150 0 0 150 0 0 150 0
0 150 0 0 150 0 0 149 0 0 149 0 0 149 0 0 149 0 0 149 0 0 149 0 0 149
0 0 148 0 0 148 0 0 148 0 0 148 0 0 148 0 0 148 0 0 148 0 0 147 0 0
147 0 147 147 0 147 147 0 147 147 0 147 147 0 147 147 0 147 147 0 146
146 0 146 146 0 146 146 0 146 146 0 146 146 0 146 146 0
187 187 0 187 187 0 187 187 0 187 187 0 187 187 0 186 186 0 186 186 0
186 186 0 186 186 0 186 186 0 185 185 0 185 185 0 185 185 0 185 185 0
185 185 0 184 184 0 184 184 0 184 184 0 184 184 0 184 184 0 183 183 0
183 183 0 183 183 0 183 183 0 183 183 0 0 183 0 0 182 0 0 182 0 0 182
0 0 182 0 0 182 0 0 181 0 0 181 0 0 181 0 0 181 0 0 181 0 0 180 0 0
180 0 0 180 0 0 180 0 0 180 0 0 180 0 0 179 0 0 179 0 0 179 0 0 179 0
0 179 0 0 178 0 0 178 0 0 178 0 0 178 0 0 178 0 0 178 0 0 177 0 0 177
0 0 177 0 0 177 0 0 177 0 0 176 0 0 176 0 0 176 0 0 176 0 176 176 0
176 176 0 175 175 0 175 175 0 175 175 0 175 175 0 0 175 0 0 174 0 0
174 0 0 174 0 0 174 0 0 174 0 0 174 0 0 173 0 0 173 0 0 173 0 0 173 0
0 173 0 0 173 0 0 172 0 0 172 0 0 172 0 0 172 0 0 172 0 0 171 0 0 171
0 0 171 0 0 171 0 0 171 0 0 171 0 0 170 0 0 170 0 0 170 0 0 170 0 0
170 0 0 170 0 0 169 0 0 169 0 0 169 0 0 169 0 0 169 0 0 169 0 0 168 0
0 168 0 0 168 0 0 168 0 0 168 0 0 168 0 0 167 0 0 167 0 167 167 0 167
167 0 167 167 0 167 167 0 166 166 0 166 166 0 166 166 0 166 166 0 166
166 0 166 166 0 165 165 0 165 165 0 165 165 0 165 165 0 165 165 0 165
165 0 164 164 0 164 164 0 164 164 0 164 164 0 164 164 0 164 164 0 163
163 0 163 163 0 163 163 0 163 163 0 163 163 0 163 163 0 162 162 0 162
162 0 162 162 0 162 162 0 162 162 0 162 162 0 162 162 0 161 161 0 161
161 0 161 161 0 161 161 0 161 161 0 161 161 0 160 160 0 160 160 0 160
160 0 0 160 0 0 160 0 0 160 0 0 159 0 0 159 0 0 159 0 0 159 0 0 159 0
0 159 0 0 159 0 0 158 0 0 158 0 0 158 0 0 158 0 0 158 0 158 158 0 158
158 0 157 157 0 157 157 0 157 157 0 157 157 0 157 157 0 157 157 0 156
156 0 156 156 0 156 156 0 156 156 0 156 156 0 156 156 0 156 156 0 155
155 0 155 155 0 155 155 0 155 155 0 155 155 0 155 155 0 155 155 0 154
154 0 154 154 0 154 154 0 154 154 0 154 154 0 154 154 0 154 154 0 0
153 0 0 153 0 0 153 0 0 153 0 0 153 0 0 153 0 0 153 0 0 152 0 0 152 0
0 152 0 0 152 0 0 152 0 0 152 0 0 152 0 0 151 0 0 151 0 0 151 0 0 151
0 0 151 0 0 151 0 0 151 0 0 150 0 0 150 0 0 150 0 0 150 0 0 150 0 0
150 0 0 150 0 0 149 0 0 149 0 0 149 0 0 149 0 0 149 0 0 149 0 0 149 0
0 148 0 0 148 0 0 148 0 0 148 0 0 148 0 0 148 0 0 148 0 0 148 0 0 147
0 147 147 0 147 147 0 147 147 0 147 147 0 147 147 0 147 147 0 146 146
0 146 146 0 146 146 0 146 146 0 146 146 0 146 146 0
187 187 0 187 187 0 187 187 0 187 187 0 187 187 0 186 186 0 186 186 0
186 186 0 186 186 0 186 186 0 185 185 0 185 185 0 185 185 0 185 185 0
185 185 0 184 184 0 184 184 0 184 184 0 184 184 0 184 184 0 183 183 0
183 183 0 183 183 0 183 183 0 0 183 0 0 183 0 0 182 0 0 182 0 0 182 0
0 182 0 0 182 0 0 181 0 0 181 0 0 181 0 0 181 0 0 181 0 0 180 0 0 180
0 0 180 0 0 180 0 0 180 0 0 180 0 0 179 0 0 179 0 0 179 0 0 179 0 0
179 0 0 178 0 0 178 0 0 178 0 0 178 0 0 178 0 0 178 0 0 177 0 0 177 0
0 177 0 0 177 0 0 177 0 0 176 0 0 176 0 0 176 0 0 176 0 0 176 0 0 176
0 175 175 0 175 175 0 175 175 0 175 175 0 0 175 0 0 174 0 0 174 0 0
174 0 0 174 0 0 174 0 0 174 0 0 173 0 0 173 0 0 173 0 0 173 0 0 173 0
0 173 0 0 172 0 0 172 0 0 172 0 0 172 0 0 172 0 0 171 0 0 171 0 0 171
0 0 171 0 0 171 0 0 171 0 0 170 0 0 170 0 0 170 0 0 170 0 0 170 0 0
170 0 0 169 0 0 169 0 0 169 0 0 169 0 0 169 0 0 169 0 0 168 0 0 168 0
0 168 0 0 168 0 0 168 0 0 168 0 0 167 0 0 167 0 167 167 0 167 167 0
167 167 0 167 167 0 166 166 0 166 166 0 166 166 0 166 166 0 166 166 0
166 166 0 165 165 0 165 165 0 165 165 0 165 165 0 165 165 0 165 165 0
164 164 0 164 164 0 164 164 0 164 164 0 164 164 0 164 164 0 163 163 0
163 163 0 163 163 0 163 163 0 163 163 0 163 163 0 163 163 0 162 162 0
162 162 0 162 162 0 162 162 0 162 162 0 162 162 0 161 161 0 161 161 0
161 161 0 161 161 0 161 161 0 161 161 0 160 160 0 160 160 0 160 160 0
0 160 0 0 160 0 0 160 0 0 160 0 0 159 0 0 159 0 0 159 0 0 159 0 0 159
0 0 159 0 0 158 0 0 158 0 0 158 0 0 158 0 0 158 0 0 158 0 0 158 0 0
157 0 157 157 0 157 157 0 157 157 0 157 157 0 157 157 0 157 157 0 156
156 0 156 156 0 156 156 0 156 156 0 156 156 0 156 156 0 155 155 0 155
155 0 155 155 0 155 155 0 155 155 0 155 155 0 155 155 0 154 154 0 154
154 0 154 154 0 154 154 0 154 154 0 154 154 0 154 154 0 0 153 0 0 153
0 0 153 0 0 153 0 0 153 0 0 153 0 0 153 0 0 152 0 0 152 0 0 152 0 0
152 0 0 152 0 0 152 0 0 152 0 0 151 0 0 151 0 0 151 0 0 151 0 0 151 0
0 151 0 0 151 0 0 150 0 0 150 0 0 150 0 0 150 0 0 150 0 0 150 0 0 150
0 0 150 0 0 149 0 0 149 0 0 149 0 0 149 0 0 149 0 0 149 0 0 149 0 0
148 0 0 148 0 0 148 0 0 148 0 0 148 0 0 148 0 0 148 0 0 147 0 147 147
0 147 147 0 147 147 0 147 147 0 147 147 0 147 147 0 147 147 0 146 146
0 146 146 0 146 146 0 146 146 0 146 146 0
187 187 0 187 187 0 187 187 0 187 187 0 186 186 0 186 186 0 186 186 0
186 186 0 186 186 0 185 185 0 185 185 0 185 185 0 185 185 0 185 185 0
185 185 0 184 184 0 184 184 0 184 184 0 184 184 0 184 184 0 183 183 0
183 183 0 183 183 0 0 183 0 0 183 0 0 182 0 0 182 0 0 182 0 0 182 0 0
182 0 0 182 0 0 181 0 0 181 0 0 181 0 0 181 0 0 181 0 0 180 0 0 180 0
0 180 0 0 180 0 0 180 0 0 179 0 0 179 0 0 179 0 0 179 0 0 179 0 0 179
0 0 178 0 0 178 0 0 178 0 0 178 0 0 178 0 0 177 0 0 177 0 0 177 0 0
177 0 0 177 0 0 177 0 0 176 0 0 176 0 0 176 0 0 176 0 0 176 0 0 175 0
0 175 0 175 175 0 175 175 0 0 175 0 0 175 0 0 174 0 0 174 0 0 174 0 0
174 0 0 174 0 0 174 0 0 173 0 0 173 0 0 173 0 0 173 0 0 173 0 0 173 0
0 172 0 0 172 0 0 172 0 0 172 0 0 172 0 0 171 0 0 171 0 0 171 0 0 171
0 0 171 0 0 171 0 0 170 0 0 170 0 0 170 0 0 170 0 0 170 0 0 170 0 0
169 0 0 169 0 0 169 0 0 169 0 0 169 0 0 169 0 0 168 0 0 168 0 0 168 0
0 168 0 0 168 0 0 168 0 0 167 0 167 167 0 167 167 0 167 167 0 167 167
0 167 167 0 166 166 0 166 166 0 166 166 0 166 166 0 166 166 0 166 166
0 165 165 0 165 165 0 165 165 0 165 165 0 165 165 0 165 165 0 164 164
0 164 164 0 164 164 0 164 164 0 164 164 0 164 164 0 163 163 0 163 163
0 163 163 0 163 163 0 163 163 0 163 163 0 163 163 0 162 162 0 162 162
0 162 162 0 162 162 0 162 162 0 162 162 0 161 161 0 161 161 0 161 161
0 161 161 0 161 161 0 161 161 0 160 160 0 160 160 0 160 160 0 0 160 0
0 160 0 0 160 0 0 160 0 0 159 0 0 159 0 0 159 0 0 159 0 0 159 0 0 159
0 0 159 0 0 158 0 0 158 0 0 158 0 0 158 0 0 158 0 0 158 0 0 157 0 0
157 0 0 157 0 157 157 0 157 157 0 157 157 0 157 157 0 156 156 0 156
156 0 156 156 0 156 156 0 156 156 0 156 156 0 156 156 0 155 155 0 155
155 0 155 155 0 155 155 0 155 155 0 155 155 0 155 155 0 154 154 0 154
154 0 154 154 0 154 154 0 154 154 0 154 154 0 0 153 0 0 153 0 0 153 0
0 153 0 0 153 0 0 153 0 0 153 0 0 152 0 0 152 0 0 152 0 0 152 0 0 152
0 0 152 0 0 152 0 0 152 0 0 151 0 0 151 0 0 151 0 0 151 0 0 151 0 0
151 0 0 151 0 0 150 0 0 150 0 0 150 0 0 150 0 0 150 0 0 150 0 0 150 0
0 149 0 0 149 0 0 149 0 0 149 0 0 149 0 0 149 0 0 149 0 0 148 0 0 148
0 0 148 0 0 148 0 0 148 0 0 148 0 0 148 0 0 148 0 147 147 0 147 147 0
147 147 0 147 147 0 147 147 0 147 147 0 147 147 0 147 147 0 146 146 0
146 146 0 146 146 0 146 146 0
187 187 0 187 187 0 187 187 0 187 187 0 186 186 0 186 186 0 186 186 0
186 186 0 186 186 0 185 185 0 185 185 0 185 185 0 185 185 0 185 185 0
184 184 0 184 184 0 184 184 0 184 184 0 184 184 0 184 184 0 183 183 0
183 183 0 0 183 0 0 183 0 0 183 0 0 182 0 0 182 0 0 182 0 0 182 0 0
182 0 0 181 0 0 181 0 0 181 0 0 181 0 0 181 0 0 181 0 0 180 0 0 180 0
0 180 0 0 180 0 0 180 0 0 179 0 0 179 0 0 179 0 0 179 0 0 179 0 0 179
0 0 178 0 0 178 0 0 178 0 0 178 0 0 178 0 0 177 0 0 177 0 0 177 0 0
177 0 0 177 0 0 177 0 0 176 0 0 176 0 0 176 0 0 176 0 0 176 0 0 175 0
0 175 0 0 175 0 0 175 0 0 175 0 0 175 0 0 174 0 0 174 0 0 174 0 0 174
0 0 174 0 0 174 0 0 173 0 0 173 0 0 173 0 0 173 0 0 173 0 0 172 0 0
172 0 0 172 0 0 172 0 0 172 0 0 172 0 0 171 0 0 171 0 0 171 0 0 171 0
0 171 0 0 171 0 0 170 0 0 170 0 0 170 0 0 170 0 0 170 0 0 170 0 0 169
0 0 169 0 0 169 0 0 169 0 0 169 0 0 169 0 0 168 0 0 168 0 0 168 0 0
168 0 0 168 0 0 168 0 0 167 0 167 167 0 167 167 0 167 167 0 167 167 0
167 167 0 166 166 0 166 166 0 166 166 0 166 166 0 166 166 0 166 166 0
165 165 0 165 165 0 165 165 0 165 165 0 165 165 0 165 165 0 164 164 0
164 164 0 164 164 0 164 164 0 164 164 0 164 164 0 164 164 0 163 163 0
163 163 0 163 163 0 163 163 0 163 163 0 163 163 0 162 162 0 162 162 0
162 162 0 162 162 0 162 162 0 162 162 0 161 161 0 161 161 0 161 161 0
161 161 0 161 161 0 161 161 0 161 161 0 160 160 0 0 160 0 0 160 0 0
160 0 0 160 0 0 160 0 0 159 0 0 159 0 0 159 0 0 159 0 0 159 0 0 159 0
0 159 0 0 158 0 0 158 0 0 158 0 0 158 0 0 158 0 0 158 0 0 157 0 0 157
0 0 157 0 0 157 0 0 157 0 157 157 0 157 157 0 156 156 0 156 156 0 156
156 0 156 156 0 156 156 0 156 156 0 156 156 0 155 155 0 155 155 0 155
155 0 155 155 0 155 155 0 155 155 0 155 155 0 154 154 0 154 154 0 154
154 0 154 154 0 154 154 0 154 154 0 0 154 0 0 153 0 0 153 0 0 153 0 0
153 0 0 153 0 0 153 0 0 153 0 0 152 0 0 152 0 0 152 0 0 152 0 0 152 0
0 152 0 0 152 0 0 151 0 0 151 0 0 151 0 0 151 0 0 151 0 0 151 0 0 151
0 0 150 0 0 150 0 0 150 0 0 150 0 0 150 0 0 150 0 0 150 0 0 150 0 0
149 0 0 149 0 0 149 0 0 149 0 0 149 0 0 149 0 0 149 0 0 148 0 0 148 0
0 148 0 0 148 0 0 148 0 0 148 0 0 148 0 148 148 0 147 147 0 147 147 0
147 147 0 147 147 0 147 147 0 147 147 0 147 147 0 146 146 0 146 146 0
146 146 0 146 146 0
187 187 0 187 187 0 187 187 0 187 187 0 186 186 0 186 186 0 186 186 0
186 186 0 186 186 0 185 185 0 185 185 0 185 185 0 185 185 0 185 185 0
184 184 0 184 184 0 184 184 0 184 184 0 184 184 0 183 183 0 183 183 0
183 183 0 0 183 0 0 183 0 0 183 0 0 182 0 0 182 0 0 182 0 0 182 0 0
182 0 0 181 0 0 181 0 0 181 0 0 181 0 0 181 0 0 181 0 0 180 0 0 180 0
0 180 0 0 180 0 0 180 0 0 179 0 0 179 0 0 179 0 0 179 0 0 179 0 0 179
0 0 178 0 0 178 0 0 178 0 0 178 0 0 178 0 0 177 0 0 177 0 0 177 0 0
177 0 0 177 0 0 177 0 0 176 0 0 176 0 0 176 0 0 176 0 0 176 0 0 175 0
0 175 0 0 175 0 175 175 0 175 175 0 175 175 0 0 174 0 0 174 0 0 174 0
0 174 0 0 174 0 0 174 0 0 173 0 0 173 0 0 173 0 0 173 0 0 173 0 0 172
0 0 172 0 0 172 0 0 172 0 0 172 0 0 172 0 0 171 0 0 171 0 0 171 0 0
171 0 0 171 0 0 171 0 0 170 0 0 170 0 0 170 0 0 170 0 0 170 0 0 170 0
0 169 0 0 169 0 0 169 0 0 169 0 0 169 0 0 169 0 0 168 0 0 168 0 0 168
0 0 168 0 0 168 0 0 168 0 0 167 0 167 167 0 167 167 0 167 167 0 167
167 0 167 167 0 166 166 0 166 166 0 166 166 0 166 166 0 166 166 0 166
166 0 165 165 0 165 165 0 165 165 0 165 165 0 165 165 0 165 165 0 164
164 0 164 164 0 164 164 0 164 164 0 164 164 0 164 164 0 164 164 0 163
163 0 163 163 0 163 163 0 163 163 0 163 163 0 163 163 0 162 162 0 162
162 0 162 162 0 162 162 0 162 162 0 162 162 0 161 161 0 161 161 0 161
161 0 161 161 0 161 161 0 161 161 0 161 161 0 160 160 0 0 160 0 0 160
0 0 160 0 0 160 0 0 160 0 0 159 0 0 159 0 0 159 0 0 159 0 0 159 0 0
159 0 0 159 0 0 158 0 0 158 0 0 158 0 0 158 0 0 158 0 0 158 0 0 158 0
0 157 0 0 157 0 0 157 0 0 157 0 0 157 0 0 157 0 0 157 0 156 156 0 156
156 0 156 156 0 156 156 0 156 156 0 156 156 0 155 155 0 155 155 0 155
155 0 155 155 0 155 155 0 155 155 0 155 155 0 154 154 0 154 154 0 154
154 0 154 154 0 154 154 0 154 154 0 0 154 0 0 153 0 0 153 0 0 153 0 0
153 0 0 153 0 0 153 0 0 153 0 0 152 0 0 152 0 0 152 0 0 152 0 0 152 0
0 152 0 0 152 0 0 151 0 0 151 0 0 151 0 0 151 0 0 151 0 0 151 0 0 151
0 0 151 0 0 150 0 0 150 0 0 150 0 0 150 0 0 150 0 0 150 0 0 150 0 0
149 0 0 149 0 0 149 0 0 149 0 0 149 0 0 149 0 0 149 0 0 149 0 0 148 0
0 148 0 0 148 0 0 148 0 0 148 0 0 148 0 148 148 0 147 147 0 147 147 0
147 147 0 147 147 0 147 147 0 147 147 0 147 147 0 147 147 0 146 146 0
146 146 0 146 146 0
187 187 0 187 187 0 187 187 0 186 186 0 186 186 0 186 186 0 186 186 0
186 186 0 186 186 0 185 185 0 185 185 0 185 185 0 185 185 0 185 185 0
184 184 0 184 184 0 184 184 0 184 184 0 184 184 0 183 183 0 183 183 0
0 183 0 0 183 0 0 183 0 0 183 0 0 182 0 0 182 0 0 182 0 0 182 0 0 182
0 0 181 0 0 181 0 0 181 0 0 181 0 0 181 0 0 180 0 0 180 0 0 180 0 0
180 0 0 180 0 0 180 0 0 179 0 0 179 0 0 179 0 0 179 0 0 179 0 0 178 0
0 178 0 0 178 0 0 178 0 0 178 0 0 178 0 0 177 0 0 177 0 0 177 0 0 177
0 0 177 0 0 177 0 0 176 0 0 176 0 0 176 0 0 176 0 0 176 0 0 175 0 0
175 0 0 175 0 175 175 0 175 175 0 175 175 0 174 174 0 174 174 0 0 174
0 0 174 0 0 174 0 0 174 0 0 173 0 0 173 0 0 173 0 0 173 0 0 173 0 0
172 0 0 172 0 0 172 0 0 172 0 0 172 0 0 172 0 0 171 0 0 171 0 0 171 0
0 171 0 0 171 0 0 171 0 0 170 0 0 170 0 0 170 0 0 170 0 0 170 0 0 170
0 0 169 0 0 169 0 0 169 0 0 169 0 0 169 0 0 169 0 0 168 0 0 168 0 0
168 0 0 168 0 0 168 0 0 168 0 167 167 0 167 167 0 167 167 0 167 167 0
167 167 0 167 167 0 166 166 0 166 166 0 166 166 0 166 166 0 166 166 0
166 166 0 165 165 0 165 165 0 165 165 0 165 165 0 165 165 0 165 165 0
165 165 0 164 164 0 164 164 0 164 164 0 164 164 0 164 164 0 164 164 0
163 163 0 163 163 0 163 163 0 163 163 0 163 163 0 163 163 0 162 162 0
162 162 0 162 162 0 162 162 0 162 162 0 162 162 0 162 162 0 161 161 0
161 161 0 161 161 0 161 161 0 161 161 0 161 161 0 160 160 0 0 160 0 0
160 0 0 160 0 0 160 0 0 160 0 0 160 0 0 159 0 0 159 0 0 159 0 0 159 0
0 159 0 0 159 0 0 158 0 0 158 0 0 158 0 0 158 0 0 158 0 0 158 0 0 158
0 0 157 0 0 157 0 0 157 0 0 157 0 0 157 0 0 157 0 0 157 0 0 156 0 0
156 0 156 156 0 156 156 0 156 156 0 156 156 0 156 156 0 155 155 0 155
155 0 155 155 0 155 155 0 155 155 0 155 155 0 155 155 0 154 154 0 154
154 0 154 154 0 154 154 0 154 154 0 0 154 0 0 154 0 0 153 0 0 153 0 0
153 0 0 153 0 0 153 0 0 153 0 0 153 0 0 152 0 0 152 0 0 152 0 0 152 0
0 152 0 0 152 0 0 152 0 0 151 0 0 151 0 0 151 0 0 151 0 0 151 0 0 151
0 0 151 0 0 150 0 0 150 0 0 150 0 0 150 0 0 150 0 0 150 0 0 150 0 0
150 0 0 149 0 0 149 0 0 149 0 0 149 0 0 149 0 0 149 0 0 149 0 0 148 0
0 148 0 0 148 0 0 148 0 0 148 0 0 148 0 148 148 0 148 148 0 147 147 0
147 147 0 147 147 0 147 147 0 147 147 0 147 147 0 147 147 0 146 146 0
146 146 0 146 146 0
187 187 0 187 187 0 187 187 0 186 186 0 186 186 0 186 186 0 186 186 0
186 186 0 185 185 0 185 185 0 185 185 0 185 185 0 185 185 0 185 185 0
184 184 0 184 184 0 184 184 0 184 184 0 184 184 0 183 183 0 0 183 0 0
183 0 0 183 0 0 183 0 0 182 0 0 182 0 0 182 0 0 182 0 0 182 0 0 182 0
0 181 0 0 181 0 0 181 0 0 181 0 0 181 0 0 180 0 0 180 0 0 180 0 0 180
0 0 180 0 0 180 0 0 179 0 0 179 0 0 179 0 0 179 0 0 179 0 0 178 0 0
178 0 0 178 0 0 178 0 0 178 0 0 178 0 0 177 0 0 177 0 0 177 0 0 177 0
0 177 0 0 176 0 0 176 0 0 176 0 0 176 0 0 176 0 0 176 0 0 175 0 0 175
0 175 175 0 175 175 0 175 175 0 175 175 0 174 174 0 174 174 0 174 174
0 174 174 0 0 174 0 0 174 0 0 173 0 0 173 0 0 173 0 0 173 0 0 173 0 0
172 0 0 172 0 0 172 0 0 172 0 0 172 0 0 172 0 0 171 0 0 171 0 0 171 0
0 171 0 0 171 0 0 171 0 0 170 0 0 170 0 0 170 0 0 170 0 0 170 0 0 170
0 0 169 0 0 169 0 0 169 0 0 169 0 0 169 0 0 169 0 0 168 0 0 168 0 0
168 0 0 168 0 0 168 0 0 168 0 167 167 0 167 167 0 167 167 0 167 167 0
167 167 0 167 167 0 166 166 0 166 166 0 166 166 0 166 166 0 166 166 0
166 166 0 165 165 0 165 165 0 165 165 0 165 165 0 165 165 0 165 165 0
165 165 0 164 164 0 164 164 0 164 164 0 164 164 0 164 164 0 164 164 0
163 163 0 163 163 0 163 163 0 163 163 0 163 163 0 163 163 0 162 162 0
162 162 0 162 162 0 162 162 0 162 162 0 162 162 0 162 162 0 161 161 0
161 161 0 161 161 0 161 161 0 161 161 0 161 161 0 160 160 0 0 160 0 0
160 0 0 160 0 0 160 0 0 160 0 0 160 0 0 159 0 0 159 0 0 159 0 0 159 0
0 159 0 0 159 0 0 159 0 0 158 0 0 158 0 0 158 0 0 158 0 0 158 0 0 158
0 0 157 0 0 157 0 0 157 0 0 157 0 0 157 0 0 157 0 0 157 0 0 156 0 0
156 0 0 156 0 0 156 0 156 156 0 156 156 0 156 156 0 155 155 0 155 155
0 155 155 0 155 155 0 155 155 0 155 155 0 155 155 0 154 154 0 154 154
0 154 154 0 154 154 0 154 154 0 0 154 0 0 154 0 0 153 0 0 153 0 0 153
0 0 153 0 0 153 0 0 153 0 0 153 0 0 152 0 0 152 0 0 152 0 0 152 0 0
152 0 0 152 0 0 152 0 0 151 0 0 151 0 0 151 0 0 151 0 0 151 0 0 151 0
0 151 0 0 151 0 0 150 0 0 150 0 0 150 0 0 150 0 0 150 0 0 150 0 0 150
0 0 149 0 0 149 0 0 149 0 0 149 0 0 149 0 0 149 0 0 149 0 0 149 0 0
148 0 0 148 0 0 148 0 0 148 0 0 148 0 0 148 0 148 148 0 147 147 0 147
147 0 147 147 0 147 147 0 147 147 0 147 147 0 147 147 0 147 147 0 146
146 0 146 146 0
