P3
128 128
255
0 0 0 0 0 0 0 0 0 0 0 0 0 0 0 0 0 0 0 0 0 0 0 0 0 0 0 0 0 0 0 0 0 0 0
0 0 0 0 0 0 0 0 0 0 0 0 0 0 0 0 0 0 0 0 0 0 0 0 0 0 0 0 0 0 0 0 0 0 0
0 0 0 0 0 0 0 0 0 0 0 0 0 0 0 0 0 0 0 0 0 0 0 0 0 0 0 0 0 0 0 0 0 0 0
0 0 0 0 0 0 0 0 0 0 0 0 0 0 0 0 0 0 0 0 0 0 0 0 0 0 0 0 0 0 0 0 0 0 0
0 0 0 0 0 0 0 0 0 0 0 0 0 0 0 0 0 0 0 0 0 0 0 0 0 0 0 0 0 0 0 0 0 0 0
0 0 0 0 0 0 0 0 0 0 0 0 0 0 0 0 0 0 0 0 0 0 0 0 0 0 0 0 0 0 0 0 0 0 0
0 0 0 0 0 0 0 0 0 0 0 0 0 0 0 0 0 0 0 0 0 0 0 0 0 0 0 0 0 0 0 0 0 0 0
0 0 0 0 0 0 0 0 0 0 0 0 0 0 0 0 0 0 0 0 0 0 0 0 0 0 0 0 0 0 0 0 0 0 0
0 0 0 0 0 0 0 0 0 0 0 0 0 0 0 0 0 0 0 0 0 0 0 0 0 0 0 0 0 0 0 0 0 0 0
0 0 0 0 0 0 0 0 0 0 0 0 0 0 0 0 0 0 0 0 0 0 0 0 0 0 0 0 0 0 0 0 0 0 0
0 0 0 0 0 0 0 0 0 0 0 0 0 0 0 0 0 0 0 0 0 0 0 0 0 0 0 0 0 0 0 0 0 0
0 0 0 0 0 0 0 0 0 0 0 0 0 0 0 0 0 0 0 0 0 0 0 0 0 0 0 0 0 0 0 0 0 0 0
0 0 0 0 0 0 0 0 0 0 0 0 0 0 0 0 0 0 0 0 0 0 0 0 0 0 0 0 0 0 0 0 0 0 0
0 0 0 0 0 0 0 0 0 0 0 0 0 0 0 0 0 0 0 0 0 0 0 0 0 0 0 0 0 0 0 0 0 0 0
0 0 0 0 0 0 0 0 0 0 0 0 0 0 0 0 0 0 0 0 0 0 0 0 0 0 0 0 0 0 0 0 0 0 0
0 0 0 0 0 0 0 0 0 0 0 0 0 0 0 0 0 0 0 0 0 0 0 0 0 0 0 0 0 0 0 0 0 0 0
0 0 0 0 0 0 0 0 0 0 0 0 0 0 0 0 0 0 0 0 0 0 0 0 0 0 0 0 0 0 0 0 0 0 0
0 0 0 0 0 0 0 0 0 0 0 0 0 0 0 0 0 0 0 0 0 0 0 0 0 0 0 0 0 0 0 0 0 0 0
0 0 0 0 0 0 0 0 0 0 0 0 0 0 0 0 0 0 0 0 0 0 0 0 0 0 0 0 0 0 0 0 0 0 0
0 0 0 0 0 0 0 0 0 0 0 0 0 0 0 0 0 0 0 0 0 0 0 0 0 0 0 0 0 0 0 0 0 0 0
0 0 0 0 0 0 0 0 0 0 0 0 0 0 0 0 0 0 0 0 0 0 0 0 0 0 0 0 0 0 0 0 0 0 0
0 0 0 0 0 0 0 0 0 0 0 0 0 0 0 0 0 0 0 0 0 0 0 0 0 0 0 0 0 0 0 0 0 0
0 0 0 0 0 0 0 0 0 0 0 0 0 0 0 0 0 0 0 0 0 0 0 0 0 0 0 0 0 0 0 0 0 0 0
0 0 0 0 0 0 0 0 0 0 0 0 0 0 0 0 0 0 0 0 0 0 0 0 0 0 0 0 0 0 0 0 0 0 0
0 0 0 0 0 0 0 0 0 0 0 0 0 0 0 0 0 0 0 0 0 0 0 0 0 0 0 0 0 0 0 0 0 0 0
0 0 0 0 0 0 0 0 0 0 0 0 0 0 0 0 0 0 0 0 0 0 0 0 0 0 0 0 0 0 0 0 0 0 0
0 0 0 0 0 0 0 0 0 0 0 0 0 0 0 0 0 0 0 0 0 0 0 0 0 0 0 0 0 0 0 0 0 0 0
0 0 0 0 0 0 0 0 0 0 0 0 0 0 0 0 0 0 0 0 0 0 0 0 0 0 0 0 0 0 0 0 0 0 0
0 0 0 0 0 0 0 0 0 0 0 0 0 0 0 0 0 0 0 0 0 0 0 0 0 0 0 0 0 0 0 0 0 0 0
0 0 0 0 0 0 0 0 0 0 0 0 0 0 0 0 0 0 0 0 0 0 0 0 0 0 0 0 0 0 0 0 0 0 0
0 0 0 0 0 0 0 0 0 0 0 0 0 0 0 0 0 0 0 0 0 0 0 0 0 0 0 0 0 0 0 0 0 0 0
0 0 0 0 0 0 0 0 0 0 0 0 0 0 0 0 0 0 0 0 0 0 0 0 0 0 0 0 0 0 0 0 0 0 0
0 0 0 0 0 0 0 0 0 0 0 0 0 0 0 0 0 0 0 0 0 0 0 0 0 0 0 0 0 0 0 0 0 0
0 0 0 0 0 0 0 0 0 0 0 0 0 0 0 0 0 0 0 0 0 0 0 0 0 0 0 0 0 0 0 0 0 0 0
0 0 0 0 0 0 0 0 0 0 0 0 0 0 0 0 0 0 0 0 0 0 0 0 0 0 0 0 0 0 0 0 0 0 0
0 0 0 0 0 0 0 0 0 0 0 0 0 0 0 0 0 0 0 0 0 0 0 0 0 0 0 0 0 0 0 0 0 0 0
0 0 0 0 0 0 0 0 0 0 0 0 0 0 0 0 0 0 0 0 0 0 0 0 0 0 0 0 0 0 0 0 0 0 0
0 0 0 0 0 0 0 0 0 0 0 0 0 0 0 0 0 0 0 0 0 0 0 0 0 0 0 0 0 0 0 0 0 0 0
0 0 0 0 0 0 0 0 0 0 0 0 0 0 0 0 0 0 0 0 0 0 0 0 0 0 0 0 0 0 0 0 0 0 0
0 0 0 0 0 0 0 0 0 0 0 0 0 0 0 0 0 0 0 0 0 0 0 0 0 0 0 0 0 0 0 0 0 0 0
0 0 0 0 0 0 0 0 0 0 0 0 0 0 0 0 0 0 0 0 0 0 0 0 0 0 0 0 0 0 0 0 0 0 0
0 0 0 0 0 0 0 0 0 0 0 0 0 0 0 0 0 0 0 0 0 0 0 0 0 0 0 0 0 0 0 0 0 0 0
0 0 0 0 0 0 0 0 0 0 0 0 0 0 0 0 0 0 0 0 0 0 0 0 0 0 0 0 0 0 0 0 0 0 0
0 0 0 0 0 0 0 0 0 0 0 0 0 0 0 0 0 0 0 0 0 0 0 0 0 0 0 0 0 0 0 0 0 0
0 0 0 0 0 0 0 0 0 0 0 0 0 0 0 0 0 0 0 0 0 0 0 0 0 0 0 0 0 0 0 0 0 0 0
0 0 0 0 0 0 0 0 0 0 0 0 0 0 0 0 0 0 0 0 0 0 0 0 0 0 0 0 0 0 0 0 0 0 0
0 0 0 0 0 0 0 0 0 0 0 0 0 0 0 0 0 0 0 0 0 0 0 0 0 0 0 0 0 0 0 0 0 0 0
0 0 0 0 0 0 0 0 0 0 0 0 0 0 0 0 0 0 0 0 0 0 0 0 0 0 0 0 0 0 0 0 0 0 0
0 0 0 0 0 0 0 0 0 0 0 0 0 0 0 0 0 0 0 0 0 0 0 0 0 0 0 0 0 0 0 0 0 0 0
0 0 0 0 0 0 0 0 0 0 0 0 0 0 0 0 0 0 0 0 0 0 0 0 0 0 0 0 0 0 0 0 0 0 0
0 0 0 0 0 0 0 0 0 0 0 0 0 0 0 0 0 0 0 0 0 0 0 0 0 0 0 0 0 0 0 0 0 0 0
0 0 0 0 0 0 0 0 0 0 0 0 0 0 0 0 0 0 0 0 0 0 0 0 0 0 0 0 0 0 0 0 0 0 0
0 0 0 0 0 0 0 0 0 0 0 0 0 0 0 0 0 0 0 0 0 0 0 0 0 0 0 0 0 0 0 0 0 0 0
0 0 0 0 0 0 0 0 0 0 0 0 0 0 0 0 0 0 0 0 0 0 0 0 0 0 0 0 0 0 0 0 0 0 0
0 0 0 0 0 0 0 0 0 0 0 0 0 0 0 0 0 0 0 0 0 0 0 0 0 0 0 0 0 0 0 0 0 0
0 0 0 0 0 0 0 0 0 0 0 0 0 0 0 0 0 0 0 0 0 0 0 0 0 0 0 0 0 0 0 0 0 0 0
0 0 0 0 0 0 0 0 0 0 0 0 0 0 0 0 0 0 0 0 0 0 0 0 0 0 0 0 0 0 0 0 0 0 0
0 0 0 0 0 0 0 0 0 0 0 0 0 0 0 0 0 0 0 0 0 0 0 0 0 0 0 0 0 0 0 0 0 0 0
0 0 0 0 0 0 0 0 0 0 0 0 0 0 0 0 0 0 0 0 0 0 0 0 0 0 0 0 0 0 0 0 0 0 0
0 0 0 0 0 0 0 0 0 0 0 0 0 0 0 0 0 0 0 0 0 0 0 0 0 0 0 0 0 0 0 0 0 0 0
0 0 0 0 0 0 0 0 0 0 0 0 0 0 0 0 0 0 0 0 0 0 0 0 0 0 0 0 0 0 0 0 0 0 0
0 0 0 0 0 0 0 0 0 0 0 0 0 0 0 0 0 0 0 0 0 0 0 0 0 0 0 0 0 0 0 0 0 0 0
0 0 0 0 0 0 0 0 0 0 0 0 0 0 0 0 0 0 0 0 0 0 0 0 0 0 0 0 0 0 0 0 0 0 0
0 0 0 0 0 0 0 0 0 0 0 0 0 0 0 0 0 0 0 0 0 0 0 0 0 0 0 0 0 0 0 0 0 0 0
0 0 0 0 0 0 0 0 0 0 0 0 0 0 0 0 0 0 0 0 0 0 0 0 0 0 0 0 0 0 0 0 0 0 0
0 0 0 0 0 0 0 0 0 0 0 0 0 0 0 0 0 0 0 0 0 0 0 0 0 0 0 0 79 158 16 0 0
0
0 0 0 0 0 0 0 0 0 0 0 0 0 0 0 0 0 0 0 0 0 0 0 0 0 0 0 0 0 0 0 0 0 0 0
0 0 0 0 0 0 0 0 0 0 0 0 0 0 0 0 0 0 0 0 0 0 0 0 0 0 0 0 0 0 0 0 0 0 0
0 0 0 0 0 0 0 0 0 0 0 0 0 0 0 0 0 0 0 0 0 0 0 0 0 0 0 0 0 0 0 0 0 0 0
0 0 0 0 0 0 0 0 0 0 0 0 0 0 0 0 0 0 0 0 0 0 0 0 0 0 0 0 0 0 0 0 0 0 0
0 0 0 0 0 0 0 0 0 0 0 0 0 0 0 0 0 0 0 0 0 0 0 0 0 0 0 0 0 0 0 0 0 0 0
0 0 0 0 0 0 0 0 0 0 0 0 0 0 0 0 0 0 0 0 0 0 0 0 0 0 0 0 0 0 0 0 0 0 0
0 0 0 0 0 0 0 0 0 0 0 0 0 0 0 0 0 0 0 0 0 0 0 0 0 0 0 0 0 0 0 0 0 0 0
0 0 0 0 0 0 0 0 0 0 0 0 0 0 0 0 0 0 0 0 0 0 0 0 0 0 0 0 0 0 0 0 0 0 0
0 0 0 0 0 0 0 0 0 0 0 0 0 0 0 0 0 0 0 0 0 0 0 0 0 0 0 0 0 0 0 0 0 0 0
0 0 0 0 0 0 0 0 0 0 0 0 0 0 0 0 0 0 0 0 0 0 0 0 0 0 0 0 0 0 0 0 0 0 0
0 0 0 0 0 0 0 0 0 0 0 0 0 0 0 0 0 0 0 0 0 0 0 0 0 0 0 0 0 0 0 0 0 0
0 0 0 0 0 0 0 0 0 0 0 0 0 0 0 0 0 0 0 0 0 0 0 0 0 0 0 0 0 0 0 0 0 0 0
0 0 0 0 0 0 0 0 0 0 0 0 0 0 0 0 0 0 0 0 0 0 0 0 0 0 0 0 0 0 0 0 0 0 0
0 0 0 0 0 0 0 0 0 0 0 0 0 0 0 0 0 0 0 0 0 0 0 0 0 0 0 0 0 0 0 0 0 0 0
0 0 0 0 0 0 0 0 0 0 0 0 0 0 0 0 0 0 0 0 0 0 0 0 0 0 0 0 0 0 0 0 0 0 0
0 0 0 0 0 0 0 0 0 0 0 0 0 0 0 0 0 0 0 0 0 0 0 0 0 0 0 0 0 0 0 0 0 0 0
0 0 0 0 0 0 0 0 0 0 0 0 0 0 0 0 0 0 0 0 0 0 0 0 0 0 0 0 0 0 0 0 0 0 0
0 0 0 0 0 0 0 0 0 0 0 0 0 0 0 0 0 0 0 0 0 0 0 0 0 0 0 0 0 0 0 0 0 0 0
0 0 0 0 0 0 0 0 0 0 0 0 0 0 0 0 0 0 0 0 0 0 0 0 0 0 0 0 0 0 0 0 0 0 0
0 0 0 0 0 0 0 0 0 0 0 0 0 0 0 0 0 0 0 0 0 0 0 0 0 0 0 0 0 0 0 0 0 0 0
0 0 0 0 0 0 0 0 0 0 0 0 0 0 0 0 0 0 0 0 0 0 0 0 0 0 0 0 0 0 0 0 0 0 0
0 0 0 0 0 0 0 0 0 0 0 0 0 0 0 0 0 0 0 0 0 0 0 0 0 0 0 0 0 0 0 0 0 0
0 0 0 0 0 0 0 0 0 0 0 0 0 0 0 0 0 0 0 0 0 0 0 0 0 0 0 0 0 0 0 0 0 0 0
0 0 0 0 0 0 0 0 0 0 0 0 0 0 0 0 0 0 0 0 0 0 0 0 0 0 0 0 0 0 0 0 0 0 0
0 0 0 0 0 0 0 0 0 0 0 0 0 0 0 0 0 0 0 0 0 0 0 0 0 0 0 0 0 0 0 0 0 0 0
0 0 0 0 0 0 0 0 0 0 0 0 0 0 0 0 0 0 0 0 0 0 0 0 0 0 0 0 0 0 0 0 0 0 0
0 0 0 0 0 0 0 0 0 0 0 0 0 0 0 0 0 0 0 0 0 0 0 0 0 0 0 0 0 0 0 0 0 0 0
0 0 0 0 0 0 0 0 0 0 0 0 0 0 0 0 0 0 0 0 0 0 0 0 0 0 0 0 0 0 0 0 0 0 0
0 0 0 0 0 0 0 0 0 0 0 0 0 0 0 0 0 0 0 0 0 0 0 0 0 0 0 0 0 0 0 0 0 0 0
0 0 0 0 0 0 0 0 0 0 0 0 0 0 0 0 0 0 0 0 0 0 0 0 0 0 0 0 0 0 0 0 0 0 0
0 0 0 0 0 0 0 0 0 0 0 0 0 0 0 0 0 0 0 0 0 0 0 0 0 0 0 0 0 0 0 0 0 0 0
0 0 0 0 0 0 0 0 0 0 0 0 0 0 0 0 0 0 0 0 0 0 0 0 0 0 0 0 0 0 0 0 0 0 0
0 0 0 0 0 0 0 0 0 0 0 0 0 0 0 0 0 0 0 0 0 0 0 0 0 0 0 0 0 0 0 0 0 0
0 0 0 0 0 0 0 0 0 0 0 0 0 0 0 0 0 0 0 0 0 0 0 0 0 0 0 0 0 0 0 0 0 0 0
0 0 0 0 0 0 0 0 0 0 0 0 0 0 0 0 0 0 0 0 0 0 0 0 0 0 0 0 0 0 0 0 0 0 0
0 0 0 0 0 0 0 0 0 0 0 0 0 0 0 0 0 0 0 0 0 0 0 0 0 0 0 0 0 0 0 0 0 0 0
0 0 0 0 0 0 0 0 0 0 0 0 0 0 0 0 0 0 0 0 0 0 0 0 0 0 0 0 0 0 0 0 0 0 0
0 0 0 0 0 0 0 0 0 0 0 0 0 0 0 0 0 0 0 0 0 0 0 0 0 0 0 0 0 0 0 0 0 0 0
0 0 0 0 0 0 0 0 0 0 0 0 0 0 0 0 0 0 0 0 0 0 0 0 0 0 0 0 0 0 0 0 0 0 0
0 0 0 0 0 0 0 0 0 0 0 0 0 0 0 0 0 0 0 0 0 0 0 0 0 0 0 0 0 0 0 0 0 0 0
0 0 0 0 0 0 0 0 0 0 0 0 0 0 0 0 0 0 0 0 0 0 0 0 0 0 0 0 0 0 0 0 0 0 0
0 0 0 0 0 0 0 0 0 0 0 0 0 0 0 0 0 0 0 0 0 0 0 0 0 0 0 0 0 0 0 0 0 0 0
0 0 0 0 0 0 0 0 0 0 0 0 0 0 0 0 0 0 0 0 0 0 0 0 0 0 0 0 0 0 0 0 0 0 0
0 0 0 0 0 0 0 0 0 0 0 0 0 0 0 0 0 0 0 0 0 0 0 0 0 0 0 0 0 0 0 0 0 0
0 0 0 0 0 0 0 0 0 0 0 0 0 0 0 0 0 0 0 0 0 0 0 0 0 0 0 0 0 0 0 0 0 0 0
0 0 0 0 0 0 0 0 0 0 0 0 0 0 0 0 0 0 0 0 0 0 0 0 0 0 0 0 0 0 0 0 0 0 0
0 0 0 0 0 0 0 0 0 0 0 0 0 0 0 0 0 0 0 0 0 0 0 0 0 0 0 0 0 0 0 0 0 0 0
0 0 0 0 0 0 0 0 0 0 0 0 0 0 0 0 0 0 0 0 0 0 0 0 0 0 0 0 0 0 0 0 0 0 0
0 0 0 0 0 0 0 0 0 0 0 0 0 0 0 0 0 0 0 0 0 0 0 0 0 0 0 0 0 0 0 0 0 0 0
0 0 0 0 0 0 0 0 0 0 0 0 0 0 0 0 0 0 0 0 0 0 0 0 0 0 0 0 0 0 0 0 0 0 0
0 0 0 0 0 0 0 0 0 0 0 0 0 0 0 0 0 0 0 0 0 0 0 0 0 0 0 0 0 0 0 0 0 0 0
0 0 0 0 0 0 0 0 0 0 0 0 0 0 0 0 0 0 0 0 0 0 0 0 0 0 0 0 0 0 0 0 0 0 0
0 0 0 0 0 0 0 0 0 0 0 0 0 0 0 0 0 0 0 0 0 0 0 0 0 0 0 0 0 0 0 0 0 0 0
0 0 0 0 0 0 0 0 0 0 0 0 0 0 0 0 0 0 0 0 0 0 0 0 0 0 0 0 0 0 0 0 0 0 0
0 0 0 0 0 0 0 0 0 0 0 0 0 0 0 0 0 0 0 0 0 0 0 0 0 0 0 0 0 0 0 0 0 0
0 0 0 0 0 0 0 0 0 0 0 0 0 0 0 0 0 0 0 0 0 0 0 0 0 0 0 0 0 0 0 0 0 0 0
0 0 0 0 0 0 0 0 0 0 0 0 0 0 0 0 0 0 0 0 0 0 0 0 0 0 0 0 0 0 0 0 0 0 0
0 0 0 0 0 0 0 0 0 0 0 0 0 0 0 0 0 0 0 0 0 0 0 0 0 0 0 0 0 0 0 0 0 0 0
0 0 0 0 0 0 0 0 0 0 0 0 0 0 0 0 0 0 0 0 0 0 0 0 0 0 0 0 0 0 0 0 0 0 0
0 0 0 0 0 0 0 0 0 0 0 0 0 0 0 0 0 0 0 0 0 0 0 0 0 0 0 0 0 0 0 0 0 0 0
0 0 0 0 0 0 0 0 0 0 0 0 0 0 0 0 0 0 0 0 0 0 0 0 0 0 0 0 0 0 0 0 0 0 0
0 0 0 0 0 0 0 0 0 0 0 0 0 0 0 0 0 0 0 0 0 0 0 0 0 0 0 0 0 0 0 0 0 0 0
0 0 0 0 0 0 0 0 0 0 0 0 0 0 0 0 0 0 0 0 0 0 0 0 0 0 0 0 0 0 0 0 0 0 0
0 0 0 0 0 0 0 0 0 0 0 0 0 0 0 0 0 0 0 0 0 0 0 0 0 0 0 0 0 0 0 0 0 0 0
0 0 0 0 0 0 0 0 0 0 0 0 0 0 0 0 0 0 0 0 0 0 0 0 0 0 0 0 0 0 0 0 0 0 0
0 0 0 0 0 0 0 0 0 0 0 0 0 0 0 0 0 0 0 0 0 0 0 0 0 0 0 0 0 0 0 0 0 0
0 0 0 0 0 0 0 0 0 0 0 0 0 0 0 0 0 0 0 0 0 0 0 0 0 0 0 0 0 0 0 0 0 0 0
0 0 0 0 0 0 0 0 0 0 0 0 0 0 0 0 0 0 0 0 0 0 0 0 0 0 0 0 0 0 0 0 0 0 0
0 0 0 0 0 0 0 0 0 0 0 0 0 0 0 0 0 0 0 0 0 0 0 0 0 0 0 0 0 0 0 0 0 0 0
0 0 0 0 0 0 0 0 0 0 0 0 0 0 0 0 0 0 0 0 0 0 0 0 0 0 0 0 0 0 0 0 0 0 0
0 0 0 0 0 0 0 0 0 0 0 0 0 0 0 0 0 0 0 0 0 0 0 0 0 0 0 0 0 0 0 0 0 0 0
0 0 0 0 0 0 0 0 0 0 0 0 0 0 0 0 0 0 0 0 0 0 0 0 0 0 0 0 0 0 0 0 0 0 0
0 0 0 0 0 0 0 0 0 0 0 0 0 0 0 0 0 0 0 0 0 0 0 0 0 0 0 0 0 0 0 0 0 0 0
0 0 0 0 0 0 0 0 0 0 0 0 0 0 0 0 0 0 0 0 0 0 0 0 0 0 0 0 0 0 0 0 0 0 0
0 0 0 0 0 0 0 0 0 0 0 0 0 0 0 0 0 0 0 0 0 0 0 0 0 0 0 0 0 0 0 0 0 0 0
0 0 0 0 0 0 0 0 0 0 0 0 0 0 0 0 0 0 0 0 0 0 0 0 0 0 0 0 0 0 0 0 0 0 0
0 0 0 0 0 0 0 0 0 0 0 0 0 0 0 0 0 0 0 0 0 0 0 0 0 0 0 0 0 0 0 0 0 0
0 0 0 0 0 0 0 0 0 0 0 0 0 0 0 0 0 0 0 0 0 0 0 0 0 0 0 0 0 0 0 0 0 0 0
0 0 0 0 0 0 0 0 0 0 0 0 0 0 0 0 0 0 0 0 0 0 0 0 0 0 0 0 0 0 0 0 0 0 0
0 0 0 0 0 0 0 0 0 0 0 0 0 0 0 0 0 0 0 0 0 0 0 0 0 0 0 0 0 0 0 0 0 0 0
0 0 0 0 0 0 0 0 0 0 0 0 0 0 0 0 0 0 0 0 0 0 0 0 0 0 0 0 0 0 0 0 0 0 0
0 0 0 0 0 0 0 0 0 0 0 0 0 0 0 0 0 0 0 0 0 0 0 0 0 0 0 0 0 0 0 0 0 0 0
0 0 0 0 0 0 0 0 0 0 0 0 0 0 0 0 0 0 0 0 0 0 0 0 0 0 0 0 0 0 0 0 0 0 0
0 0 0 0 0 0 0 0 0 0 0 0 0 0 0 0 0 0 0 0 0 0 0 0 0 0 0 0 0 0 0 0 0 0 0
0 0 0 0 0 0 0 0 0 0 0 0 0 0 0 0 0 0 0 0 0 0 0 0 0 0 0 0 0 0 0 0 0 0 0
0 0 0 0 0 0 0 0 0 0 0 0 0 0 0 0 0 0 0 0 0 0 0 0 0 0 0 0 0 0 0 0 0 0 0
0 0 0 0 0 0 0 0 0 0 0 0 0 0 0 0 0 0 0 0 0 0 0 0 0 0 0 0 0 0 0 0 0 0 0
0 0 0 0 0 0 0 0 0 0 0 0 0 0 0 0 0 0 0 0 0 0 0 0 0 0 0 0 0 0 0 0 0 0
0 0 0 0 0 0 0 0 0 0 0 0 0 0 0 0 0 0 0 0 0 0 0 0 0 0 0 0 0 0 0 0 0 0 0
0 0 0 0 0 0 0 0 0 0 0 0 0 0 0 0 0 0 0 0 0 0 0 0 0 0 0 0 0 0 0 0 0 0 0
0 0 0 0 0 0 0 0 0 0 0 0 0 0 0 0 0 0 0 0 0 0 0 0 0 0 0 0 0 0 0 0 0 0 0
0 0 0 0 0 0 0 0 0 0 0 0 0 0 0 0 0 0 0 0 0 0 0 0 0 0 0 0 0 0 0 0 0 0 0
0 0 0 0 0 0 0 0 0 0 0 0 0 0 0 0 0 0 0 0 0 0 0 0 0 0 0 0 0 0 0 0 0 0 0
0 0 0 0 0 0 0 0 0 0 0 0 0 0 0 0 0 0 0 0 0 0 0 0 0 0 0 0 0 0 0 0 0 0 0
0 0 0 0 0 0 0 0 0 0 0 0 0 0 0 0 0 0 0 0 0 0 0 0 0 0 0 0 0 0 0 0 0 0 0
0 0 0 0 0 0 0 0 0 0 0 0 0 0 0 0 0 0 0 0 0 0 0 0 0 0 0 0 0 0 0 0 0 0 0
0 0 0 0 0 0 0 0 0 0 0 0 0 0 0 0 0 0 0 0 0 0 0 0 0 0 0 0 0 0 0 0 0 0 0
0 0 0 0 0 0 0 0 0 0 0 0 0 0 0 0 0 0 0 0 0 0 0 0 0 0 0 0 0 0 0 0 0 0 0
0 0 0 0 0 0 0 0 0 0 0 0 0 0 0 0 0 0 0 0 0 0 0 0 0 0 0 0 0 0 0 0 0 0
0 0 0 0 0 0 0 0 0 0 0 0 0 0 0 0 0 0 0 0 0 0 0 0 0 0 0 0 0 0 0 0 0 0 0
0 0 0 0 0 0 0 0 0 0 0 0 0 0 0 0 0 0 0 0 0 0 0 0 0 0 0 0 0 0 0 0 0 0 0
0 0 0 0 0 0 0 0 0 0 0 0 0 0 0 0 0 0 0 0 0 0 0 0 0 0 0 0 0 0 0 0 0 0 0
0 0 0 0 0 0 0 0 0 0 0 0 0 0 0 0 0 0 0 0 0 0 0 0 0 0 0 0 0 0 0 0 0 0 0
0 0 0 0 0 0 0 0 0 0 0 0 0 0 0 0 0 0 0 0 0 0 0 0 0 0 0 0 0 0 0 0 0 0 0
0 0 0 0 0 0 0 0 0 0 0 0 0 0 0 0 0 0 0 0 0 0 0 0 0 0 0 0 0 0 0 0 0 0 0
0 0 0 0 0 0 0 0 0 0 0 0 0 0 0 0 0 0 0 0 0 0 0 0 0 0 0 0 0 0 0 0 0 0 0
0 0 0 0 0 0 0 0 0 0 0 0 0 0 0 0 0 0 0 0 0 0 0 0 0 0 0 0 0 0 0 0 0 0 0
0 0 0 0 0 0 0 0 0 0 0 0 0 0 0 0 0 0 0 0 0 0 0 0 0 0 0 0 0 0 0 0 0 0 0
0 0 0 0 0 0 0 0 0 0 0 0 0 0 0 0 0 0 0 0 0 0 0 0 0 0 0 0 0 0 0 0 0 0 0
0 0 0 0 0 0 0 0 0 0 0 0 0 0 0 0 0 0 0 0 0 0 0 0 0 0 0 0 0 0 0 0 0 0
0 0 0 0 0 0 0 0 0 0 0 0 0 0 0 0 0 0 0 0 0 0 0 0 0 0 0 0 0 0 0 0 0 0 0
0 0 0 0 0 0 0 0 0 0 0 0 0 0 0 0 0 0 0 0 0 0 0 0 0 0 0 0 0 0 0 0 0 0 0
0 0 0 0 0 0 0 0 0 0 0 0 0 0 0 0 0 0 0 0 0 0 0 0 0 0 0 0 0 0 0 0 0 0 0
0 0 0 0 0 0 0 0 0 0 0 0 0 0 0 0 0 0 0 0 0 0 0 0 0 0 0 0 0 0 0 0 0 0 0
0 0 0 0 0 0 0 0 0 0 0 0 0 0 0 0 0 0 0 0 0 0 0 0 0 0 0 0 0 0 0 0 0 0 0
0 0 0 0 0 0 0 0 0 0 0 0 0 0 0 0 0 0 0 0 0 0 0 0 0 0 0 0 0 0 0 0 0 0 0
0 0 0 0 0 0 0 0 0 0 0 0 0 0 0 0 0 0 0 0 0 0 0 0 0 0 0 0 0 0 0 0 0 0 0
0 0 0 0 0 0 0 0 0 0 0 0 0 0 0 0 0 0 0 0 0 0 0 0 0 0 0 0 0 0 0 0 0 0 0
0 0 0 0 0 0 0 0 0 0 0 0 0 0 0 0 0 0 0 0 0 0 0 0 0 0 0 0 0 0 0 0 0 0 0
0 0 0 0 0 0 0 0 0 0 0 0 0 0 0 0 0 0 0 0 0 0 0 0 0 0 0 0 0 0 0 0 0 0 0
0 0 0 0 0 0 0 0 0 0 0 0 0 0 0 0 0 0 0 0 0 0 0 0 0 0 0 0 0 0 0 0 0 0
0 0 0 0 0 0 0 0 0 0 0 0 0 0 0 0 0 0 0 0 0 0 0 0 0 0 0 0 0 0 0 0 0 0 0
0 0 0 0 0 0 0 0 0 0 0 0 0 0 0 0 0 0 0 0 0 0 0 0 0 0 0 0 0 0 0 0 0 0 0
0 0 0 0 0 0 0 0 0 0 0 0 0 0 0 0 0 0 0 0 0 0 0 0 0 0 0 0 0 0 0 0 0 0 0
0 0 0 0 0 0 0 0 0 0 0 0 0 0 0 0 0 0 0 0 0 0 0 0 0 0 0 0 0 0 0 0 0 0 0
0 0 0 0 0 0 0 0 0 0 0 0 0 0 0 0 0 0 0 0 0 0 0 0 0 0 0 0 0 0 0 0 0 0 0
0 0 0 0 0 0 0 0 0 0 0 0 0 0 0 0 0 0 0 0 0 0 0 0 0 0 0 0 0 0 0 0 0 0 0
0 0 0 0 0 0 0 0 0 0 0 0 0 0 0 0 0 0 0 0 0 0 0 0 0 0 0 0 0 0 0 0 0 0 0
0 0 0 0 0 0 0 0 0 0 0 0 0 0 0 0 0 0 0 0 0 0 0 0 0 0 0 0 0 0 0 0 0 0 0
0 0 0 0 0 0 0 0 0 0 0 0 0 0 0 0 0 0 0 0 0 0 0 0 0 0 0 0 0 0 0 0 0 0 0
0 0 0 0 0 0 0 0 0 0 0 0 0 0 0 0 0 0 0 0 0 0 0 0 0 0 0 0 0 0 0 0 0 0 0
0 0 0 0 0 0 0 0 0 0 0 0 0 0 0 0 0 0 0 0 0 0 0 0 0 0 0 0 0 0 0 0 0 0
0 0 0 0 0 0 0 0 0 0 0 0 0 0 0 0 0 0 0 0 0 0 0 0 0 0 0 0 0 0 0 0 0 0 0
0 0 0 0 0 0 0 0 0 0 0 0 0 0 0 0 0 0 0 0 0 0 0 0 0 0 0 0 0 0 0 0 0 0 0
0 0 0 0 0 0 0 0 0 0 0 0 0 0 0 0 0 0 0 0 0 0 0 0 0 0 0 0 0 0 0 0 0 0 0
0 0 0 0 0 0 0 0 0 0 0 0 0 0 0 0 0 0 0 0 0 0 0 0 0 0 0 0 0 0 0 0 0 0 0
0 0 0 0 0 0 0 0 0 0 0 0 0 0 0 0 0 0 0 0 0 0 0 0 0 0 0 0 0 0 0 0 0 0 0
0 0 0 0 0 0 0 0 0 0 0 0 0 0 0 0 0 0 0 0 0 0 0 0 0 0 0 0 0 0 0 0 0 0 0
0 0 0 0 0 0 0 0 0 0 0 0 0 0 0 0 0 0 0 0 0 0 0 0 0 0 0 0 0 0 0 0 0 0 0
0 0 0 0 0 0 0 0 0 0 0 0 0 0 0 0 0 0 0 0 0 0 0 0 0 0 0 0 0 0 0 0 0 0 0
0 0 0 0 0 0 0 0 0 0 0 0 0 0 0 0 0 0 0 0 0 0 0 0 0 0 0 0 0 0 0 0 0 0 0
0 0 0 0 0 0 0 0 0 0 0 0 0 0 0 0 0 0 0 0 0 0 0 0 0 0 0 0 0 0 0 0 0 0 0
0 0 0 0 0 0 0 0 0 0 0 0 0 0 0 0 0 0 0 0 0 0 0 0 0 0 0 0 0 0 0 0 0 0
0 0 0 0 0 0 0 0 0 0 0 0 0 0 0 0 0 0 0 0 0 0 0 0 0 0 0 0 0 0 0 0 0 0 0
0 0 0 0 0 0 0 0 0 0 0 0 0 0 0 0 0 0 0 0 0 0 0 0 0 0 0 0 0 0 0 0 0 0 0
0 0 0 0 0 0 0 0 0 0 0 0 0 0 0 0 0 0 0 0 0 0 0 0 0 0 0 0 0 0 0 0 0 0 0
0 0 0 0 0 0 0 0 0 0 0 0 0 0 0 0 0 0 0 0 0 0 0 0 0 0 0 0 0 0 0 0 0 0 0
0 0 0 0 0 0 0 0 0 0 0 0 0 0 0 0 0 0 0 0 0 0 0 0 0 0 0 0 0 0 0 0 0 0 0
0 0 0 0 0 0 0 0 0 0 0 0 0 0 0 0 0 0 0 0 0 0 0 0 0 0 0 0 0 0 0 0 0 0 0
0 0 0 0 0 0 0 0 0 0 0 0 0 0 0 0 0 0 0 0 0 0 0 0 0 0 0 0 0 0 0 0 0 0 0
0 0 0 0 0 0 0 0 0 0 0 0 0 0 0 0 0 0 0 0 0 0 0 0 0 0 0 0 0 0 0 0 0 0 0
0 0 0 0 0 0 0 0 0 0 0 0 0 0 0 0 0 0 0 0 0 0 0 0 0 0 0 0 0 0 0 0 0 0 0
0 0 0 0 0 0 0 0 0 0 0 0 0 0 0 0 0 0 0 0 0 0 0 0 0 0 0 0 0 0 0 0 0 0 0
0 0 0 0 0 0 0 0 0 0 0 0 0 0 0 0 0 0 0 0 0 0 0 0 0 0 0 0 0 0 0 0 0 0
0 0 0 0 0 0 0 0 0 0 0 0 0 0 0 0 0 0 0 0 0 0 0 0 0 0 0 0 0 0 0 0 0 0 0
0 0 0 0 0 0 0 0 0 0 0 0 0 0 0 0 0 0 0 0 0 0 0 0 0 0 0 0 0 0 0 0 0 0 0
0 0 0 0 0 0 0 0 0 0 0 0 0 0 0 0 0 0 0 0 0 0 0 0 0 0 0 0 0 0 0 0 0 0 0
0 0 0 0 0 0 0 0 0 0 0 0 0 0 0 0 0 0 0 0 0 0 0 0 0 0 0 0 0 0 0 0 0 0 0
0 0 0 0 0 0 0 0 0 0 0 0 0 0 0 0 0 0 0 0 0 0 0 0 0 0 0 0 0 0 0 0 0 0 0
0 0 0 0 0 0 0 0 0 0 0 0 0 0 0 0 0 0 0 0 0 0 0 0 0 0 0 0 0 0 0 0 0 0 0
0 0 0 0 0 0 0 0 0 0 0 0 0 0 0 0 0 0 0 0 0 0 0 0 0 0 0 0 0 0 0 0 0 0 0
0 0 0 0 0 0 0 0 0 0 0 0 0 0 0 0 0 0 0 0 0 0 0 0 0 0 0 0 0 0 0 0 0 0 0
0 0 0 0 0 0 0 0 0 0 0 0 0 0 0 0 0 0 0 0 0 0 0 0 0 0 0 0 0 0 0 0 0 0 0
0 0 0 0 0 0 0 0 0 0 0 0 0 0 0 0 0 0 0 0 0 0 0 0 0 0 0 0 0 0 0 0 0 0 0
0 0 0 0 0 0 0 0 0 0 0 0 0 0 0 0 0 0 0 0 0 0 0 0 0 0 0 0 0 0 0 0 0 0
0 0 0 0 0 0 0 0 0 0 0 0 0 0 0 0 0 0 0 0 0 0 0 0 0 0 0 0 0 0 0 0 0 0 0
0 0 0 0 0 0 0 0 0 0 0 0 0 0 0 0 0 0 0 0 0 0 0 0 0 0 0 0 0 0 0 0 0 0 0
0 0 0 0 0 0 0 0 0 0 0 0 0 0 0 0 0 0 0 0 0 0 0 0 0 0 0 0 0 0 0 0 0 0 0
0 0 0 0 0 0 0 0 0 0 0 0 0 0 0 0 0 0 0 0 0 0 0 0 0 0 0 0 0 0 0 0 0 0 0
0 0 0 0 0 0 0 0 0 0 14 145 72 15 145 73 14 142 71 14 137 69 13 131 66
12 123 62 11 111 55 0 0 0 0 0 0 0 0 0 0 0 0 0 0 0 0 0 0 0 0 0 0 0 0 0
0 0 0 0 0 0 0 0 0 0 0 0 0 0 0 0 0 0 0 0 0 0 0 0 0 0 0 0 0 0 0 0 0 0 0
0 0 0 0 0 0 0 0 0 0 0 0 0 0 0 0 0 0 0 0 0 0 0 0 0 0 0 0 0 0 0 0 0 0 0
0 0 0 0 0 0 0 0 0 0 0 0 0 0 0 0 0 0 0 0 0 0 0 0 0 0 0 0 0 0 0 0 0 0 0
0 0 0 0 0 0 0 0 0 0 0 0 0 0 0 0 0 0 0 0 0 0 0 0 0 0 0 0 0 0 0 0 0 0 0
0 0 0 0 0 0 0 0 0 0 0 0 0 0 0 0 0 0 0 0 0 0 0 0 0 0 0 0 0 0 0 0 0 0 0
0 0 0 0 0 0 0 0 0 0 0 0 0
0 0 0 0 0 0 0 0 0 0 0 0 0 0 0 0 0 0 0 0 0 0 0 0 0 0 0 0 0 0 0 0 0 0 0
0 0 0 0 0 0 0 0 0 0 0 0 0 0 0 0 0 0 0 0 0 0 0 0 0 0 0 0 0 0 0 0 0 0 0
0 0 0 0 0 0 0 0 0 0 0 0 0 0 0 0 0 0 0 0 0 0 0 0 0 0 0 0 0 0 0 0 0 0 0
0 0 0 0 0 0 0 0 0 0 0 0 0 0 0 0 0 0 0 0 0 0 0 0 0 0 0 0 0 0 0 0 0 0 0
0 17 168 84 17 168 84 17 166 83 16 163 82 16 159 80 15 155 77 15 150
75 14 144 72 14 138 69 13 131 65 12 123 61 11 114 57 10 102 51 0 0 0 0
0 0 0 0 0 0 0 0 0 0 0 0 0 0 0 0 0 0 0 0 0 0 0 0 0 0 0 0 0 0 0 0 0 0 0
0 0 0 0 0 0 0 0 0 0 0 0 0 0 0 0 0 0 0 0 0 0 0 0 0 0 0 0 0 0 0 0 0 0 0
0 0 0 0 0 0 0 0 0 0 0 0 0 0 0 0 0 0 0 0 0 0 0 0 0 0 0 0 0 0 0 0 0 0 0
0 0 0 0 0 0 0 0 0 0 0 0 0 0 0 0 0 105 84 11 0 0 0 0 0 0 0 0 0 0 0 0 0
0 0 0 0 0 0 0 0 0 0 0 0 0 0 0 0 0 0 0 0 0 0 0 0 0 0 0 0 0 0 0 0 0 0 0
0 0 0 0 0 0 0 0 0 0 0 0 0 0 0 0 0 0 0 0 0 0 0 0 0 0 0
0 0 0 0 0 0 0 0 0 0 0 0 0 0 0 0 0 0 0 0 0 0 0 0 0 0 0 0 0 0 0 0 0 0 0
0 0 0 0 0 0 0 0 0 0 0 0 0 0 0 0 0 0 0 0 0 0 0 0 0 0 0 0 0 0 0 0 0 0 0
0 0 0 0 0 0 0 0 0 0 0 0 0 0 0 0 0 0 0 0 0 0 0 0 0 0 0 0 0 0 0 0 0 0 0
0 0 0 0 0 0 0 0 0 0 0 0 0 0 0 0 0 0 0 0 0 0 0 0 0 0 0 17 173 86 18 179
89 18 179 90 18 178 89 18 176 88 0 0 0 17 169 85 17 165 83 16 161 80
16 156 78 15 150 75 14 144 72 14 138 69 13 131 65 0 0 0 11 114 57 10
104 52 9 92 46 7 74 37 0 0 0 0 0 0 0 0 0 0 0 0 0 0 0 0 0 0 0 0 0 0 0 0
0 0 0 0 0 0 0 0 0 0 0 0 0 0 0 0 0 0 0 0 0 0 0 0 0 0 0 0 0 0 0 0 0 0 0
0 0 0 0 0 0 0 0 0 0 0 0 0 0 0 0 0 0 0 0 0 0 0 0 0 0 0 0 0 0 0 0 0 0 0
0 0 0 0 0 0 0 0 0 0 0 0 0 0 0 0 0 0 0 0 0 0 0 0 0 0 0 0 0 0 0 0 0 0 0
0 0 0 0 0 0 0 0 0 0 0 0 0 0 0 0 0 0 0 0 0 0 0 0 0 0 0 0 0 0 0 0 0 0 0
0 0 0 0 0 0 0 0 0 0 0 0 0 0 0 0 0 0 0 0 0 0 0 0 0 0 0 0 0 0 0
0 0 0 0 0 0 0 0 0 0 0 0 0 0 0 0 0 0 0 0 0 0 0 0 0 0 0 0 0 0 0 0 0 0 0
0 0 0 0 0 0 0 0 0 0 0 0 0 0 0 0 0 0 0 0 0 0 0 0 0 0 0 0 0 0 0 0 0 0 0
0 0 0 0 0 0 0 0 0 0 0 0 0 0 0 0 0 0 0 0 0 0 0 0 0 0 0 0 0 0 0 0 0 0 0
0 0 0 0 0 0 0 0 0 0 0 0 0 0 0 0 0 0 0 0 0 0 0 0 18 185 92 19 187 94 19
187 93 19 185 93 18 183 92 18 180 90 18 177 88 17 173 86 17 169 84 16
164 82 16 159 79 15 154 77 15 148 74 14 142 71 13 135 67 13 128 64 12
120 60 12 118 59 10 102 51 9 91 46 8 77 39 0 0 0 0 0 0 0 0 0 0 0 0 0 0
0 0 0 0 0 0 0 0 0 0 0 0 0 0 0 0 0 0 0 0 0 0 0 0 0 0 0 0 0 0 0 0 0 0 0
0 0 0 0 0 101 81 10 0 0 0 0 0 0 0 0 0 0 0 0 0 0 0 0 0 0 0 0 0 0 0 0 0
0 0 0 0 0 0 0 0 0 0 0 0 0 0 0 0 0 0 0 0 0 0 0 0 0 0 0 0 0 0 0 0 0 0 0
0 0 0 0 0 0 0 0 0 0 0 0 0 0 0 0 0 0 0 0 0 0 0 0 0 0 0 0 0 0 0 0 0 0 0
0 0 0 0 0 0 0 0 0 0 0 0 0 0 0 0 0 0 0 0 0 0 0 0 0 0 0 0 0 0 0 0 0 0 0
0 0 0 0 0
0 0 0 0 0 0 0 0 0 0 0 0 0 0 0 0 0 0 0 0 0 0 0 0 0 0 0 0 0 0 0 0 0 0 0
0 0 0 0 0 0 0 0 0 0 0 0 0 0 0 0 0 0 0 0 0 0 0 0 0 0 0 0 0 0 0 0 0 0 0
0 0 0 0 0 0 0 0 0 0 0 0 0 0 0 0 0 0 0 0 0 0 0 0 0 0 0 0 0 0 0 0 0 0 0
0 0 0 0 0 0 0 0 0 0 0 0 0 0 0 0 0 0 0 0 0 19 191 96 19 193 96 19 192
96 19 191 95 19 189 94 19 186 93 18 183 91 18 179 90 18 175 88 17 171
85 0 0 0 0 0 0 16 156 78 15 150 75 14 144 72 14 138 69 13 131 65 12
124 62 12 116 58 11 107 54 10 98 49 9 87 43 7 74 37 5 55 27 0 0 0 0 0
0 0 0 0 0 0 0 0 0 0 0 0 0 0 0 0 0 0 0 0 0 0 0 0 0 0 0 0 0 0 0 0 0 0 0
0 0 0 0 0 0 0 0 0 0 0 0 0 0 0 0 0 0 0 0 0 0 0 0 0 0 0 0 0 0 0 0 0 0 0
0 0 0 0 0 0 0 0 0 0 0 0 0 0 0 0 0 0 0 0 0 0 0 0 0 0 0 0 0 0 0 0 0 0 0
0 0 0 0 0 0 0 0 0 0 0 0 0 0 0 0 0 0 0 0 0 0 0 0 0 0 0 0 0 0 0 0 0 0 0
0 0 0 0 0 0 0 0 0 0 0 0 0 0 0 0 0 0 0 0 0 0 0 0 0 0 0 0 0 0 0 0 0 0 0
0 0 0 0 0 0
0 0 0 0 0 0 0 0 0 0 0 0 0 0 0 0 0 0 0 0 0 0 0 0 0 0 0 0 0 0 0 0 0 0 0
0 0 0 0 0 0 0 0 0 0 0 0 0 0 0 0 0 0 0 0 0 0 0 0 0 0 0 0 0 0 0 0 0 0 0
0 0 0 0 0 0 0 0 0 0 0 0 0 0 0 0 0 0 0 0 0 0 0 0 0 0 0 0 0 0 0 0 0 0 0
0 0 0 0 0 0 0 0 0 0 0 0 0 0 0 19 189 95 20 195 98 20 197 98 20 196 98
20 195 98 19 193 97 19 191 95 19 187 94 18 184 92 18 180 90 18 176 88
17 172 86 17 167 84 16 162 81 16 157 78 15 151 76 15 145 73 14 139 70
0 0 0 13 126 63 12 118 59 11 110 55 10 101 51 3 26 13 8 81 40 7 68 34
5 50 25 0 0 0 0 0 0 0 0 0 0 0 0 0 0 0 0 0 0 0 0 0 0 0 0 0 0 0 0 0 0 0
0 0 0 0 0 0 0 0 0 0 0 0 0 0 0 0 0 0 0 0 0 0 0 0 0 0 0 0 0 0 0 0 0 0 0
0 0 0 0 0 0 0 0 0 0 0 0 0 0 0 0 0 0 0 0 0 0 0 0 26 23 23 0 0 0 0 0 0 0
0 0 0 0 0 0 0 0 0 0 0 0 0 0 0 0 0 0 0 0 0 0 0 0 0 0 0 0 0 0 0 0 0 0 0
0 0 0 0 0 0 0 0 0 0 0 0 0 0 0 0 0 0 0 0 0 0 0 0 0 0 0 0 0 0 0 0 0 0 0
0 0 0 0 0 0 0 0 0 0 26 23 23
0 0 0 0 0 0 0 0 0 0 0 0 0 0 0 0 0 0 0 0 0 0 0 0 0 0 0 0 0 0 0 0 0 0 0
0 0 0 0 0 0 0 0 0 0 0 0 0 0 0 0 0 0 0 0 0 0 0 0 0 0 0 0 0 0 0 0 0 0 0
0 0 0 0 0 0 0 0 0 0 0 0 0 0 0 0 0 0 0 0 0 0 0 0 0 0 0 0 0 0 0 0 0 0 0
0 0 0 0 0 0 0 0 0 0 0 0 19 192 96 20 198 99 20 200 100 20 200 100 20
198 99 20 197 98 19 194 97 19 191 96 19 188 94 18 185 92 18 181 90 18
177 88 17 172 86 17 168 84 16 163 81 16 157 79 15 152 76 15 146 73 14
140 70 13 134 67 13 127 63 12 120 60 11 112 56 10 104 52 9 95 47 8 85
42 7 74 37 6 60 30 4 42 21 0 0 0 0 0 0 0 0 0 0 0 0 0 0 0 0 0 0 0 0 0 0
0 0 0 0 0 0 0 0 0 0 0 0 0 0 0 0 0 0 0 0 0 0 0 0 0 0 0 0 0 0 0 0 0 0 0
0 0 0 0 0 0 0 0 0 0 0 0 0 0 0 0 0 0 0 0 0 0 0 0 0 0 0 0 0 0 0 0 0 0 0
0 0 0 0 0 0 0 0 0 0 0 0 0 0 0 0 0 0 0 0 0 0 0 0 0 0 0 0 0 0 0 0 0 0 0
0 0 0 0 0 0 0 0 0 0 0 0 0 0 0 0 0 0 0 0 0 0 0 0 0 0 0 0 0 0 0 0 0 0 0
0 0 0 0 0 0 0 0 0 0 0 0 26 23 23 0 0 0
0 0 0 0 0 0 0 0 0 0 0 0 0 0 0 0 0 0 0 0 0 0 0 0 0 0 0 0 0 0 0 0 0 0 0
0 0 0 0 0 0 0 0 0 0 0 0 0 0 0 0 0 0 0 0 0 0 0 0 0 0 0 0 0 0 0 0 0 0 0
0 0 0 0 0 0 0 0 0 0 0 0 0 0 0 0 0 0 0 0 0 0 0 0 0 0 0 0 0 0 0 0 0 0 0
0 0 0 0 0 0 0 0 0 19 191 95 20 199 100 20 201 101 20 202 101 20 201
100 20 199 100 20 197 99 19 195 97 19 192 96 19 188 94 18 185 92 18
181 90 18 177 88 17 172 86 17 167 84 16 163 81 16 157 79 15 152 76 15
146 73 14 140 70 13 134 67 13 127 64 12 120 60 11 113 56 10 105 52 10
96 48 9 87 44 8 77 38 7 65 33 5 51 26 3 32 16 0 0 0 0 0 0 0 0 0 0 0 0
0 0 0 0 0 0 0 0 0 0 0 0 0 0 0 0 0 0 0 0 0 0 0 0 0 0 0 0 0 0 0 0 0 0 0
0 0 0 0 0 0 0 0 0 0 0 0 0 0 0 0 0 0 0 0 0 0 0 0 0 0 0 0 0 0 0 0 0 0 0
0 0 0 0 0 0 0 0 0 0 0 0 0 0 0 0 0 0 0 0 0 0 0 0 0 0 0 0 0 0 0 0 0 0 0
0 0 0 0 0 0 0 0 0 0 0 0 0 0 0 0 0 0 0 0 0 0 0 0 0 0 0 0 0 0 0 0 0 0 0
0 0 0 0 0 0 0 0 0 0 0 0 0 0 0 0 0 0 0 0 0 0 0 0 0
0 0 0 0 0 0 0 0 0 0 0 0 0 0 0 0 0 0 0 0 0 0 0 0 0 0 0 0 0 0 0 0 0 0 0
0 0 0 0 0 0 0 0 0 0 0 0 0 0 0 0 0 0 0 0 0 0 0 0 0 0 0 0 0 0 0 0 0 0 0
0 0 0 0 0 0 0 0 0 0 0 0 0 0 0 0 0 0 0 0 0 0 0 0 0 0 0 0 0 0 0 0 0 0 0
0 0 0 0 0 0 0 0 0 20 199 99 20 202 101 20 203 102 20 203 101 20 201
101 20 200 100 20 197 99 19 194 97 19 191 96 19 188 94 18 184 92 18
180 90 18 176 88 17 172 86 17 167 83 16 162 81 16 157 78 15 152 76 15
146 73 3 26 13 13 134 67 13 127 64 12 120 60 11 113 57 11 106 53 10 97
49 9 89 44 8 79 39 7 68 34 6 56 28 4 41 20 3 26 13 0 0 0 0 0 0 0 0 0 0
0 0 0 0 0 0 0 0 0 0 0 0 0 0 0 0 0 0 0 0 0 0 0 0 0 0 0 0 0 0 0 0 0 0 0
0 0 0 0 0 0 0 0 0 0 0 0 0 0 0 0 0 0 0 0 0 0 0 0 0 0 0 0 0 0 0 0 0 0 0
0 0 0 0 0 0 0 0 0 0 0 0 0 0 0 0 0 0 0 0 0 0 0 0 0 0 0 0 0 0 0 0 0 0 0
0 0 0 0 0 0 0 0 0 0 0 0 0 0 0 0 0 0 0 0 0 0 0 0 0 0 0 0 0 0 0 0 0 0 0
0 0 0 0 0 0 0 0 0 0 0 0 0 0 0 0 0 0 0 0 0 0 0 0
0 0 0 0 0 0 0 0 0 0 0 0 0 0 0 0 0 0 0 0 0 0 0 0 0 0 0 0 0 0 0 0 0 0 0
0 0 0 0 0 0 0 0 0 0 0 0 0 0 0 0 0 0 0 0 0 0 0 0 0 0 0 0 0 0 0 0 0 0 0
0 0 0 0 0 0 0 0 0 0 0 0 0 0 0 0 0 0 0 0 0 0 0 0 0 0 0 0 0 0 0 0 0 0 0
0 0 0 0 0 0 20 197 98 20 202 101 20 204 102 20 204 102 20 203 101 20
201 101 20 199 100 20 197 98 19 194 97 19 191 95 19 187 94 18 183 92
18 179 90 18 175 88 17 171 85 17 166 83 16 161 81 16 156 78 15 151 75
15 145 73 14 139 70 13 133 67 13 127 63 12 120 60 11 113 57 11 106 53
10 98 49 9 89 45 8 80 40 7 70 35 6 58 29 5 45 23 3 29 14 0 0 0 0 0 0 0
0 0 0 0 0 0 0 0 0 0 0 0 0 0 26 23 23 0 0 0 0 0 0 0 0 0 0 0 0 0 0 0 0 0
0 0 0 0 0 0 0 0 0 0 0 0 0 0 0 0 0 0 0 0 0 0 0 0 0 0 0 0 0 0 0 0 0 0 0
0 0 0 0 0 0 0 0 0 0 0 0 0 0 0 0 0 0 0 0 0 0 0 0 0 0 0 0 0 0 0 0 0 0 0
0 0 0 0 0 0 0 0 0 0 0 0 0 0 0 0 0 0 0 0 0 0 0 0 0 0 0 0 0 0 0 0 0 0 0
0 0 0 0 0 0 0 0 0 0 0 0 0 0 0 0 0 0 0 0 0 0 0 0 0 0 0 0
0 0 0 0 0 0 0 0 0 0 0 0 0 0 0 0 0 0 0 0 0 0 0 0 0 0 0 0 0 0 0 0 0 0 0
0 0 0 0 0 0 0 0 0 0 0 0 0 26 23 23 0 0 0 0 0 0 0 0 0 0 0 0 0 0 0 0 0 0
0 0 0 0 0 0 0 0 0 0 0 0 0 0 0 0 0 0 0 0 0 0 0 0 0 0 0 0 0 0 0 0 0 0 0
0 0 0 0 19 191 96 20 200 100 20 203 102 20 204 102 20 204 102 20 202
101 20 201 100 20 198 99 20 196 98 19 193 96 19 190 95 19 186 93 18
182 91 18 178 89 17 174 87 17 170 85 16 165 82 16 160 80 15 155 77 15
150 75 3 26 13 14 138 69 13 132 66 13 126 63 12 119 60 11 112 56 11
105 53 10 97 49 9 89 44 8 80 40 7 70 35 6 60 30 5 48 24 3 33 17 3 26
13 0 0 0 0 0 0 0 0 0 0 0 0 0 0 0 0 0 0 0 0 0 0 0 0 0 0 0 0 0 0 0 0 0 0
0 0 0 0 0 0 0 0 0 0 0 0 0 0 0 0 0 0 0 0 0 0 0 0 0 0 0 0 0 0 0 0 0 0 0
0 0 0 0 0 0 0 0 0 0 0 0 0 0 0 0 0 0 0 0 0 0 0 0 0 0 0 0 0 0 0 0 0 0 0
0 0 0 0 0 0 0 0 0 0 0 0 0 0 0 0 0 0 0 0 0 0 0 0 0 0 0 0 0 0 0 0 0 0 0
0 0 0 0 0 0 0 0 0 0 0 26 23 23 0 0 0 0 0 0 0 0 0 0 0 0 0 0 0 0 0 0
30 27 27 30 27 27 30 27 27 30 27 27 30 27 27 30 27 27 30 27 27 30 27
27 30 27 27 30 27 27 30 27 27 30 27 27 30 27 27 30 27 27 30 27 27 30
27 27 30 27 27 30 27 27 30 27 27 30 27 27 30 27 27 30 27 27 30 27 27
30 27 27 30 27 27 30 27 27 30 27 27 30 27 27 0 0 0 30 27 27 0 0 0 30
27 27 30 27 27 30 27 27 30 27 27 30 27 27 20 197 98 0 0 0 20 203 102
20 204 102 20 203 101 20 201 101 20 200 100 20 197 99 19 194 97 19 191
96 19 188 94 18 185 92 18 181 90 18 177 88 17 173 86 17 168 84 16 163
82 16 159 79 15 154 77 15 148 74 14 143 71 14 137 69 13 131 66 12 125
62 12 118 59 11 111 56 10 104 52 10 97 48 9 88 44 8 80 40 7 70 35 6 60
30 5 49 24 4 36 18 3 26 13 3 26 13 30 27 27 30 27 27 30 27 27 30 27 27
30 27 27 30 27 27 30 27 27 30 27 27 26 23 23 30 27 27 30 27 27 0 0 0
30 27 27 30 27 27 30 27 27 30 27 27 3 26 13 30 27 27 30 27 27 30 27 27
30 27 27 30 27 27 30 27 27 30 27 27 30 27 27 30 27 27 30 27 27 30 27
27 26 23 23 30 27 27 30 27 27 30 27 27 30 27 27 30 27 27 30 27 27 30
27 27 30 27 27 30 27 27 30 27 27 30 27 27 30 27 27 30 27 27 30 27 27
30 27 27 30 27 27 30 27 27 30 27 27 30 27 27 26 23 23 26 23 23 30 27
27 30 27 27 30 27 27 30 27 27 29 27 27 29 27 27
41 37 37 41 37 37 41 37 37 41 37 37 41 37 37 41 37 37 41 37 37 41 37
37 41 37 37 42 37 37 42 37 37 42 37 37 42 37 37 42 38 38 42 38 38 42
38 38 42 38 38 42 38 38 42 38 38 42 38 38 42 38 38 42 38 38 42 38 38
42 38 38 42 38 38 42 38 38 42 38 38 42 38 38 42 38 38 42 38 38 42 38
38 42 38 38 42 38 38 42 38 38 42 38 38 19 188 94 20 198 99 20 202 101
20 203 101 20 203 101 20 202 101 20 200 100 20 198 99 20 196 98 19 193
96 19 190 95 19 187 93 18 183 92 18 179 90 18 175 88 17 171 85 17 166
83 16 162 81 16 157 78 15 152 76 15 147 73 14 141 71 14 135 68 3 26 13
12 123 62 12 117 58 11 110 55 10 103 51 10 95 48 9 87 44 8 79 39 7 70
35 6 60 30 5 49 25 4 37 18 3 26 13 3 26 13 43 38 38 43 38 38 42 38 38
42 38 38 42 38 38 42 38 38 42 38 38 42 38 38 42 38 38 42 38 38 42 38
38 42 38 38 42 38 38 42 38 38 42 38 38 42 38 38 42 38 38 42 38 38 42
38 38 42 38 38 42 38 38 42 38 38 42 38 38 42 38 38 42 38 38 42 38 38
42 37 37 42 37 37 42 37 37 41 37 37 41 37 37 41 37 37 41 37 37 41 37
37 41 37 37 41 37 37 41 37 37 41 37 37 41 37 37 41 37 37 41 37 37 41
37 37 41 37 37 41 37 37 41 37 37 41 37 37 41 37 37 41 36 36 40 36 36
40 36 36 40 36 36 40 36 36 40 36 36 40 36 36 40 36 36 40 36 36
127 115 115 52 47 47 53 47 47 53 47 47 53 47 47 53 48 48 53 48 48 53
48 48 53 48 48 53 48 48 53 48 48 53 48 48 53 48 48 53 48 48 53 48 48
53 48 48 54 48 48 54 48 48 54 48 48 54 48 48 54 48 48 54 48 48 54 48
48 54 49 49 54 49 49 54 49 49 54 49 49 54 49 49 54 49 49 54 49 49 54
49 49 54 49 49 54 49 49 13 26 3 54 49 49 19 192 96 20 199 99 20 201
100 20 202 101 20 201 101 20 200 100 20 198 99 20 196 98 19 194 97 19
191 96 20 189 95 24 190 98 21 183 93 18 177 89 17 173 87 17 169 84 16
164 82 16 160 80 15 155 77 15 150 75 14 145 72 14 139 70 13 134 67 13
128 64 12 122 61 12 115 58 11 108 54 10 101 51 9 94 47 9 86 43 8 78 39
7 69 34 6 59 30 5 49 24 4 37 18 3 26 13 3 26 13 54 49 49 54 49 49 54
49 49 54 48 48 54 48 48 54 48 48 54 48 48 54 48 48 54 48 48 26 23 23
53 48 48 53 48 48 53 48 48 53 48 48 53 48 48 53 48 48 53 48 48 53 48
48 3 26 13 53 48 48 53 48 48 53 47 47 53 47 47 53 47 47 52 47 47 0 0 0
52 47 47 52 47 47 52 47 47 52 47 47 52 47 47 52 47 47 52 47 47 52 47
47 52 46 46 52 46 46 51 46 46 51 46 46 51 46 46 51 46 46 51 46 46 51
46 46 51 46 46 51 46 46 51 46 46 51 46 46 51 46 46 50 45 45 50 45 45
50 45 45 50 45 45 50 45 45 50 45 45 50 45 45 26 23 23 50 45 45
63 57 57 64 57 57 64 57 57 64 57 57 64 57 57 64 58 58 64 58 58 64 58
58 64 58 58 64 58 58 64 58 58 64 58 58 64 58 58 65 58 58 65 58 58 65
58 58 65 58 58 65 58 58 65 58 58 65 58 58 65 58 58 65 59 59 65 59 59
26 23 23 65 59 59 65 59 59 65 59 59 65 59 59 65 59 59 65 59 59 65 59
59 65 59 59 65 59 59 66 59 59 66 59 59 19 193 97 66 59 59 20 200 100
66 59 59 20 199 100 20 198 99 20 196 98 19 194 97 19 192 96 20 190 95
39 206 113 63 227 136 32 193 104 18 176 88 17 171 85 17 167 83 16 162
81 3 26 13 15 153 76 3 26 13 3 26 13 14 137 69 13 132 66 13 126 63 12
120 60 11 113 57 11 106 53 10 99 50 9 92 46 8 84 42 8 76 38 7 67 34 65
58 58 5 48 24 4 36 18 3 26 13 3 26 13 3 26 13 64 58 58 64 58 58 64 58
58 64 58 58 64 58 58 64 58 58 64 58 58 64 57 57 64 57 57 64 57 57 64
57 57 63 57 57 63 57 57 63 57 57 63 57 57 63 57 57 63 57 57 63 57 57
63 56 56 63 56 56 63 56 56 62 56 56 62 56 56 62 56 56 62 56 56 62 56
56 62 56 56 62 56 56 62 55 55 62 55 55 61 55 55 61 55 55 61 55 55 61
55 55 61 55 55 61 55 55 61 55 55 61 55 55 60 54 54 60 54 54 60 54 54
60 54 54 60 54 54 26 23 23 60 54 54 60 54 54 59 54 54 59 53 53 59 53
53 59 53 53 59 53 53 59 53 53 59 53 53 59 53 53 58 53 53
74 67 67 74 67 67 74 67 67 74 67 67 74 67 67 74 67 67 75 67 67 75 67
67 75 67 67 75 67 67 75 67 67 75 67 67 75 68 68 75 68 68 26 23 23 75
68 68 75 68 68 75 68 68 75 68 68 75 68 68 76 68 68 76 68 68 76 68 68
19 187 93 0 0 0 76 68 68 76 68 68 76 68 68 76 68 68 76 68 68 76 68 68
76 68 68 76 68 68 76 68 68 18 181 90 19 193 96 20 196 98 20 198 99 76
68 68 20 197 99 20 196 98 19 194 97 19 192 96 19 189 95 22 190 97 62
227 136 87 249 159 34 193 105 18 173 87 17 168 84 16 164 82 16 160 80
16 155 78 15 150 75 15 145 73 14 140 70 13 135 67 13 129 65 12 123 62
12 117 59 11 111 55 10 104 52 10 97 49 9 90 45 8 82 41 7 74 37 7 66 33
6 56 28 5 46 23 4 35 18 3 26 13 3 26 13 3 26 13 74 66 66 74 66 66 74
66 66 74 66 66 73 66 66 73 66 66 73 66 66 73 66 66 73 66 66 73 66 66
73 65 65 73 65 65 72 65 65 72 65 65 72 65 65 72 65 65 72 65 65 72 65
65 72 65 65 72 64 64 71 64 64 71 64 64 71 64 64 71 64 64 71 64 64 71
64 64 71 64 64 70 63 63 70 63 63 70 63 63 70 63 63 70 63 63 70 63 63
70 63 63 69 62 62 69 62 62 69 62 62 69 62 62 69 62 62 69 62 62 69 62
62 68 62 62 68 61 61 68 61 61 68 61 61 68 61 61 68 61 61 67 61 61 67
61 61 67 60 60 67 60 60 67 60 60 67 60 60 67 60 60 66 60 60
84 76 76 84 76 76 84 76 76 84 76 76 84 76 76 84 76 76 84 76 76 85 76
76 85 76 76 85 76 76 85 76 76 85 76 76 85 76 76 85 76 76 85 77 77 85
77 77 85 77 77 85 77 77 85 77 77 85 77 77 85 77 77 85 77 77 85 77 77
85 77 77 85 77 77 85 77 77 85 77 77 85 77 77 85 77 77 85 77 77 85 77
77 85 77 77 85 77 77 85 77 77 18 182 91 19 191 96 19 194 97 20 196 98
20 196 98 19 195 97 19 193 97 19 192 96 19 189 95 19 187 93 20 186 94
37 199 109 39 199 110 21 177 91 17 170 85 17 166 83 16 162 81 16 157
79 15 153 76 15 148 74 14 143 71 14 138 69 84 76 76 13 127 63 12 121
60 11 115 57 11 108 54 10 102 51 9 95 47 9 88 44 8 80 40 7 72 36 83 75
75 5 54 27 146 132 132 3 33 17 3 26 13 3 26 13 3 26 13 82 74 74 82 74
74 82 74 74 82 74 74 82 74 74 82 73 73 82 73 73 81 73 73 81 73 73 81
73 73 81 73 73 81 73 73 81 73 73 80 72 72 80 72 72 80 72 72 80 72 72
80 72 72 80 72 72 80 72 72 79 71 71 79 71 71 79 71 71 79 71 71 79 71
71 79 71 71 78 71 71 78 70 70 78 70 70 78 70 70 78 70 70 78 70 70 77
70 70 82 74 74 77 69 69 77 69 69 77 69 69 77 69 69 76 69 69 76 69 69
76 68 68 76 68 68 76 68 68 75 68 68 75 68 68 75 68 68 75 67 67 75 67
67 75 67 67 74 67 67 74 67 67 74 67 67 74 66 66 74 66 66 74 66 66
93 84 84 93 84 84 93 84 84 93 84 84 94 84 84 94 84 84 94 84 84 94 84
84 94 84 84 94 84 84 94 84 84 94 85 85 94 85 85 94 85 85 94 85 85 94
85 85 94 85 85 121 108 108 94 85 85 94 85 85 94 85 85 94 85 85 94 85
85 94 85 85 94 85 85 94 85 85 94 85 85 94 85 85 94 85 85 94 85 85 94
85 85 94 85 85 94 85 85 94 85 85 18 182 91 19 189 95 19 192 96 19 193
97 19 193 96 19 192 96 19 191 95 19 189 94 19 186 93 18 184 92 18 181
91 19 179 91 19 176 89 17 171 86 17 167 84 16 163 81 16 159 79 15 154
77 15 150 75 15 145 73 14 140 70 13 135 67 13 129 65 12 124 62 12 118
59 11 112 56 11 106 53 10 99 50 9 92 46 9 85 43 8 78 39 7 70 35 91 82
82 5 52 26 4 42 21 3 31 16 3 26 13 3 26 13 3 26 13 3 26 13 90 81 81 90
81 81 89 81 81 89 80 80 89 80 80 89 80 80 26 23 23 89 80 80 88 80 80
88 79 79 88 79 79 88 79 79 88 79 79 88 79 79 87 79 79 87 79 79 87 78
78 87 78 78 87 78 78 87 78 78 86 78 78 86 78 78 86 77 77 86 77 77 86
77 77 85 77 77 85 77 77 85 77 77 85 76 76 85 76 76 26 23 23 84 76 76 0
0 0 84 75 75 26 23 23 83 75 75 110 99 99 26 23 23 83 75 75 83 74 74 83
74 74 82 74 74 82 74 74 82 74 74 82 74 74 82 73 73 81 73 73 81 73 73
81 73 73 81 73 73 81 73 73 80 72 72 80 72 72 17 34 3
102 92 92 102 92 92 102 92 92 164 147 147 102 92 92 102 92 92 102 92
92 102 92 92 102 92 92 102 92 92 102 92 92 102 92 92 102 92 92 102 92
92 102 92 92 102 92 92 102 92 92 102 92 92 102 92 92 102 92 92 102 92
92 102 92 92 26 20 3 102 92 92 102 92 92 102 92 92 102 92 92 102 92 92
102 92 92 102 92 92 102 92 92 102 92 92 102 92 92 102 92 92 18 180 90
19 186 93 19 189 95 19 190 95 19 190 95 101 91 91 19 188 94 19 186 93
18 183 92 18 181 90 18 178 89 18 175 87 17 171 86 17 168 84 16 164 82
16 160 80 16 156 78 15 151 76 15 147 73 14 142 71 14 137 69 13 132 66
13 127 63 12 121 60 99 89 89 11 109 55 10 103 51 10 96 48 9 89 45 8 82
41 7 75 37 7 67 33 98 88 88 5 49 25 4 39 20 3 29 14 3 26 13 3 26 13 3
26 13 3 26 13 97 87 87 96 87 87 96 87 87 96 86 86 96 86 86 96 86 86 95
86 86 95 86 86 95 86 86 95 85 85 95 85 85 95 85 85 94 85 85 94 85 85
94 85 85 94 84 84 94 84 84 93 84 84 93 84 84 93 84 84 93 83 83 10 104
52 92 83 83 92 83 83 92 83 83 92 83 83 92 82 82 91 82 82 91 82 82 91
82 82 91 82 82 90 81 81 0 0 0 90 81 81 90 81 81 90 81 81 140 126 126
89 80 80 89 80 80 89 80 80 89 80 80 88 80 80 88 79 79 88 79 79 88 79
79 88 79 79 87 79 79 87 78 78 87 78 78 87 78 78 0 0 0 86 78 78 86 77
77 7 69 35
110 99 99 110 99 99 110 99 99 110 99 99 110 99 99 110 99 99 110 99 99
110 99 99 110 99 99 110 99 99 127 115 115 110 99 99 110 99 99 110 99
99 26 23 23 110 99 99 110 99 99 110 99 99 110 99 99 110 99 99 110 99
99 110 99 99 109 99 99 109 98 98 109 98 98 109 98 98 109 98 98 109 98
98 109 98 98 109 98 98 109 98 98 109 98 98 109 98 98 109 98 98 18 177
88 18 183 92 3 26 13 19 187 93 19 187 93 19 186 93 18 184 92 18 182 91
18 180 90 18 178 89 17 175 87 17 172 86 17 168 84 16 165 82 16 161 80
16 157 78 15 153 76 15 148 74 14 144 72 14 139 69 13 134 67 13 129 64
12 123 62 12 118 59 11 112 56 11 106 53 10 100 50 9 93 47 9 86 43 8 79
40 7 72 36 6 64 32 6 55 28 5 46 23 4 36 18 104 93 93 3 26 13 3 26 13 3
26 13 3 26 13 103 92 92 102 92 92 102 92 92 102 92 92 102 92 92 102 91
91 101 91 91 101 91 91 101 91 91 101 91 91 101 91 91 100 90 90 100 90
90 100 90 90 100 90 90 100 90 90 99 89 89 99 89 89 99 89 89 99 89 89
98 89 89 98 88 88 98 88 88 98 88 88 98 88 88 97 88 88 97 87 87 97 87
87 97 87 87 97 87 87 96 87 87 96 86 86 96 86 86 96 86 86 95 86 86 95
86 86 95 85 85 95 85 85 94 85 85 0 0 0 94 85 85 94 84 84 124 111 111
93 84 84 93 84 84 93 84 84 93 83 83 92 83 83 185 148 19 92 83 83 92 83
83 92 82 82 91 82 82 91 82 82
117 105 105 117 105 105 117 105 105 117 105 105 117 105 105 117 105
105 117 105 105 117 105 105 117 105 105 117 105 105 117 105 105 117
105 105 117 105 105 116 105 105 116 105 105 116 105 105 116 105 105
116 105 105 116 105 105 116 105 105 116 105 105 116 104 104 116 104
104 116 104 104 116 104 104 116 104 104 116 104 104 116 104 104 115
104 104 115 104 104 115 104 104 115 104 104 115 104 104 115 103 103 17
173 87 18 179 90 18 182 91 18 183 92 18 183 92 18 182 91 18 181 90 18
179 89 18 177 88 17 174 87 17 171 86 17 168 84 16 165 82 16 161 81 16
157 79 15 153 77 15 149 75 14 145 72 14 140 70 14 135 68 13 130 65 13
125 63 12 120 60 11 114 57 11 109 54 10 103 51 10 96 48 3 26 13 8 83
41 8 76 38 7 68 34 6 60 30 5 52 26 4 43 21 3 33 17 3 26 13 3 26 13 3
26 13 3 26 13 3 26 13 108 97 97 108 97 97 108 97 97 107 97 97 26 23 23
164 148 148 107 96 96 107 96 96 106 96 96 106 96 96 106 95 95 106 95
95 105 95 95 188 151 19 105 95 95 105 94 94 105 94 94 104 94 94 104 94
94 104 93 93 104 93 93 103 93 93 103 93 93 103 93 93 103 92 92 103 92
92 102 92 92 102 92 92 102 92 92 102 91 91 107 97 97 101 91 91 101 91
91 101 91 91 0 0 0 100 90 90 100 90 90 100 90 90 99 90 90 99 89 89 99
89 89 99 89 89 99 89 89 98 88 88 98 88 88 26 23 23 98 88 88 97 88 88
97 87 87 97 87 87 97 87 87 157 141 141 96 87 87 96 86 86
123 111 111 123 111 111 123 111 111 123 111 111 123 111 111 123 111
111 123 111 111 123 111 111 123 110 110 123 110 110 123 110 110 123
110 110 123 110 110 0 0 0 122 110 110 122 110 110 122 110 110 122 110
110 122 110 110 122 110 110 122 110 110 122 110 110 122 110 110 122
110 110 122 109 109 121 109 109 121 109 109 121 109 109 121 109 109
121 109 109 121 109 109 121 109 109 152 137 137 121 108 108 13 125 63
18 175 88 18 178 89 18 179 90 18 179 90 18 178 89 18 177 88 18 175 88
17 173 86 17 170 85 119 107 107 16 164 82 16 161 81 16 157 79 15 154
77 118 106 106 15 146 73 14 141 71 14 137 68 13 132 66 13 127 63 12
122 61 12 116 58 11 111 55 11 105 53 10 99 50 9 93 46 9 86 43 8 79 40
7 72 36 6 65 32 6 57 28 5 48 24 114 103 103 3 29 15 3 26 13 3 26 13 3
26 13 3 26 13 3 26 13 113 102 102 113 101 101 113 101 101 112 101 101
112 101 101 112 101 101 112 100 100 111 100 100 111 100 100 0 0 0 111
100 100 110 99 99 110 99 99 110 99 99 110 99 99 109 99 99 109 98 98
109 98 98 109 98 98 109 98 98 108 97 97 108 97 97 108 97 97 108 97 97
107 97 97 107 96 96 107 96 96 107 96 96 106 96 96 106 96 96 106 95 95
106 95 95 105 95 95 105 95 95 105 94 94 105 94 94 104 94 94 104 94 94
104 94 94 104 93 93 104 93 93 103 93 93 103 93 93 103 93 93 103 92 92
102 92 92 102 92 92 26 23 23 102 91 91 101 91 91 101 91 91 101 91 91
101 91 91 100 90 90
129 116 116 129 116 116 129 116 116 129 116 116 128 116 116 128 116
116 128 116 116 128 115 115 128 115 115 128 115 115 128 115 115 128
115 115 128 115 115 26 23 23 128 115 115 128 115 115 128 115 115 127
115 115 127 115 115 127 115 115 127 114 114 127 114 114 127 114 114
127 114 114 127 114 114 127 114 114 126 114 114 126 114 114 126 114
114 126 113 113 126 113 113 126 113 113 126 113 113 125 113 113 16 163
82 17 170 85 17 174 87 17 175 87 17 175 87 17 174 87 3 26 13 17 171 86
17 169 84 124 111 111 16 164 82 3 26 13 16 157 79 15 154 77 15 150 75
15 146 73 14 142 71 14 137 69 13 133 66 13 128 64 12 123 62 3 26 13 11
113 56 11 107 54 10 101 51 10 95 48 9 89 44 8 82 41 8 76 38 7 68 34 6
61 30 5 53 26 4 44 22 4 35 18 3 26 13 3 26 13 3 26 13 3 26 13 3 26 13
3 26 13 117 106 106 117 105 105 117 105 105 117 105 105 116 105 105
116 105 105 116 104 104 116 104 104 115 104 104 115 104 104 19 190 95
115 103 103 114 103 103 114 103 103 114 103 103 114 102 102 114 102
102 113 102 102 113 102 102 113 101 101 113 101 101 112 101 101 112
101 101 112 101 101 112 100 100 111 100 100 111 100 100 111 100 100
111 99 99 110 99 99 110 99 99 110 99 99 110 99 99 109 98 98 109 98 98
109 98 98 0 0 0 108 97 97 108 97 97 26 23 23 108 97 97 107 97 97 107
96 96 107 96 96 107 96 96 106 96 96 106 96 96 106 95 95 106 95 95 105
95 95 105 95 95 26 23 23 105 94 94 104 94 94
134 120 120 134 120 120 134 120 120 134 120 120 26 23 23 133 120 120
133 120 120 133 120 120 133 120 120 133 120 120 133 120 120 133 120
120 133 119 119 133 119 119 133 119 119 132 119 119 132 119 119 132
119 119 132 119 119 132 119 119 132 119 119 132 118 118 26 23 23 131
118 118 131 118 118 131 118 118 131 118 118 131 118 118 131 118 118
130 117 117 26 23 23 130 117 117 130 117 117 130 117 117 16 156 78 17
165 83 17 169 84 17 170 85 17 170 85 17 170 85 17 168 84 17 167 83 16
165 82 16 162 81 16 159 80 16 156 78 15 153 77 15 150 75 15 146 73 14
142 71 14 138 69 13 133 67 13 129 64 12 124 62 12 119 60 11 114 57 11
109 54 10 103 52 10 97 49 9 91 46 8 85 42 8 78 39 7 71 36 6 64 32 6 57
28 5 49 24 4 40 20 123 111 111 3 26 13 3 26 13 3 26 13 3 26 13 3 26 13
3 26 13 121 109 109 121 109 109 121 109 109 121 108 108 26 23 23 120
108 108 120 108 108 120 108 108 119 107 107 119 107 107 119 107 107
119 107 107 118 106 106 26 23 23 118 106 106 118 106 106 117 106 106
117 105 105 117 105 105 117 105 105 116 105 105 133 119 119 116 104
104 116 104 104 115 104 104 115 104 104 115 103 103 115 103 103 114
103 103 114 103 103 26 23 23 69 56 7 26 23 23 113 102 102 113 102 102
26 23 23 149 134 134 112 101 101 112 101 101 13 26 3 111 100 100 111
100 100 111 100 100 111 100 100 110 99 99 110 99 99 110 99 99 132 119
119 109 98 98 109 98 98 109 98 98 109 98 98 108 98 98 108 97 97
138 124 124 138 124 124 138 124 124 138 124 124 138 124 124 138 124
124 138 124 124 138 124 124 137 124 124 137 124 124 137 124 124 137
123 123 165 148 148 137 123 123 137 123 123 26 23 23 136 123 123 136
123 123 136 123 123 136 122 122 136 122 122 136 122 122 136 122 122
135 122 122 135 122 122 135 122 122 135 121 121 135 121 121 135 121
121 134 121 121 134 121 121 134 121 121 134 121 121 134 120 120 15 148
74 16 159 80 16 163 82 16 165 82 17 165 83 16 165 82 16 164 82 16 162
81 16 160 80 16 158 79 16 155 78 15 152 76 15 149 74 15 145 73 14 142
71 14 138 69 3 26 13 13 129 65 12 125 62 12 120 60 11 115 57 11 110 55
10 104 52 10 99 49 9 93 47 9 87 43 8 81 40 7 74 37 7 67 34 6 60 30 5
52 26 4 44 22 4 35 18 3 26 13 3 26 13 3 26 13 3 26 13 3 26 13 3 26 13
3 26 13 125 112 112 125 112 112 124 112 112 124 112 112 124 111 111
124 111 111 123 111 111 123 111 111 123 111 111 26 23 23 122 110 110
122 110 110 122 110 110 122 109 109 161 144 144 121 109 109 121 109
109 121 108 108 120 108 108 120 108 108 71 143 14 80 159 16 81 163 16
119 107 107 149 134 134 76 153 15 73 145 15 67 135 13 61 121 12 51 102
10 117 106 106 117 105 105 117 105 105 116 105 105 116 105 105 116 104
104 116 104 104 115 104 104 115 104 104 115 103 103 115 103 103 114
103 103 29 57 6 114 103 103 114 102 102 113 102 102 113 102 102 113
102 102 113 101 101 112 101 101 112 101 101 112 101 101 148 134 134 26
23 23
142 128 128 142 128 128 142 128 128 142 128 128 142 128 128 142 128
128 142 127 127 141 127 127 141 127 127 141 127 127 141 127 127 141
127 127 141 127 127 141 127 127 141 126 126 140 126 126 140 126 126
140 126 126 140 126 126 140 126 126 140 126 126 139 125 125 139 125
125 139 125 125 139 125 125 139 125 125 139 125 125 138 125 125 138
124 124 138 124 124 138 124 124 138 124 124 137 124 124 137 124 124 13
134 67 15 152 76 16 157 79 16 159 80 16 160 80 3 26 13 16 159 79 16
157 79 16 155 78 15 153 77 15 150 75 15 147 74 14 144 72 14 141 70 14
137 69 13 133 67 13 129 65 12 125 62 133 120 120 12 115 58 11 110 55
11 105 53 10 100 50 9 94 47 9 89 44 8 82 41 8 76 38 7 69 35 6 63 31 6
55 28 5 47 24 4 39 20 3 31 15 3 26 13 3 26 13 3 26 13 3 26 13 3 26 13
3 26 13 128 115 115 128 115 115 128 115 115 26 23 23 26 23 23 127 114
114 127 114 114 19 191 95 126 114 114 126 113 113 126 113 113 125 113
113 125 113 113 125 112 112 125 112 112 124 112 112 124 112 112 124
112 112 124 111 111 73 146 15 86 172 17 123 111 111 90 181 18 90 180
18 89 177 18 86 173 17 83 167 17 80 159 16 75 150 15 70 140 14 63 127
13 55 110 11 43 87 9 120 108 108 120 108 108 119 107 107 119 107 107
119 107 107 119 107 107 26 23 23 118 106 106 118 106 106 26 23 23 117
106 106 117 105 105 117 105 105 117 105 105 116 105 105 116 104 104
116 104 104 116 104 104 115 104 104 115 104 104 115 103 103 115 103
103
146 131 131 146 131 131 146 131 131 145 131 131 145 131 131 145 131
131 145 131 131 145 130 130 145 130 130 145 130 130 144 130 130 26 23
23 144 130 130 144 130 130 144 129 129 144 129 129 144 129 129 143 129
129 143 129 129 143 129 129 143 129 129 143 128 128 143 128 128 142
128 128 142 128 128 142 128 128 142 128 128 142 127 127 141 127 127
141 127 127 141 127 127 141 127 127 141 127 127 140 126 126 140 126
126 3 26 13 15 150 75 15 153 77 15 154 77 15 154 77 15 154 77 15 152
76 15 150 75 15 148 74 15 145 73 14 143 71 14 139 70 14 136 68 13 132
66 13 128 64 12 124 62 12 120 60 12 115 58 11 111 55 11 106 53 10 101
50 10 95 48 9 90 45 8 84 42 8 78 39 7 71 36 6 65 32 6 58 29 5 50 25 4
42 21 3 34 17 3 26 13 3 26 13 3 26 13 3 26 13 3 26 13 3 26 13 3 26 13
131 118 118 162 146 146 131 118 118 130 117 117 130 117 117 130 117
117 158 142 142 129 116 116 129 116 116 129 116 116 129 116 116 0 0 0
128 115 115 128 115 115 128 115 115 127 115 115 127 114 114 127 114
114 83 167 17 91 182 18 94 189 19 95 191 19 95 191 19 94 189 19 93 185
19 90 181 18 87 175 17 84 167 17 79 159 16 75 149 15 69 138 14 62 124
12 54 107 11 43 85 9 122 110 110 122 110 110 122 110 110 141 127 127
121 109 109 26 23 23 121 109 109 121 109 109 120 108 108 120 108 108
120 108 108 120 108 108 119 108 108 119 107 107 119 107 107 119 107
107 118 107 107 118 106 106 118 106 106 118 106 106 117 106 106
149 134 134 149 134 134 149 134 134 0 0 0 148 134 134 148 133 133 148
133 133 148 133 133 148 133 133 148 133 133 148 133 133 147 133 133
147 132 132 147 132 132 147 132 132 147 132 132 147 132 132 146 132
132 146 132 132 146 131 131 146 131 131 146 131 131 145 131 131 145
131 131 73 147 15 145 130 130 145 130 130 144 130 130 144 130 130 144
130 130 144 129 129 144 129 129 143 129 129 143 129 129 143 129 129 13
133 67 14 143 71 15 147 73 15 148 74 15 148 74 15 148 74 15 147 73 14
145 72 164 147 147 14 140 70 14 137 69 13 134 67 13 131 65 13 127 64
12 123 62 12 119 60 12 115 58 11 111 55 11 106 53 10 101 50 138 124
124 9 90 45 3 26 13 8 79 39 7 73 36 7 66 33 6 59 30 5 52 26 4 45 22 4
37 19 3 29 14 3 26 13 3 26 13 3 26 13 3 26 13 3 26 13 3 26 13 3 26 13
134 120 120 134 120 120 133 120 120 133 120 120 133 120 120 26 23 23
132 119 119 132 119 119 132 119 119 132 118 118 131 118 118 155 139
139 131 118 118 134 120 120 130 117 117 130 117 117 130 117 117 85 171
17 93 187 19 97 194 19 99 197 20 99 198 20 98 197 20 97 194 19 95 190
19 93 185 19 90 179 18 86 172 17 82 164 16 77 154 15 72 144 14 66 131
13 58 117 12 50 99 10 38 76 8 125 112 112 125 112 112 124 112 112 124
112 112 19 193 97 124 111 111 123 111 111 123 111 111 123 111 111 123
110 110 122 110 110 122 110 110 122 110 110 122 109 109 121 109 109
121 109 109 121 109 109 121 109 109 120 108 108 120 108 108
152 137 137 152 137 137 152 136 136 151 136 136 151 136 136 151 136
136 151 136 136 151 136 136 26 23 23 150 135 135 150 135 135 150 135
135 150 135 135 150 135 135 150 135 135 149 134 134 149 134 134 149
134 134 149 134 134 149 134 134 148 134 134 148 133 133 148 133 133
148 133 133 26 23 23 147 133 133 147 132 132 147 132 132 147 132 132
147 132 132 146 132 132 146 132 132 146 131 131 146 131 131 146 131
131 11 112 56 13 134 67 14 139 69 14 141 71 14 142 71 14 142 71 144
130 130 14 139 70 14 137 69 13 135 67 13 132 66 13 129 64 13 126 63
157 141 141 12 118 59 11 114 57 11 110 55 11 105 53 10 101 50 10 96 48
9 90 45 9 85 43 3 26 13 7 73 37 7 67 34 6 61 30 5 54 27 73 146 15 4 39
20 3 31 16 3 26 13 3 26 13 3 26 13 3 26 13 3 26 13 3 26 13 3 26 13 136
123 123 136 123 123 136 122 122 136 122 122 135 122 122 135 122 122
135 121 121 135 121 121 26 23 23 88 175 18 134 121 121 134 120 120 133
120 120 133 120 120 133 120 120 133 119 119 132 119 119 13 26 3 93 187
19 98 196 20 100 200 20 101 202 20 101 201 20 100 200 20 98 197 20 96
193 19 94 188 19 91 181 18 87 174 17 83 166 17 79 157 16 73 147 15 68
135 14 61 122 12 53 106 11 44 87 9 31 61 6 127 114 114 127 114 114 127
114 114 126 114 114 126 113 113 126 113 113 126 113 113 125 113 113
125 113 113 125 112 112 125 112 112 124 112 112 124 112 112 124 111
111 70 140 14 123 111 111 143 129 129 123 111 111 123 110 110
154 139 139 154 139 139 154 139 139 154 138 138 154 138 138 154 138
138 153 138 138 166 149 149 153 138 138 153 138 138 153 137 137 152
137 137 152 137 137 26 23 23 26 23 23 152 137 137 26 23 23 151 136 136
151 136 136 151 136 136 151 136 136 151 135 135 150 135 135 150 135
135 150 135 135 150 135 135 13 26 3 149 134 134 149 134 134 149 134
134 149 134 134 148 134 134 148 133 133 148 133 133 148 133 133 148
133 133 12 122 61 13 130 65 13 134 67 13 135 67 13 135 67 13 134 67 13
133 66 13 131 66 13 129 64 13 126 63 12 123 62 3 26 13 12 116 58 11
113 56 11 109 54 10 104 52 10 100 50 10 95 48 3 26 13 8 85 42 8 80 40
7 74 37 7 68 34 6 62 31 6 55 28 5 48 24 4 41 20 3 33 17 3 26 13 3 26
13 140 126 126 3 26 13 3 26 13 3 26 13 3 26 13 3 26 13 139 125 125 138
125 125 138 124 124 138 124 124 138 124 124 137 124 124 137 123 123
137 123 123 137 123 123 136 123 123 136 123 123 136 122 122 26 23 23
135 122 122 135 122 122 135 121 121 135 121 121 91 182 18 97 194 19
100 200 20 101 203 20 13 26 3 101 203 20 100 201 20 99 198 20 97 193
19 94 188 19 91 182 18 88 175 18 84 167 17 79 158 16 74 148 15 13 26 3
62 124 12 55 110 11 46 93 9 35 71 7 19 38 4 129 116 116 129 116 116
129 116 116 128 115 115 128 115 115 128 115 115 128 115 115 127 115
115 127 114 114 127 114 114 127 114 114 126 114 114 126 113 113 126
113 113 126 113 113 125 113 113 125 113 113 125 112 112
157 141 141 156 141 141 156 141 141 156 140 140 156 140 140 156 140
140 156 140 140 155 140 140 155 140 140 155 140 140 155 139 139 155
139 139 154 139 139 0 0 0 154 139 139 154 138 138 154 138 138 153 138
138 153 138 138 153 138 138 153 138 138 153 137 137 26 20 3 152 137
137 152 137 137 152 137 137 152 136 136 165 148 148 151 136 136 151
136 136 151 136 136 150 135 135 150 135 135 150 135 135 0 0 0 150 135
135 10 100 50 12 120 60 12 125 62 13 127 64 13 128 64 13 127 64 13 126
63 12 125 62 12 122 61 12 120 60 12 117 59 11 114 57 11 110 55 11 107
53 10 103 51 10 98 49 9 94 47 9 89 45 8 84 42 8 79 40 7 74 37 7 68 34
6 62 31 6 56 28 5 49 24 4 42 21 3 35 17 3 27 13 3 26 13 3 26 13 3 26
13 3 26 13 3 26 13 3 26 13 3 26 13 141 127 127 141 127 127 140 126 126
140 126 126 140 126 126 140 126 126 139 125 125 139 125 125 139 125
125 139 125 125 26 23 23 26 23 23 26 23 23 26 23 23 26 23 23 137 123
123 137 123 123 85 170 17 94 188 19 98 197 20 136 122 122 102 204 20
102 204 20 101 203 20 100 200 20 98 197 20 96 193 19 94 187 19 91 181
18 87 174 17 83 167 17 79 158 16 76 152 15 69 137 14 62 125 12 55 111
11 132 119 119 38 75 8 25 49 5 131 118 118 131 118 118 131 118 118 130
117 117 130 117 117 130 117 117 26 23 23 129 116 116 129 116 116 129
116 116 129 116 116 26 23 23 128 115 115 128 115 115 128 115 115 127
115 115 127 114 114 127 114 114
159 143 143 158 143 143 158 142 142 158 142 142 158 142 142 158 142
142 159 143 143 157 142 142 157 141 141 157 141 141 157 141 141 157
141 141 156 141 141 156 141 141 156 140 140 156 140 140 156 140 140 26
23 23 155 140 140 155 139 139 155 139 139 155 139 139 154 139 139 0 0
0 154 139 139 154 138 138 153 138 138 153 138 138 153 138 138 153 138
138 153 137 137 152 137 137 152 137 137 152 137 137 152 137 137 26 23
23 151 136 136 3 26 13 11 115 57 12 118 59 12 120 60 12 120 60 12 119
59 12 118 59 12 116 58 11 113 57 11 111 55 11 107 54 10 104 52 10 100
50 10 96 48 9 92 46 3 26 13 8 83 42 8 78 39 7 73 36 7 67 34 6 62 31 6
55 28 5 49 25 4 42 21 4 35 18 3 28 14 3 26 13 3 26 13 3 26 13 144 130
130 3 26 13 3 26 13 3 26 13 3 26 13 26 23 23 26 23 23 26 23 23 26 23
23 26 23 23 26 23 23 26 23 23 26 23 23 26 23 23 141 126 126 26 23 23
26 23 23 26 23 23 26 23 23 26 23 23 26 23 23 26 23 23 89 177 18 95 190
19 99 197 20 101 201 20 101 203 20 101 203 20 101 201 20 100 200 21 99
196 21 95 191 19 93 185 19 90 179 18 86 172 17 82 165 16 78 156 16 73
146 15 135 121 121 62 124 12 154 139 139 47 95 9 38 76 8 133 120 120
13 26 3 133 120 120 133 119 119 132 119 119 132 119 119 132 119 119
132 118 118 131 118 118 131 118 118 131 118 118 131 118 118 130 117
117 130 117 117 130 117 117 130 117 117 129 116 116 129 116 116 129
116 116
160 144 144 160 144 144 160 144 144 160 144 144 160 144 144 159 144
144 159 143 143 159 143 143 159 143 143 159 143 143 159 143 143 158
142 142 158 142 142 158 142 142 158 142 142 157 142 142 157 142 142
157 141 141 157 141 141 157 141 141 156 141 141 156 141 141 156 140
140 156 140 140 156 140 140 155 140 140 155 140 140 155 139 139 155
139 139 154 139 139 26 23 23 154 139 139 154 138 138 154 138 138 153
138 138 26 23 23 153 138 138 153 137 137 10 101 51 11 108 54 152 137
137 11 111 56 11 111 55 11 110 55 11 108 54 11 106 53 10 104 52 10 101
50 10 97 49 9 94 47 9 90 45 9 86 43 161 145 145 8 76 38 7 71 36 148
134 134 148 133 133 5 55 27 5 49 24 4 42 21 3 26 13 3 28 14 3 26 13 3
26 13 3 26 13 3 26 13 3 26 13 3 26 13 3 26 13 3 26 13 26 23 23 26 23
23 26 23 23 26 23 23 73 147 15 26 23 23 26 23 23 26 23 23 158 143 143
26 23 23 26 23 23 13 26 3 26 23 23 26 23 23 26 23 23 26 23 23 26 23 23
77 155 15 89 179 18 95 190 19 98 196 20 100 199 20 100 200 20 100 200
20 100 199 20 148 246 70 123 219 46 94 188 19 91 182 18 88 176 18 85
169 17 81 162 16 77 153 15 72 144 14 156 140 140 61 121 12 54 108 11
47 93 9 38 75 8 27 53 5 13 26 3 135 121 121 134 121 121 134 121 121
134 120 120 134 120 120 133 120 120 133 120 120 133 120 120 133 119
119 132 119 119 132 119 119 132 119 119 132 119 119 131 118 118 131
118 118 131 118 118 131 118 118
162 146 146 162 146 146 162 145 145 161 145 145 161 145 145 161 145
145 161 145 145 161 145 145 160 144 144 160 144 144 160 144 144 160
144 144 160 144 144 159 144 144 159 143 143 159 143 143 159 143 143
159 143 143 158 143 143 158 142 142 158 142 142 158 142 142 158 142
142 157 142 142 26 23 23 166 133 17 155 124 16 141 113 14 26 20 3 106
85 11 82 66 8 43 34 4 26 23 23 155 140 140 155 139 139 155 139 139 154
139 139 154 139 139 154 139 139 9 95 47 10 100 50 10 102 51 10 102 51
10 102 51 10 100 50 10 98 49 10 96 48 9 93 47 9 90 45 3 26 13 8 83 41
8 78 39 7 74 37 7 69 35 3 26 13 6 59 30 5 53 27 5 48 24 4 41 21 3 35
17 3 26 13 3 26 13 3 26 13 3 26 13 3 26 13 26 23 23 3 26 13 3 26 13 3
26 13 3 26 13 26 23 23 26 23 23 26 23 23 26 23 23 26 23 23 26 23 23 26
23 23 26 23 23 26 23 23 26 23 23 26 23 23 26 23 23 26 23 23 26 23 23
26 23 23 26 23 23 26 23 23 79 158 16 89 178 18 94 187 19 96 193 19 98
196 20 98 197 20 163 146 146 97 195 20 104 200 27 13 26 3 92 184 18 89
178 18 86 172 17 83 165 17 79 158 16 138 125 125 70 140 14 65 129 13
59 118 12 52 105 10 45 90 9 36 72 7 26 51 5 13 26 3 136 123 123 136
122 122 26 23 23 136 122 122 135 122 122 135 122 122 135 121 121 135
121 121 134 121 121 134 121 121 134 120 120 134 120 120 133 120 120
133 120 120 133 120 120 159 143 143 132 119 119
163 147 147 163 147 147 163 147 147 163 147 147 163 146 146 163 146
146 162 146 146 162 146 146 162 146 146 162 146 146 162 145 145 161
145 145 161 145 145 161 145 145 161 145 145 160 144 144 163 146 146
160 144 144 160 144 144 160 144 144 159 143 143 159 143 143 189 152 19
190 152 19 183 147 18 173 139 17 161 129 16 147 118 15 132 105 13 114
91 11 94 75 9 70 56 7 157 141 141 157 141 141 156 141 141 156 140 140
156 140 140 156 140 140 155 140 140 7 72 36 9 86 43 9 90 45 9 92 46 9
92 46 9 91 46 9 90 45 9 88 44 8 85 42 8 82 41 8 79 39 7 75 37 3 26 13
7 66 33 6 62 31 6 57 28 5 51 26 5 46 23 4 40 20 3 33 17 3 27 13 3 26
13 3 26 13 3 26 13 3 26 13 3 26 13 3 26 13 3 26 13 3 26 13 3 26 13 26
23 23 26 23 23 26 23 23 26 23 23 26 23 23 26 23 23 26 23 23 26 23 23
26 23 23 26 23 23 26 23 23 26 23 23 26 23 23 26 23 23 26 23 23 152 137
137 26 23 23 26 23 23 78 156 16 87 174 17 92 183 18 94 188 19 96 191
19 96 192 19 96 191 19 95 190 19 93 187 19 92 183 18 89 179 18 87 174
17 84 167 17 80 161 16 76 153 15 72 144 14 67 135 13 62 125 12 56 113
11 13 26 3 43 85 9 34 68 7 24 47 5 13 26 3 138 124 124 138 124 124 137
124 124 137 123 123 137 123 123 137 123 123 26 20 3 136 123 123 136
122 122 136 122 122 135 122 122 135 122 122 135 121 121 135 121 121
135 121 121 134 121 121 134 121 121
165 148 148 165 148 148 164 148 148 164 148 148 164 148 148 164 147
147 164 147 147 163 147 147 163 147 147 163 147 147 163 147 147 163
146 146 162 146 146 162 146 146 162 146 146 162 146 146 162 145 145
161 145 145 161 145 145 161 145 145 13 26 3 198 158 20 199 160 20 165
149 149 185 148 19 26 20 3 162 130 16 148 118 15 132 106 13 115 92 12
96 77 10 75 60 7 50 40 5 26 20 3 158 142 142 157 142 142 157 141 141
157 141 141 157 141 141 156 141 141 6 62 31 8 76 38 8 80 40 8 81 41 8
81 41 8 80 40 8 78 39 8 76 38 7 73 37 7 70 35 7 66 33 6 62 31 6 58 29
5 53 27 5 48 24 4 43 21 3 26 13 3 31 16 3 26 13 3 26 13 3 26 13 3 26
13 3 26 13 3 26 13 3 26 13 3 26 13 3 26 13 3 26 13 26 23 23 26 23 23
26 23 23 26 23 23 26 23 23 26 23 23 26 23 23 26 23 23 26 23 23 26 23
23 26 23 23 26 23 23 26 23 23 26 23 23 26 23 23 26 23 23 26 23 23 26
23 23 158 142 142 75 151 15 84 168 17 89 177 18 91 182 18 93 185 19 93
186 19 93 186 19 92 184 18 91 181 18 89 178 18 87 173 17 84 168 17 81
162 16 77 155 15 74 147 15 69 139 14 65 129 13 59 119 12 54 107 11 13
26 3 40 79 8 140 126 126 21 41 4 13 26 3 139 125 125 157 142 142 139
125 125 139 125 125 138 125 125 138 124 124 138 124 124 138 124 124
137 124 124 137 123 123 137 123 123 137 123 123 136 123 123 136 123
123 136 122 122 136 122 122 136 122 122
166 149 149 166 149 149 166 149 149 165 149 149 165 149 149 165 148
148 165 148 148 165 148 148 164 148 148 164 148 148 164 148 148 164
147 147 26 23 23 163 147 147 165 149 149 163 147 147 163 146 146 162
146 146 162 146 146 162 146 146 195 156 19 26 20 3 200 160 20 193 154
19 11 109 54 172 138 17 160 128 16 146 117 15 130 104 13 160 144 144
95 76 10 26 23 23 52 42 5 26 20 3 26 20 3 158 143 143 158 142 142 158
142 142 158 142 142 158 142 142 157 142 142 157 141 141 6 63 32 7 68
34 7 69 35 7 69 34 7 68 34 7 66 33 3 26 13 6 60 30 6 57 28 5 53 27 5
49 24 4 44 22 4 39 20 3 34 17 3 28 14 3 26 13 3 26 13 3 26 13 3 26 13
3 26 13 3 26 13 3 26 13 3 26 13 3 26 13 3 26 13 26 23 23 26 23 23 26
23 23 26 23 23 26 23 23 26 23 23 26 23 23 26 23 23 26 23 23 26 23 23
26 23 23 26 23 23 26 23 23 26 23 23 3 26 13 26 23 23 26 23 23 26 23 23
26 23 23 26 23 23 71 142 14 80 161 16 85 170 17 88 175 18 89 178 18 90
179 18 89 179 18 89 177 18 87 174 17 85 171 17 83 166 17 81 161 16 77
155 15 74 148 15 70 140 14 66 132 13 61 122 12 56 112 11 50 100 10 44
87 9 36 72 7 27 55 5 17 33 3 13 26 3 141 127 127 140 126 126 140 126
126 140 126 126 140 126 126 140 126 126 139 125 125 139 125 125 139
125 125 139 125 125 138 125 125 138 124 124 138 124 124 138 124 124
137 124 124 137 123 123 137 123 123
167 150 150 167 150 150 167 150 150 166 150 150 166 150 150 166 149
149 166 149 149 166 149 149 165 149 149 165 149 149 165 149 149 165
148 148 165 148 148 164 148 148 164 148 148 164 148 148 164 147 147
164 147 147 163 147 147 163 147 147 202 162 20 203 162 20 198 158 20
190 152 19 180 144 18 168 135 17 156 124 16 142 113 14 126 101 13 110
88 11 92 73 9 26 20 3 50 40 5 26 20 3 26 20 3 160 144 144 26 23 23 159
143 143 159 143 143 159 143 143 158 143 143 158 142 142 158 142 142 5
48 24 158 142 142 6 55 28 6 55 28 5 54 27 5 52 26 5 49 25 5 46 23 4 43
21 4 38 19 3 34 17 3 29 14 3 26 13 3 26 13 3 26 13 3 26 13 3 26 13 3
26 13 3 26 13 3 26 13 3 26 13 3 26 13 156 141 141 26 23 23 26 23 23 26
23 23 26 23 23 9 87 43 26 23 23 26 23 23 26 23 23 26 23 23 26 23 23 26
23 23 26 23 23 26 23 23 26 23 23 26 23 23 26 23 23 26 23 23 26 23 23
26 23 23 26 23 23 26 23 23 65 130 13 159 143 143 81 161 16 83 167 17
85 170 17 86 171 17 85 171 17 85 169 17 83 167 17 164 148 148 79 159
16 77 153 15 91 182 18 70 140 14 66 133 13 62 124 12 57 115 11 52 104
10 46 92 9 39 79 8 32 63 6 23 46 5 13 26 3 13 26 3 142 128 128 142 128
128 141 127 127 141 127 127 141 127 127 141 127 127 141 127 127 140
126 126 140 126 126 140 126 126 140 126 126 139 126 126 139 125 125
139 125 125 26 23 23 139 125 125 138 124 124
168 151 151 168 151 151 168 151 151 167 151 151 167 151 151 166 150
150 167 150 150 0 0 0 166 150 150 166 150 150 166 149 149 166 149 149
166 149 149 165 149 149 166 150 150 165 148 148 165 148 148 165 148
148 164 148 148 164 148 148 200 160 20 198 159 20 167 150 150 193 156
27 199 165 43 163 130 16 150 120 15 136 109 14 121 97 12 104 83 10 3
31 16 67 54 7 45 36 5 26 20 3 26 20 3 26 20 3 160 144 144 160 144 144
160 144 144 160 144 144 159 143 143 159 143 143 159 143 143 159 143
143 159 143 143 4 36 18 4 39 20 4 40 20 4 39 19 4 37 18 3 34 17 3 30
15 3 26 13 3 26 13 73 147 15 3 26 13 3 26 13 162 146 146 3 26 13 3 26
13 3 26 13 3 26 13 3 26 13 3 26 13 26 23 23 26 23 23 26 23 23 26 23 23
26 23 23 26 23 23 26 23 23 26 23 23 26 23 23 26 23 23 26 23 23 26 23
23 26 23 23 26 23 23 26 23 23 26 23 23 26 23 23 26 23 23 26 23 23 26
23 23 26 23 23 26 23 23 26 23 23 56 112 11 13 26 3 75 150 15 78 157 16
80 160 16 81 162 16 13 26 3 80 160 16 13 26 3 77 154 15 75 150 15 72
145 14 69 139 14 66 132 13 62 124 12 58 115 12 53 106 11 47 95 9 41 83
8 35 69 7 27 53 5 17 34 3 13 26 3 13 26 3 143 129 129 143 129 129 143
128 128 142 128 128 142 128 128 142 128 128 142 128 128 142 127 127 26
23 23 141 127 127 141 127 127 26 23 23 140 126 126 140 126 126 140 126
126 140 126 126 140 126 126
169 152 152 169 152 152 26 23 23 168 151 151 168 151 151 168 151 151
168 151 151 167 151 151 167 151 151 167 150 150 167 150 150 167 150
150 166 150 150 166 150 150 166 149 149 166 149 149 166 149 149 165
149 149 165 149 149 186 149 19 195 156 19 165 148 148 164 148 148 177
142 18 167 134 17 155 124 16 143 114 14 129 103 13 114 91 11 97 78 10
79 64 8 60 48 6 39 31 4 26 20 3 26 20 3 161 145 145 161 145 145 161
145 145 161 145 145 161 145 145 160 144 144 160 144 144 160 144 144
160 144 144 159 144 144 159 143 143 159 143 143 3 26 13 3 26 13 3 26
13 3 26 13 3 26 13 3 26 13 3 26 13 3 26 13 3 26 13 3 26 13 3 26 13 3
26 13 3 26 13 3 26 13 3 26 13 26 23 23 26 23 23 26 23 23 26 23 23 26
23 23 26 23 23 26 23 23 26 23 23 26 23 23 26 23 23 26 23 23 26 23 23
26 23 23 26 23 23 26 23 23 26 23 23 26 23 23 26 23 23 26 23 23 26 23
23 26 23 23 26 23 23 150 135 135 150 135 135 150 135 135 150 135 135
61 123 12 69 137 14 72 145 14 75 149 15 76 151 15 76 151 15 75 150 15
74 148 15 73 146 15 70 140 14 67 135 13 64 129 13 61 122 12 57 114 11
53 105 11 48 95 10 42 84 8 36 72 7 29 58 6 21 41 4 13 26 3 13 26 3 26
23 23 26 23 23 26 23 23 26 23 23 161 145 145 26 23 23 143 129 129 69
55 7 149 134 134 143 128 128 142 128 128 142 128 128 142 128 128 142
127 127 141 127 127 141 127 127 141 127 127 0 0 0
170 153 153 170 153 153 169 152 152 169 152 152 169 152 152 169 152
152 169 152 152 168 151 151 168 151 151 168 151 151 168 151 151 167
151 151 167 151 151 167 150 150 167 150 150 167 150 150 166 150 150
166 150 150 166 149 149 26 20 3 186 149 19 184 147 18 177 142 18 169
135 17 159 127 16 147 118 15 134 107 13 120 96 12 105 84 11 89 71 9 71
57 7 52 42 5 31 25 3 26 20 3 26 20 3 26 20 3 162 146 146 162 146 146
165 149 149 161 145 145 161 145 145 161 145 145 161 145 145 161 144
144 160 144 144 160 144 144 160 144 144 160 144 144 26 23 23 26 23 23
3 26 13 3 26 13 3 26 13 3 26 13 3 26 13 3 26 13 3 26 13 3 26 13 3 26
13 26 23 23 26 23 23 26 23 23 26 23 23 26 23 23 26 23 23 26 23 23 26
23 23 26 23 23 26 23 23 26 23 23 26 23 23 26 23 23 26 23 23 26 23 23
26 23 23 26 23 23 26 23 23 26 23 23 26 23 23 161 145 145 152 137 137
152 137 137 152 137 137 152 136 136 151 136 136 151 136 136 151 136
136 151 136 136 13 26 3 61 121 12 65 131 13 68 136 14 69 139 14 70 139
14 69 139 14 68 137 14 67 133 13 65 129 13 62 124 12 59 118 12 55 111
11 51 103 10 47 94 9 42 84 8 36 73 7 30 60 6 154 138 138 13 27 3 13 26
3 13 26 3 26 23 23 26 23 23 26 23 23 26 23 23 26 23 23 26 23 23 26 23
23 26 23 23 26 23 23 26 23 23 143 129 129 143 129 129 143 129 129 143
128 128 143 128 128 142 128 128 142 128 128 142 128 128
170 153 153 170 153 153 170 153 153 170 153 153 170 153 153 26 23 23
169 152 152 169 152 152 169 152 152 169 152 152 168 152 152 168 151
151 168 151 151 168 151 151 168 151 151 167 151 151 167 150 150 167
150 150 167 150 150 167 134 17 176 141 18 174 139 17 167 134 17 159
127 16 149 119 15 137 110 14 125 100 12 111 89 11 96 76 10 79 63 8 61
49 6 42 34 4 26 20 3 26 20 3 26 20 3 26 20 3 163 147 147 163 146 146
162 146 146 162 146 146 162 146 146 162 146 146 162 145 145 161 145
145 161 145 145 161 145 145 161 145 145 160 144 144 160 144 144 160
144 144 26 23 23 26 23 23 26 23 23 26 23 23 26 23 23 26 23 23 26 23 23
26 23 23 26 23 23 26 23 23 26 23 23 26 23 23 26 23 23 26 23 23 26 23
23 26 23 23 26 23 23 26 23 23 26 23 23 156 140 140 26 23 23 26 23 23
26 23 23 155 139 139 154 139 139 154 139 139 154 139 139 154 138 138
154 138 138 153 138 138 153 138 138 153 138 138 153 137 137 152 137
137 152 137 137 152 137 137 152 137 137 152 136 136 151 136 136 50 100
10 57 114 11 151 136 136 62 125 12 63 126 13 63 126 13 62 124 12 60
121 12 58 117 12 13 26 3 53 106 11 13 26 3 45 90 9 41 81 8 35 71 7 29
59 6 23 45 5 14 29 3 13 26 3 13 26 3 26 23 23 26 23 23 26 23 23 146
132 132 26 23 23 26 23 23 26 23 23 26 23 23 26 23 23 145 130 130 26 23
23 26 23 23 144 130 130 136 109 14 144 129 129 144 129 129 143 129 129
143 129 129 143 129 129
171 154 154 171 154 154 171 154 154 171 153 153 170 153 153 170 153
153 170 153 153 170 153 153 170 153 153 169 152 152 169 152 152 169
152 152 169 152 152 168 152 152 168 151 151 168 151 151 168 151 151
168 151 151 167 151 151 141 112 14 163 130 16 161 129 16 156 125 16
148 118 15 138 110 14 26 20 3 114 91 11 100 80 10 85 68 8 68 55 7 50
40 5 31 25 3 26 20 3 26 20 3 26 20 3 26 20 3 164 147 147 163 147 147
163 147 147 163 147 147 163 146 146 163 146 146 162 146 146 162 146
146 162 146 146 162 145 145 164 147 147 161 145 145 161 145 145 161
145 145 161 145 145 160 144 144 160 144 144 160 144 144 160 144 144
159 144 144 159 143 143 159 143 143 159 143 143 159 143 143 158 143
143 158 142 142 158 142 142 158 142 142 158 142 142 157 142 142 157
141 141 157 141 141 157 141 141 156 141 141 156 141 141 156 140 140
156 140 140 156 140 140 155 140 140 155 140 140 3 26 13 155 139 139
154 139 139 154 139 139 154 139 139 154 138 138 154 138 138 153 138
138 153 138 138 153 138 138 153 137 137 152 137 137 152 137 137 32 63
6 46 91 9 51 102 10 54 108 11 55 110 11 55 110 11 26 23 23 53 106 11
13 26 3 49 98 10 46 91 9 42 84 8 38 76 8 33 66 7 28 55 6 21 43 4 14 28
3 13 26 3 13 26 3 26 23 23 26 23 23 26 23 23 26 23 23 26 23 23 26 23
23 26 23 23 26 23 23 26 23 23 26 23 23 26 23 23 26 23 23 26 23 23 145
131 131 145 131 131 145 130 130 145 130 130 144 130 130 144 130 130
144 130 130
172 155 155 26 23 23 171 154 154 171 154 154 171 154 154 171 154 154
26 23 23 170 153 153 170 153 153 170 153 153 170 153 153 170 153 153
169 152 152 169 152 152 169 152 152 169 152 152 168 152 152 168 151
151 168 151 151 168 151 151 146 117 15 147 118 15 142 114 14 135 108
13 125 100 13 114 91 11 101 81 10 87 70 9 72 58 7 26 20 3 38 30 4 26
20 3 26 20 3 26 20 3 26 20 3 26 20 3 26 23 23 26 23 23 26 23 23 26 23
23 26 23 23 26 23 23 26 23 23 26 23 23 26 23 23 162 146 146 26 23 23
26 23 23 162 146 146 161 145 145 161 145 145 161 145 145 161 145 145
161 145 145 160 144 144 160 144 144 160 144 144 26 23 23 160 144 144
159 143 143 159 143 143 159 143 143 159 143 143 158 143 143 158 142
142 158 142 142 164 148 148 158 142 142 157 142 142 157 141 141 157
141 141 157 141 141 157 141 141 156 141 141 156 141 141 156 140 140
156 140 140 155 140 140 155 140 140 155 140 140 155 139 139 155 139
139 154 139 139 148 119 15 154 139 139 154 138 138 154 138 138 153 138
138 153 138 138 153 138 138 27 54 5 163 147 147 43 87 9 45 91 9 46 92
9 46 92 9 45 90 9 43 86 9 41 81 8 38 75 8 13 26 3 30 59 6 24 49 5 19
37 4 13 26 3 13 26 3 13 26 3 26 23 23 26 23 23 26 23 23 26 23 23 26 23
23 26 23 23 26 23 23 26 23 23 26 23 23 26 23 23 26 23 23 26 23 23 26
23 23 26 23 23 146 132 132 26 23 23 146 131 131 146 131 131 145 131
131 145 131 131 145 130 130
172 155 155 172 155 155 172 155 155 172 155 155 172 154 154 171 154
154 171 154 154 171 154 154 171 154 154 171 154 154 26 23 23 26 23 23
170 153 153 170 153 153 169 153 153 169 152 152 169 152 152 169 152
152 169 152 152 168 152 152 120 96 12 129 103 13 126 101 13 120 96 12
110 88 11 100 80 10 87 70 9 73 59 7 58 46 6 41 33 4 26 20 3 26 20 3 26
20 3 26 20 3 26 20 3 26 23 23 26 23 23 26 23 23 26 23 23 26 23 23 26
23 23 26 23 23 165 149 149 26 23 23 26 23 23 26 23 23 26 23 23 26 23
23 26 23 23 162 146 146 162 146 146 162 146 146 162 145 145 161 145
145 161 145 145 161 145 145 161 145 145 160 144 144 160 144 144 160
144 144 160 144 144 160 144 144 159 143 143 159 143 143 159 143 143
159 143 143 26 23 23 26 23 23 161 145 145 158 142 142 158 142 142 157
142 142 157 142 142 157 141 141 3 26 13 157 141 141 156 141 141 156
141 141 156 140 140 156 140 140 156 140 140 155 140 140 155 140 140
155 139 139 155 139 139 155 139 139 154 139 139 154 139 139 154 139
139 154 138 138 153 138 138 153 138 138 28 57 6 33 66 7 35 70 7 35 71
7 35 70 7 13 26 3 31 62 6 28 56 6 24 48 5 19 39 4 14 28 3 13 26 3 13
26 3 13 26 3 26 23 23 26 23 23 26 23 23 26 23 23 26 23 23 26 23 23 26
23 23 26 23 23 26 23 23 26 23 23 26 23 23 26 23 23 26 23 23 26 23 23
147 133 133 153 138 138 147 132 132 147 132 132 146 132 132 146 132
132 146 131 131 146 131 131
173 156 156 173 155 155 172 155 155 172 155 155 172 155 155 172 155
155 172 154 154 171 154 154 171 154 154 171 154 154 171 154 154 171
154 154 170 153 153 170 153 153 170 153 153 170 153 153 170 153 153
169 152 152 169 152 152 169 152 152 169 152 152 104 83 10 107 85 11
102 81 10 93 75 9 83 66 8 71 57 7 57 46 6 42 33 4 26 20 3 26 20 3 26
20 3 26 20 3 26 20 3 26 23 23 26 23 23 26 23 23 26 23 23 26 23 23 26
23 23 26 23 23 26 23 23 26 23 23 26 23 23 26 23 23 26 23 23 26 23 23
163 147 147 163 147 147 163 147 147 163 146 146 162 146 146 162 146
146 162 146 146 162 146 146 162 145 145 161 145 145 161 145 145 26 23
23 161 145 145 160 144 144 160 144 144 160 144 144 160 144 144 160 144
144 159 143 143 159 143 143 159 143 143 159 143 143 26 23 23 158 143
143 158 142 142 158 142 142 158 142 142 158 142 142 157 142 142 157
141 141 157 141 141 157 141 141 157 141 141 156 141 141 158 143 143
156 140 140 156 140 140 155 140 140 155 140 140 155 140 140 155 139
139 155 139 139 154 139 139 154 139 139 154 139 139 154 138 138 13 26
3 19 38 4 21 43 4 22 43 4 21 41 4 18 37 4 15 31 3 13 26 3 13 26 3 13
26 3 13 26 3 26 23 23 26 23 23 26 23 23 26 23 23 26 23 23 26 23 23 26
23 23 26 23 23 26 23 23 26 23 23 26 23 23 26 23 23 26 23 23 26 23 23
149 134 134 148 133 133 148 133 133 148 133 133 148 133 133 148 133
133 147 133 133 147 132 132 147 132 132 147 132 132
173 156 156 173 156 156 173 156 156 166 150 150 173 155 155 172 155
155 26 23 23 172 155 155 172 155 155 172 154 154 171 154 154 171 154
154 171 154 154 171 154 154 171 153 153 170 153 153 170 153 153 170
153 153 170 153 153 170 153 153 169 152 152 169 152 152 78 62 8 79 63
8 73 58 7 63 51 6 51 41 5 38 30 4 73 147 15 26 20 3 26 20 3 26 20 3 26
20 3 26 23 23 26 23 23 26 23 23 26 23 23 26 23 23 26 23 23 26 23 23 26
23 23 26 23 23 26 23 23 26 23 23 26 23 23 164 148 148 164 148 148 164
147 147 164 147 147 163 147 147 163 147 147 163 147 147 163 146 146
163 146 146 162 146 146 162 146 146 162 146 146 162 146 146 162 145
145 161 145 145 161 145 145 161 145 145 161 145 145 160 144 144 160
144 144 160 144 144 160 144 144 160 144 144 159 144 144 159 143 143
159 143 143 159 143 143 159 143 143 158 143 143 158 142 142 158 142
142 158 142 142 158 142 142 157 142 142 157 141 141 157 141 141 157
141 141 157 141 141 156 141 141 156 141 141 156 140 140 156 140 140
156 140 140 155 140 140 155 140 140 155 139 139 155 139 139 155 139
139 154 139 139 26 23 23 26 23 23 13 26 3 13 26 3 13 26 3 13 26 3 13
26 3 13 26 3 26 23 23 26 23 23 26 23 23 9 87 43 26 23 23 26 23 23 26
23 23 26 23 23 26 23 23 26 23 23 26 23 23 26 23 23 26 23 23 150 135
135 150 135 135 150 135 135 149 134 134 149 134 134 149 134 134 149
134 134 149 134 134 148 133 133 148 133 133 148 133 133 148 133 133
148 133 133
174 156 156 174 156 156 173 156 156 173 156 156 173 156 156 26 20 3
173 155 155 172 155 155 172 155 155 172 155 155 172 155 155 172 154
154 171 154 154 171 154 154 171 154 154 26 23 23 171 154 154 170 153
153 170 153 153 170 153 153 170 153 153 26 23 23 169 152 152 169 152
152 43 34 4 37 30 4 27 21 3 26 20 3 26 20 3 26 20 3 26 20 3 26 20 3 26
23 23 26 23 23 26 23 23 26 23 23 26 23 23 26 23 23 26 23 23 26 23 23
26 23 23 26 23 23 165 149 149 165 149 149 165 148 148 9 87 44 166 149
149 164 148 148 164 148 148 164 148 148 164 147 147 26 23 23 163 147
147 163 147 147 163 147 147 163 146 146 163 146 146 162 146 146 162
146 146 162 146 146 162 146 146 161 145 145 161 145 145 161 145 145
161 145 145 161 145 145 160 144 144 160 144 144 160 144 144 160 144
144 160 144 144 159 144 144 159 143 143 159 143 143 159 143 143 159
143 143 158 143 143 158 142 142 158 142 142 158 142 142 158 142 142
157 142 142 157 142 142 157 141 141 157 141 141 157 141 141 156 141
141 156 141 141 156 140 140 69 56 7 156 140 140 155 140 140 155 140
140 155 140 140 155 139 139 155 139 139 154 139 139 154 139 139 26 23
23 26 23 23 26 23 23 26 23 23 26 23 23 26 23 23 26 23 23 26 23 23 26
23 23 26 23 23 26 23 23 152 137 137 152 136 136 151 136 136 151 136
136 151 136 136 151 136 136 151 136 136 150 135 135 150 135 135 26 23
23 26 23 23 150 135 135 149 135 135 149 134 134 149 134 134 149 134
134 149 134 134 149 134 134 148 133 133
174 157 157 174 157 157 174 156 156 174 156 156 173 156 156 173 156
156 173 156 156 167 150 150 173 155 155 172 155 155 172 155 155 172
155 155 172 155 155 172 154 154 171 154 154 171 154 154 171 154 154
171 154 154 26 23 23 170 153 153 170 153 153 170 153 153 170 153 153
170 153 153 169 152 152 169 152 152 26 23 23 26 23 23 26 20 3 26 23 23
26 23 23 26 23 23 26 23 23 26 23 23 26 23 23 26 23 23 26 23 23 167 150
150 167 150 150 166 150 150 166 150 150 166 149 149 166 149 149 166
149 149 165 149 149 165 149 149 165 149 149 165 148 148 165 148 148
164 148 148 164 148 148 26 23 23 164 147 147 164 147 147 163 147 147
26 23 23 163 147 147 163 147 147 163 146 146 162 146 146 162 146 146
162 146 146 162 146 146 162 145 145 161 145 145 161 145 145 161 145
145 161 145 145 161 145 145 160 144 144 26 23 23 160 144 144 160 144
144 160 144 144 159 143 143 159 143 143 159 143 143 159 143 143 159
143 143 158 143 143 158 142 142 158 142 142 158 142 142 158 142 142
157 142 142 157 142 142 157 141 141 157 141 141 157 141 141 156 141
141 156 141 141 156 140 140 156 140 140 156 140 140 155 140 140 155
140 140 155 140 140 155 139 139 155 139 139 154 139 139 52 104 10 154
139 139 154 139 139 154 138 138 154 138 138 153 138 138 153 138 138
153 138 138 153 137 137 153 137 137 152 137 137 152 137 137 152 137
137 152 137 137 152 136 136 151 136 136 9 87 43 151 136 136 9 86 43
151 136 136 150 135 135 150 135 135 150 135 135 150 135 135 150 135
135 149 135 135 149 134 134 149 134 134
174 157 157 26 23 23 174 157 157 174 157 157 174 156 156 174 156 156
173 156 156 173 156 156 173 156 156 173 155 155 173 155 155 172 155
155 172 155 155 172 155 155 172 155 155 172 154 154 171 154 154 171
154 154 171 154 154 171 154 154 171 154 154 170 153 153 170 153 153
170 153 153 170 153 153 170 153 153 169 153 153 169 152 152 169 152
152 169 152 152 169 152 152 168 152 152 168 151 151 168 151 151 168
151 151 168 151 151 168 151 151 167 151 151 167 150 150 167 150 150
167 150 150 167 150 150 166 150 150 166 150 150 166 149 149 26 23 23
166 149 149 165 149 149 165 149 149 26 23 23 165 148 148 165 148 148
164 148 148 164 148 148 164 148 148 164 147 147 164 147 147 163 147
147 163 147 147 163 147 147 163 146 146 163 146 146 162 146 146 162
146 146 162 146 146 162 146 146 26 23 23 26 23 23 161 145 145 161 145
145 161 145 145 161 145 145 160 144 144 160 144 144 160 144 144 160
144 144 160 144 144 159 143 143 159 143 143 159 143 143 159 143 143
159 143 143 158 143 143 158 142 142 158 142 142 158 142 142 158 142
142 26 23 23 157 142 142 26 23 23 157 141 141 157 141 141 156 141 141
156 141 141 156 140 140 156 140 140 156 140 140 156 140 140 155 140
140 155 140 140 155 139 139 155 139 139 155 139 139 154 139 139 154
139 139 154 139 139 154 138 138 154 138 138 69 55 7 153 138 138 153
138 138 160 144 144 153 137 137 152 137 137 152 137 137 152 137 137
152 137 137 152 137 137 26 23 23 151 136 136 151 136 136 151 136 136
151 136 136 151 135 135 150 135 135 150 135 135 150 135 135 150 135
135
175 157 157 175 157 157 174 157 157 174 157 157 174 157 157 174 157
157 174 156 156 174 156 156 173 156 156 173 156 156 173 156 156 173
155 155 173 155 155 172 155 155 172 155 155 172 155 155 172 155 155
172 154 154 171 154 154 171 154 154 171 154 154 171 154 154 171 154
154 170 153 153 170 153 153 170 153 153 170 153 153 170 153 153 169
153 153 26 23 23 169 152 152 169 152 152 13 26 3 169 152 152 168 151
151 168 151 151 168 151 151 168 151 151 168 151 151 167 151 151 167
150 150 167 150 150 167 150 150 167 150 150 166 150 150 166 150 150
166 149 149 166 149 149 166 149 149 165 149 149 165 149 149 165 149
149 165 148 148 165 148 148 164 148 148 164 148 148 9 87 43 164 147
147 164 147 147 163 147 147 163 147 147 163 147 147 163 147 147 163
146 146 162 146 146 162 146 146 162 146 146 162 146 146 162 146 146 26
23 23 161 145 145 161 145 145 161 145 145 161 145 145 161 144 144 160
144 144 26 23 23 160 144 144 160 144 144 160 144 144 159 143 143 159
143 143 159 143 143 159 143 143 159 143 143 158 143 143 158 142 142
158 142 142 158 142 142 158 142 142 157 142 142 157 142 142 157 141
141 157 141 141 157 141 141 156 141 141 156 141 141 156 141 141 26 20
3 156 140 140 156 140 140 155 140 140 155 140 140 155 139 139 155 139
139 155 139 139 154 139 139 154 139 139 154 139 139 26 23 23 154 138
138 153 138 138 69 55 7 153 138 138 153 138 138 153 137 137 153 137
137 152 137 137 152 137 137 152 137 137 152 137 137 152 136 136 3 26
13 151 136 136 151 136 136 151 136 136 151 136 136 150 135 135
175 158 158 175 157 157 175 157 157 175 157 157 174 157 157 26 23 23
174 157 157 174 156 156 174 156 156 173 156 156 173 156 156 173 156
156 173 156 156 173 155 155 173 155 155 172 155 155 171 154 154 172
155 155 172 155 155 172 154 154 171 154 154 171 154 154 171 154 154
171 154 154 171 154 154 170 153 153 26 23 23 170 153 153 170 153 153
26 23 23 169 153 153 169 152 152 26 23 23 169 152 152 169 152 152 169
152 152 168 152 152 168 151 151 168 151 151 168 151 151 168 151 151
167 151 151 167 150 150 167 150 150 167 150 150 167 150 150 166 150
150 166 150 150 166 149 149 166 149 149 166 149 149 165 149 149 165
149 149 165 149 149 165 149 149 165 148 148 164 148 148 164 148 148
164 148 148 164 148 148 164 147 147 164 147 147 163 147 147 163 147
147 163 147 147 163 146 146 163 146 146 162 146 146 162 146 146 162
146 146 162 146 146 162 145 145 161 145 145 26 23 23 161 145 145 161
145 145 161 145 145 160 144 144 160 144 144 160 144 144 160 144 144
160 144 144 160 144 144 159 143 143 159 143 143 159 143 143 159 143
143 159 143 143 158 143 143 158 142 142 158 142 142 158 142 142 158
142 142 157 142 142 157 142 142 157 141 141 157 141 141 157 141 141
156 141 141 156 141 141 156 141 141 156 140 140 156 140 140 156 140
140 155 140 140 155 140 140 155 140 140 155 139 139 155 139 139 163
147 147 154 139 139 154 139 139 154 138 138 154 138 138 154 138 138
156 140 140 153 138 138 153 138 138 26 23 23 153 137 137 152 137 137
152 137 137 152 137 137 152 137 137 152 137 137 151 136 136 151 136
136 151 136 136
175 158 158 175 158 158 175 158 158 175 157 157 175 157 157 175 157
157 174 157 157 174 157 157 174 157 157 174 156 156 174 156 156 173
156 156 26 23 23 173 156 156 173 156 156 26 23 23 172 155 155 172 155
155 172 155 155 172 155 155 172 155 155 172 154 154 171 154 154 171
154 154 171 154 154 171 153 153 171 154 154 170 153 153 170 153 153
170 153 153 170 153 153 170 153 153 26 23 23 169 152 152 169 152 152
169 152 152 169 152 152 169 152 152 168 152 152 168 151 151 168 151
151 168 151 151 168 151 151 0 0 0 167 150 150 167 150 150 26 23 23 167
150 150 166 150 150 166 150 150 166 149 149 166 149 149 166 149 149
165 149 149 165 149 149 165 149 149 165 148 148 165 148 148 165 148
148 164 148 148 164 148 148 164 148 148 164 147 147 164 147 147 163
147 147 163 147 147 163 147 147 163 147 147 163 146 146 162 146 146
162 146 146 162 146 146 162 146 146 162 146 146 13 26 3 161 145 145
161 145 145 161 145 145 161 145 145 161 145 145 160 144 144 160 144
144 160 144 144 160 144 144 160 144 144 159 144 144 159 143 143 159
143 143 159 143 143 159 143 143 159 143 143 158 143 143 158 142 142
158 142 142 26 23 23 158 142 142 157 142 142 157 142 142 157 141 141
157 141 141 157 141 141 156 141 141 156 141 141 156 141 141 156 140
140 156 140 140 156 140 140 155 140 140 155 140 140 155 140 140 155
139 139 155 139 139 154 139 139 154 139 139 154 139 139 154 139 139
154 138 138 154 138 138 153 138 138 153 138 138 153 138 138 153 138
138 153 137 137 152 137 137 152 137 137 152 137 137 152 137 137 152
137 137
176 158 158 176 158 158 175 158 158 175 158 158 175 158 158 175 157
157 175 157 157 174 157 157 174 157 157 174 157 157 174 157 157 174
156 156 174 156 156 173 156 156 173 156 156 173 156 156 173 156 156
173 155 155 172 155 155 172 155 155 172 155 155 172 155 155 172 155
155 171 154 154 171 154 154 171 154 154 171 154 154 171 154 154 171
154 154 170 153 153 170 153 153 170 153 153 170 153 153 170 153 153
169 153 153 26 23 23 169 152 152 169 152 152 169 152 152 169 152 152
168 151 151 168 151 151 168 151 151 168 151 151 168 151 151 167 151
151 167 150 150 167 150 150 26 23 23 167 150 150 166 150 150 166 150
150 166 149 149 166 149 149 166 149 149 166 149 149 165 149 149 165
149 149 165 148 148 165 148 148 165 148 148 0 0 0 164 148 148 164 148
148 164 147 147 164 147 147 163 147 147 163 147 147 163 147 147 163
147 147 163 146 146 163 146 146 162 146 146 162 146 146 162 146 146
162 146 146 162 145 145 161 145 145 161 145 145 161 145 145 161 145
145 161 145 145 161 144 144 160 144 144 160 144 144 160 144 144 160
144 144 160 144 144 159 143 143 159 143 143 159 143 143 159 143 143
159 143 143 158 143 143 158 142 142 158 142 142 158 142 142 158 142
142 158 142 142 157 142 142 163 147 147 157 141 141 157 141 141 157
141 141 156 141 141 26 23 23 156 141 141 73 146 15 156 140 140 156 140
140 155 140 140 155 140 140 155 140 140 155 139 139 155 139 139 154
139 139 154 139 139 154 139 139 154 139 139 154 138 138 154 138 138
153 138 138 153 138 138 153 138 138 153 138 138 153 137 137 153 137
137 152 137 137
176 158 158 176 158 158 176 158 158 175 158 158 175 158 158 175 158
158 175 157 157 175 157 157 175 157 157 174 157 157 174 157 157 174
157 157 174 156 156 174 156 156 173 156 156 173 156 156 173 156 156
173 156 156 173 155 155 173 155 155 172 155 155 0 0 0 172 155 155 172
155 155 172 154 154 168 152 152 171 154 154 171 154 154 171 154 154
171 154 154 171 153 153 170 153 153 170 153 153 170 153 153 170 153
153 170 153 153 169 152 152 169 152 152 169 152 152 169 152 152 169
152 152 168 152 152 168 151 151 26 23 23 168 151 151 168 151 151 168
151 151 167 151 151 167 150 150 167 150 150 167 150 150 167 150 150
166 150 150 166 150 150 166 149 149 166 149 149 166 149 149 166 149
149 166 149 149 165 149 149 165 148 148 165 148 148 165 148 148 164
148 148 164 148 148 164 148 148 164 148 148 164 147 147 164 147 147
163 147 147 163 147 147 163 147 147 163 147 147 163 146 146 162 146
146 162 146 146 26 23 23 26 23 23 162 146 146 162 145 145 161 145 145
161 145 145 161 145 145 161 145 145 161 145 145 160 144 144 160 144
144 160 144 144 160 144 144 160 144 144 160 144 144 159 143 143 159
143 143 159 143 143 159 143 143 159 143 143 158 143 143 158 142 142
158 142 142 158 142 142 158 142 142 159 143 143 157 142 142 157 141
141 157 141 141 157 141 141 157 141 141 156 141 141 156 141 141 156
140 140 156 140 140 156 140 140 156 140 140 155 140 140 155 140 140
155 140 140 155 139 139 155 139 139 26 23 23 154 139 139 154 139 139
154 139 139 154 138 138 154 138 138 153 138 138 153 138 138 153 138
138 153 138 138
176 159 159 176 158 158 176 158 158 176 158 158 176 158 158 175 158
158 175 158 158 175 157 157 175 157 157 175 157 157 173 156 156 174
157 157 174 157 157 174 157 157 174 156 156 174 156 156 173 156 156
173 156 156 173 156 156 173 156 156 173 155 155 172 155 155 172 155
155 172 155 155 172 155 155 172 155 155 172 154 154 26 23 23 171 154
154 171 154 154 171 154 154 171 154 154 170 153 153 170 153 153 170
153 153 170 153 153 170 153 153 170 153 153 169 152 152 169 152 152
169 152 152 169 152 152 169 152 152 168 152 152 168 151 151 168 151
151 168 151 151 168 151 151 168 151 151 167 151 151 167 150 150 167
150 150 167 150 150 167 150 150 166 150 150 166 150 150 166 149 149
165 148 148 166 149 149 166 149 149 26 23 23 165 149 149 165 149 149
165 148 148 165 148 148 70 56 7 164 148 148 164 148 148 164 148 148
164 147 147 164 147 147 163 147 147 163 147 147 26 23 23 163 147 147
26 23 23 162 146 146 162 146 146 162 146 146 162 146 146 162 146 146
162 145 145 161 145 145 161 145 145 161 145 145 161 145 145 161 145
145 9 87 43 160 144 144 160 144 144 160 144 144 160 144 144 160 144
144 159 144 144 159 143 143 159 143 143 159 143 143 159 143 143 159
143 143 158 143 143 158 142 142 158 142 142 158 142 142 158 142 142
158 142 142 157 142 142 157 141 141 157 141 141 157 141 141 157 141
141 156 141 141 26 23 23 156 140 140 26 23 23 156 140 140 156 140 140
160 144 144 155 140 140 155 140 140 161 145 145 155 139 139 155 139
139 154 139 139 154 139 139 154 139 139 154 138 138 154 138 138 153
138 138
176 159 159 176 159 159 176 158 158 176 158 158 176 158 158 176 158
158 175 158 158 175 158 158 175 158 158 175 157 157 175 157 157 175
157 157 174 157 157 174 157 157 174 157 157 174 156 156 174 156 156
173 156 156 173 156 156 173 156 156 173 156 156 173 155 155 173 155
155 172 155 155 172 155 155 172 155 155 172 155 155 172 154 154 171
154 154 171 154 154 171 154 154 171 154 154 171 154 154 171 154 154
170 153 153 170 153 153 170 153 153 170 153 153 170 153 153 170 153
153 169 152 152 169 152 152 26 23 23 169 152 152 169 152 152 168 152
152 168 151 151 168 151 151 168 151 151 168 151 151 168 151 151 167
151 151 167 150 150 167 150 150 167 150 150 167 150 150 166 150 150
166 150 150 166 149 149 166 149 149 166 149 149 166 149 149 165 149
149 165 149 149 165 149 149 165 148 148 165 148 148 164 148 148 164
148 148 164 148 148 164 148 148 164 147 147 164 147 147 163 147 147
163 147 147 163 147 147 163 147 147 163 146 146 163 146 146 162 146
146 162 146 146 162 146 146 162 146 146 162 145 145 161 145 145 161
145 145 161 145 145 161 145 145 161 145 145 161 145 145 160 144 144
160 144 144 160 144 144 160 144 144 160 144 144 160 144 144 159 143
143 159 143 143 159 143 143 26 23 23 159 143 143 158 143 143 158 142
142 158 142 142 158 142 142 158 142 142 158 142 142 157 142 142 157
142 142 157 141 141 157 141 141 157 141 141 157 141 141 156 141 141
156 141 141 156 140 140 156 140 140 156 140 140 156 140 140 155 140
140 155 140 140 155 140 140 155 139 139 155 139 139 155 139 139 154
139 139 154 139 139 154 139 139
177 159 159 176 159 159 176 159 159 70 56 7 176 158 158 176 158 158
176 158 158 175 158 158 13 26 3 175 158 158 175 157 157 26 23 23 175
157 157 174 157 157 174 157 157 174 157 157 174 156 156 174 156 156
174 156 156 173 156 156 13 26 3 173 156 156 173 156 156 9 87 44 172
155 155 172 155 155 172 155 155 172 155 155 172 155 155 172 154 154
171 154 154 171 154 154 171 154 154 171 154 154 171 154 154 171 153
153 170 153 153 170 153 153 168 151 151 170 153 153 170 153 153 169
153 153 26 23 23 26 23 23 169 152 152 169 152 152 169 152 152 168 152
152 168 151 151 168 151 151 168 151 151 168 151 151 168 151 151 167
151 151 167 150 150 167 150 150 167 150 150 167 150 150 166 150 150
166 150 150 166 149 149 26 23 23 166 149 149 166 149 149 165 149 149
165 149 149 165 149 149 165 148 148 165 148 148 165 148 148 164 148
148 164 148 148 164 148 148 164 147 147 26 23 23 163 147 147 163 147
147 163 147 147 163 147 147 0 0 0 163 146 146 162 146 146 162 146 146
162 146 146 162 146 146 162 146 146 162 145 145 161 145 145 161 145
145 161 145 145 161 145 145 161 145 145 161 144 144 160 144 144 160
144 144 160 144 144 160 144 144 160 144 144 159 144 144 159 143 143
159 143 143 159 143 143 69 55 7 159 143 143 158 143 143 158 142 142
158 142 142 158 142 142 158 142 142 160 144 144 157 142 142 157 142
142 157 141 141 157 141 141 157 141 141 157 141 141 156 141 141 0 0 0
156 140 140 156 140 140 156 140 140 156 140 140 155 140 140 155 140
140 155 140 140 155 139 139 155 139 139 155 139 139
177 159 159 177 159 159 177 159 159 176 159 159 176 159 159 176 158
158 176 158 158 176 158 158 175 158 158 175 158 158 175 158 158 175
157 157 175 157 157 175 157 157 174 157 157 70 56 7 174 157 157 174
157 157 174 156 156 171 154 154 173 156 156 173 156 156 173 156 156
173 156 156 173 155 155 173 155 155 172 155 155 172 155 155 166 150
150 172 155 155 172 154 154 171 154 154 171 154 154 171 154 154 171
154 154 171 154 154 171 154 154 170 153 153 170 153 153 170 153 153
170 153 153 170 153 153 170 153 153 169 152 152 169 152 152 169 152
152 169 152 152 26 23 23 169 152 152 168 152 152 168 151 151 168 151
151 168 151 151 168 151 151 167 151 151 167 151 151 167 150 150 167
150 150 167 150 150 167 150 150 166 150 150 166 150 150 166 149 149
166 149 149 166 149 149 166 149 149 70 56 7 165 149 149 26 23 23 165
148 148 165 148 148 165 148 148 164 148 148 164 148 148 164 148 148
164 147 147 164 147 147 163 147 147 163 147 147 163 147 147 73 146 15
163 147 147 163 146 146 162 146 146 162 146 146 162 146 146 162 146
146 162 146 146 162 145 145 161 145 145 161 145 145 161 145 145 161
145 145 161 145 145 161 145 145 160 144 144 160 144 144 160 144 144 26
23 23 160 144 144 160 144 144 159 143 143 159 143 143 159 143 143 159
143 143 159 143 143 159 143 143 158 143 143 158 142 142 158 142 142
158 142 142 158 142 142 158 142 142 157 142 142 162 146 146 157 141
141 157 141 141 157 141 141 157 141 141 26 23 23 156 141 141 156 140
140 156 140 140 156 140 140 156 140 140 155 140 140 155 140 140 155
140 140
177 159 159 177 159 159 177 159 159 177 159 159 176 159 159 176 159
159 176 158 158 176 158 158 176 158 158 176 158 158 175 158 158 175
158 158 175 157 157 175 157 157 175 157 157 174 157 157 174 157 157
174 157 157 26 23 23 174 156 156 174 156 156 26 23 23 173 156 156 173
156 156 173 156 156 173 155 155 173 155 155 172 155 155 172 155 155
172 155 155 172 155 155 172 155 155 172 154 154 171 154 154 171 154
154 171 154 154 171 154 154 171 154 154 171 153 153 170 153 153 170
153 153 170 153 153 170 153 153 170 153 153 169 153 153 169 152 152
169 152 152 169 152 152 169 152 152 169 152 152 168 152 152 168 151
151 168 151 151 168 151 151 168 151 151 168 151 151 167 151 151 167
151 151 167 150 150 167 150 150 167 150 150 167 150 150 5 52 26 166
150 150 166 149 149 166 149 149 166 149 149 166 149 149 165 149 149
165 149 149 165 149 149 165 148 148 165 148 148 165 148 148 164 148
148 164 148 148 164 148 148 164 147 147 164 147 147 164 147 147 73 146
15 163 147 147 163 147 147 163 147 147 163 147 147 26 23 23 162 146
146 162 146 146 162 146 146 162 146 146 162 145 145 161 145 145 26 23
23 161 145 145 161 145 145 161 145 145 161 145 145 160 144 144 160 144
144 160 144 144 160 144 144 160 144 144 160 144 144 159 144 144 159
143 143 159 143 143 159 143 143 159 143 143 26 23 23 158 143 143 163
146 146 158 142 142 158 142 142 158 142 142 9 86 43 157 142 142 157
142 142 157 141 141 157 141 141 3 26 13 157 141 141 156 141 141 156
141 141 156 141 141 156 140 140 156 140 140 156 140 140 156 140 140
177 159 159 177 159 159 177 159 159 177 159 159 177 159 159 176 159
159 176 159 159 176 158 158 176 158 158 176 158 158 176 158 158 175
158 158 175 158 158 175 158 158 91 73 9 175 157 157 175 157 157 174
157 157 87 70 9 174 157 157 174 156 156 167 150 150 173 156 156 173
156 156 173 156 156 173 156 156 173 156 156 173 155 155 172 155 155
172 155 155 172 155 155 172 155 155 172 155 155 26 23 23 171 154 154
171 154 154 9 87 44 171 154 154 171 154 154 171 154 154 170 153 153
170 153 153 170 153 153 170 153 153 170 153 153 170 153 153 169 152
152 169 152 152 169 152 152 169 152 152 169 152 152 169 152 152 168
152 152 168 151 151 168 151 151 168 151 151 168 151 151 168 151 151 26
23 23 167 150 150 26 23 23 26 23 23 167 150 150 167 150 150 166 150
150 166 150 150 166 149 149 166 149 149 166 149 149 166 149 149 165
149 149 165 149 149 165 149 149 26 23 23 165 148 148 165 148 148 164
148 148 164 148 148 164 148 148 164 147 147 164 147 147 164 147 147
163 147 147 163 147 147 163 147 147 163 147 147 163 146 146 163 146
146 162 146 146 162 146 146 162 146 146 162 146 146 162 146 146 162
145 145 161 145 145 161 145 145 161 145 145 161 145 145 161 145 145
161 144 144 160 144 144 160 144 144 160 144 144 26 23 23 160 144 144
160 144 144 159 143 143 159 143 143 159 143 143 164 147 147 159 143
143 159 143 143 158 143 143 158 142 142 158 142 142 158 142 142 158
142 142 158 142 142 157 142 142 157 142 142 157 141 141 26 23 23 157
141 141 157 141 141 156 141 141 156 141 141 156 141 141 156 140 140
177 160 160 177 159 159 177 159 159 177 159 159 177 159 159 177 159
159 176 159 159 176 159 159 176 158 158 176 158 158 176 158 158 176
158 158 175 158 158 175 158 158 175 158 158 175 157 157 175 157 157
175 157 157 174 157 157 0 0 0 174 157 157 174 156 156 174 156 156 174
156 156 173 155 155 173 156 156 173 156 156 173 156 156 173 155 155
173 155 155 172 155 155 172 155 155 172 155 155 172 155 155 172 155
155 172 154 154 171 154 154 171 154 154 171 154 154 171 154 154 171
154 154 171 153 153 170 153 153 170 153 153 170 153 153 170 153 153
170 153 153 170 153 153 169 152 152 169 152 152 169 152 152 169 152
152 169 152 152 169 152 152 167 150 150 168 151 151 168 151 151 168
151 151 168 151 151 168 151 151 167 151 151 26 23 23 167 150 150 167
150 150 167 150 150 167 150 150 166 150 150 166 150 150 166 149 149
166 149 149 166 149 149 166 149 149 165 149 149 165 149 149 165 149
149 165 148 148 165 148 148 165 148 148 164 148 148 164 148 148 164
148 148 164 147 147 164 147 147 164 147 147 163 147 147 163 147 147
163 147 147 163 147 147 163 146 146 163 146 146 162 146 146 9 87 43
162 146 146 162 146 146 162 146 146 26 23 23 161 145 145 161 145 145
161 145 145 161 145 145 161 145 145 161 145 145 160 144 144 160 144
144 160 144 144 160 144 144 160 144 144 160 144 144 159 144 144 159
143 143 159 143 143 159 143 143 159 143 143 159 143 143 158 143 143
158 142 142 158 142 142 158 142 142 158 142 142 158 142 142 158 142
142 161 145 145 157 141 141 157 141 141 157 141 141 157 141 141 157
141 141 156 141 141
178 160 160 177 160 160 177 159 159 177 159 159 177 159 159 177 159
159 177 159 159 176 159 159 176 159 159 176 158 158 176 158 158 176
158 158 176 158 158 175 158 158 26 23 23 175 158 158 175 157 157 175
157 157 175 157 157 26 23 23 174 157 157 174 157 157 174 157 157 174
156 156 174 156 156 173 156 156 9 87 44 169 152 152 70 56 7 173 155
155 173 155 155 172 155 155 172 155 155 172 155 155 172 155 155 172
155 155 172 154 154 171 154 154 26 23 23 171 154 154 70 56 7 171 154
154 171 154 154 170 153 153 170 153 153 170 153 153 170 153 153 170
153 153 170 153 153 169 152 152 169 152 152 169 152 152 169 152 152 0
0 0 169 152 152 168 152 152 168 151 151 168 151 151 168 151 151 168
151 151 168 151 151 26 23 23 167 151 151 167 150 150 167 150 150 167
150 150 167 150 150 166 150 150 166 150 150 166 150 150 166 149 149
166 149 149 166 149 149 165 149 149 165 149 149 165 149 149 165 148
148 165 148 148 165 148 148 165 148 148 164 148 148 164 148 148 164
148 148 164 148 148 164 148 148 164 147 147 163 147 147 163 147 147
163 147 147 163 147 147 163 146 146 26 23 23 162 146 146 162 146 146
162 146 146 162 146 146 162 146 146 162 145 145 161 145 145 161 145
145 161 145 145 161 145 145 161 145 145 161 145 145 160 144 144 160
144 144 160 144 144 26 23 23 3 26 13 160 144 144 160 144 144 159 143
143 159 143 143 159 143 143 159 143 143 38 76 8 159 143 143 158 143
143 158 142 142 158 142 142 158 142 142 158 142 142 158 142 142 163
147 147 157 142 142 157 141 141 157 141 141 26 23 23
178 160 160 177 160 160 177 160 160 177 159 159 177 159 159 177 159
159 177 159 159 177 159 159 176 159 159 176 159 159 171 154 154 176
158 158 176 158 158 176 158 158 175 158 158 175 158 158 175 158 158
175 157 157 175 157 157 175 157 157 26 23 23 174 157 157 174 157 157
26 23 23 174 156 156 174 156 156 167 151 151 173 156 156 173 156 156
173 156 156 173 155 155 173 155 155 172 155 155 26 23 23 171 154 154
172 155 155 172 155 155 172 154 154 171 154 154 171 154 154 171 154
154 171 154 154 171 154 154 171 154 154 170 153 153 170 153 153 170
153 153 170 153 153 170 153 153 170 153 153 170 153 153 169 152 152
169 152 152 169 152 152 169 152 152 169 152 152 169 152 152 168 152
152 168 151 151 168 151 151 168 151 151 168 151 151 168 151 151 167
151 151 167 151 151 70 56 7 167 150 150 167 150 150 167 150 150 166
150 150 166 150 150 166 149 149 166 149 149 166 149 149 166 149 149
165 149 149 165 149 149 165 149 149 165 148 148 165 148 148 165 148
148 164 148 148 164 148 148 164 148 148 164 148 148 164 147 147 164
147 147 164 147 147 163 147 147 163 147 147 163 147 147 163 147 147
163 146 146 163 146 146 162 146 146 162 146 146 162 146 146 162 146
146 162 146 146 162 145 145 161 145 145 161 145 145 161 145 145 161
145 145 161 145 145 161 145 145 161 144 144 160 144 144 160 144 144
160 144 144 160 144 144 160 144 144 160 144 144 159 143 143 159 143
143 159 143 143 159 143 143 159 143 143 159 143 143 158 143 143 158
142 142 158 142 142 158 142 142 158 142 142 158 142 142 158 142 142
157 142 142 157 142 142
178 160 160 178 160 160 177 160 160 177 160 160 177 159 159 177 159
159 177 159 159 177 159 159 177 159 159 176 159 159 176 159 159 176
158 158 176 158 158 176 158 158 176 158 158 175 158 158 175 158 158
175 158 158 175 157 157 175 157 157 175 157 157 174 157 157 174 157
157 174 157 157 26 23 23 174 156 156 174 156 156 173 156 156 173 156
156 173 156 156 173 156 156 173 156 156 173 155 155 172 155 155 172
155 155 172 155 155 172 155 155 172 155 155 172 155 155 172 154 154
171 154 154 171 154 154 171 154 154 171 154 154 26 23 23 171 153 153
170 153 153 170 153 153 170 153 153 170 153 153 170 153 153 170 153
153 169 152 152 169 152 152 169 152 152 169 152 152 169 152 152 169
152 152 26 23 23 168 151 151 168 151 151 168 151 151 168 151 151 168
151 151 168 151 151 167 151 151 167 150 150 167 150 150 167 150 150
167 150 150 167 150 150 166 150 150 166 150 150 166 149 149 166 149
149 66 133 13 166 149 149 165 149 149 165 149 149 165 149 149 165 148
148 165 148 148 165 148 148 164 148 148 164 148 148 164 148 148 164
148 148 164 147 147 164 147 147 164 147 147 163 147 147 163 147 147
163 147 147 163 147 147 163 146 146 163 146 146 162 146 146 162 146
146 162 146 146 162 146 146 162 146 146 162 145 145 161 145 145 161
145 145 161 145 145 161 145 145 161 145 145 73 146 15 161 145 145 160
144 144 160 144 144 160 144 144 160 144 144 160 144 144 160 144 144
159 144 144 3 26 13 159 143 143 159 143 143 159 143 143 159 143 143
159 143 143 159 144 144 158 142 142 158 142 142 158 142 142 158 142
142 158 142 142
178 160 160 178 160 160 178 160 160 177 160 160 177 160 160 177 159
159 177 159 159 175 157 157 177 159 159 176 159 159 176 159 159 176
159 159 176 158 158 176 158 158 176 158 158 176 158 158 175 158 158
175 158 158 175 158 158 175 157 157 175 157 157 175 157 157 174 157
157 174 157 157 174 157 157 174 157 157 174 156 156 174 156 156 173
156 156 173 156 156 173 156 156 173 156 156 26 23 23 173 155 155 173
155 155 172 155 155 172 155 155 172 155 155 172 155 155 172 155 155
172 154 154 171 154 154 171 154 154 171 154 154 171 154 154 171 154
154 171 154 154 168 152 152 170 153 153 170 153 153 170 153 153 170
153 153 170 153 153 169 153 153 169 152 152 169 152 152 169 152 152
169 152 152 169 152 152 169 152 152 168 152 152 168 151 151 168 151
151 168 151 151 26 23 23 168 151 151 167 151 151 167 151 151 167 150
150 167 150 150 167 150 150 167 150 150 167 150 150 166 150 150 0 0 0
166 149 149 166 149 149 166 149 149 166 149 149 165 149 149 165 149
149 165 149 149 165 148 148 165 148 148 165 148 148 164 148 148 164
148 148 164 148 148 164 148 148 164 147 147 164 147 147 164 147 147
163 147 147 163 147 147 163 147 147 163 147 147 163 146 146 163 146
146 162 146 146 26 23 23 162 146 146 162 146 146 162 146 146 162 146
146 162 145 145 161 145 145 161 145 145 161 145 145 161 145 145 161
145 145 163 146 146 160 144 144 160 144 144 160 144 144 160 144 144
160 144 144 160 144 144 160 144 144 159 143 143 159 143 143 159 143
143 26 23 23 159 143 143 159 143 143 158 143 143 158 142 142 158 142
142 158 142 142
178 160 160 178 160 160 178 160 160 178 160 160 177 160 160 177 160
160 177 159 159 26 23 23 177 159 159 177 159 159 176 159 159 176 159
159 176 159 159 176 158 158 176 158 158 176 158 158 176 158 158 175
158 158 175 158 158 175 158 158 175 157 157 175 157 157 175 157 157
174 157 157 174 157 157 174 157 157 174 157 157 174 156 156 168 152
152 173 156 156 173 156 156 173 156 156 173 156 156 173 156 156 173
155 155 173 155 155 172 155 155 172 155 155 172 155 155 172 155 155
172 155 155 172 154 154 26 23 23 171 154 154 171 154 154 171 154 154
171 154 154 171 154 154 171 153 153 170 153 153 170 153 153 170 153
153 170 153 153 170 153 153 170 153 153 169 152 152 166 149 149 169
152 152 169 152 152 169 152 152 169 152 152 168 152 152 168 151 151
168 151 151 168 151 151 168 151 151 168 151 151 168 151 151 167 151
151 167 151 151 167 150 150 167 150 150 167 150 150 167 150 150 166
150 150 166 150 150 166 150 150 166 149 149 166 149 149 166 149 149
165 148 148 165 149 149 165 149 149 165 149 149 165 148 148 165 148
148 165 148 148 164 148 148 164 148 148 164 148 148 164 148 148 164
147 147 164 147 147 164 147 147 26 23 23 163 147 147 163 147 147 163
147 147 163 146 146 163 146 146 162 146 146 162 146 146 26 23 23 162
146 146 162 146 146 162 146 146 162 145 145 161 145 145 161 145 145
161 145 145 161 145 145 161 145 145 161 145 145 160 144 144 160 144
144 160 144 144 26 23 23 160 144 144 160 144 144 160 144 144 159 143
143 163 146 146 159 143 143 159 143 143 159 143 143 159 143 143 159
143 143 158 143 143
178 160 160 178 160 160 178 160 160 13 26 3 178 160 160 177 160 160
177 159 159 177 159 159 177 159 159 177 159 159 177 159 159 176 159
159 176 159 159 176 159 159 176 158 158 176 158 158 176 158 158 26 23
23 175 158 158 175 158 158 175 158 158 175 157 157 175 157 157 175 157
157 174 157 157 174 157 157 174 157 157 26 23 23 174 156 156 174 156
156 173 156 156 173 156 156 173 156 156 173 156 156 173 156 156 173
155 155 173 155 155 172 155 155 172 155 155 172 155 155 172 155 155
172 155 155 172 154 154 171 154 154 171 154 154 171 154 154 171 154
154 171 154 154 171 154 154 171 153 153 170 153 153 170 153 153 170
153 153 170 153 153 170 153 153 170 153 153 169 153 153 169 152 152
169 152 152 169 152 152 169 152 152 169 152 152 169 152 152 168 152
152 168 151 151 168 151 151 168 151 151 168 151 151 168 151 151 26 23
23 167 151 151 167 150 150 167 150 150 167 150 150 167 150 150 167 150
150 166 150 150 166 150 150 166 149 149 166 149 149 166 149 149 166
149 149 165 149 149 26 23 23 165 149 149 165 149 149 165 148 148 165
148 148 165 148 148 164 148 148 164 148 148 164 148 148 164 148 148
164 147 147 164 147 147 164 147 147 163 147 147 163 147 147 163 147
147 163 147 147 163 146 146 163 146 146 162 146 146 26 23 23 162 146
146 162 146 146 162 146 146 162 146 146 162 145 145 161 145 145 161
145 145 161 145 145 161 145 145 161 145 145 161 145 145 161 144 144
160 144 144 160 144 144 160 144 144 160 144 144 160 144 144 160 144
144 159 144 144 159 143 143 159 143 143 159 143 143 159 143 143 159
143 143
178 160 160 178 160 160 178 160 160 178 160 160 178 160 160 177 160
160 177 160 160 177 159 159 177 159 159 177 159 159 177 159 159 26 23
23 176 159 159 176 159 159 10 98 49 176 158 158 176 158 158 176 158
158 175 158 158 175 158 158 175 158 158 175 158 158 175 157 157 175
157 157 175 157 157 174 157 157 174 157 157 174 157 157 174 157 157
174 156 156 174 156 156 172 155 155 173 156 156 71 143 14 173 156 156
173 156 156 173 155 155 173 155 155 172 155 155 172 155 155 172 155
155 172 155 155 172 155 155 172 155 155 172 154 154 171 154 154 171
154 154 171 154 154 171 154 154 171 154 154 171 154 154 170 153 153
170 153 153 170 153 153 170 153 153 170 153 153 170 153 153 170 153
153 70 56 7 169 152 152 169 152 152 169 152 152 169 152 152 169 152
152 168 151 151 168 151 151 168 151 151 168 151 151 168 151 151 168
151 151 168 151 151 167 151 151 167 151 151 167 150 150 167 150 150
167 150 150 167 150 150 167 150 150 166 150 150 26 23 23 26 23 23 166
149 149 166 149 149 166 149 149 165 149 149 165 149 149 165 149 149
165 149 149 165 148 148 165 148 148 165 148 148 164 148 148 164 148
148 164 148 148 164 148 148 164 148 148 164 147 147 164 147 147 163
147 147 163 147 147 163 147 147 163 147 147 163 146 146 163 146 146
162 146 146 162 146 146 162 146 146 162 146 146 162 146 146 162 146
146 162 145 145 161 145 145 161 145 145 161 145 145 161 145 145 161
145 145 161 145 145 161 145 145 160 144 144 160 144 144 160 144 144
160 144 144 160 144 144 160 144 144 160 144 144 159 143 143 159 143
143 159 143 143
178 161 161 178 160 160 178 160 160 178 160 160 178 160 160 178 160
160 177 160 160 177 160 160 177 159 159 177 159 159 177 159 159 177
159 159 177 159 159 176 159 159 176 159 159 176 158 158 176 158 158
176 158 158 176 158 158 175 158 158 175 158 158 175 158 158 175 158
158 175 157 157 175 157 157 9 87 44 174 157 157 174 157 157 174 157
157 174 157 157 174 156 156 174 156 156 174 156 156 173 156 156 173
156 156 173 156 156 173 156 156 173 155 155 173 155 155 172 155 155
172 155 155 172 155 155 172 155 155 172 155 155 172 155 155 172 154
154 171 154 154 171 154 154 171 154 154 171 154 154 171 154 154 171
154 154 170 153 153 26 23 23 170 153 153 170 153 153 170 153 153 170
153 153 170 153 153 26 23 23 169 152 152 169 152 152 169 152 152 169
152 152 169 152 152 169 152 152 166 149 149 168 151 151 168 151 151
168 151 151 168 151 151 168 151 151 167 151 151 167 151 151 167 150
150 167 150 150 167 150 150 166 150 150 167 150 150 166 150 150 166
150 150 166 150 150 166 149 149 166 149 149 166 149 149 166 149 149
165 149 149 165 149 149 165 149 149 165 148 148 165 148 148 165 148
148 165 148 148 164 148 148 164 148 148 26 23 23 164 148 148 164 147
147 164 147 147 163 147 147 163 147 147 73 146 15 163 147 147 163 147
147 163 146 146 163 146 146 162 146 146 162 146 146 162 146 146 162
146 146 162 146 146 162 146 146 162 145 145 161 145 145 161 145 145
161 145 145 161 145 145 161 145 145 161 145 145 161 145 145 160 144
144 160 144 144 160 144 144 160 144 144 160 144 144 160 144 144 160
144 144 159 143 143
178 161 161 178 160 160 178 160 160 178 160 160 178 160 160 178 160
160 93 75 9 177 160 160 177 160 160 177 159 159 177 159 159 177 159
159 177 159 159 177 159 159 176 159 159 176 159 159 176 158 158 26 23
23 176 158 158 176 158 158 175 158 158 175 158 158 175 158 158 175 158
158 175 157 157 175 157 157 175 157 157 174 157 157 174 157 157 169
152 152 174 157 157 174 156 156 174 156 156 174 156 156 173 156 156
173 156 156 173 156 156 173 156 156 173 155 155 173 155 155 172 155
155 172 155 155 172 155 155 172 155 155 172 155 155 172 155 155 172
154 154 171 154 154 171 154 154 171 154 154 171 154 154 171 154 154
171 154 154 171 153 153 170 153 153 26 23 23 170 153 153 170 153 153
170 153 153 170 153 153 169 153 153 169 152 152 169 152 152 169 152
152 169 152 152 169 152 152 169 152 152 168 152 152 26 23 23 168 151
151 168 151 151 168 151 151 168 151 151 168 151 151 167 151 151 167
151 151 167 150 150 167 150 150 167 150 150 167 150 150 167 150 150
166 150 150 166 150 150 166 149 149 166 149 149 166 149 149 166 149
149 166 149 149 165 149 149 26 23 23 165 149 149 165 148 148 165 148
148 165 148 148 164 148 148 164 148 148 164 148 148 164 148 148 164
148 148 164 147 147 164 147 147 163 147 147 163 147 147 163 147 147
163 147 147 163 147 147 163 146 146 163 146 146 26 23 23 162 146 146
162 146 146 162 146 146 164 147 147 162 146 146 26 23 23 161 145 145
161 145 145 161 145 145 26 23 23 161 145 145 161 145 145 161 145 145
160 144 144 160 144 144 160 144 144 160 144 144 26 20 3 160 144 144
179 161 161 178 161 161 178 160 160 178 160 160 178 160 160 178 160
160 178 160 160 177 160 160 177 160 160 177 159 159 177 159 159 177
159 159 177 159 159 177 159 159 176 159 159 176 159 159 176 159 159
176 158 158 176 158 158 176 158 158 176 158 158 175 158 158 175 158
158 175 158 158 175 157 157 26 23 23 175 157 157 175 157 157 174 157
157 174 157 157 174 157 157 174 157 157 174 156 156 174 156 156 26 23
23 173 156 156 168 151 151 172 155 155 173 156 156 173 155 155 173 155
155 172 155 155 172 155 155 172 155 155 172 155 155 172 155 155 172
155 155 172 154 154 171 154 154 171 154 154 171 154 154 171 154 154
171 154 154 171 154 154 171 154 154 170 153 153 170 153 153 170 153
153 170 153 153 170 153 153 170 153 153 170 153 153 169 152 152 169
152 152 169 152 152 169 152 152 169 152 152 169 152 152 169 152 152
168 152 152 168 151 151 168 151 151 168 151 151 168 151 151 168 151
151 168 151 151 167 151 151 167 150 150 167 150 150 167 150 150 167
150 150 167 150 150 166 150 150 166 150 150 166 150 150 166 149 149
166 149 149 166 149 149 166 149 149 165 149 149 165 149 149 165 149
149 165 149 149 165 148 148 165 148 148 26 23 23 164 148 148 164 148
148 164 148 148 164 148 148 164 148 148 164 147 147 164 147 147 163
147 147 163 147 147 163 147 147 163 147 147 163 147 147 163 146 146
163 146 146 162 146 146 162 146 146 162 146 146 162 146 146 162 146
146 162 146 146 162 145 145 161 145 145 161 145 145 161 145 145 161
145 145 161 145 145 161 145 145 161 145 145 160 144 144 160 144 144
160 144 144 160 144 144
179 161 161 178 161 161 178 160 160 178 160 160 178 160 160 178 160
160 178 160 160 178 160 160 177 160 160 26 23 23 177 159 159 177 159
159 177 159 159 177 159 159 177 159 159 176 159 159 176 159 159 176
159 159 176 158 158 176 158 158 176 158 158 176 158 158 175 158 158
175 158 158 9 87 44 175 157 157 175 157 157 175 157 157 175 157 157
174 157 157 174 157 157 174 157 157 174 157 157 174 156 156 174 156
156 174 156 156 173 156 156 173 156 156 173 156 156 173 156 156 173
156 156 173 155 155 172 155 155 172 155 155 172 155 155 172 155 155
172 155 155 172 155 155 172 154 154 171 154 154 171 154 154 171 154
154 171 154 154 171 154 154 171 154 154 171 154 154 170 153 153 170
153 153 170 153 153 170 153 153 170 153 153 170 153 153 170 153 153
169 152 152 169 152 152 26 23 23 169 152 152 169 152 152 169 152 152
169 152 152 168 152 152 168 151 151 168 151 151 168 151 151 168 151
151 168 151 151 168 151 151 167 151 151 167 151 151 167 150 150 167
150 150 167 150 150 167 150 150 167 150 150 166 150 150 166 150 150
166 150 150 166 149 149 166 149 149 166 149 149 166 149 149 165 149
149 165 149 149 165 149 149 165 149 149 165 148 148 165 148 148 165
148 148 164 148 148 164 148 148 164 148 148 164 148 148 164 147 147
164 147 147 164 147 147 163 147 147 163 147 147 163 147 147 0 0 0 26
20 3 163 146 146 163 146 146 162 146 146 162 146 146 162 146 146 162
146 146 162 146 146 162 146 146 162 145 145 161 145 145 3 26 13 161
145 145 161 145 145 26 23 23 161 145 145 161 145 145 161 144 144 160
144 144
179 161 161 179 161 161 178 161 161 178 160 160 178 160 160 178 160
160 178 160 160 26 23 23 178 160 160 177 160 160 177 160 160 177 159
159 177 159 159 177 159 159 177 159 159 177 159 159 176 159 159 176
159 159 176 158 158 176 158 158 176 158 158 176 158 158 176 158 158
175 158 158 175 158 158 175 158 158 175 157 157 175 157 157 175 157
157 175 157 157 174 157 157 174 157 157 174 157 157 174 157 157 174
156 156 174 156 156 174 156 156 173 156 156 173 156 156 173 156 156
173 156 156 173 156 156 173 155 155 172 155 155 172 155 155 172 155
155 172 155 155 172 155 155 172 155 155 172 154 154 171 154 154 171
154 154 171 154 154 171 154 154 171 154 154 171 154 154 171 154 154
170 153 153 170 153 153 170 153 153 170 153 153 170 153 153 26 23 23
170 153 153 169 153 153 169 152 152 169 152 152 169 152 152 26 23 23
169 152 152 169 152 152 168 152 152 168 152 152 168 151 151 168 151
151 168 151 151 168 151 151 168 151 151 168 151 151 167 151 151 167
150 150 167 150 150 167 150 150 167 150 150 167 150 150 167 150 150
166 150 150 26 23 23 166 149 149 166 149 149 166 149 149 166 149 149
166 149 149 165 149 149 165 149 149 165 149 149 165 148 148 165 148
148 26 23 23 165 148 148 164 148 148 164 148 148 164 148 148 164 148
148 164 147 147 164 147 147 164 147 147 163 147 147 163 147 147 163
147 147 163 147 147 163 147 147 163 146 146 163 146 146 162 146 146
162 146 146 162 146 146 162 146 146 162 146 146 162 146 146 162 145
145 162 145 145 161 145 145 26 23 23 161 145 145 161 145 145 161 145
145 161 145 145
179 161 161 179 161 161 178 161 161 178 161 161 178 160 160 173 155
155 178 160 160 178 160 160 178 160 160 177 160 160 177 160 160 177
159 159 177 159 159 177 159 159 177 159 159 177 159 159 176 159 159
176 159 159 176 159 159 176 158 158 176 158 158 176 158 158 176 158
158 175 158 158 175 158 158 175 158 158 175 158 158 175 157 157 175
157 157 9 87 44 174 157 157 174 157 157 174 157 157 174 157 157 174
157 157 26 23 23 174 156 156 173 156 156 173 156 156 172 155 155 173
156 156 173 156 156 173 156 156 173 155 155 173 155 155 172 155 155
172 155 155 172 155 155 172 155 155 172 155 155 172 154 154 172 154
154 171 154 154 171 154 154 171 154 154 171 154 154 171 154 154 171
154 154 171 153 153 70 56 7 170 153 153 170 153 153 170 153 153 170
153 153 170 153 153 170 153 153 169 152 152 166 150 150 169 152 152
169 152 152 169 152 152 169 152 152 169 152 152 168 152 152 168 151
151 168 151 151 168 151 151 168 151 151 168 151 151 168 151 151 167
151 151 167 151 151 167 150 150 167 150 150 167 150 150 167 150 150
167 150 150 166 150 150 166 150 150 166 150 150 166 149 149 166 149
149 166 149 149 166 149 149 165 149 149 165 149 149 165 149 149 165
149 149 165 148 148 165 148 148 165 148 148 165 148 148 164 148 148
164 148 148 164 148 148 164 148 148 164 147 147 164 147 147 164 147
147 163 147 147 163 147 147 163 147 147 163 147 147 163 147 147 163
146 146 163 146 146 162 146 146 162 146 146 162 146 146 162 146 146
162 146 146 162 146 146 162 145 145 162 145 145 161 145 145 161 145
145 161 145 145 161 145 145
179 161 161 179 161 161 179 161 161 178 161 161 178 160 160 178 160
160 178 160 160 178 160 160 178 160 160 178 160 160 177 160 160 177
160 160 177 159 159 177 159 159 177 159 159 177 159 159 26 23 23 176
159 159 176 159 159 176 159 159 176 158 158 176 158 158 176 158 158
176 158 158 175 158 158 175 158 158 175 158 158 175 158 158 175 157
157 175 157 157 175 157 157 174 157 157 174 157 157 174 157 157 174
157 157 174 157 157 174 156 156 174 156 156 173 156 156 173 156 156
173 156 156 173 156 156 173 156 156 173 156 156 173 155 155 173 155
155 26 23 23 172 155 155 172 155 155 172 155 155 26 23 23 172 154 154
172 154 154 171 154 154 171 154 154 171 154 154 171 154 154 171 154
154 171 154 154 26 23 23 170 153 153 170 153 153 166 149 149 170 153
153 170 153 153 170 153 153 170 153 153 169 152 152 169 152 152 169
152 152 169 152 152 168 151 151 169 152 152 169 152 152 168 152 152
168 151 151 168 151 151 168 151 151 168 151 151 168 151 151 168 151
151 167 151 151 167 151 151 167 150 150 167 150 150 167 150 150 167
150 150 167 150 150 167 150 150 26 23 23 166 150 150 166 150 150 166
149 149 166 149 149 26 23 23 166 149 149 165 149 149 165 149 149 165
149 149 165 149 149 26 23 23 165 148 148 165 148 148 164 148 148 164
148 148 164 148 148 164 148 148 164 148 148 164 147 147 164 147 147
164 147 147 163 147 147 163 147 147 163 147 147 163 147 147 163 147
147 3 26 13 163 146 146 162 146 146 162 146 146 162 146 146 162 146
146 162 146 146 162 146 146 162 145 145 162 145 145 161 145 145 161
145 145
179 161 161 179 161 161 179 161 161 178 161 161 178 161 161 178 160
160 178 160 160 178 160 160 178 160 160 26 23 23 178 160 160 174 156
156 177 160 160 177 159 159 26 23 23 177 159 159 177 159 159 177 159
159 176 159 159 176 159 159 176 159 159 176 158 158 176 158 158 176
158 158 176 158 158 175 158 158 175 158 158 175 158 158 175 158 158
175 157 157 175 157 157 175 157 157 174 157 157 174 157 157 174 157
157 174 157 157 174 157 157 174 156 156 174 156 156 173 156 156 173
156 156 173 156 156 173 156 156 173 156 156 173 156 156 173 155 155
173 155 155 172 155 155 172 155 155 172 155 155 172 155 155 172 155
155 172 155 155 172 154 154 171 154 154 171 154 154 171 154 154 171
154 154 171 154 154 171 154 154 171 154 154 170 153 153 170 153 153
170 153 153 170 153 153 170 153 153 170 153 153 170 153 153 169 153
153 169 152 152 169 152 152 26 23 23 26 23 23 169 152 152 169 152 152
169 152 152 168 152 152 168 151 151 168 151 151 168 151 151 168 151
151 168 151 151 168 151 151 167 151 151 167 151 151 167 150 150 167
150 150 167 150 150 167 150 150 167 150 150 166 150 150 166 150 150
166 150 150 166 149 149 166 149 149 166 149 149 166 149 149 166 149
149 165 149 149 165 149 149 165 149 149 165 148 148 165 148 148 165
148 148 165 148 148 164 148 148 164 148 148 164 148 148 164 148 148
164 148 148 164 147 147 164 147 147 164 147 147 163 147 147 163 147
147 163 147 147 163 147 147 163 147 147 163 146 146 163 146 146 162
146 146 162 146 146 162 146 146 162 146 146 162 146 146 162 146 146
162 145 145 162 145 145
179 161 161 179 161 161 179 161 161 179 161 161 178 161 161 178 160
160 178 160 160 178 160 160 178 160 160 178 160 160 178 160 160 177
160 160 177 160 160 177 159 159 26 23 23 177 159 159 26 23 23 177 159
159 176 159 159 176 159 159 176 159 159 176 158 158 176 158 158 0 0 0
176 158 158 176 158 158 175 158 158 175 158 158 175 158 158 175 157
157 175 157 157 175 157 157 175 157 157 174 157 157 174 157 157 174
157 157 174 157 157 174 156 156 174 156 156 174 156 156 173 156 156
170 153 153 173 156 156 173 156 156 173 156 156 173 156 156 173 155
155 173 155 155 172 155 155 172 155 155 172 155 155 172 155 155 172
155 155 172 155 155 172 154 154 171 154 154 171 154 154 171 154 154
171 154 154 171 154 154 171 154 154 171 154 154 170 153 153 170 153
153 170 153 153 170 153 153 170 153 153 167 150 150 170 153 153 170
153 153 169 152 152 169 152 152 26 23 23 169 152 152 169 152 152 169
152 152 169 152 152 168 152 152 26 23 23 168 151 151 168 151 151 168
151 151 62 125 12 168 151 151 167 151 151 167 151 151 167 150 150 167
150 150 167 150 150 167 150 150 167 150 150 167 150 150 166 150 150
166 150 150 166 150 150 166 149 149 165 149 149 166 149 149 166 149
149 165 149 149 165 149 149 165 149 149 165 149 149 165 148 148 165
148 148 165 148 148 165 148 148 164 148 148 164 148 148 164 148 148
164 148 148 164 147 147 164 147 147 164 147 147 163 147 147 163 147
147 163 147 147 163 147 147 163 147 147 163 147 147 163 146 146 163
146 146 162 146 146 26 23 23 162 146 146 162 146 146 162 146 146 162
146 146
179 161 161 179 161 161 179 161 161 179 161 161 178 161 161 178 161
161 178 160 160 178 160 160 178 160 160 178 160 160 178 160 160 178
160 160 177 160 160 177 160 160 177 159 159 177 159 159 177 159 159
177 159 159 177 159 159 176 159 159 176 159 159 176 159 159 176 158
158 176 158 158 176 158 158 168 151 151 175 158 158 175 158 158 175
158 158 175 158 158 175 157 157 175 157 157 175 157 157 175 157 157
174 157 157 26 23 23 174 157 157 26 23 23 174 156 156 174 156 156 174
156 156 173 156 156 173 156 156 173 156 156 173 156 156 173 156 156
173 155 155 173 155 155 173 155 155 172 155 155 172 155 155 172 155
155 172 155 155 172 155 155 172 155 155 172 154 154 171 154 154 171
154 154 171 154 154 171 154 154 171 154 154 171 154 154 171 154 154
170 153 153 170 153 153 170 153 153 170 153 153 170 153 153 170 153
153 170 153 153 170 153 153 169 152 152 169 152 152 169 152 152 169
152 152 169 152 152 169 152 152 169 152 152 168 152 152 168 152 152 26
23 23 168 151 151 168 151 151 168 151 151 168 151 151 168 151 151 167
151 151 167 151 151 167 150 150 167 150 150 167 150 150 167 150 150
167 150 150 166 150 150 166 150 150 166 150 150 26 23 23 166 149 149
166 149 149 166 149 149 166 149 149 165 149 149 165 149 149 26 23 23
165 149 149 165 148 148 165 148 148 165 148 148 165 148 148 164 148
148 164 148 148 164 148 148 164 148 148 164 147 147 164 147 147 164
147 147 163 147 147 163 147 147 163 147 147 26 23 23 163 147 147 163
147 147 163 146 146 163 146 146 162 146 146 162 146 146 162 146 146
162 146 146
179 161 161 179 161 161 10 98 49 179 161 161 179 161 161 178 161 161
178 160 160 178 160 160 178 160 160 178 160 160 178 160 160 178 160
160 177 160 160 177 160 160 177 159 159 177 159 159 177 159 159 177
159 159 177 159 159 177 159 159 176 159 159 176 159 159 176 159 159
176 158 158 176 158 158 26 23 23 176 158 158 175 158 158 175 158 158
175 158 158 0 0 0 175 157 157 175 157 157 175 157 157 175 157 157 174
157 157 174 157 157 174 157 157 174 157 157 174 156 156 73 146 15 174
156 156 173 156 156 173 156 156 173 156 156 173 156 156 173 156 156
173 155 155 173 155 155 173 155 155 172 155 155 172 155 155 172 155
155 172 155 155 172 155 155 172 155 155 172 154 154 171 154 154 171
154 154 171 154 154 171 154 154 171 154 154 171 154 154 171 154 154
171 153 153 170 153 153 170 153 153 170 153 153 170 153 153 170 153
153 170 153 153 170 153 153 169 153 153 169 152 152 169 152 152 169
152 152 169 152 152 169 152 152 169 152 152 169 152 152 168 152 152
168 151 151 168 151 151 168 151 151 168 151 151 168 151 151 168 151
151 167 151 151 167 151 151 167 150 150 167 150 150 167 150 150 167
150 150 167 150 150 167 150 150 166 150 150 166 150 150 166 150 150
166 149 149 166 149 149 166 149 149 166 149 149 166 149 149 165 149
149 165 149 149 165 149 149 165 148 148 165 148 148 165 148 148 165
148 148 164 148 148 164 148 148 164 148 148 164 148 148 164 148 148
164 147 147 164 147 147 164 147 147 163 147 147 163 147 147 163 147
147 163 147 147 163 147 147 163 147 147 163 146 146 163 146 146 162
146 146 162 146 146
179 161 161 179 161 161 179 161 161 26 23 23 179 161 161 178 161 161
178 161 161 0 0 0 178 160 160 178 160 160 178 160 160 178 160 160 178
160 160 177 160 160 177 160 160 177 159 159 177 159 159 177 159 159
177 159 159 177 159 159 176 159 159 176 159 159 176 159 159 176 158
158 176 158 158 176 158 158 176 158 158 176 158 158 175 158 158 175
158 158 175 158 158 175 158 158 175 157 157 175 157 157 175 157 157
174 157 157 174 157 157 174 157 157 174 157 157 174 157 157 174 156
156 174 156 156 174 156 156 173 156 156 173 156 156 173 156 156 173
156 156 173 156 156 173 155 155 173 155 155 172 155 155 172 155 155
172 155 155 172 155 155 172 155 155 172 155 155 172 155 155 172 154
154 171 154 154 171 154 154 171 154 154 171 154 154 171 154 154 171
154 154 171 154 154 171 153 153 170 153 153 170 153 153 170 153 153
170 153 153 170 153 153 170 153 153 170 153 153 169 153 153 169 152
152 8 76 38 169 152 152 169 152 152 169 152 152 169 152 152 169 152
152 168 152 152 168 151 151 168 151 151 168 151 151 168 151 151 168
151 151 168 151 151 168 151 151 167 151 151 167 151 151 167 150 150
167 150 150 167 150 150 167 150 150 167 150 150 166 150 150 166 150
150 166 150 150 166 149 149 166 149 149 166 149 149 166 149 149 3 34
17 165 149 149 165 149 149 165 149 149 165 149 149 165 148 148 165 148
148 165 148 148 165 148 148 164 148 148 164 148 148 164 148 148 164
148 148 164 148 148 164 147 147 164 147 147 164 147 147 163 147 147
163 147 147 163 147 147 163 147 147 163 147 147 163 147 147 0 0 0 163
146 146
169 152 152 179 161 161 179 161 161 179 161 161 179 161 161 179 161
161 178 161 161 178 160 160 178 160 160 26 23 23 178 160 160 178 160
160 178 160 160 177 160 160 177 160 160 177 159 159 177 159 159 177
159 159 177 159 159 177 159 159 177 159 159 176 159 159 176 159 159 26
23 23 176 158 158 167 150 150 176 158 158 176 158 158 176 158 158 175
158 158 175 158 158 175 158 158 175 157 157 175 157 157 175 157 157
175 157 157 174 157 157 174 157 157 174 157 157 174 157 157 174 157
157 174 156 156 26 23 23 171 154 154 173 156 156 173 156 156 173 156
156 173 156 156 173 156 156 173 155 155 173 155 155 172 155 155 172
155 155 172 155 155 172 155 155 172 155 155 172 155 155 172 155 155
172 154 154 171 154 154 171 154 154 171 154 154 171 154 154 171 154
154 171 154 154 26 23 23 171 153 153 170 153 153 170 153 153 170 153
153 170 153 153 170 153 153 170 153 153 170 153 153 170 153 153 169
152 152 169 152 152 169 152 152 169 152 152 169 152 152 169 152 152
169 152 152 168 152 152 168 152 152 168 151 151 168 151 151 168 151
151 168 151 151 168 151 151 168 151 151 167 151 151 167 151 151 167
150 150 26 23 23 167 150 150 167 150 150 167 150 150 167 150 150 166
150 150 166 150 150 166 150 150 166 149 149 166 149 149 166 149 149
166 149 149 166 149 149 165 149 149 165 148 148 165 149 149 165 149
149 165 148 148 165 148 148 165 148 148 165 148 148 164 148 148 164
148 148 164 148 148 164 148 148 164 148 148 164 147 147 164 147 147
164 147 147 163 147 147 163 147 147 163 147 147 163 147 147 163 147
147 163 146 146
179 161 161 179 161 161 179 161 161 179 161 161 179 161 161 81 65 8
178 161 161 26 23 23 178 160 160 178 160 160 178 160 160 178 160 160
178 160 160 178 160 160 177 160 160 177 160 160 177 159 159 177 159
159 177 159 159 177 159 159 169 152 152 177 159 159 26 23 23 176 159
159 176 159 159 176 158 158 176 158 158 176 158 158 176 158 158 175
158 158 26 23 23 175 158 158 175 158 158 175 157 157 175 157 157 175
157 157 175 157 157 174 157 157 174 157 157 174 157 157 174 157 157
167 150 150 174 156 156 174 156 156 174 156 156 173 156 156 173 156
156 173 156 156 173 156 156 173 156 156 173 155 155 26 23 23 172 155
155 172 155 155 172 155 155 172 155 155 172 155 155 172 155 155 172
155 155 172 154 154 171 154 154 171 154 154 171 154 154 171 154 154
171 154 154 171 154 154 171 154 154 171 154 154 26 23 23 170 153 153
170 153 153 170 153 153 170 153 153 170 153 153 170 153 153 170 153
153 169 152 152 169 152 152 169 152 152 169 152 152 169 152 152 169
152 152 166 149 149 169 152 152 168 152 152 168 151 151 168 151 151
168 151 151 168 151 151 168 151 151 168 151 151 168 151 151 167 151
151 167 151 151 167 150 150 167 150 150 167 150 150 26 23 23 167 150
150 166 150 150 166 150 150 166 150 150 166 150 150 166 149 149 166
149 149 166 149 149 166 149 149 165 149 149 165 149 149 165 149 149
165 149 149 165 148 148 165 148 148 165 148 148 165 148 148 165 148
148 164 148 148 164 148 148 164 148 148 164 148 148 164 147 147 164
147 147 164 147 147 163 147 147 163 147 147 163 147 147 163 147 147
163 147 147
179 161 161 179 161 161 179 161 161 179 161 161 179 161 161 179 161
161 179 161 161 178 161 161 178 160 160 178 160 160 178 160 160 0 0 0
178 160 160 178 160 160 26 23 23 177 160 160 26 23 23 177 159 159 177
159 159 177 159 159 177 159 159 177 159 159 176 159 159 176 159 159
176 159 159 176 158 158 176 158 158 176 158 158 176 158 158 176 158
158 175 158 158 175 158 158 175 158 158 26 23 23 175 157 157 175 157
157 73 146 15 175 157 157 174 157 157 174 157 157 174 157 157 174 157
157 174 156 156 174 156 156 174 156 156 174 156 156 173 156 156 173
156 156 173 156 156 173 156 156 173 156 156 173 155 155 173 155 155
172 155 155 172 155 155 167 151 151 170 153 153 172 155 155 172 155
155 26 23 23 172 154 154 171 154 154 171 154 154 171 154 154 171 154
154 171 154 154 171 154 154 171 154 154 171 154 154 170 153 153 170
153 153 170 153 153 170 153 153 170 153 153 170 153 153 170 153 153
170 153 153 169 152 152 169 152 152 169 152 152 169 152 152 169 152
152 169 152 152 169 152 152 169 152 152 168 152 152 168 151 151 168
151 151 168 151 151 168 151 151 168 151 151 168 151 151 168 151 151
167 151 151 167 151 151 167 150 150 167 150 150 167 150 150 167 150
150 167 150 150 167 150 150 166 150 150 166 150 150 166 150 150 166
149 149 166 149 149 166 149 149 166 149 149 166 149 149 165 149 149
165 149 149 165 149 149 165 149 149 165 148 148 165 148 148 165 148
148 165 148 148 164 148 148 164 148 148 164 148 148 164 148 148 164
148 148 164 147 147 164 147 147 164 147 147 163 147 147 26 23 23 163
147 147
179 161 161 179 161 161 179 161 161 179 161 161 179 161 161 179 161
161 179 161 161 178 161 161 178 160 160 178 160 160 178 160 160 178
160 160 178 160 160 178 160 160 178 160 160 177 160 160 177 160 160
177 159 159 177 159 159 177 159 159 177 159 159 177 159 159 177 159
159 176 159 159 176 159 159 176 159 159 176 158 158 176 158 158 176
158 158 176 158 158 176 158 158 175 158 158 175 158 158 175 158 158
175 158 158 175 157 157 175 157 157 175 157 157 26 23 23 174 157 157
174 157 157 174 157 157 174 157 157 174 156 156 174 156 156 174 156
156 173 156 156 173 156 156 173 156 156 173 156 156 173 156 156 173
156 156 26 23 23 173 155 155 172 155 155 172 155 155 172 155 155 172
155 155 172 155 155 172 155 155 172 155 155 172 154 154 171 154 154
171 154 154 0 0 0 26 23 23 171 154 154 171 154 154 171 154 154 171 154
154 170 153 153 170 153 153 170 153 153 170 153 153 170 153 153 170
153 153 170 153 153 170 153 153 169 153 153 169 152 152 169 152 152
169 152 152 169 152 152 169 152 152 26 23 23 169 152 152 168 152 152
168 152 152 168 151 151 168 151 151 168 151 151 168 151 151 168 151
151 168 151 151 167 151 151 167 151 151 26 20 3 167 150 150 167 150
150 167 150 150 167 150 150 167 150 150 166 150 150 166 150 150 166
150 150 166 150 150 166 149 149 166 149 149 166 149 149 166 149 149
166 149 149 165 149 149 165 149 149 165 149 149 165 149 149 165 148
148 165 148 148 165 148 148 165 148 148 164 148 148 164 148 148 164
148 148 164 148 148 164 148 148 164 147 147 164 147 147 164 147 147
163 147 147
179 161 161 179 161 161 179 161 161 179 161 161 179 161 161 179 161
161 179 161 161 178 161 161 178 161 161 178 160 160 178 160 160 178
160 160 178 160 160 178 160 160 178 160 160 177 160 160 177 160 160
177 160 160 177 159 159 177 159 159 177 159 159 177 159 159 177 159
159 176 159 159 176 159 159 176 159 159 176 158 158 176 158 158 176
158 158 176 158 158 176 158 158 175 158 158 175 158 158 175 158 158
175 158 158 175 157 157 175 157 157 175 157 157 175 157 157 174 157
157 174 157 157 174 157 157 174 157 157 174 157 157 174 156 156 174
156 156 174 156 156 173 156 156 173 156 156 173 156 156 26 23 23 8 83
41 173 156 156 173 155 155 173 155 155 172 155 155 172 155 155 172 155
155 172 155 155 172 155 155 172 155 155 172 155 155 172 154 154 171
154 154 171 154 154 171 154 154 171 154 154 171 154 154 171 154 154
171 154 154 171 154 154 170 153 153 170 153 153 170 153 153 170 153
153 170 153 153 170 153 153 170 153 153 170 153 153 169 153 153 169
152 152 169 152 152 169 152 152 169 152 152 169 152 152 169 152 152
169 152 152 169 152 152 168 152 152 168 151 151 168 151 151 168 151
151 168 151 151 168 151 151 168 151 151 26 23 23 167 151 151 167 151
151 167 150 150 167 150 150 167 150 150 167 150 150 167 150 150 26 23
23 166 150 150 166 150 150 166 150 150 166 149 149 166 149 149 166 149
149 166 149 149 166 149 149 165 149 149 165 149 149 165 149 149 165
149 149 165 148 148 165 148 148 165 148 148 165 148 148 164 148 148
164 148 148 164 148 148 164 148 148 164 148 148 164 148 148 164 147
147 164 148 148
179 161 161 179 161 161 179 161 161 179 161 161 179 161 161 179 161
161 179 161 161 179 161 161 178 161 161 178 160 160 178 160 160 178
160 160 178 160 160 178 160 160 178 160 160 178 160 160 177 160 160
177 160 160 177 159 159 177 159 159 177 159 159 177 159 159 177 159
159 177 159 159 176 159 159 176 159 159 176 159 159 176 158 158 176
158 158 176 158 158 176 158 158 176 158 158 175 158 158 175 158 158
175 158 158 175 158 158 175 157 157 175 157 157 175 157 157 175 157
157 174 157 157 174 157 157 174 157 157 174 157 157 174 157 157 174
156 156 174 156 156 174 156 156 173 156 156 173 156 156 173 156 156
173 156 156 173 156 156 173 156 156 173 155 155 173 155 155 171 154
154 172 155 155 172 155 155 172 155 155 172 155 155 172 155 155 172
155 155 172 154 154 171 154 154 171 154 154 171 154 154 171 154 154
171 154 154 171 154 154 171 154 154 171 154 154 170 153 153 170 153
153 170 153 153 170 153 153 170 153 153 170 153 153 170 153 153 170
153 153 170 153 153 169 152 152 169 152 152 169 152 152 26 23 23 169
152 152 169 152 152 169 152 152 169 152 152 168 152 152 168 151 151
168 151 151 168 151 151 168 151 151 168 151 151 168 151 151 168 151
151 167 151 151 167 151 151 167 150 150 167 150 150 167 150 150 167
150 150 167 150 150 167 150 150 166 150 150 166 150 150 166 150 150
166 150 150 166 149 149 166 149 149 166 149 149 166 149 149 166 149
149 165 149 149 165 149 149 165 149 149 165 149 149 165 148 148 165
148 148 165 148 148 165 148 148 164 148 148 164 148 148 164 148 148
164 148 148 164 148 148 164 147 147
179 162 162 170 153 153 179 161 161 26 23 23 179 161 161 179 161 161
179 161 161 179 161 161 178 161 161 178 161 161 26 23 23 178 160 160
178 160 160 178 160 160 178 160 160 26 23 23 177 160 160 177 160 160
177 160 160 26 23 23 177 159 159 177 159 159 177 159 159 177 159 159
176 159 159 176 159 159 176 159 159 176 159 159 176 158 158 176 158
158 176 158 158 176 158 158 176 158 158 175 158 158 175 158 158 175
158 158 175 158 158 175 157 157 175 157 157 175 157 157 175 157 157
174 157 157 174 157 157 174 157 157 174 157 157 174 157 157 174 156
156 174 156 156 174 156 156 173 156 156 173 156 156 173 156 156 173
156 156 173 156 156 173 156 156 173 155 155 173 155 155 9 87 43 172
155 155 172 155 155 172 155 155 172 155 155 172 155 155 172 155 155
172 154 154 171 154 154 171 154 154 171 154 154 171 154 154 171 154
154 171 154 154 171 154 154 171 154 154 171 153 153 170 153 153 170
153 153 170 153 153 170 153 153 170 153 153 170 153 153 170 153 153
170 153 153 169 152 152 169 152 152 169 152 152 169 152 152 169 152
152 169 152 152 169 152 152 26 23 23 168 152 152 168 152 152 26 23 23
69 55 7 168 151 151 168 151 151 168 151 151 168 151 151 166 149 149
167 151 151 167 151 151 167 150 150 167 150 150 167 150 150 167 150
150 167 150 150 167 150 150 166 150 150 166 150 150 166 150 150 166
149 149 166 149 149 166 149 149 166 149 149 166 149 149 165 149 149
165 149 149 26 23 23 165 149 149 165 149 149 165 148 148 165 148 148
165 148 148 165 148 148 164 148 148 164 148 148 164 148 148 164 148
148
179 162 162 179 161 161 179 161 161 179 161 161 179 161 161 179 161
161 179 161 161 179 161 161 179 161 161 178 161 161 178 160 160 178
160 160 178 160 160 178 160 160 178 160 160 178 160 160 178 160 160
177 160 160 177 160 160 177 159 159 177 159 159 177 159 159 177 159
159 177 159 159 177 159 159 176 159 159 176 159 159 176 159 159 176
158 158 176 158 158 176 158 158 176 158 158 176 158 158 175 158 158
175 158 158 175 158 158 175 158 158 175 157 157 175 157 157 175 157
157 175 157 157 174 157 157 174 157 157 174 157 157 174 157 157 174
157 157 174 156 156 174 156 156 174 156 156 174 156 156 173 156 156 26
23 23 173 156 156 173 156 156 173 156 156 173 156 156 173 155 155 173
155 155 172 155 155 172 155 155 172 155 155 172 155 155 172 155 155
172 155 155 172 155 155 172 154 154 171 154 154 171 154 154 171 154
154 171 154 154 171 154 154 26 23 23 171 154 154 171 154 154 171 153
153 170 153 153 170 153 153 170 153 153 170 153 153 170 153 153 170
153 153 170 153 153 170 153 153 169 152 152 169 152 152 168 151 151
169 152 152 169 152 152 169 152 152 169 152 152 26 23 23 168 152 152
168 152 152 168 151 151 168 151 151 168 151 151 168 151 151 168 151
151 168 151 151 168 151 151 167 151 151 167 151 151 167 150 150 165
149 149 167 150 150 167 150 150 167 150 150 167 150 150 166 150 150
166 150 150 166 150 150 166 150 150 26 23 23 166 149 149 166 149 149
73 146 15 166 149 149 165 149 149 165 149 149 165 149 149 165 149 149
165 148 148 165 148 148 165 148 148 165 148 148 164 148 148 164 148
148 164 148 148
180 162 162 179 161 161 179 161 161 179 161 161 179 161 161 179 161
161 179 161 161 179 161 161 179 161 161 178 161 161 178 160 160 178
160 160 178 160 160 178 160 160 178 160 160 178 160 160 178 160 160
177 160 160 26 23 23 177 160 160 177 159 159 177 159 159 177 159 159
177 159 159 177 159 159 177 159 159 176 159 159 176 159 159 26 23 23
176 158 158 176 158 158 176 158 158 176 158 158 176 158 158 175 158
158 175 158 158 175 158 158 175 158 158 175 157 157 175 157 157 175
157 157 175 157 157 174 157 157 174 157 157 174 157 157 174 157 157
174 157 157 174 156 156 174 156 156 174 156 156 174 156 156 173 156
156 173 156 156 173 156 156 173 156 156 173 156 156 173 156 156 173
155 155 173 155 155 172 155 155 172 155 155 172 155 155 172 155 155
172 155 155 172 155 155 172 155 155 172 154 154 171 154 154 171 154
154 171 154 154 171 154 154 171 154 154 171 154 154 171 154 154 171
154 154 171 153 153 170 153 153 170 153 153 26 23 23 170 153 153 170
153 153 170 153 153 170 153 153 170 153 153 169 153 153 169 152 152
169 152 152 169 152 152 169 152 152 169 152 152 169 152 152 169 152
152 169 152 152 168 152 152 168 151 151 168 151 151 168 151 151 168
151 151 168 151 151 168 151 151 168 151 151 167 151 151 167 151 151 26
23 23 167 150 150 167 150 150 167 150 150 167 150 150 167 150 150 167
150 150 166 150 150 166 150 150 166 150 150 166 149 149 166 149 149
166 149 149 166 149 149 166 149 149 165 149 149 165 149 149 165 149
149 26 23 23 165 149 149 165 148 148 165 148 148 165 148 148 165 148
148 164 148 148
180 162 162 26 23 23 179 161 161 179 161 161 179 161 161 179 161 161
179 161 161 179 161 161 179 161 161 178 161 161 178 161 161 178 160
160 178 160 160 178 160 160 177 159 159 178 160 160 178 160 160 178
160 160 177 160 160 177 160 160 177 159 159 177 159 159 177 159 159
177 159 159 177 159 159 177 159 159 176 159 159 176 159 159 176 159
159 176 158 158 176 158 158 176 158 158 176 158 158 176 158 158 175
158 158 175 158 158 175 158 158 175 158 158 175 158 158 175 157 157
175 157 157 175 157 157 175 157 157 174 157 157 174 157 157 174 157
157 174 157 157 174 157 157 174 156 156 174 156 156 174 156 156 173
156 156 173 156 156 173 156 156 173 156 156 173 156 156 173 156 156
173 155 155 173 155 155 173 155 155 172 155 155 172 155 155 172 155
155 172 155 155 172 155 155 172 155 155 172 155 155 172 154 154 171
154 154 171 154 154 171 154 154 171 154 154 171 154 154 171 154 154
171 154 154 171 154 154 171 153 153 170 153 153 170 153 153 170 153
153 170 153 153 170 153 153 170 153 153 170 153 153 170 153 153 169
153 153 169 152 152 169 152 152 169 152 152 4 42 21 169 152 152 169
152 152 26 23 23 169 152 152 168 152 152 168 151 151 168 151 151 168
151 151 168 151 151 168 151 151 168 151 151 168 151 151 168 151 151
167 151 151 167 151 151 167 150 150 167 150 150 167 150 150 167 150
150 26 23 23 167 150 150 166 150 150 166 150 150 166 150 150 166 150
150 9 86 43 166 149 149 166 149 149 166 149 149 166 149 149 165 149
149 165 149 149 165 149 149 165 149 149 165 148 148 165 148 148 165
148 148 165 148 148
180 162 162 179 162 162 179 161 161 179 161 161 179 161 161 179 161
161 179 161 161 179 161 161 179 161 161 179 161 161 178 161 161 178
160 160 178 160 160 178 160 160 178 160 160 178 160 160 178 160 160
178 160 160 177 160 160 177 160 160 177 160 160 177 159 159 8 80 40
177 159 159 177 159 159 177 159 159 177 159 159 176 159 159 176 159
159 176 159 159 176 158 158 176 158 158 176 158 158 176 158 158 176
158 158 175 158 158 175 158 158 175 158 158 175 158 158 175 157 157
175 157 157 175 157 157 175 157 157 175 157 157 174 157 157 174 157
157 174 157 157 174 157 157 174 157 157 174 156 156 174 156 156 174
156 156 9 87 43 173 156 156 173 156 156 173 156 156 173 156 156 26 23
23 173 155 155 26 23 23 173 155 155 172 155 155 172 155 155 172 155
155 172 155 155 172 155 155 172 155 155 172 155 155 172 154 154 171
154 154 171 154 154 171 154 154 171 154 154 171 154 154 171 154 154
171 154 154 171 154 154 171 153 153 170 153 153 170 153 153 170 153
153 170 153 153 170 153 153 170 153 153 170 153 153 170 153 153 170
153 153 169 152 152 169 152 152 169 152 152 169 152 152 169 152 152
169 152 152 169 152 152 169 152 152 168 152 152 168 152 152 168 151
151 168 151 151 168 151 151 168 151 151 168 151 151 168 151 151 168
151 151 167 151 151 167 151 151 167 150 150 167 150 150 167 150 150
167 150 150 167 150 150 167 150 150 167 150 150 166 150 150 166 150
150 166 150 150 166 149 149 166 149 149 165 148 148 166 149 149 166
149 149 166 149 149 165 149 149 165 149 149 165 149 149 165 149 149
165 148 148 165 148 148
180 162 162 180 162 162 179 161 161 179 161 161 179 161 161 179 161
161 179 161 161 179 161 161 179 161 161 179 161 161 178 161 161 178
161 161 178 160 160 178 160 160 178 160 160 178 160 160 178 160 160 9
90 45 178 160 160 177 160 160 177 160 160 177 159 159 177 159 159 177
159 159 177 159 159 177 159 159 177 159 159 176 159 159 176 159 159
176 159 159 176 159 159 26 23 23 176 158 158 176 158 158 176 158 158
176 158 158 175 158 158 175 158 158 175 158 158 175 158 158 175 157
157 175 157 157 175 157 157 175 157 157 174 157 157 174 157 157 174
157 157 174 157 157 174 157 157 174 157 157 174 156 156 174 156 156
174 156 156 173 156 156 173 156 156 173 156 156 173 156 156 173 156
156 173 156 156 173 155 155 173 155 155 173 155 155 172 155 155 172
155 155 172 155 155 172 155 155 172 155 155 172 155 155 172 155 155 6
62 31 171 154 154 171 154 154 171 154 154 171 154 154 171 154 154 171
154 154 171 154 154 171 154 154 171 153 153 170 153 153 170 153 153
170 153 153 170 153 153 170 153 153 170 153 153 170 153 153 170 153
153 170 153 153 169 152 152 169 152 152 169 152 152 169 152 152 169
152 152 26 23 23 169 152 152 169 152 152 168 152 152 166 149 149 168
151 151 168 151 151 168 151 151 168 151 151 168 151 151 168 151 151
168 151 151 167 151 151 167 151 151 167 151 151 167 150 150 167 150
150 167 150 150 167 150 150 167 150 150 167 150 150 166 150 150 50 100
10 166 150 150 166 150 150 166 149 149 166 149 149 166 149 149 166 149
149 166 149 149 165 149 149 165 149 149 165 149 149 165 149 149 165
149 149
180 162 162 180 162 162 176 159 159 179 161 161 179 161 161 179 161
161 179 161 161 179 161 161 26 23 23 179 161 161 178 161 161 178 161
161 0 0 0 178 160 160 178 160 160 178 160 160 178 160 160 178 160 160
178 160 160 177 160 160 26 23 23 177 159 159 177 159 159 177 159 159
177 159 159 177 159 159 177 159 159 177 159 159 176 159 159 176 159
159 176 159 159 26 23 23 176 158 158 176 158 158 176 158 158 176 158
158 175 158 158 175 158 158 175 158 158 175 158 158 175 158 158 175
157 157 175 157 157 175 157 157 175 157 157 174 157 157 174 157 157
174 157 157 174 157 157 174 157 157 174 156 156 174 156 156 174 156
156 174 156 156 173 156 156 173 156 156 173 156 156 173 156 156 173
156 156 173 156 156 173 155 155 173 155 155 172 155 155 172 155 155
172 155 155 172 155 155 172 155 155 172 155 155 172 155 155 172 155
155 172 154 154 171 154 154 9 87 43 171 154 154 171 154 154 171 154
154 171 154 154 171 154 154 171 154 154 171 154 154 170 153 153 170
153 153 170 153 153 170 153 153 170 153 153 170 153 153 170 153 153
170 153 153 170 153 153 169 152 152 169 152 152 169 152 152 169 152
152 169 152 152 169 152 152 26 23 23 169 152 152 169 152 152 168 152
152 73 146 15 168 151 151 168 151 151 168 151 151 168 151 151 168 151
151 168 151 151 168 151 151 167 151 151 167 151 151 167 150 150 167
150 150 167 150 150 167 150 150 167 150 150 167 150 150 167 150 150
166 150 150 26 23 23 166 150 150 166 149 149 166 149 149 166 149 149
166 149 149 166 149 149 166 149 149 165 149 149 165 149 149 165 149
149
180 162 162 180 162 162 179 162 162 179 161 161 179 161 161 179 161
161 179 161 161 179 161 161 179 161 161 179 161 161 179 161 161 178
161 161 178 160 160 178 160 160 178 160 160 178 160 160 178 160 160
178 160 160 178 160 160 178 160 160 168 151 151 177 160 160 177 159
159 177 159 159 177 159 159 177 159 159 177 159 159 177 159 159 176
159 159 176 159 159 26 23 23 176 159 159 176 158 158 26 23 23 176 158
158 176 158 158 176 158 158 175 158 158 175 158 158 175 158 158 175
158 158 175 157 157 175 157 157 175 157 157 175 157 157 175 157 157
174 157 157 174 157 157 174 157 157 172 155 155 174 157 157 174 156
156 174 156 156 174 156 156 174 156 156 173 156 156 173 156 156 173
156 156 173 156 156 173 156 156 173 156 156 173 155 155 173 155 155
172 155 155 172 155 155 172 155 155 26 23 23 172 155 155 172 155 155
172 155 155 172 155 155 172 154 154 171 154 154 171 154 154 171 154
154 171 154 154 171 154 154 171 154 154 171 154 154 171 154 154 171
154 154 170 153 153 170 153 153 170 153 153 170 153 153 170 153 153
170 153 153 170 153 153 170 153 153 170 153 153 169 153 153 169 152
152 169 152 152 169 152 152 169 152 152 169 152 152 169 152 152 169
152 152 169 152 152 168 152 152 168 151 151 168 151 151 168 151 151
168 151 151 168 151 151 168 151 151 168 151 151 166 149 149 167 151
151 167 151 151 167 151 151 167 150 150 167 150 150 167 150 150 167
150 150 167 150 150 167 150 150 166 150 150 166 150 150 166 150 150
166 150 150 166 149 149 166 149 149 166 149 149 166 149 149 166 149
149 165 149 149 165 149 149
180 162 162 180 162 162 179 162 162 179 161 161 179 161 161 179 161
161 179 161 161 179 161 161 179 161 161 179 161 161 179 161 161 178
161 161 178 161 161 178 160 160 178 160 160 178 160 160 178 160 160
178 160 160 178 160 160 178 160 160 177 160 160 177 160 160 177 159
159 177 159 159 177 159 159 177 159 159 177 159 159 177 159 159 177
159 159 176 159 159 176 159 159 176 159 159 176 158 158 176 158 158
176 158 158 176 158 158 176 158 158 176 158 158 175 158 158 169 152
152 175 158 158 175 158 158 168 152 152 8 80 40 175 157 157 175 157
157 174 157 157 174 157 157 174 157 157 174 157 157 174 157 157 174
157 157 174 156 156 174 156 156 174 156 156 173 156 156 173 156 156
173 156 156 173 156 156 173 156 156 173 156 156 173 156 156 173 155
155 173 155 155 172 155 155 172 155 155 172 155 155 172 155 155 172
155 155 172 155 155 172 155 155 172 155 155 172 154 154 171 154 154
171 154 154 171 154 154 171 154 154 171 154 154 171 154 154 171 154
154 26 23 23 171 154 154 170 153 153 9 86 43 170 153 153 170 153 153
170 153 153 170 153 153 170 153 153 170 153 153 170 153 153 169 153
153 169 152 152 169 152 152 169 152 152 169 152 152 169 152 152 169
152 152 169 152 152 169 152 152 26 23 23 168 152 152 168 151 151 168
151 151 166 149 149 168 151 151 168 151 151 168 151 151 168 151 151
167 151 151 167 151 151 167 151 151 167 150 150 167 150 150 167 150
150 167 150 150 167 150 150 167 150 150 167 150 150 26 23 23 166 150
150 166 150 150 166 149 149 166 149 149 166 149 149 166 149 149 26 23
23 166 149 149
180 162 162 180 162 162 180 162 162 179 161 161 179 161 161 179 161
161 179 161 161 179 161 161 179 161 161 179 161 161 179 161 161 178
161 161 178 161 161 178 160 160 178 160 160 178 160 160 178 160 160
178 160 160 178 160 160 178 160 160 177 160 160 177 160 160 177 160
160 177 159 159 177 159 159 177 159 159 177 159 159 177 159 159 177
159 159 176 159 159 176 159 159 176 159 159 176 159 159 176 158 158
176 158 158 176 158 158 176 158 158 176 158 158 175 158 158 175 158
158 173 156 156 175 158 158 175 158 158 175 157 157 175 157 157 175
157 157 175 157 157 174 157 157 174 157 157 174 157 157 174 157 157
174 157 157 174 157 157 26 23 23 174 156 156 174 156 156 173 156 156
173 156 156 173 156 156 173 156 156 173 156 156 173 156 156 173 156
156 173 155 155 173 155 155 172 155 155 172 155 155 172 155 155 172
155 155 172 155 155 172 155 155 172 155 155 172 155 155 172 154 154
171 154 154 171 154 154 171 154 154 171 154 154 171 154 154 171 154
154 171 154 154 171 154 154 171 154 154 170 153 153 170 153 153 26 23
23 170 153 153 170 153 153 170 153 153 170 153 153 170 153 153 170 153
153 169 153 153 169 152 152 169 152 152 169 152 152 169 152 152 169
152 152 169 152 152 169 152 152 169 152 152 168 152 152 26 23 23 168
151 151 26 23 23 168 151 151 26 23 23 168 151 151 168 151 151 168 151
151 168 151 151 167 151 151 167 151 151 167 150 150 167 150 150 167
150 150 167 150 150 167 150 150 167 150 150 167 150 150 166 150 150
166 150 150 166 150 150 166 150 150 166 149 149 166 149 149 166 149
149 166 149 149
180 162 162 180 162 162 180 162 162 179 161 161 179 161 161 179 161
161 179 161 161 179 161 161 179 161 161 179 161 161 179 161 161 179
161 161 178 161 161 178 160 160 178 160 160 178 160 160 178 160 160
178 160 160 178 160 160 178 160 160 178 160 160 177 160 160 177 160
160 177 159 159 177 159 159 177 159 159 177 159 159 177 159 159 177
159 159 177 159 159 169 152 152 176 159 159 176 159 159 176 158 158
176 158 158 176 158 158 26 23 23 176 158 158 176 158 158 175 158 158
175 158 158 175 158 158 175 158 158 175 157 157 175 157 157 175 157
157 175 157 157 175 157 157 174 157 157 174 157 157 174 157 157 174
157 157 174 157 157 26 23 23 174 156 156 174 156 156 174 156 156 173
156 156 173 156 156 173 156 156 173 156 156 173 156 156 173 156 156
173 155 155 173 155 155 173 155 155 172 155 155 9 87 43 172 155 155
172 155 155 172 155 155 172 155 155 172 155 155 172 155 155 172 154
154 171 154 154 171 154 154 171 154 154 171 154 154 171 154 154 171
154 154 171 154 154 171 154 154 26 23 23 170 153 153 170 153 153 170
153 153 170 153 153 170 153 153 170 153 153 170 153 153 168 151 151
170 153 153 169 153 153 169 152 152 169 152 152 169 152 152 169 152
152 169 152 152 169 152 152 169 152 152 169 152 152 169 152 152 168
152 152 0 0 0 168 151 151 168 151 151 168 151 151 168 151 151 168 151
151 168 151 151 168 151 151 167 151 151 167 151 151 167 151 151 167
150 150 167 150 150 167 150 150 167 150 150 167 150 150 167 150 150
166 150 150 166 150 150 166 150 150 166 150 150 166 149 149 166 149
149 166 149 149
180 162 162 180 162 162 180 162 162 179 162 162 179 161 161 179 161
161 179 161 161 179 161 161 179 161 161 179 161 161 179 161 161 179
161 161 178 161 161 178 161 161 178 160 160 178 160 160 178 160 160
178 160 160 178 160 160 178 160 160 178 160 160 177 160 160 177 160
160 177 160 160 177 159 159 177 159 159 177 159 159 177 159 159 177
159 159 177 159 159 176 159 159 176 159 159 176 159 159 176 159 159 26
23 23 176 158 158 176 158 158 176 158 158 176 158 158 175 158 158 175
158 158 175 158 158 175 158 158 175 158 158 175 157 157 175 157 157
175 157 157 175 157 157 174 157 157 174 157 157 174 157 157 174 157
157 174 157 157 174 157 157 174 156 156 174 156 156 174 156 156 174
156 156 173 156 156 173 156 156 173 156 156 173 156 156 173 156 156
173 156 156 173 155 155 173 155 155 173 155 155 172 155 155 172 155
155 172 155 155 172 155 155 172 155 155 172 155 155 172 155 155 172
154 154 172 154 154 171 154 154 171 154 154 171 154 154 171 154 154
171 154 154 171 154 154 171 154 154 171 154 154 171 154 154 170 153
153 167 150 150 170 153 153 170 153 153 170 153 153 170 153 153 170
153 153 170 153 153 170 153 153 170 153 153 169 152 152 169 152 152
169 152 152 169 152 152 169 152 152 169 152 152 169 152 152 169 152
152 73 146 15 168 152 152 168 152 152 168 151 151 168 151 151 168 151
151 168 151 151 168 151 151 168 151 151 168 151 151 167 151 151 167
151 151 167 151 151 167 150 150 26 23 23 167 150 150 167 150 150 167
150 150 167 150 150 167 150 150 166 150 150 166 150 150 166 150 150
166 149 149 166 149 149
180 162 162 180 162 162 180 162 162 26 23 23 179 161 161 179 161 161
179 161 161 179 161 161 179 161 161 179 161 161 179 161 161 179 161
161 178 161 161 178 161 161 178 160 160 178 160 160 178 160 160 178
160 160 26 23 23 178 160 160 178 160 160 178 160 160 177 160 160 177
160 160 177 159 159 177 159 159 177 159 159 177 159 159 177 159 159
177 159 159 177 159 159 176 159 159 176 159 159 176 159 159 26 23 23
176 158 158 176 158 158 176 158 158 176 158 158 176 158 158 175 158
158 175 158 158 175 158 158 175 158 158 175 158 158 175 157 157 175
157 157 175 157 157 175 157 157 174 157 157 174 157 157 174 157 157
174 157 157 174 157 157 174 157 157 174 156 156 174 156 156 174 156
156 173 156 156 173 156 156 173 156 156 0 0 0 173 156 156 173 156 156
173 156 156 173 155 155 173 155 155 173 155 155 172 155 155 172 155
155 172 155 155 172 155 155 172 155 155 172 155 155 172 155 155 172
154 154 172 154 154 171 154 154 171 154 154 171 154 154 171 154 154
171 154 154 171 154 154 169 152 152 171 154 154 171 154 154 170 153
153 170 153 153 170 153 153 170 153 153 170 153 153 170 153 153 170
153 153 170 153 153 170 153 153 170 153 153 169 152 152 169 152 152
169 152 152 169 152 152 169 152 152 169 152 152 169 152 152 169 152
152 169 152 152 168 152 152 168 152 152 168 151 151 168 151 151 168
151 151 168 151 151 168 151 151 3 31 15 168 151 151 168 151 151 167
151 151 167 151 151 167 150 150 167 150 150 167 150 150 167 150 150
167 150 150 167 150 150 167 150 150 166 150 150 166 150 150 166 150
150 166 150 150
180 162 162 180 162 162 180 162 162 180 162 162 179 161 161 179 161
161 179 161 161 179 161 161 179 161 161 179 161 161 179 161 161 179
161 161 179 161 161 178 161 161 178 160 160 178 160 160 178 160 160
178 160 160 26 23 23 178 160 160 178 160 160 178 160 160 177 160 160
177 160 160 177 160 160 177 159 159 177 159 159 177 159 159 177 159
159 177 159 159 177 159 159 176 159 159 176 159 159 176 159 159 176
159 159 26 23 23 176 158 158 176 158 158 176 158 158 176 158 158 176
158 158 175 158 158 175 158 158 175 158 158 175 158 158 175 157 157
175 157 157 175 157 157 175 157 157 175 157 157 174 157 157 174 157
157 174 157 157 174 157 157 174 157 157 174 157 157 174 156 156 174
156 156 174 156 156 173 156 156 26 23 23 173 156 156 173 156 156 173
156 156 173 156 156 173 156 156 173 155 155 173 155 155 173 155 155
172 155 155 0 0 0 172 155 155 172 155 155 172 155 155 172 155 155 172
155 155 172 154 154 172 154 154 171 154 154 171 154 154 171 154 154
171 154 154 171 154 154 171 154 154 171 154 154 171 154 154 169 152
152 170 153 153 170 153 153 170 153 153 170 153 153 170 153 153 170
153 153 170 153 153 170 153 153 170 153 153 170 153 153 169 152 152
169 152 152 169 152 152 169 152 152 169 152 152 169 152 152 169 152
152 169 152 152 169 152 152 168 152 152 168 152 152 168 151 151 168
151 151 168 151 151 26 23 23 168 151 151 168 151 151 168 151 151 168
151 151 167 151 151 167 151 151 167 151 151 167 150 150 167 150 150
167 150 150 167 150 150 167 150 150 167 150 150 167 150 150 166 150
150 166 150 150
180 162 162 180 162 162 180 162 162 170 153 153 179 161 161 179 161
161 179 161 161 179 161 161 179 161 161 179 161 161 179 161 161 70 139
14 179 161 161 178 161 161 178 161 161 178 160 160 178 160 160 178 160
160 178 160 160 178 160 160 26 23 23 178 160 160 26 23 23 177 160 160
177 160 160 177 159 159 177 159 159 177 159 159 177 159 159 177 159
159 177 159 159 177 159 159 176 159 159 176 159 159 176 159 159 176
158 158 176 158 158 176 158 158 176 158 158 176 158 158 176 158 158
175 158 158 26 23 23 175 158 158 175 158 158 175 158 158 175 157 157
175 157 157 175 157 157 175 157 157 26 23 23 174 157 157 174 157 157
174 157 157 174 157 157 174 157 157 174 156 156 174 156 156 174 156
156 174 156 156 173 156 156 173 156 156 173 156 156 0 0 0 173 156 156
173 156 156 173 156 156 173 155 155 173 155 155 172 155 155 172 155
155 172 155 155 172 155 155 172 155 155 172 155 155 26 23 23 172 155
155 172 154 154 172 154 154 171 154 154 171 154 154 171 154 154 171
154 154 171 154 154 171 154 154 171 154 154 171 154 154 171 154 154 9
86 43 170 153 153 170 153 153 170 153 153 170 153 153 170 153 153 170
153 153 170 153 153 170 153 153 170 153 153 169 153 153 169 152 152
169 152 152 169 152 152 169 152 152 26 20 3 169 152 152 169 152 152
169 152 152 168 152 152 168 152 152 168 151 151 26 23 23 168 151 151
26 23 23 168 151 151 168 151 151 168 151 151 168 151 151 167 151 151
167 151 151 167 151 151 167 150 150 167 150 150 167 150 150 167 150
150 167 150 150 167 150 150 167 150 150 166 150 150
180 162 162 180 162 162 180 162 162 180 162 162 179 162 162 179 161
161 179 161 161 179 161 161 179 161 161 179 161 161 179 161 161 179
161 161 179 161 161 178 161 161 178 161 161 178 160 160 178 160 160
178 160 160 178 160 160 178 160 160 178 160 160 178 160 160 178 160
160 177 160 160 177 160 160 177 159 159 168 151 151 177 159 159 177
159 159 177 159 159 177 159 159 177 159 159 176 159 159 176 159 159
176 159 159 173 156 156 176 158 158 176 158 158 176 158 158 176 158
158 176 158 158 176 158 158 175 158 158 175 158 158 175 158 158 175
158 158 175 157 157 175 157 157 175 157 157 175 157 157 0 0 0 169 152
152 174 157 157 174 157 157 174 157 157 174 157 157 174 157 157 174
156 156 174 156 156 174 156 156 26 23 23 173 156 156 173 156 156 173
156 156 173 156 156 173 156 156 173 156 156 173 156 156 173 155 155
173 155 155 172 155 155 172 155 155 172 155 155 172 155 155 172 155
155 172 155 155 172 155 155 172 155 155 172 154 154 172 154 154 171
154 154 171 154 154 171 154 154 171 154 154 171 154 154 171 154 154
171 154 154 171 154 154 171 154 154 170 153 153 170 153 153 26 23 23
170 153 153 170 153 153 170 153 153 26 23 23 170 153 153 26 23 23 170
153 153 169 153 153 169 152 152 169 152 152 169 152 152 169 152 152
169 152 152 169 152 152 169 152 152 169 152 152 169 152 152 168 152
152 168 151 151 73 146 15 168 151 151 168 151 151 168 151 151 168 151
151 168 151 151 168 151 151 168 151 151 167 151 151 167 151 151 167
150 150 167 150 150 167 150 150 167 150 150 167 150 150 167 150 150 26
23 23
180 162 162 180 162 162 176 159 159 180 162 162 179 162 162 179 161
161 179 161 161 179 161 161 179 161 161 179 161 161 179 161 161 179
161 161 179 161 161 179 161 161 178 161 161 178 160 160 178 160 160
178 160 160 178 160 160 178 160 160 178 160 160 178 160 160 178 160
160 177 160 160 177 160 160 177 160 160 177 159 159 177 159 159 177
159 159 177 159 159 177 159 159 177 159 159 177 159 159 176 159 159
176 159 159 176 159 159 9 87 43 176 158 158 176 158 158 176 158 158
176 158 158 176 158 158 175 158 158 175 158 158 175 158 158 175 158
158 175 158 158 175 157 157 175 157 157 175 157 157 175 157 157 175
157 157 174 157 157 174 157 157 174 157 157 174 157 157 174 157 157
174 157 157 174 156 156 174 156 156 172 155 155 26 23 23 173 156 156
173 156 156 173 156 156 173 156 156 173 156 156 173 156 156 173 155
155 173 155 155 173 155 155 26 23 23 172 155 155 172 155 155 172 155
155 172 155 155 172 155 155 172 155 155 172 155 155 172 154 154 172
154 154 171 154 154 171 154 154 171 154 154 171 154 154 171 154 154
171 154 154 171 154 154 171 154 154 171 154 154 67 134 13 170 153 153
170 153 153 170 153 153 170 153 153 170 153 153 170 153 153 170 153
153 170 153 153 170 153 153 169 153 153 169 152 152 169 152 152 169
152 152 169 152 152 169 152 152 169 152 152 169 152 152 169 152 152
169 152 152 168 152 152 168 152 152 168 151 151 168 151 151 168 151
151 168 151 151 168 151 151 168 151 151 168 151 151 168 151 151 167
151 151 167 151 151 167 151 151 167 150 150 167 150 150 167 150 150
167 150 150 167 150 150
170 153 153 180 162 162 180 162 162 180 162 162 179 162 162 179 161
161 179 161 161 179 161 161 179 161 161 179 161 161 179 161 161 179
161 161 179 161 161 179 161 161 178 161 161 178 161 161 178 160 160
178 160 160 26 23 23 178 160 160 178 160 160 178 160 160 178 160 160
178 160 160 177 160 160 177 160 160 177 159 159 177 159 159 177 159
159 177 159 159 177 159 159 177 159 159 177 159 159 169 153 153 176
159 159 176 159 159 73 146 15 176 158 158 176 158 158 176 158 158 176
158 158 176 158 158 176 158 158 175 158 158 175 158 158 175 158 158
175 158 158 175 158 158 175 157 157 175 157 157 175 157 157 175 157
157 173 155 155 174 157 157 174 157 157 174 157 157 174 157 157 174
157 157 174 156 156 174 156 156 174 156 156 174 156 156 173 156 156
173 156 156 173 156 156 173 156 156 173 156 156 173 156 156 173 156
156 173 155 155 173 155 155 173 155 155 172 155 155 172 155 155 172
155 155 172 155 155 172 155 155 172 155 155 172 155 155 172 155 155
172 154 154 172 154 154 171 154 154 171 154 154 171 154 154 171 154
154 171 154 154 171 154 154 171 154 154 171 154 154 171 154 154 170
153 153 170 153 153 170 153 153 170 153 153 170 153 153 170 153 153
170 153 153 170 153 153 170 153 153 170 153 153 169 153 153 169 152
152 26 23 23 169 152 152 169 152 152 169 152 152 169 152 152 169 152
152 169 152 152 169 152 152 168 152 152 168 152 152 168 151 151 168
151 151 168 151 151 168 151 151 168 151 151 168 151 151 168 151 151
168 151 151 167 151 151 167 151 151 167 151 151 167 150 150 167 150
150 167 150 150 167 150 150
26 23 23 180 162 162 180 162 162 180 162 162 180 162 162 179 161 161
179 161 161 179 161 161 179 161 161 179 161 161 179 161 161 179 161
161 26 23 23 179 161 161 178 161 161 178 161 161 178 160 160 178 160
160 178 160 160 26 23 23 178 160 160 178 160 160 178 160 160 178 160
160 177 160 160 177 160 160 177 160 160 177 159 159 177 159 159 177
159 159 177 159 159 177 159 159 177 159 159 177 159 159 176 159 159
176 159 159 176 159 159 176 158 158 176 158 158 176 158 158 176 158
158 176 158 158 176 158 158 175 158 158 175 158 158 175 158 158 175
158 158 175 158 158 175 157 157 175 157 157 175 157 157 175 157 157
175 157 157 174 157 157 174 157 157 174 157 157 174 157 157 174 157
157 174 157 157 174 156 156 9 87 43 174 156 156 174 156 156 173 156
156 173 156 156 173 156 156 173 156 156 173 156 156 173 156 156 173
156 156 173 155 155 173 155 155 171 154 154 172 155 155 172 155 155
172 155 155 172 155 155 172 155 155 172 155 155 172 155 155 172 155
155 172 154 154 172 154 154 171 154 154 171 154 154 171 154 154 171
154 154 171 154 154 171 154 154 171 154 154 171 154 154 171 154 154
169 152 152 170 153 153 169 152 152 170 153 153 170 153 153 170 153
153 170 153 153 170 153 153 170 153 153 170 153 153 169 153 153 169
152 152 169 152 152 169 152 152 169 152 152 169 152 152 169 152 152
169 152 152 169 152 152 169 152 152 168 152 152 168 152 152 168 151
151 168 151 151 168 151 151 168 151 151 26 23 23 168 151 151 168 151
151 168 151 151 168 151 151 167 151 151 167 151 151 167 150 150 167
150 150 167 150 150
180 162 162 180 162 162 180 162 162 180 162 162 180 162 162 179 161
161 179 161 161 179 161 161 179 161 161 179 161 161 179 161 161 179
161 161 179 161 161 179 161 161 179 161 161 178 161 161 178 160 160
178 160 160 178 160 160 178 160 160 178 160 160 178 160 160 178 160
160 178 160 160 177 160 160 177 160 160 177 160 160 177 159 159 177
159 159 177 159 159 177 159 159 177 159 159 177 159 159 26 23 23 176
159 159 176 159 159 26 23 23 176 159 159 176 158 158 176 158 158 176
158 158 176 158 158 176 158 158 176 158 158 26 23 23 175 158 158 175
158 158 175 158 158 175 158 158 175 157 157 175 157 157 175 157 157
175 157 157 175 157 157 174 157 157 174 157 157 174 157 157 174 157
157 174 157 157 174 157 157 174 156 156 174 156 156 174 156 156 174
156 156 173 156 156 173 156 156 173 156 156 173 156 156 173 156 156
173 156 156 173 156 156 173 155 155 26 23 23 173 155 155 172 155 155
172 155 155 172 155 155 172 155 155 172 155 155 172 155 155 172 155
155 172 155 155 172 154 154 172 154 154 171 154 154 171 154 154 171
154 154 171 154 154 171 154 154 171 154 154 171 154 154 171 154 154
171 154 154 171 153 153 170 153 153 170 153 153 170 153 153 170 153
153 170 153 153 170 153 153 170 153 153 170 153 153 170 153 153 170
153 153 169 152 152 169 152 152 169 152 152 169 152 152 169 152 152
169 152 152 169 152 152 169 152 152 169 152 152 169 152 152 168 152
152 168 151 151 168 151 151 168 151 151 168 151 151 168 151 151 168
151 151 168 151 151 168 151 151 168 151 151 167 151 151 167 151 151
167 151 151 167 150 150
