P3
100 100
255
179 161 161 179 161 161 179 161 161 179 161 161 179 161 161 179 161
161 179 161 161 179 161 161 179 161 161 179 161 161 179 161 161 179
161 161 179 161 161 179 161 161 179 161 161 179 161 161 179 161 161
179 161 161 179 161 161 179 161 161 179 161 161 179 161 161 179 161
161 179 161 161 179 161 161 179 161 161 179 161 161 179 161 161 179
161 161 179 161 161 179 161 161 179 161 161 179 161 161 179 161 161
179 161 161 179 161 161 179 161 161 179 161 161 179 161 161 179 161
161 179 161 161 179 161 161 179 161 161 179 161 161 179 161 161 179
161 161 179 161 161 179 161 161 179 161 161 179 161 161 178 161 161
178 161 161 178 161 161 178 161 161 178 161 161 178 161 161 178 161
161 178 161 161 178 161 161 178 161 161 178 161 161 178 161 161 178
161 161 178 161 161 178 161 161 178 161 161 178 161 161 178 161 161
178 161 161 178 161 161 178 161 161 178 161 161 178 161 161 178 161
161 178 161 161 178 161 161 178 161 161 178 161 161 178 161 161 178
161 161 178 161 161 178 161 161 178 161 161 178 161 161 178 161 161
178 161 161 178 161 161 178 161 161 178 161 161 178 161 161 178 161
161 178 161 161 178 161 161 178 161 161 178 161 161 178 161 161 178
161 161 178 161 161 178 161 161 178 161 161
179 161 161 179 161 161 179 161 161 179 161 161 179 161 161 179 161
161 179 161 161 179 161 161 179 161 161 179 161 161 179 161 161 179
161 161 179 161 161 179 161 161 179 161 161 179 161 161 179 161 161
179 161 161 179 161 161 179 161 161 179 161 161 179 161 161 179 161
161 179 161 161 179 161 161 179 161 161 179 161 161 179 161 161 179
161 161 179 161 161 179 161 161 179 161 161 179 161 161 179 161 161
179 161 161 179 161 161 179 161 161 179 161 161 179 161 161 179 161
161 179 161 161 179 161 161 179 161 161 179 161 161 179 161 161 179
161 161 179 161 161 179 161 161 179 161 161 178 161 161 178 161 161
178 161 161 178 161 161 178 161 161 178 161 161 178 161 161 178 161
161 178 161 161 178 161 161 178 161 161 178 161 161 178 161 161 178
161 161 178 161 161 178 161 161 178 161 161 178 161 161 178 161 161
178 161 161 178 161 161 178 161 161 178 161 161 178 161 161 178 161
161 178 161 161 178 161 161 178 161 161 178 161 161 178 161 161 178
161 161 178 161 161 178 161 161 178 161 161 178 161 161 178 161 161
178 161 161 178 161 161 178 161 161 178 161 161 178 161 161 178 161
161 178 161 161 178 161 161 178 161 161 178 161 161 178 161 161 178
161 161 178 161 161 178 161 161 178 161 161
179 161 161 179 161 161 179 161 161 179 161 161 179 161 161 179 161
161 179 161 161 179 161 161 179 161 161 179 161 161 179 161 161 179
161 161 179 161 161 179 161 161 179 161 161 179 161 161 179 161 161
179 161 161 179 161 161 179 161 161 179 161 161 179 161 161 179 161
161 179 161 161 179 161 161 179 161 161 179 161 161 179 161 161 179
161 161 179 161 161 179 161 161 179 161 161 179 161 161 179 161 161
179 161 161 179 161 161 179 161 161 179 161 161 179 161 161 179 161
161 179 161 161 179 161 161 179 161 161 179 161 161 179 161 161 179
161 161 179 161 161 179 161 161 179 161 161 178 161 161 178 161 161
178 161 161 178 161 161 178 161 161 178 161 161 178 161 161 178 161
161 178 161 161 178 161 161 178 161 161 178 161 161 178 161 161 178
161 161 178 161 161 178 161 161 178 161 161 178 161 161 178 161 161
178 161 161 178 161 161 178 161 161 178 161 161 178 161 161 178 161
161 178 161 161 178 161 161 178 161 161 178 161 161 178 161 161 178
161 161 178 161 161 178 161 161 178 161 161 178 161 161 178 161 161
178 161 161 178 161 161 178 161 161 178 161 161 178 161 161 178 161
161 178 161 161 178 161 161 178 161 161 178 161 161 178 161 161 178
161 161 178 161 161 178 161 161 178 161 161
179 161 161 179 161 161 179 161 161 179 161 161 179 161 161 179 161
161 179 161 161 179 161 161 179 161 161 179 161 161 179 161 161 179
161 161 179 161 161 179 161 161 179 161 161 179 161 161 179 161 161
179 161 161 179 161 161 179 161 161 179 161 161 179 161 161 179 161
161 179 161 161 179 161 161 179 161 161 179 161 161 179 161 161 179
161 161 179 161 161 179 161 161 179 161 161 179 161 161 179 161 161
179 161 161 179 161 161 179 161 161 179 161 161 179 161 161 179 161
161 179 161 161 179 161 161 179 161 161 179 161 161 179 161 161 179
161 161 179 161 161 179 161 161 178 161 161 178 161 161 178 161 161
178 161 161 178 161 161 178 161 161 178 161 161 178 161 161 178 161
161 178 161 161 178 161 161 178 161 161 178 161 161 178 161 161 178
161 161 178 161 161 178 161 161 178 161 161 178 161 161 178 161 161
178 161 161 178 161 161 178 161 161 178 161 161 178 161 161 178 161
161 178 161 161 178 161 161 178 161 161 178 161 161 178 161 161 178
161 161 178 161 161 178 161 161 178 161 161 178 161 161 178 161 161
178 161 161 178 161 161 178 161 161 178 161 161 178 161 161 178 161
161 178 161 161 178 161 161 178 161 161 178 161 161 178 161 161 178
161 161 178 161 161 178 161 161 178 161 161
179 161 161 179 161 161 179 161 161 179 161 161 179 161 161 179 161
161 179 161 161 179 161 161 179 161 161 179 161 161 179 161 161 179
161 161 179 161 161 179 161 161 179 161 161 179 161 161 179 161 161
179 161 161 179 161 161 179 161 161 179 161 161 179 161 161 179 161
161 179 161 161 179 161 161 179 161 161 179 161 161 179 161 161 179
161 161 179 161 161 179 161 161 179 161 161 179 161 161 179 161 161
179 161 161 179 161 161 179 161 161 179 161 161 179 161 161 179 161
161 179 161 161 179 161 161 179 161 161 179 161 161 179 161 161 179
161 161 179 161 161 179 161 161 178 161 161 178 161 161 178 161 161
178 161 161 178 161 161 178 161 161 178 161 161 178 161 161 178 161
161 178 161 161 178 161 161 178 161 161 178 161 161 178 161 161 178
161 161 178 161 161 178 161 161 178 161 161 178 161 161 178 161 161
178 161 161 178 161 161 178 161 161 178 161 161 178 161 161 178 161
161 178 161 161 178 161 161 178 161 161 178 161 161 178 161 161 178
161 161 178 161 161 178 161 161 178 161 161 178 161 161 178 161 161
178 161 161 178 161 161 178 161 161 178 161 161 178 161 161 178 161
161 178 161 161 178 161 161 178 161 161 178 161 161 178 161 161 178
161 161 178 161 161 178 161 161 178 161 161
179 161 161 179 161 161 179 161 161 179 161 161 179 161 161 179 161
161 179 161 161 179 161 161 179 161 161 179 161 161 179 161 161 179
161 161 179 161 161 179 161 161 179 161 161 179 161 161 179 161 161
179 161 161 179 161 161 179 161 161 179 161 161 179 161 161 179 161
161 179 161 161 179 161 161 179 161 161 179 161 161 179 161 161 179
161 161 179 161 161 179 161 161 179 161 161 179 161 161 179 161 161
179 161 161 179 161 161 179 161 161 179 161 161 179 161 161 179 161
161 179 161 161 179 161 161 179 161 161 179 161 161 179 161 161 179
161 161 179 161 161 178 161 161 178 161 161 178 161 161 178 161 161
178 161 161 178 161 161 178 161 161 178 161 161 178 161 161 178 161
161 178 161 161 178 161 161 178 161 161 178 161 161 178 161 161 178
161 161 178 161 161 178 161 161 178 161 161 178 161 161 178 161 161
178 161 161 178 161 161 178 161 161 178 161 161 178 161 161 178 161
161 178 161 161 178 161 161 178 161 161 178 161 161 178 161 161 178
161 161 178 161 161 178 161 161 178 161 161 178 161 161 178 161 161
178 161 161 178 161 161 178 161 161 178 161 161 178 161 161 178 161
161 178 161 161 178 161 161 178 161 161 178 161 161 178 161 161 178
161 161 178 161 161 178 161 161 178 161 161
179 161 161 179 161 161 179 161 161 179 161 161 179 161 161 179 161
161 179 161 161 179 161 161 179 161 161 179 161 161 179 161 161 179
161 161 179 161 161 179 161 161 179 161 161 179 161 161 179 161 161
179 161 161 179 161 161 179 161 161 179 161 161 179 161 161 179 161
161 179 161 161 179 161 161 179 161 161 179 161 161 179 161 161 179
161 161 179 161 161 179 161 161 179 161 161 179 161 161 179 161 161
179 161 161 179 161 161 179 161 161 179 161 161 179 161 161 179 161
161 179 161 161 179 161 161 179 161 161 179 161 161 179 161 161 179
161 161 179 161 161 178 161 161 178 161 161 178 161 161 178 161 161
178 161 161 178 161 161 178 161 161 178 161 161 178 161 161 178 161
161 178 161 161 178 161 161 178 161 161 178 161 161 178 161 161 178
161 161 178 161 161 178 161 161 178 161 161 178 161 161 178 161 161
178 161 161 178 161 161 178 161 161 178 161 161 178 161 161 178 161
161 178 161 161 178 161 161 178 161 161 178 161 161 178 161 161 178
161 161 178 161 161 178 161 161 178 161 161 178 161 161 178 161 161
178 161 161 178 161 161 178 161 161 178 161 161 178 161 161 178 161
161 178 161 161 178 161 161 178 161 161 178 161 161 178 161 161 178
161 161 178 161 161 178 161 161 178 161 161
179 161 161 179 161 161 179 161 161 179 161 161 179 161 161 179 161
161 179 161 161 179 161 161 179 161 161 179 161 161 179 161 161 179
161 161 179 161 161 179 161 161 179 161 161 179 161 161 179 161 161
179 161 161 179 161 161 179 161 161 179 161 161 179 161 161 179 161
161 179 161 161 179 161 161 179 161 161 179 161 161 179 161 161 179
161 161 179 161 161 179 161 161 179 161 161 179 161 161 179 161 161
179 161 161 179 161 161 179 161 161 179 161 161 179 161 161 179 161
161 179 161 161 179 161 161 179 161 161 179 161 161 179 161 161 179
161 161 178 161 161 178 161 161 178 161 161 178 161 161 178 161 161
178 161 161 178 161 161 178 161 161 178 161 161 178 161 161 178 161
161 178 161 161 178 161 161 178 161 161 178 161 161 178 161 161 178
161 161 178 161 161 178 161 161 178 161 161 178 161 161 178 161 161
178 161 161 178 161 161 178 161 161 178 161 161 178 161 161 178 161
161 178 161 161 178 161 161 178 161 161 178 161 161 178 161 161 178
161 161 178 161 161 178 161 161 178 161 161 178 161 161 178 161 161
178 161 161 178 161 161 178 161 161 178 161 161 178 161 161 178 161
161 178 161 161 178 161 161 178 161 161 178 161 161 178 161 161 178
161 161 178 161 161 178 161 161 178 161 161
179 161 161 179 161 161 179 161 161 179 161 161 179 161 161 179 161
161 179 161 161 179 161 161 179 161 161 179 161 161 179 161 161 179
161 161 179 161 161 179 161 161 179 161 161 179 161 161 179 161 161
179 161 161 179 161 161 179 161 161 179 161 161 179 161 161 179 161
161 179 161 161 179 161 161 179 161 161 179 161 161 179 161 161 179
161 161 179 161 161 179 161 161 179 161 161 179 161 161 179 161 161
179 161 161 179 161 161 179 161 161 179 161 161 179 161 161 179 161
161 179 161 161 179 161 161 179 161 161 179 161 161 179 161 161 179
161 161 178 161 161 178 161 161 178 161 161 178 161 161 178 161 161
178 161 161 178 161 161 178 161 161 178 161 161 178 161 161 178 161
161 178 161 161 178 161 161 178 161 161 178 161 161 178 161 161 178
161 161 178 161 161 178 161 161 178 161 161 178 161 161 178 161 161
178 161 161 178 161 161 178 161 161 178 161 161 178 161 161 178 161
161 178 161 161 178 161 161 178 161 161 178 161 161 178 161 161 178
161 161 178 161 161 178 161 161 178 161 161 178 161 161 178 161 161
178 161 161 178 161 161 178 161 161 178 161 161 178 161 161 178 161
161 178 161 161 178 161 161 178 161 161 178 161 161 178 161 161 178
161 161 178 161 161 178 161 161 178 161 161
179 161 161 179 161 161 179 161 161 179 161 161 179 161 161 179 161
161 179 161 161 179 161 161 179 161 161 179 161 161 179 161 161 179
161 161 179 161 161 179 161 161 179 161 161 179 161 161 179 161 161
179 161 161 179 161 161 179 161 161 179 161 161 179 161 161 179 161
161 179 161 161 179 161 161 179 161 161 179 161 161 179 161 161 179
161 161 179 161 161 179 161 161 179 161 161 179 161 161 179 161 161
179 161 161 179 161 161 179 161 161 179 161 161 179 161 161 179 161
161 179 161 161 179 161 161 179 161 161 179 161 161 179 161 161 178
161 161 178 161 161 178 161 161 178 161 161 178 161 161 178 161 161
178 161 161 178 161 161 178 161 161 178 161 161 178 161 161 178 161
161 178 161 161 178 161 161 178 161 161 178 161 161 178 161 161 178
161 161 178 161 161 178 161 161 178 161 161 178 161 161 178 161 161
178 161 161 178 161 161 178 161 161 178 161 161 178 161 161 178 161
161 178 161 161 178 161 161 178 161 161 178 161 161 178 161 161 178
161 161 178 161 161 178 161 161 178 161 161 178 161 161 178 161 161
178 161 161 178 161 161 178 161 161 178 161 161 178 161 161 178 161
161 178 161 161 178 161 161 178 161 161 178 161 161 178 161 161 178
161 161 178 161 161 178 161 161 178 161 161
179 161 161 179 161 161 179 161 161 179 161 161 179 161 161 179 161
161 179 161 161 179 161 161 179 161 161 179 161 161 179 161 161 179
161 161 179 161 161 179 161 161 179 161 161 179 161 161 179 161 161
179 161 161 179 161 161 179 161 161 179 161 161 179 161 161 179 161
161 179 161 161 179 161 161 179 161 161 179 161 161 179 161 161 179
161 161 179 161 161 179 161 161 179 161 161 179 161 161 179 161 161
179 161 161 179 161 161 179 161 161 179 161 161 179 161 161 179 161
161 179 161 161 179 161 161 179 161 161 179 161 161 179 161 161 178
161 161 178 161 161 178 161 161 178 161 161 178 161 161 178 161 161
178 161 161 178 161 161 178 161 161 178 161 161 178 161 161 178 161
161 178 161 161 178 161 161 178 161 161 178 161 161 178 161 161 178
161 161 178 161 161 178 161 161 178 161 161 178 161 161 178 161 161
178 161 161 178 161 161 178 161 161 178 161 161 178 161 161 178 161
161 178 161 161 178 161 161 178 161 161 178 161 161 178 161 161 178
161 161 178 161 161 178 161 161 178 161 161 178 161 161 178 161 161
178 161 161 178 161 161 178 161 161 178 161 161 178 161 161 178 161
161 178 161 161 178 161 161 178 161 161 178 161 161 178 161 161 178
161 161 178 161 161 178 161 161 178 161 161
179 161 161 179 161 161 179 161 161 179 161 161 179 161 161 179 161
161 179 161 161 179 161 161 179 161 161 179 161 161 179 161 161 179
161 161 179 161 161 179 161 161 179 161 161 179 161 161 179 161 161
179 161 161 179 161 161 179 161 161 179 161 161 179 161 161 179 161
161 179 161 161 179 161 161 179 161 161 179 161 161 179 161 161 179
161 161 179 161 161 179 161 161 179 161 161 179 161 161 179 161 161
179 161 161 179 161 161 179 161 161 179 161 161 179 161 161 179 161
161 179 161 161 179 161 161 179 161 161 179 161 161 178 161 161 178
161 161 178 161 161 178 161 161 178 161 161 178 161 161 178 161 161
178 161 161 178 161 161 178 161 161 178 161 161 178 161 161 178 161
161 178 161 161 178 161 161 178 161 161 178 161 161 178 161 161 178
161 161 178 161 161 178 161 161 178 161 161 178 161 161 178 161 161
178 161 161 178 161 161 178 161 161 178 161 161 178 161 161 178 161
161 178 161 161 178 161 161 178 161 161 178 161 161 178 161 161 178
161 161 178 161 161 178 161 161 178 161 161 178 161 161 178 161 161
178 161 161 178 161 161 178 161 161 178 161 161 178 161 161 178 161
161 178 161 161 178 161 161 178 161 161 178 161 161 178 161 161 178
161 161 178 161 161 178 161 161 178 161 161
179 161 161 179 161 161 179 161 161 179 161 161 179 161 161 179 161
161 179 161 161 179 161 161 179 161 161 179 161 161 179 161 161 179
161 161 179 161 161 179 161 161 179 161 161 179 161 161 179 161 161
179 161 161 179 161 161 179 161 161 179 161 161 179 161 161 179 161
161 179 161 161 179 161 161 179 161 161 179 161 161 179 161 161 179
161 161 179 161 161 179 161 161 179 161 161 179 161 161 179 161 161
179 161 161 179 161 161 179 161 161 179 161 161 179 161 161 179 161
161 179 161 161 179 161 161 179 161 161 179 161 161 178 161 161 178
161 161 178 161 161 178 161 161 178 161 161 178 161 161 178 161 161
178 161 161 178 161 161 178 161 161 178 161 161 178 161 161 178 161
161 178 161 161 178 161 161 178 161 161 178 161 161 178 161 161 178
161 161 178 161 161 178 161 161 178 161 161 178 161 161 178 161 161
178 161 161 178 161 161 178 161 161 178 161 161 178 161 161 178 161
161 178 161 161 178 161 161 178 161 161 178 161 161 178 161 161 178
161 161 178 161 161 178 161 161 178 161 161 178 161 161 178 161 161
178 161 161 178 161 161 178 161 161 178 161 161 178 161 161 178 161
161 178 161 161 178 161 161 178 161 161 178 161 161 178 161 161 178
161 161 178 161 161 178 161 161 178 161 161
179 161 161 179 161 161 179 161 161 179 161 161 179 161 161 179 161
161 179 161 161 179 161 161 179 161 161 179 161 161 179 161 161 179
161 161 179 161 161 179 161 161 179 161 161 179 161 161 179 161 161
179 161 161 179 161 161 179 161 161 179 161 161 179 161 161 179 161
161 179 161 161 179 161 161 179 161 161 179 161 161 179 161 161 179
161 161 179 161 161 179 161 161 179 161 161 179 161 161 179 161 161
179 161 161 179 161 161 179 161 161 179 161 161 179 161 161 179 161
161 179 161 161 179 161 161 179 161 161 178 161 161 178 161 161 178
161 161 178 161 161 178 161 161 178 161 161 178 161 161 178 161 161
178 161 161 178 161 161 178 161 161 178 161 161 178 161 161 178 161
161 178 161 161 178 161 161 178 161 161 178 161 161 178 161 161 178
161 161 178 161 161 178 161 161 178 161 161 178 161 161 178 161 161
178 161 161 178 161 161 178 161 161 178 161 161 178 161 161 178 161
161 178 161 161 178 161 161 178 161 161 178 161 161 178 161 161 178
161 161 178 161 161 178 161 161 178 161 161 178 161 161 178 161 161
178 161 161 178 161 161 178 161 161 178 161 161 178 161 161 178 161
161 178 161 161 178 161 161 178 161 161 178 161 161 178 161 161 178
161 161 178 161 161 178 161 161 178 161 161
179 161 161 179 161 161 179 161 161 179 161 161 179 161 161 179 161
161 179 161 161 179 161 161 179 161 161 179 161 161 179 161 161 179
161 161 179 161 161 179 161 161 179 161 161 179 161 161 179 161 161
179 161 161 179 161 161 179 161 161 179 161 161 179 161 161 179 161
161 179 161 161 179 161 161 179 161 161 179 161 161 179 161 161 179
161 161 179 161 161 179 161 161 179 161 161 179 161 161 179 161 161
179 161 161 179 161 161 179 161 161 179 161 161 179 161 161 179 161
161 179 161 161 179 161 161 179 161 161 178 161 161 178 161 161 178
161 161 178 161 161 178 161 161 178 161 161 178 161 161 178 161 161
178 161 161 178 161 161 178 161 161 178 161 161 178 161 161 178 161
161 178 161 161 178 161 161 178 161 161 178 161 161 178 161 161 178
161 161 178 161 161 178 161 161 178 161 161 178 161 161 178 161 161
178 161 161 178 161 161 178 161 161 178 161 161 178 161 161 178 161
161 178 161 161 178 161 161 178 161 161 178 161 161 178 161 161 178
161 161 178 161 161 178 161 161 178 161 161 178 161 161 178 161 161
178 161 161 178 161 161 178 161 161 178 161 161 178 161 161 178 161
161 178 161 161 178 161 161 178 161 161 178 161 161 178 161 161 178
161 161 178 161 161 178 161 161 178 161 161
179 161 161 179 161 161 179 161 161 179 161 161 179 161 161 179 161
161 179 161 161 179 161 161 179 161 161 179 161 161 179 161 161 179
161 161 179 161 161 179 161 161 179 161 161 179 161 161 179 161 161
179 161 161 179 161 161 179 161 161 179 161 161 179 161 161 179 161
161 179 161 161 179 161 161 179 161 161 179 161 161 179 161 161 179
161 161 179 161 161 179 161 161 179 161 161 179 161 161 179 161 161
179 161 161 179 161 161 179 161 161 179 161 161 179 161 161 179 161
161 179 161 161 179 161 161 178 161 161 178 161 161 178 161 161 178
161 161 178 161 161 178 161 161 178 161 161 178 161 161 178 161 161
178 161 161 178 161 161 178 161 161 178 161 161 178 161 161 178 161
161 178 161 161 178 161 161 178 161 161 178 161 161 178 161 161 178
161 161 178 161 161 178 161 161 178 161 161 178 161 161 178 161 161
178 161 161 178 161 161 178 161 161 178 161 161 178 161 161 178 161
161 178 161 161 178 161 161 178 161 161 178 161 161 178 161 161 178
161 161 178 161 161 178 161 161 178 161 161 178 161 161 178 161 161
178 161 161 178 161 161 178 161 161 178 161 161 178 161 161 178 161
161 178 161 161 178 161 161 178 161 161 178 161 161 178 161 161 178
161 161 178 161 161 178 161 161 178 161 161
179 161 161 179 161 161 179 161 161 179 161 161 179 161 161 179 161
161 179 161 161 179 161 161 179 161 161 179 161 161 179 161 161 179
161 161 179 161 161 179 161 161 179 161 161 179 161 161 179 161 161
179 161 161 179 161 161 179 161 161 179 161 161 179 161 161 179 161
161 179 161 161 179 161 161 179 161 161 179 161 161 179 161 161 179
161 161 179 161 161 179 161 161 179 161 161 179 161 161 179 161 161
179 161 161 179 161 161 179 161 161 179 161 161 179 161 161 179 161
161 179 161 161 179 161 161 178 161 161 178 161 161 178 161 161 178
161 161 178 161 161 178 161 161 178 161 161 178 161 161 178 161 161
178 161 161 178 161 161 178 161 161 178 161 161 178 161 161 178 161
161 178 161 161 178 161 161 178 161 161 178 161 161 178 161 161 178
161 161 178 161 161 178 161 161 178 161 161 178 161 161 178 161 161
178 161 161 178 161 161 178 161 161 178 161 161 178 161 161 178 161
161 178 161 161 178 161 161 178 161 161 178 161 161 178 161 161 178
161 161 178 161 161 178 161 161 178 161 161 178 161 161 178 161 161
178 161 161 178 161 161 178 161 161 178 161 161 178 161 161 178 161
161 178 161 161 178 161 161 178 161 161 178 161 161 178 161 161 178
161 161 178 161 161 178 161 161 178 161 161
179 161 161 179 161 161 179 161 161 179 161 161 179 161 161 179 161
161 179 161 161 179 161 161 179 161 161 179 161 161 179 161 161 179
161 161 179 161 161 179 161 161 179 161 161 179 161 161 179 161 161
179 161 161 179 161 161 179 161 161 179 161 161 179 161 161 179 161
161 179 161 161 179 161 161 179 161 161 179 161 161 179 161 161 179
161 161 179 161 161 179 161 161 179 161 161 179 161 161 179 161 161
179 161 161 179 161 161 179 161 161 179 161 161 179 161 161 179 161
161 179 161 161 178 161 161 178 161 161 178 161 161 178 161 161 178
161 161 178 161 161 178 161 161 178 161 161 178 161 161 178 161 161
178 161 161 178 161 161 178 161 161 178 161 161 178 161 161 178 161
161 178 161 161 178 161 161 178 161 161 178 161 161 178 161 161 178
161 161 178 161 161 178 161 161 178 161 161 178 161 161 178 161 161
178 161 161 178 161 161 178 161 161 178 161 161 178 161 161 178 161
161 178 161 161 178 161 161 178 161 161 178 161 161 178 161 161 178
161 161 178 161 161 178 161 161 178 161 161 178 161 161 178 161 161
178 161 161 178 161 161 178 161 161 178 161 161 178 161 161 178 161
161 178 161 161 178 161 161 178 161 161 178 161 161 178 161 161 178
161 161 178 161 161 178 161 161 178 161 161
179 161 161 179 161 161 179 161 161 179 161 161 179 161 161 179 161
161 179 161 161 179 161 161 179 161 161 179 161 161 179 161 161 179
161 161 179 161 161 179 161 161 179 161 161 179 161 161 179 161 161
179 161 161 179 161 161 179 161 161 179 161 161 179 161 161 179 161
161 179 161 161 179 161 161 179 161 161 179 161 161 179 161 161 179
161 161 179 161 161 179 161 161 179 161 161 179 161 161 179 161 161
179 161 161 179 161 161 179 161 161 179 161 161 179 161 161 179 161
161 179 161 161 178 161 161 178 161 161 178 161 161 178 161 161 178
161 161 178 161 161 178 161 161 178 161 161 178 161 161 178 161 161
178 161 161 178 161 161 178 161 161 178 161 161 178 161 161 178 161
161 178 161 161 178 161 161 178 161 161 178 161 161 178 161 161 178
161 161 178 161 161 178 161 161 178 161 161 178 161 161 178 161 161
178 161 161 178 161 161 178 161 161 178 161 161 178 161 161 178 161
161 178 161 161 178 161 161 178 161 161 178 161 161 178 161 161 178
161 161 178 161 161 178 161 161 178 161 161 178 161 161 178 161 161
178 161 161 178 161 161 178 161 161 178 161 161 178 161 161 178 161
161 178 161 161 178 161 161 178 161 161 178 161 161 178 161 161 178
161 161 178 161 161 178 161 161 178 161 161
179 161 161 179 161 161 179 161 161 179 161 161 179 161 161 179 161
161 179 161 161 179 161 161 179 161 161 179 161 161 179 161 161 179
161 161 179 161 161 179 161 161 179 161 161 179 161 161 179 161 161
179 161 161 179 161 161 179 161 161 179 161 161 179 161 161 179 161
161 179 161 161 179 161 161 179 161 161 179 161 161 179 161 161 179
161 161 179 161 161 179 161 161 179 161 161 179 161 161 179 161 161
179 161 161 179 161 161 179 161 161 179 161 161 179 161 161 179 161
161 178 161 161 178 161 161 178 161 161 178 161 161 178 161 161 178
161 161 178 161 161 178 161 161 178 161 161 178 161 161 178 161 161
178 161 161 178 161 161 178 161 161 178 161 161 178 161 161 178 161
161 178 161 161 178 161 161 178 161 161 178 161 161 178 161 161 178
161 161 178 161 161 178 161 161 178 161 161 178 161 161 178 161 161
178 161 161 178 161 161 178 161 161 178 161 161 178 161 161 178 161
161 178 161 161 178 161 161 178 161 161 178 161 161 178 161 161 178
161 161 178 161 161 178 161 161 178 161 161 178 161 161 178 161 161
178 161 161 178 161 161 178 161 161 178 161 161 178 161 161 178 161
161 178 161 161 178 161 161 178 161 161 178 161 161 178 161 161 178
161 161 178 161 161 178 161 161 178 161 161
179 161 161 179 161 161 179 161 161 179 161 161 179 161 161 179 161
161 179 161 161 179 161 161 179 161 161 179 161 161 179 161 161 179
161 161 179 161 161 179 161 161 179 161 161 179 161 161 179 161 161
179 161 161 179 161 161 179 161 161 179 161 161 179 161 161 179 161
161 179 161 161 179 161 161 179 161 161 179 161 161 179 161 161 179
161 161 179 161 161 179 161 161 179 161 161 179 161 161 179 161 161
179 161 161 179 161 161 179 161 161 179 161 161 179 161 161 179 161
161 178 161 161 178 161 161 178 161 161 178 161 161 178 161 161 178
161 161 178 161 161 178 161 161 178 161 161 178 161 161 178 161 161
178 161 161 178 161 161 178 161 161 178 161 161 178 161 161 178 161
161 178 161 161 178 161 161 178 161 161 178 161 161 178 161 161 178
161 161 178 161 161 178 161 161 178 161 161 178 161 161 178 161 161
178 161 161 178 161 161 178 161 161 178 161 161 178 161 161 178 161
161 178 161 161 178 161 161 178 161 161 178 161 161 178 161 161 178
161 161 178 161 161 178 161 161 178 161 161 178 161 161 178 161 161
178 161 161 178 161 161 178 161 161 178 161 161 178 161 161 178 161
161 178 161 161 178 161 161 178 161 161 178 161 161 178 161 161 178
161 161 178 161 161 178 161 161 178 161 161
179 161 161 179 161 161 179 161 161 179 161 161 179 161 161 179 161
161 179 161 161 179 161 161 179 161 161 179 161 161 179 161 161 179
161 161 179 161 161 179 161 161 179 161 161 179 161 161 179 161 161
179 161 161 179 161 161 179 161 161 179 161 161 179 161 161 179 161
161 179 161 161 179 161 161 179 161 161 179 161 161 179 161 161 179
161 161 179 161 161 179 161 161 179 161 161 179 161 161 179 161 161
179 161 161 179 161 161 179 161 161 179 161 161 179 161 161 178 161
161 178 161 161 178 161 161 178 161 161 178 161 161 178 161 161 178
161 161 178 161 161 178 161 161 178 161 161 178 161 161 178 161 161
178 161 161 178 161 161 178 161 161 178 161 161 178 161 161 178 161
161 178 161 161 178 161 161 178 161 161 178 161 161 178 161 161 178
161 161 178 161 161 178 161 161 178 161 161 178 161 161 178 161 161
178 161 161 178 161 161 178 161 161 178 161 161 178 161 161 178 161
161 178 161 161 178 161 161 178 161 161 178 161 161 178 161 161 178
161 161 178 161 161 178 161 161 178 161 161 178 161 161 178 161 161
178 161 161 178 161 161 178 161 161 178 161 161 178 161 161 178 161
161 178 161 161 178 161 161 178 161 161 178 161 161 178 161 161 178
161 161 178 161 161 178 161 161 178 161 161
179 161 161 179 161 161 179 161 161 179 161 161 179 161 161 179 161
161 179 161 161 179 161 161 179 161 161 179 161 161 179 161 161 179
161 161 179 161 161 179 161 161 179 161 161 179 161 161 179 161 161
179 161 161 179 161 161 179 161 161 179 161 161 179 161 161 179 161
161 179 161 161 179 161 161 179 161 161 179 161 161 179 161 161 179
161 161 179 161 161 179 161 161 179 161 161 179 161 161 179 161 161
179 161 161 179 161 161 179 161 161 179 161 161 179 161 161 178 161
161 178 161 161 178 161 161 178 161 161 178 161 161 178 161 161 178
161 161 178 161 161 178 161 161 178 161 161 178 161 161 178 161 161
178 161 161 178 161 161 178 161 161 178 161 161 178 161 161 178 161
161 178 161 161 178 161 161 178 161 161 178 161 161 178 161 161 178
161 161 178 161 161 178 161 161 178 161 161 178 161 161 178 161 161
178 161 161 178 161 161 178 161 161 178 161 161 178 161 161 178 161
161 178 161 161 178 161 161 178 161 161 178 161 161 178 161 161 178
161 161 178 161 161 178 161 161 178 161 161 178 161 161 178 161 161
178 161 161 178 161 161 178 161 161 178 161 161 178 161 161 178 161
161 178 161 161 178 161 161 178 161 161 178 161 161 178 161 161 178
161 161 178 161 161 178 161 161 178 161 161
179 161 161 179 161 161 179 161 161 179 161 161 179 161 161 179 161
161 179 161 161 179 161 161 179 161 161 179 161 161 179 161 161 179
161 161 179 161 161 179 161 161 179 161 161 179 161 161 179 161 161
179 161 161 179 161 161 179 161 161 179 161 161 179 161 161 179 161
161 179 161 161 179 161 161 179 161 161 179 161 161 179 161 161 179
161 161 179 161 161 179 161 161 179 161 161 179 161 161 179 161 161
179 161 161 179 161 161 179 161 161 179 161 161 178 161 161 178 161
161 178 161 161 178 161 161 178 161 161 178 161 161 178 161 161 178
161 161 178 161 161 178 161 161 178 161 161 178 161 161 178 161 161
178 161 161 178 161 161 178 161 161 178 161 161 178 161 161 178 161
161 178 161 161 178 161 161 178 161 161 178 161 161 178 161 161 178
161 161 178 161 161 178 161 161 178 161 161 178 161 161 178 161 161
178 161 161 178 161 161 178 161 161 178 161 161 178 161 161 178 161
161 178 161 161 178 161 161 178 161 161 178 161 161 178 161 161 178
161 161 178 161 161 178 161 161 178 161 161 178 161 161 178 161 161
178 161 161 178 161 161 178 161 161 178 161 161 178 161 161 178 161
161 178 161 161 178 161 161 178 161 161 178 161 161 178 161 161 178
161 161 178 161 161 178 161 161 178 161 161
179 161 161 179 161 161 179 161 161 179 161 161 179 161 161 179 161
161 179 161 161 179 161 161 179 161 161 179 161 161 179 161 161 179
161 161 179 161 161 179 161 161 179 161 161 179 161 161 179 161 161
179 161 161 179 161 161 179 161 161 179 161 161 179 161 161 179 161
161 179 161 161 179 161 161 179 161 161 179 161 161 179 161 161 179
161 161 179 161 161 179 161 161 179 161 161 179 161 161 179 161 161
179 161 161 179 161 161 179 161 161 179 161 161 178 161 161 178 161
161 178 161 161 178 161 161 178 161 161 178 161 161 178 161 161 178
161 161 178 161 161 178 161 161 178 161 161 178 161 161 178 161 161
178 161 161 178 161 161 178 161 161 178 161 161 178 161 161 178 161
161 178 161 161 178 161 161 178 161 161 178 161 161 178 161 161 178
161 161 178 161 161 178 161 161 178 161 161 178 161 161 178 161 161
178 161 161 178 161 161 178 161 161 178 161 161 178 161 161 178 161
161 178 161 161 178 161 161 178 161 161 178 161 161 178 161 161 178
161 161 178 161 161 178 161 161 178 161 161 178 161 161 178 161 161
178 161 161 178 161 161 178 161 161 178 161 161 178 161 161 178 161
161 178 161 161 178 161 161 178 161 161 178 161 161 178 161 161 178
161 161 178 161 161 178 161 161 178 161 161
179 161 161 179 161 161 179 161 161 179 161 161 179 161 161 179 161
161 179 161 161 179 161 161 179 161 161 179 161 161 179 161 161 179
161 161 179 161 161 179 161 161 179 161 161 179 161 161 179 161 161
179 161 161 179 161 161 179 161 161 179 161 161 179 161 161 179 161
161 179 161 161 179 161 161 179 161 161 179 161 161 179 161 161 179
161 161 179 161 161 179 161 161 179 161 161 179 161 161 179 161 161
179 161 161 179 161 161 179 161 161 178 161 161 178 161 161 178 161
161 178 161 161 178 161 161 178 161 161 178 161 161 178 161 161 178
161 161 178 161 161 178 161 161 178 161 161 178 161 161 178 161 161
178 161 161 178 161 161 178 161 161 178 161 161 178 161 161 178 161
161 178 161 161 178 161 161 178 161 161 178 161 161 178 161 161 178
161 161 178 161 161 178 161 161 178 161 161 178 161 161 178 161 161
178 161 161 178 161 161 178 161 161 178 161 161 178 161 161 178 161
161 178 161 161 178 161 161 178 161 161 178 161 161 178 161 161 178
161 161 178 161 161 178 161 161 178 161 161 178 161 161 178 161 161
178 161 161 178 161 161 178 161 161 178 161 161 178 161 161 178 161
161 178 161 161 178 161 161 178 161 161 178 161 161 178 161 161 178
161 161 178 161 161 178 161 161 178 161 161
179 161 161 179 161 161 179 161 161 179 161 161 179 161 161 179 161
161 179 161 161 179 161 161 179 161 161 179 161 161 179 161 161 179
161 161 179 161 161 179 161 161 179 161 161 179 161 161 179 161 161
179 161 161 179 161 161 179 161 161 179 161 161 179 161 161 179 161
161 179 161 161 179 161 161 179 161 161 179 161 161 179 161 161 179
161 161 179 161 161 179 161 161 179 161 161 179 161 161 179 161 161
179 161 161 179 161 161 179 161 161 178 161 161 178 161 161 178 161
161 178 161 161 178 161 161 178 161 161 178 161 161 178 161 161 178
161 161 178 161 161 178 161 161 178 161 161 178 161 161 178 161 161
178 161 161 178 161 161 178 161 161 178 161 161 178 161 161 178 161
161 178 161 161 178 161 161 178 161 161 178 161 161 178 161 161 178
161 161 178 161 161 178 161 161 178 161 161 178 161 161 178 161 161
178 161 161 178 161 161 178 161 161 178 161 161 178 161 161 178 161
161 178 161 161 178 161 161 178 161 161 178 161 161 178 161 161 178
161 161 178 161 161 178 161 161 178 161 161 178 161 161 178 161 161
178 161 161 178 161 161 178 161 161 178 161 161 178 161 161 178 161
161 178 161 161 178 161 161 178 161 161 178 161 161 178 161 161 178
161 161 178 161 161 178 161 161 178 161 161
179 161 161 179 161 161 179 161 161 179 161 161 179 161 161 179 161
161 179 161 161 179 161 161 179 161 161 179 161 161 179 161 161 179
161 161 179 161 161 179 161 161 179 161 161 179 161 161 179 161 161
179 161 161 179 161 161 179 161 161 179 161 161 179 161 161 179 161
161 179 161 161 179 161 161 179 161 161 179 161 161 179 161 161 179
161 161 179 161 161 179 161 161 179 161 161 179 161 161 179 161 161
179 161 161 179 161 161 178 161 161 178 161 161 178 161 161 178 161
161 178 161 161 178 161 161 178 161 161 178 161 161 178 161 161 178
161 161 178 161 161 178 161 161 178 161 161 178 161 161 178 161 161
178 161 161 178 161 161 178 161 161 178 161 161 178 161 161 178 161
161 178 161 161 178 161 161 178 161 161 178 161 161 178 161 161 178
161 161 178 161 161 178 161 161 178 161 161 178 161 161 178 161 161
178 161 161 178 161 161 178 161 161 178 161 161 178 161 161 178 161
161 178 161 161 178 161 161 178 161 161 178 161 161 178 161 161 178
161 161 178 161 161 178 161 161 178 161 161 178 161 161 178 161 161
178 161 161 178 161 161 178 161 161 178 161 161 178 161 161 178 161
161 178 161 161 178 161 161 178 161 161 178 161 161 178 161 161 178
161 161 178 161 161 178 161 161 178 161 161
179 161 161 179 161 161 179 161 161 179 161 161 179 161 161 179 161
161 179 161 161 179 161 161 179 161 161 179 161 161 179 161 161 179
161 161 179 161 161 179 161 161 179 161 161 179 161 161 179 161 161
179 161 161 179 161 161 179 161 161 179 161 161 179 161 161 179 161
161 179 161 161 179 161 161 179 161 161 179 161 161 179 161 161 179
161 161 179 161 161 179 161 161 179 161 161 179 161 161 179 161 161
179 161 161 179 161 161 178 161 161 178 161 161 178 161 161 178 161
161 178 161 161 178 161 161 178 161 161 178 161 161 178 161 161 178
161 161 178 161 161 178 161 161 178 161 161 178 161 161 178 161 161
178 161 161 178 161 161 178 161 161 178 161 161 178 161 161 178 161
161 178 161 161 178 161 161 178 161 161 178 161 161 178 161 161 178
161 161 178 161 161 178 161 161 178 161 161 178 161 161 178 161 161
178 161 161 178 161 161 178 161 161 178 161 161 178 161 161 178 161
161 178 161 161 178 161 161 178 161 161 178 161 161 178 161 161 178
161 161 178 161 161 178 161 161 178 161 161 178 161 161 178 161 161
178 161 161 178 161 161 178 161 161 178 161 161 178 161 161 178 161
161 178 161 161 178 161 161 178 161 161 178 161 161 178 161 161 178
161 161 178 160 160 178 160 160 178 160 160
179 161 161 179 161 161 179 161 161 179 161 161 179 161 161 179 161
161 179 161 161 179 161 161 179 161 161 179 161 161 179 161 161 179
161 161 179 161 161 179 161 161 179 161 161 179 161 161 179 161 161
179 161 161 179 161 161 179 161 161 179 161 161 179 161 161 179 161
161 179 161 161 179 161 161 179 161 161 179 161 161 179 161 161 179
161 161 179 161 161 179 161 161 179 161 161 179 161 161 179 161 161
179 161 161 178 161 161 178 161 161 178 161 161 178 161 161 178 161
161 178 161 161 178 161 161 178 161 161 178 161 161 178 161 161 178
161 161 178 161 161 178 161 161 178 161 161 178 161 161 178 161 161
178 161 161 178 161 161 178 161 161 178 161 161 178 161 161 178 161
161 178 161 161 178 161 161 178 161 161 178 161 161 178 161 161 178
161 161 178 161 161 178 161 161 178 161 161 178 161 161 178 161 161
178 161 161 178 161 161 178 161 161 178 161 161 178 161 161 178 161
161 178 161 161 178 161 161 178 161 161 178 161 161 178 161 161 178
161 161 178 161 161 178 161 161 178 161 161 178 161 161 178 161 161
178 161 161 178 161 161 178 161 161 178 161 161 178 161 161 178 161
161 178 161 161 178 161 161 178 160 160 178 160 160 178 160 160 178
160 160 178 160 160 178 160 160 178 160 160
179 161 161 179 161 161 179 161 161 179 161 161 179 161 161 179 161
161 179 161 161 179 161 161 179 161 161 179 161 161 179 161 161 179
161 161 179 161 161 179 161 161 179 161 161 179 161 161 179 161 161
179 161 161 179 161 161 179 161 161 179 161 161 179 161 161 179 161
161 179 161 161 179 161 161 179 161 161 179 161 161 179 161 161 179
161 161 179 161 161 179 161 161 179 161 161 179 161 161 179 161 161
179 161 161 178 161 161 178 161 161 178 161 161 178 161 161 178 161
161 178 161 161 178 161 161 178 161 161 178 161 161 178 161 161 178
161 161 178 161 161 178 161 161 178 161 161 178 161 161 178 161 161
178 161 161 178 161 161 178 161 161 178 161 161 178 161 161 178 161
161 178 161 161 178 161 161 178 161 161 178 161 161 178 161 161 178
161 161 178 161 161 178 161 161 178 161 161 178 161 161 178 161 161
178 161 161 178 161 161 178 161 161 178 161 161 178 161 161 178 161
161 178 161 161 178 161 161 178 161 161 178 161 161 178 161 161 178
161 161 178 161 161 178 161 161 178 161 161 178 161 161 178 161 161
178 161 161 178 161 161 178 161 161 178 161 161 178 161 161 178 160
160 178 160 160 178 160 160 178 160 160 178 160 160 178 160 160 178
160 160 178 160 160 178 160 160 178 160 160
179 161 161 179 161 161 179 161 161 179 161 161 179 161 161 179 161
161 179 161 161 179 161 161 179 161 161 179 161 161 179 161 161 179
161 161 179 161 161 179 161 161 179 161 161 179 161 161 179 161 161
179 161 161 179 161 161 179 161 161 179 161 161 179 161 161 179 161
161 179 161 161 179 161 161 179 161 161 179 161 161 179 161 161 179
161 161 179 161 161 179 161 161 179 161 161 179 161 161 179 161 161
178 161 161 178 161 161 178 161 161 178 161 161 178 161 161 178 161
161 178 161 161 178 161 161 178 161 161 178 161 161 178 161 161 178
161 161 178 161 161 178 161 161 178 161 161 178 161 161 178 161 161
178 161 161 178 161 161 178 161 161 178 161 161 178 161 161 178 161
161 178 161 161 178 161 161 178 161 161 178 161 161 178 161 161 178
161 161 178 161 161 178 161 161 178 161 161 178 161 161 178 161 161
178 161 161 178 161 161 178 161 161 178 161 161 178 161 161 178 161
161 178 161 161 178 161 161 178 161 161 178 161 161 178 161 161 178
161 161 178 161 161 178 161 161 178 161 161 178 161 161 178 161 161
178 161 161 178 161 161 178 160 160 178 160 160 178 160 160 178 160
160 178 160 160 178 160 160 178 160 160 178 160 160 178 160 160 178
160 160 178 160 160 178 160 160 178 160 160
179 161 161 179 161 161 179 161 161 179 161 161 179 161 161 179 161
161 179 161 161 179 161 161 179 161 161 179 161 161 179 161 161 179
161 161 179 161 161 179 161 161 179 161 161 179 161 161 179 161 161
179 161 161 179 161 161 179 161 161 179 161 161 179 161 161 179 161
161 179 161 161 179 161 161 179 161 161 179 161 161 179 161 161 179
161 161 179 161 161 179 161 161 179 161 161 179 161 161 179 161 161
178 161 161 178 161 161 178 161 161 178 161 161 178 161 161 178 161
161 178 161 161 178 161 161 178 161 161 178 161 161 178 161 161 178
161 161 178 161 161 178 161 161 178 161 161 178 161 161 178 161 161
178 161 161 178 161 161 178 161 161 178 161 161 178 161 161 178 161
161 178 161 161 178 161 161 178 161 161 178 161 161 178 161 161 178
161 161 178 161 161 178 161 161 178 161 161 178 161 161 178 161 161
178 161 161 178 161 161 178 161 161 178 161 161 178 161 161 178 161
161 178 161 161 178 161 161 178 161 161 178 161 161 178 161 161 178
161 161 178 161 161 178 161 161 178 161 161 178 160 160 178 160 160
178 160 160 178 160 160 178 160 160 178 160 160 178 160 160 178 160
160 178 160 160 178 160 160 178 160 160 178 160 160 178 160 160 178
160 160 178 160 160 178 160 160 178 160 160
179 161 161 179 161 161 179 161 161 179 161 161 179 161 161 179 161
161 179 161 161 179 161 161 179 161 161 179 161 161 179 161 161 179
161 161 179 161 161 179 161 161 179 161 161 179 161 161 179 161 161
179 161 161 179 161 161 179 161 161 179 161 161 179 161 161 179 161
161 179 161 161 179 161 161 179 161 161 179 161 161 179 161 161 179
161 161 179 161 161 179 161 161 179 161 161 179 161 161 178 161 161
178 161 161 178 161 161 178 161 161 178 161 161 178 161 161 178 161
161 178 161 161 178 161 161 178 161 161 178 161 161 178 161 161 178
161 161 178 161 161 178 161 161 178 161 161 178 161 161 178 161 161
178 161 161 178 161 161 178 161 161 178 161 161 178 161 161 178 161
161 178 161 161 178 161 161 178 161 161 178 161 161 178 161 161 178
161 161 178 161 161 178 161 161 178 161 161 178 161 161 178 161 161
178 161 161 178 161 161 178 161 161 178 161 161 178 161 161 178 161
161 178 161 161 178 161 161 178 161 161 178 161 161 178 161 161 178
161 161 178 160 160 178 160 160 178 160 160 178 160 160 178 160 160
178 160 160 178 160 160 178 160 160 178 160 160 178 160 160 178 160
160 178 160 160 178 160 160 178 160 160 178 160 160 178 160 160 178
160 160 178 160 160 178 160 160 178 160 160
179 161 161 179 161 161 179 161 161 179 161 161 179 161 161 179 161
161 179 161 161 179 161 161 179 161 161 179 161 161 179 161 161 179
161 161 179 161 161 179 161 161 179 161 161 179 161 161 179 161 161
179 161 161 179 161 161 179 161 161 179 161 161 179 161 161 179 161
161 179 161 161 179 161 161 179 161 161 179 161 161 179 161 161 179
161 161 179 161 161 179 161 161 179 161 161 179 161 161 178 161 161
178 161 161 178 161 161 178 161 161 178 161 161 178 161 161 178 161
161 178 161 161 178 161 161 178 161 161 178 161 161 178 161 161 178
161 161 178 161 161 178 161 161 178 161 161 178 161 161 178 161 161
178 161 161 178 161 161 178 161 161 178 161 161 178 161 161 178 161
161 178 161 161 178 161 161 178 161 161 178 161 161 178 161 161 178
161 161 178 161 161 178 161 161 178 161 161 178 161 161 178 161 161
178 161 161 178 161 161 178 161 161 178 161 161 178 161 161 178 161
161 178 161 161 178 161 161 178 161 161 178 160 160 178 160 160 178
160 160 178 160 160 178 160 160 178 160 160 178 160 160 178 160 160
178 160 160 178 160 160 178 160 160 178 160 160 178 160 160 178 160
160 178 160 160 178 160 160 178 160 160 178 160 160 178 160 160 178
160 160 178 160 160 178 160 160 178 160 160
179 161 161 179 161 161 179 161 161 179 161 161 179 161 161 179 161
161 179 161 161 179 161 161 179 161 161 179 161 161 179 161 161 179
161 161 179 161 161 179 161 161 179 161 161 179 161 161 179 161 161
179 161 161 179 161 161 179 161 161 179 161 161 179 161 161 179 161
161 179 161 161 179 161 161 179 161 161 179 161 161 179 161 161 179
161 161 179 161 161 179 161 161 179 161 161 178 161 161 178 161 161
178 161 161 178 161 161 178 161 161 178 161 161 178 161 161 178 161
161 178 161 161 178 161 161 178 161 161 178 161 161 178 161 161 178
161 161 178 161 161 178 161 161 178 161 161 178 161 161 178 161 161
178 161 161 178 161 161 178 161 161 178 161 161 178 161 161 178 161
161 178 161 161 178 161 161 178 161 161 178 161 161 178 161 161 178
161 161 178 161 161 178 161 161 178 161 161 178 161 161 178 161 161
178 161 161 178 161 161 178 161 161 178 161 161 178 161 161 178 160
160 178 160 160 178 160 160 178 160 160 178 160 160 178 160 160 178
160 160 178 160 160 178 160 160 178 160 160 178 160 160 178 160 160
178 160 160 178 160 160 178 160 160 178 160 160 178 160 160 178 160
160 178 160 160 178 160 160 178 160 160 178 160 160 178 160 160 178
160 160 178 160 160 178 160 160 178 160 160
179 161 161 179 161 161 179 161 161 179 161 161 179 161 161 179 161
161 179 161 161 179 161 161 179 161 161 179 161 161 179 161 161 179
161 161 179 161 161 179 161 161 179 161 161 179 161 161 179 161 161
179 161 161 179 161 161 179 161 161 179 161 161 179 161 161 179 161
161 179 161 161 179 161 161 179 161 161 179 161 161 179 161 161 179
161 161 179 161 161 179 161 161 179 161 161 178 161 161 178 161 161
178 161 161 178 161 161 178 161 161 178 161 161 178 161 161 178 161
161 178 161 161 178 161 161 178 161 161 178 161 161 178 161 161 178
161 161 178 161 161 178 161 161 178 161 161 178 161 161 178 161 161
178 161 161 178 161 161 178 161 161 178 161 161 178 161 161 178 161
161 178 161 161 178 161 161 178 161 161 178 161 161 178 161 161 178
161 161 178 161 161 178 161 161 178 161 161 178 161 161 178 161 161
178 161 161 178 161 161 178 160 160 178 160 160 178 160 160 178 160
160 178 160 160 178 160 160 178 160 160 178 160 160 178 160 160 178
160 160 178 160 160 178 160 160 178 160 160 178 160 160 178 160 160
178 160 160 178 160 160 178 160 160 178 160 160 178 160 160 178 160
160 178 160 160 178 160 160 178 160 160 178 160 160 178 160 160 178
160 160 178 160 160 178 160 160 178 160 160
179 161 161 179 161 161 179 161 161 179 161 161 179 161 161 179 161
161 179 161 161 179 161 161 179 161 161 179 161 161 179 161 161 179
161 161 179 161 161 179 161 161 179 161 161 179 161 161 179 161 161
179 161 161 179 161 161 179 161 161 179 161 161 179 161 161 179 161
161 179 161 161 179 161 161 179 161 161 179 161 161 179 161 161 179
161 161 179 161 161 179 161 161 178 161 161 178 161 161 178 161 161
178 161 161 178 161 161 178 161 161 178 161 161 178 161 161 178 161
161 178 161 161 178 161 161 178 161 161 178 161 161 178 161 161 178
161 161 178 161 161 178 161 161 178 161 161 178 161 161 178 161 161
178 161 161 178 161 161 178 161 161 178 161 161 178 161 161 178 161
161 178 161 161 178 161 161 178 161 161 178 161 161 178 161 161 178
161 161 178 161 161 178 161 161 178 161 161 178 161 161 178 160 160
178 160 160 178 160 160 178 160 160 178 160 160 178 160 160 178 160
160 178 160 160 178 160 160 178 160 160 178 160 160 178 160 160 178
160 160 178 160 160 178 160 160 178 160 160 178 160 160 178 160 160
178 160 160 178 160 160 178 160 160 178 160 160 178 160 160 178 160
160 178 160 160 178 160 160 178 160 160 178 160 160 178 160 160 178
160 160 178 160 160 178 160 160 178 160 160
179 161 161 179 161 161 179 161 161 179 161 161 179 161 161 179 161
161 179 161 161 179 161 161 179 161 161 179 161 161 179 161 161 179
161 161 179 161 161 179 161 161 179 161 161 179 161 161 179 161 161
179 161 161 179 161 161 179 161 161 179 161 161 179 161 161 179 161
161 179 161 161 179 161 161 179 161 161 179 161 161 179 161 161 179
161 161 179 161 161 179 161 161 178 161 161 178 161 161 178 161 161
178 161 161 178 161 161 178 161 161 178 161 161 178 161 161 178 161
161 178 161 161 178 161 161 178 161 161 178 161 161 178 161 161 178
161 161 178 161 161 178 161 161 178 161 161 178 161 161 178 161 161
178 161 161 178 161 161 178 161 161 178 161 161 178 161 161 178 161
161 178 161 161 178 161 161 178 161 161 178 161 161 178 161 161 178
161 161 178 160 160 178 160 160 178 160 160 178 160 160 178 160 160
178 160 160 178 160 160 178 160 160 178 160 160 178 160 160 178 160
160 178 160 160 178 160 160 178 160 160 178 160 160 178 160 160 178
160 160 178 160 160 178 160 160 178 160 160 178 160 160 178 160 160
178 160 160 178 160 160 178 160 160 178 160 160 178 160 160 178 160
160 178 160 160 178 160 160 178 160 160 178 160 160 178 160 160 178
160 160 178 160 160 178 160 160 178 160 160
179 161 161 179 161 161 179 161 161 179 161 161 179 161 161 179 161
161 179 161 161 179 161 161 179 161 161 179 161 161 179 161 161 179
161 161 179 161 161 179 161 161 179 161 161 179 161 161 179 161 161
179 161 161 179 161 161 179 161 161 179 161 161 179 161 161 179 161
161 179 161 161 179 161 161 179 161 161 179 161 161 179 161 161 179
161 161 179 161 161 178 161 161 178 161 161 178 161 161 178 161 161
178 161 161 178 161 161 178 161 161 178 161 161 178 161 161 178 161
161 178 161 161 178 161 161 178 161 161 178 161 161 178 161 161 178
161 161 178 161 161 178 161 161 178 161 161 178 161 161 178 161 161
178 161 161 178 161 161 178 161 161 178 161 161 178 161 161 178 161
161 178 161 161 178 161 161 178 161 161 178 160 160 178 160 160 178
160 160 178 160 160 178 160 160 178 160 160 178 160 160 178 160 160
178 160 160 178 160 160 178 160 160 178 160 160 178 160 160 178 160
160 178 160 160 178 160 160 178 160 160 178 160 160 178 160 160 178
160 160 178 160 160 178 160 160 178 160 160 178 160 160 178 160 160
178 160 160 178 160 160 178 160 160 178 160 160 178 160 160 178 160
160 178 160 160 178 160 160 178 160 160 178 160 160 178 160 160 178
160 160 178 160 160 178 160 160 178 160 160
179 161 161 179 161 161 179 161 161 179 161 161 179 161 161 179 161
161 179 161 161 179 161 161 179 161 161 179 161 161 179 161 161 179
161 161 179 161 161 179 161 161 179 161 161 179 161 161 179 161 161
179 161 161 179 161 161 179 161 161 179 161 161 179 161 161 179 161
161 179 161 161 179 161 161 179 161 161 179 161 161 179 161 161 179
161 161 179 161 161 178 161 161 178 161 161 178 161 161 178 161 161
178 161 161 178 161 161 178 161 161 178 161 161 178 161 161 178 161
161 178 161 161 178 161 161 178 161 161 178 161 161 178 161 161 178
161 161 178 161 161 178 161 161 178 161 161 178 161 161 178 161 161
178 161 161 178 161 161 178 161 161 178 161 161 178 161 161 178 161
161 178 160 160 178 160 160 178 160 160 178 160 160 178 160 160 178
160 160 178 160 160 178 160 160 178 160 160 178 160 160 178 160 160
178 160 160 178 160 160 178 160 160 178 160 160 178 160 160 178 160
160 178 160 160 178 160 160 178 160 160 178 160 160 178 160 160 178
160 160 178 160 160 178 160 160 178 160 160 178 160 160 178 160 160
178 160 160 178 160 160 178 160 160 178 160 160 178 160 160 178 160
160 178 160 160 178 160 160 178 160 160 178 160 160 178 160 160 178
160 160 178 160 160 178 160 160 178 160 160
179 161 161 179 161 161 179 161 161 179 161 161 179 161 161 179 161
161 179 161 161 179 161 161 179 161 161 179 161 161 179 161 161 179
161 161 179 161 161 179 161 161 179 161 161 179 161 161 179 161 161
179 161 161 179 161 161 179 161 161 179 161 161 179 161 161 179 161
161 179 161 161 179 161 161 179 161 161 179 161 161 179 161 161 179
161 161 178 161 161 178 161 161 178 161 161 178 161 161 178 161 161
178 161 161 178 161 161 178 161 161 178 161 161 178 161 161 178 161
161 178 161 161 178 161 161 178 161 161 178 161 161 178 161 161 178
161 161 178 161 161 178 161 161 178 161 161 178 161 161 178 161 161
178 161 161 178 161 161 178 160 160 178 160 160 178 160 160 178 160
160 178 160 160 178 160 160 178 160 160 178 160 160 178 160 160 178
160 160 178 160 160 178 160 160 178 160 160 178 160 160 178 160 160
178 160 160 178 160 160 178 160 160 178 160 160 178 160 160 178 160
160 178 160 160 178 160 160 178 160 160 178 160 160 178 160 160 178
160 160 178 160 160 178 160 160 178 160 160 178 160 160 178 160 160
178 160 160 178 160 160 178 160 160 178 160 160 178 160 160 178 160
160 178 160 160 178 160 160 178 160 160 178 160 160 178 160 160 178
160 160 178 160 160 178 160 160 178 160 160
179 161 161 179 161 161 179 161 161 179 161 161 179 161 161 179 161
161 179 161 161 179 161 161 179 161 161 179 161 161 179 161 161 179
161 161 179 161 161 179 161 161 179 161 161 179 161 161 179 161 161
179 161 161 179 161 161 179 161 161 179 161 161 179 161 161 179 161
161 179 161 161 179 161 161 179 161 161 179 161 161 179 161 161 179
161 161 178 161 161 178 161 161 178 161 161 178 161 161 178 161 161
178 161 161 178 161 161 178 161 161 178 161 161 178 161 161 178 161
161 178 161 161 178 161 161 178 161 161 178 161 161 178 161 161 178
161 161 178 161 161 178 161 161 178 161 161 178 161 161 178 160 160
178 160 160 178 160 160 178 160 160 178 160 160 178 160 160 178 160
160 178 160 160 178 160 160 178 160 160 178 160 160 178 160 160 178
160 160 178 160 160 178 160 160 178 160 160 178 160 160 178 160 160
178 160 160 178 160 160 178 160 160 178 160 160 178 160 160 178 160
160 178 160 160 178 160 160 178 160 160 178 160 160 178 160 160 178
160 160 178 160 160 178 160 160 178 160 160 178 160 160 178 160 160
178 160 160 178 160 160 178 160 160 178 160 160 178 160 160 178 160
160 178 160 160 178 160 160 178 160 160 178 160 160 178 160 160 178
160 160 178 160 160 178 160 160 178 160 160
179 161 161 179 161 161 179 161 161 179 161 161 179 161 161 179 161
161 179 161 161 179 161 161 179 161 161 179 161 161 179 161 161 179
161 161 179 161 161 179 161 161 179 161 161 179 161 161 179 161 161
179 161 161 179 161 161 179 161 161 179 161 161 179 161 161 179 161
161 179 161 161 179 161 161 179 161 161 179 161 161 179 161 161 178
161 161 178 161 161 178 161 161 178 161 161 178 161 161 178 161 161
178 161 161 178 161 161 178 161 161 178 161 161 178 161 161 178 161
161 178 161 161 178 161 161 178 161 161 178 161 161 178 161 161 178
161 161 178 160 160 178 160 160 178 160 160 178 160 160 178 160 160
178 160 160 178 160 160 178 160 160 178 160 160 178 160 160 178 160
160 178 160 160 178 160 160 178 160 160 178 160 160 178 160 160 178
160 160 178 160 160 178 160 160 178 160 160 178 160 160 178 160 160
178 160 160 178 160 160 178 160 160 178 160 160 178 160 160 178 160
160 178 160 160 178 160 160 178 160 160 178 160 160 178 160 160 178
160 160 178 160 160 178 160 160 178 160 160 178 160 160 178 160 160
178 160 160 178 160 160 178 160 160 178 160 160 178 160 160 178 160
160 178 160 160 178 160 160 178 160 160 178 160 160 178 160 160 178
160 160 178 160 160 178 160 160 178 160 160
179 161 161 179 161 161 179 161 161 179 161 161 179 161 161 179 161
161 179 161 161 179 161 161 179 161 161 179 161 161 179 161 161 179
161 161 179 161 161 179 161 161 179 161 161 179 161 161 179 161 161
179 161 161 179 161 161 179 161 161 179 161 161 179 161 161 179 161
161 179 161 161 179 161 161 179 161 161 179 161 161 178 161 161 178
161 161 178 161 161 178 161 161 178 161 161 178 161 161 178 161 161
178 161 161 178 161 161 178 161 161 178 161 161 178 161 161 178 161
161 178 161 161 178 161 161 178 161 161 178 160 160 178 160 160 178
160 160 178 160 160 178 160 160 178 160 160 178 160 160 178 160 160
178 160 160 178 160 160 178 160 160 178 160 160 178 160 160 178 160
160 178 160 160 178 160 160 178 160 160 178 160 160 178 160 160 178
160 160 178 160 160 178 160 160 178 160 160 178 160 160 178 160 160
178 160 160 178 160 160 178 160 160 178 160 160 178 160 160 178 160
160 178 160 160 178 160 160 178 160 160 178 160 160 178 160 160 178
160 160 178 160 160 178 160 160 178 160 160 178 160 160 178 160 160
178 160 160 178 160 160 178 160 160 178 160 160 178 160 160 178 160
160 178 160 160 178 160 160 178 160 160 178 160 160 178 160 160 178
160 160 178 160 160 178 160 160 178 160 160
179 161 161 179 161 161 179 161 161 179 161 161 179 161 161 179 161
161 179 161 161 179 161 161 179 161 161 179 161 161 179 161 161 179
161 161 179 161 161 179 161 161 179 161 161 179 161 161 179 161 161
179 161 161 179 161 161 179 161 161 179 161 161 179 161 161 179 161
161 179 161 161 179 161 161 179 161 161 179 161 161 178 161 161 178
161 161 178 161 161 178 161 161 178 161 161 178 161 161 178 161 161
178 161 161 178 161 161 178 161 161 178 161 161 178 161 161 178 161
161 178 160 160 178 160 160 178 160 160 178 160 160 178 160 160 178
160 160 178 160 160 178 160 160 178 160 160 178 160 160 178 160 160
178 160 160 178 160 160 178 160 160 178 160 160 178 160 160 178 160
160 178 160 160 178 160 160 178 160 160 178 160 160 178 160 160 178
160 160 178 160 160 178 160 160 178 160 160 178 160 160 178 160 160
178 160 160 178 160 160 178 160 160 178 160 160 178 160 160 178 160
160 178 160 160 178 160 160 178 160 160 178 160 160 178 160 160 178
160 160 178 160 160 178 160 160 178 160 160 178 160 160 178 160 160
178 160 160 178 160 160 178 160 160 178 160 160 178 160 160 178 160
160 178 160 160 178 160 160 178 160 160 178 160 160 178 160 160 178
160 160 178 160 160 178 160 160 178 160 160
179 161 161 179 161 161 179 161 161 179 161 161 179 161 161 179 161
161 179 161 161 179 161 161 179 161 161 179 161 161 179 161 161 179
161 161 179 161 161 179 161 161 179 161 161 179 161 161 179 161 161
179 161 161 179 161 161 179 161 161 179 161 161 179 161 161 179 161
161 179 161 161 179 161 161 179 161 161 178 161 161 178 161 161 178
161 161 178 161 161 178 161 161 178 161 161 178 161 161 178 161 161
178 161 161 178 161 161 178 160 160 178 160 160 178 160 160 178 160
160 178 160 160 178 160 160 178 160 160 178 160 160 178 160 160 178
160 160 178 160 160 178 160 160 178 160 160 178 160 160 178 160 160
178 160 160 178 160 160 178 160 160 178 160 160 178 160 160 178 160
160 178 160 160 178 160 160 178 160 160 178 160 160 178 160 160 178
160 160 178 160 160 178 160 160 178 160 160 178 160 160 178 160 160
178 160 160 178 160 160 178 160 160 178 160 160 178 160 160 178 160
160 178 160 160 178 160 160 178 160 160 178 160 160 178 160 160 178
160 160 178 160 160 178 160 160 178 160 160 178 160 160 178 160 160
178 160 160 177 160 160 177 160 160 177 160 160 177 160 160 177 160
160 177 160 160 177 160 160 177 160 160 177 160 160 177 160 160 177
160 160 177 160 160 177 160 160 177 160 160
179 161 161 179 161 161 179 161 161 179 161 161 179 161 161 179 161
161 179 161 161 179 161 161 179 161 161 179 161 161 179 161 161 179
161 161 179 161 161 179 161 161 179 161 161 179 161 161 179 161 161
179 161 161 179 161 161 179 161 161 179 161 161 179 161 161 179 161
161 179 161 161 179 161 161 179 161 161 178 161 161 178 161 161 178
161 161 178 161 161 178 161 161 178 161 161 178 161 161 178 160 160
178 160 160 178 160 160 178 160 160 178 160 160 178 160 160 178 160
160 178 160 160 178 160 160 178 160 160 178 160 160 178 160 160 178
160 160 178 160 160 178 160 160 178 160 160 178 160 160 178 160 160
178 160 160 178 160 160 178 160 160 178 160 160 178 160 160 178 160
160 178 160 160 178 160 160 178 160 160 178 160 160 178 160 160 178
160 160 178 160 160 178 160 160 178 160 160 178 160 160 178 160 160
177 160 160 177 160 160 177 160 160 177 160 160 177 160 160 177 160
160 177 160 160 177 160 160 177 160 160 177 160 160 177 160 160 177
160 160 177 159 159 177 159 159 177 159 159 177 159 159 177 159 159
177 159 159 177 159 159 177 159 159 177 159 159 177 159 159 177 159
159 177 159 159 177 159 159 177 159 159 177 159 159 177 159 159 177
159 159 177 159 159 177 159 159 177 159 159
179 162 162 179 161 161 179 161 161 179 161 161 179 161 161 179 161
161 179 161 161 179 161 161 179 161 161 179 161 161 179 161 161 179
161 161 179 161 161 179 161 161 179 161 161 179 161 161 179 161 161
179 161 161 179 161 161 179 161 161 179 161 161 179 161 161 179 161
161 179 161 161 179 161 161 178 161 161 178 161 161 178 161 161 178
161 161 178 160 160 178 160 160 178 160 160 178 160 160 178 160 160
178 160 160 178 160 160 178 160 160 178 160 160 178 160 160 178 160
160 178 160 160 178 160 160 178 160 160 178 160 160 178 160 160 178
160 160 178 160 160 178 160 160 178 160 160 178 160 160 177 160 160
177 160 160 177 160 160 177 160 160 177 160 160 177 160 160 177 160
160 177 159 159 177 159 159 177 159 159 177 159 159 177 159 159 177
159 159 177 159 159 177 159 159 177 159 159 177 159 159 177 159 159
177 159 159 177 159 159 177 159 159 177 159 159 177 159 159 177 159
159 177 159 159 177 159 159 176 159 159 176 159 159 176 159 159 176
159 159 176 159 159 176 159 159 176 159 159 176 159 159 176 159 159
176 159 159 176 158 158 176 158 158 176 158 158 176 158 158 176 158
158 176 158 158 176 158 158 176 158 158 176 158 158 176 158 158 176
158 158 176 158 158 176 158 158 176 158 158
181 163 163 181 163 163 181 163 163 181 163 163 181 163 163 180 162
162 180 162 162 180 162 162 180 162 162 180 162 162 180 162 162 180
162 162 180 162 162 180 162 162 179 161 161 179 161 161 179 161 161
179 161 161 179 161 161 179 161 161 179 161 161 179 161 161 178 161
161 178 161 161 178 160 160 178 160 160 178 160 160 178 160 160 178
160 160 178 160 160 178 160 160 177 160 160 177 160 160 177 159 159
177 159 159 177 159 159 177 159 159 177 159 159 177 159 159 176 159
159 176 159 159 176 159 159 176 159 159 176 158 158 176 158 158 176
158 158 176 158 158 176 158 158 175 158 158 175 158 158 175 158 158
175 158 158 175 157 157 175 157 157 175 157 157 175 157 157 175 157
157 174 157 157 174 157 157 174 157 157 174 157 157 174 157 157 174
156 156 174 156 156 174 156 156 173 156 156 173 156 156 173 156 156
173 156 156 173 156 156 173 156 156 173 156 156 173 155 155 173 155
155 172 155 155 172 155 155 172 155 155 172 155 155 172 155 155 172
155 155 172 155 155 172 154 154 172 154 154 171 154 154 171 154 154
171 154 154 171 154 154 171 154 154 171 154 154 171 154 154 171 154
154 171 153 153 170 153 153 170 153 153 170 153 153 170 153 153 170
153 153 170 153 153 170 153 153 170 153 153
26 23 23 26 23 23 26 23 23 26 23 23 26 23 23 26 23 23 26 23 23 26 23
23 26 23 23 26 23 23 26 23 23 26 23 23 26 23 23 26 23 23 26 23 23 26
23 23 26 23 23 26 23 23 26 23 23 26 23 23 26 23 23 26 23 23 26 23 23
26 23 23 26 23 23 26 23 23 26 23 23 26 23 23 26 23 23 26 23 23 26 23
23 26 23 23 26 23 23 26 23 23 26 23 23 26 23 23 26 23 23 26 23 23 26
23 23 26 23 23 26 23 23 26 23 23 26 23 23 26 23 23 26 23 23 26 23 23
26 23 23 26 23 23 26 23 23 26 23 23 26 23 23 26 23 23 26 23 23 26 23
23 26 23 23 26 23 23 26 23 23 26 23 23 26 23 23 26 23 23 26 23 23 26
23 23 26 23 23 26 23 23 26 23 23 26 23 23 26 23 23 26 23 23 26 23 23
26 23 23 26 23 23 26 23 23 26 23 23 26 23 23 26 23 23 26 23 23 26 23
23 26 23 23 26 23 23 26 23 23 26 23 23 26 23 23 26 23 23 26 23 23 26
23 23 26 23 23 26 23 23 26 23 23 26 23 23 26 23 23 26 23 23 26 23 23
26 23 23 26 23 23 26 23 23 26 23 23 26 23 23 26 23 23 26 23 23 26 23
23
26 23 23 26 23 23 26 23 23 26 23 23 26 23 23 26 23 23 26 23 23 26 23
23 26 23 23 26 23 23 26 23 23 26 23 23 26 23 23 26 23 23 26 23 23 26
23 23 26 23 23 26 23 23 26 23 23 26 23 23 26 23 23 26 23 23 26 23 23
26 23 23 26 23 23 26 23 23 26 23 23 26 23 23 26 23 23 26 23 23 26 23
23 26 23 23 26 23 23 26 23 23 26 23 23 26 23 23 26 23 23 26 23 23 26
23 23 26 23 23 26 23 23 26 23 23 26 23 23 26 23 23 26 23 23 26 23 23
26 23 23 26 23 23 26 23 23 26 23 23 26 23 23 26 23 23 26 23 23 26 23
23 26 23 23 26 23 23 26 23 23 26 23 23 26 23 23 26 23 23 26 23 23 26
23 23 26 23 23 26 23 23 26 23 23 26 23 23 26 23 23 26 23 23 26 23 23
26 23 23 26 23 23 26 23 23 26 23 23 26 23 23 26 23 23 26 23 23 26 23
23 26 23 23 26 23 23 26 23 23 26 23 23 26 23 23 26 23 23 26 23 23 26
23 23 26 23 23 26 23 23 26 23 23 26 23 23 26 23 23 26 23 23 26 23 23
26 23 23 26 23 23 26 23 23 26 23 23 26 23 23 26 23 23 26 23 23 26 23
23
26 23 23 26 23 23 26 23 23 26 23 23 26 23 23 26 23 23 26 23 23 26 23
23 26 23 23 26 23 23 26 23 23 26 23 23 26 23 23 26 23 23 26 23 23 26
23 23 26 23 23 26 23 23 26 23 23 26 23 23 26 23 23 26 23 23 26 23 23
26 23 23 26 23 23 26 23 23 26 23 23 26 23 23 26 23 23 26 23 23 26 23
23 26 23 23 26 23 23 26 23 23 26 23 23 26 23 23 26 23 23 26 23 23 26
23 23 26 23 23 26 23 23 26 23 23 26 23 23 26 23 23 26 23 23 26 23 23
26 23 23 26 23 23 26 23 23 26 23 23 26 23 23 26 23 23 26 23 23 26 23
23 26 23 23 26 23 23 26 23 23 26 23 23 26 23 23 26 23 23 26 23 23 26
23 23 26 23 23 26 23 23 26 23 23 26 23 23 26 23 23 26 23 23 26 23 23
26 23 23 26 23 23 26 23 23 26 23 23 26 23 23 26 23 23 26 23 23 26 23
23 26 23 23 26 23 23 26 23 23 26 23 23 26 23 23 26 23 23 26 23 23 26
23 23 26 23 23 26 23 23 26 23 23 26 23 23 26 23 23 26 23 23 26 23 23
26 23 23 26 23 23 26 23 23 26 23 23 26 23 23 26 23 23 26 23 23 26 23
23
26 23 23 26 23 23 26 23 23 26 23 23 26 23 23 26 23 23 26 23 23 26 23
23 26 23 23 26 23 23 26 23 23 26 23 23 26 23 23 26 23 23 26 23 23 26
23 23 26 23 23 26 23 23 26 23 23 26 23 23 26 23 23 26 23 23 26 23 23
26 23 23 26 23 23 26 23 23 26 23 23 26 23 23 26 23 23 26 23 23 26 23
23 26 23 23 26 23 23 26 23 23 26 23 23 26 23 23 26 23 23 26 23 23 26
23 23 26 23 23 26 23 23 26 23 23 26 23 23 26 23 23 26 23 23 26 23 23
26 23 23 26 23 23 26 23 23 26 23 23 26 23 23 26 23 23 26 23 23 26 23
23 26 23 23 26 23 23 26 23 23 26 23 23 26 23 23 26 23 23 26 23 23 26
23 23 26 23 23 26 23 23 26 23 23 26 23 23 26 23 23 26 23 23 26 23 23
26 23 23 26 23 23 26 23 23 26 23 23 26 23 23 26 23 23 26 23 23 26 23
23 26 23 23 26 23 23 26 23 23 26 23 23 26 23 23 26 23 23 26 23 23 26
23 23 26 23 23 26 23 23 26 23 23 26 23 23 26 23 23 26 23 23 26 23 23
26 23 23 26 23 23 26 23 23 26 23 23 26 23 23 26 23 23 26 23 23 26 23
23
26 23 23 26 23 23 26 23 23 26 23 23 26 23 23 26 23 23 26 23 23 26 23
23 26 23 23 26 23 23 26 23 23 26 23 23 26 23 23 26 23 23 26 23 23 26
23 23 26 23 23 26 23 23 26 23 23 26 23 23 26 23 23 26 23 23 26 23 23
26 23 23 26 23 23 26 23 23 26 23 23 26 23 23 26 23 23 26 23 23 26 23
23 26 23 23 26 23 23 26 23 23 26 23 23 26 23 23 26 23 23 26 23 23 26
23 23 26 23 23 26 23 23 26 23 23 26 23 23 26 23 23 26 23 23 26 23 23
26 23 23 26 23 23 26 23 23 26 23 23 26 23 23 26 23 23 26 23 23 26 23
23 26 23 23 26 23 23 26 23 23 26 23 23 26 23 23 26 23 23 26 23 23 26
23 23 26 23 23 26 23 23 26 23 23 26 23 23 26 23 23 26 23 23 26 23 23
26 23 23 26 23 23 26 23 23 26 23 23 26 23 23 26 23 23 26 23 23 26 23
23 26 23 23 26 23 23 26 23 23 26 23 23 26 23 23 26 23 23 26 23 23 26
23 23 26 23 23 26 23 23 26 23 23 26 23 23 26 23 23 26 23 23 26 23 23
26 23 23 26 23 23 26 23 23 26 23 23 26 23 23 26 23 23 26 23 23 26 23
23
26 23 23 26 23 23 26 23 23 26 23 23 26 23 23 26 23 23 26 23 23 26 23
23 26 23 23 26 23 23 26 23 23 26 23 23 26 23 23 26 23 23 26 23 23 26
23 23 26 23 23 26 23 23 26 23 23 26 23 23 26 23 23 26 23 23 26 23 23
26 23 23 26 23 23 26 23 23 26 23 23 26 23 23 26 23 23 26 23 23 26 23
23 26 23 23 26 23 23 26 23 23 26 23 23 26 23 23 26 23 23 26 23 23 26
23 23 26 23 23 26 23 23 26 23 23 26 23 23 26 23 23 26 23 23 26 23 23
26 23 23 26 23 23 26 23 23 26 23 23 26 23 23 26 23 23 26 23 23 26 23
23 26 23 23 26 23 23 26 23 23 26 23 23 26 23 23 26 23 23 26 23 23 26
23 23 26 23 23 26 23 23 26 23 23 26 23 23 26 23 23 26 23 23 26 23 23
26 23 23 26 23 23 26 23 23 26 23 23 26 23 23 26 23 23 26 23 23 26 23
23 26 23 23 26 23 23 26 23 23 26 23 23 26 23 23 26 23 23 26 23 23 26
23 23 26 23 23 26 23 23 26 23 23 26 23 23 26 23 23 26 23 23 26 23 23
26 23 23 26 23 23 26 23 23 26 23 23 26 23 23 26 23 23 26 23 23 26 23
23
26 23 23 26 23 23 26 23 23 26 23 23 26 23 23 26 23 23 26 23 23 26 23
23 26 23 23 26 23 23 26 23 23 26 23 23 26 23 23 26 23 23 26 23 23 26
23 23 26 23 23 26 23 23 26 23 23 26 23 23 26 23 23 26 23 23 26 23 23
26 23 23 26 23 23 26 23 23 26 23 23 26 23 23 26 23 23 26 23 23 26 23
23 26 23 23 26 23 23 26 23 23 26 23 23 26 23 23 26 23 23 26 23 23 26
23 23 26 23 23 26 23 23 26 23 23 26 23 23 26 23 23 26 23 23 26 23 23
26 23 23 26 23 23 26 23 23 26 23 23 26 23 23 26 23 23 26 23 23 26 23
23 26 23 23 26 23 23 26 23 23 26 23 23 26 23 23 26 23 23 26 23 23 26
23 23 26 23 23 26 23 23 26 23 23 26 23 23 26 23 23 26 23 23 26 23 23
26 23 23 26 23 23 26 23 23 26 23 23 26 23 23 26 23 23 26 23 23 26 23
23 26 23 23 26 23 23 26 23 23 26 23 23 26 23 23 26 23 23 26 23 23 26
23 23 26 23 23 26 23 23 26 23 23 26 23 23 26 23 23 26 23 23 26 23 23
26 23 23 26 23 23 26 23 23 26 23 23 26 23 23 26 23 23 26 23 23 26 23
23
26 23 23 26 23 23 26 23 23 26 23 23 26 23 23 26 23 23 26 23 23 26 23
23 26 23 23 26 23 23 26 23 23 26 23 23 26 23 23 26 23 23 26 23 23 26
23 23 26 23 23 26 23 23 26 23 23 26 23 23 26 23 23 26 23 23 26 23 23
26 23 23 26 23 23 26 23 23 26 23 23 26 23 23 26 23 23 26 23 23 26 23
23 26 23 23 26 23 23 26 23 23 26 23 23 26 23 23 26 23 23 26 23 23 26
23 23 26 23 23 26 23 23 26 23 23 26 23 23 26 23 23 26 23 23 26 23 23
26 23 23 26 23 23 26 23 23 26 23 23 26 23 23 26 23 23 26 23 23 26 23
23 26 23 23 26 23 23 26 23 23 26 23 23 26 23 23 26 23 23 26 23 23 26
23 23 26 23 23 26 23 23 26 23 23 26 23 23 26 23 23 26 23 23 26 23 23
26 23 23 26 23 23 26 23 23 26 23 23 26 23 23 26 23 23 26 23 23 26 23
23 26 23 23 26 23 23 26 23 23 26 23 23 26 23 23 26 23 23 26 23 23 26
23 23 26 23 23 26 23 23 26 23 23 26 23 23 26 23 23 26 23 23 26 23 23
26 23 23 26 23 23 26 23 23 26 23 23 26 23 23 26 23 23 26 23 23 26 23
23
26 23 23 26 23 23 26 23 23 26 23 23 26 23 23 26 23 23 26 23 23 26 23
23 26 23 23 26 23 23 26 23 23 26 23 23 26 23 23 26 23 23 26 23 23 26
23 23 26 23 23 26 23 23 26 23 23 26 23 23 26 23 23 26 23 23 26 23 23
26 23 23 26 23 23 26 23 23 26 23 23 26 23 23 26 23 23 26 23 23 26 23
23 26 23 23 26 23 23 26 23 23 26 23 23 26 23 23 26 23 23 26 23 23 26
23 23 26 23 23 26 23 23 26 23 23 26 23 23 26 23 23 26 23 23 26 23 23
26 23 23 26 23 23 26 23 23 26 23 23 26 23 23 26 23 23 26 23 23 26 23
23 26 23 23 26 23 23 26 23 23 26 23 23 26 23 23 26 23 23 26 23 23 26
23 23 26 23 23 26 23 23 26 23 23 26 23 23 26 23 23 26 23 23 26 23 23
26 23 23 26 23 23 26 23 23 26 23 23 26 23 23 26 23 23 26 23 23 26 23
23 26 23 23 26 23 23 26 23 23 26 23 23 26 23 23 26 23 23 26 23 23 26
23 23 26 23 23 26 23 23 26 23 23 26 23 23 26 23 23 26 23 23 26 23 23
26 23 23 26 23 23 26 23 23 26 23 23 26 23 23 26 23 23 26 23 23 26 23
23
26 23 23 26 23 23 26 23 23 26 23 23 26 23 23 26 23 23 26 23 23 26 23
23 26 23 23 26 23 23 26 23 23 26 23 23 26 23 23 26 23 23 26 23 23 26
23 23 26 23 23 26 23 23 26 23 23 26 23 23 26 23 23 26 23 23 26 23 23
26 23 23 26 23 23 26 23 23 26 23 23 26 23 23 26 23 23 26 23 23 26 23
23 26 23 23 26 23 23 26 23 23 26 23 23 26 23 23 26 23 23 26 23 23 26
23 23 26 23 23 26 23 23 26 23 23 26 23 23 26 23 23 26 23 23 26 23 23
26 23 23 26 23 23 26 23 23 26 23 23 26 23 23 26 23 23 26 23 23 26 23
23 26 23 23 26 23 23 26 23 23 26 23 23 26 23 23 26 23 23 26 23 23 26
23 23 26 23 23 26 23 23 26 23 23 26 23 23 26 23 23 26 23 23 26 23 23
26 23 23 26 23 23 26 23 23 26 23 23 26 23 23 26 23 23 26 23 23 26 23
23 26 23 23 26 23 23 26 23 23 26 23 23 26 23 23 26 23 23 26 23 23 26
23 23 26 23 23 26 23 23 26 23 23 26 23 23 26 23 23 26 23 23 26 23 23
26 23 23 26 23 23 26 23 23 26 23 23 26 23 23 26 23 23 26 23 23 26 23
23
26 23 23 26 23 23 26 23 23 26 23 23 26 23 23 26 23 23 26 23 23 26 23
23 26 23 23 26 23 23 26 23 23 26 23 23 26 23 23 26 23 23 26 23 23 26
23 23 26 23 23 26 23 23 26 23 23 26 23 23 26 23 23 26 23 23 26 23 23
26 23 23 26 23 23 26 23 23 26 23 23 26 23 23 26 23 23 26 23 23 26 23
23 26 23 23 26 23 23 26 23 23 26 23 23 26 23 23 26 23 23 26 23 23 26
23 23 26 23 23 26 23 23 26 23 23 26 23 23 26 23 23 26 23 23 26 23 23
26 23 23 26 23 23 26 23 23 26 23 23 26 23 23 26 23 23 26 23 23 26 23
23 26 23 23 26 23 23 26 23 23 26 23 23 26 23 23 26 23 23 26 23 23 26
23 23 26 23 23 26 23 23 26 23 23 26 23 23 26 23 23 26 23 23 26 23 23
26 23 23 26 23 23 26 23 23 26 23 23 26 23 23 26 23 23 26 23 23 26 23
23 26 23 23 26 23 23 26 23 23 26 23 23 26 23 23 26 23 23 26 23 23 26
23 23 26 23 23 26 23 23 26 23 23 26 23 23 26 23 23 26 23 23 26 23 23
26 23 23 26 23 23 26 23 23 26 23 23 26 23 23 26 23 23 26 23 23 26 23
23
26 23 23 26 23 23 26 23 23 26 23 23 26 23 23 26 23 23 26 23 23 26 23
23 26 23 23 26 23 23 26 23 23 26 23 23 26 23 23 26 23 23 26 23 23 26
23 23 26 23 23 26 23 23 26 23 23 26 23 23 26 23 23 26 23 23 26 23 23
26 23 23 26 23 23 26 23 23 26 23 23 26 23 23 26 23 23 26 23 23 26 23
23 26 23 23 26 23 23 26 23 23 26 23 23 26 23 23 26 23 23 26 23 23 26
23 23 26 23 23 26 23 23 26 23 23 26 23 23 26 23 23 26 23 23 26 23 23
26 23 23 26 23 23 26 23 23 26 23 23 26 23 23 26 23 23 26 23 23 26 23
23 26 23 23 26 23 23 26 23 23 26 23 23 26 23 23 26 23 23 26 23 23 26
23 23 26 23 23 26 23 23 26 23 23 26 23 23 26 23 23 26 23 23 26 23 23
26 23 23 26 23 23 26 23 23 26 23 23 26 23 23 26 23 23 26 23 23 26 23
23 26 23 23 26 23 23 26 23 23 26 23 23 26 23 23 26 23 23 26 23 23 26
23 23 26 23 23 26 23 23 26 23 23 26 23 23 26 23 23 26 23 23 26 23 23
26 23 23 26 23 23 26 23 23 26 23 23 26 23 23 26 23 23 26 23 23 26 23
23
26 23 23 26 23 23 26 23 23 26 23 23 26 23 23 26 23 23 26 23 23 26 23
23 26 23 23 26 23 23 26 23 23 26 23 23 26 23 23 26 23 23 26 23 23 26
23 23 26 23 23 26 23 23 26 23 23 26 23 23 26 23 23 26 23 23 26 23 23
26 23 23 26 23 23 26 23 23 26 23 23 26 23 23 26 23 23 26 23 23 26 23
23 26 23 23 26 23 23 26 23 23 26 23 23 26 23 23 26 23 23 26 23 23 26
23 23 26 23 23 26 23 23 26 23 23 26 23 23 26 23 23 26 23 23 26 23 23
26 23 23 26 23 23 26 23 23 26 23 23 26 23 23 26 23 23 26 23 23 26 23
23 26 23 23 26 23 23 26 23 23 26 23 23 26 23 23 26 23 23 26 23 23 26
23 23 26 23 23 26 23 23 26 23 23 26 23 23 26 23 23 26 23 23 26 23 23
26 23 23 26 23 23 26 23 23 26 23 23 26 23 23 26 23 23 26 23 23 26 23
23 26 23 23 26 23 23 26 23 23 26 23 23 26 23 23 26 23 23 26 23 23 26
23 23 26 23 23 26 23 23 26 23 23 26 23 23 26 23 23 26 23 23 26 23 23
26 23 23 26 23 23 26 23 23 26 23 23 26 23 23 26 23 23 26 23 23 26 23
23
26 23 23 26 23 23 26 23 23 26 23 23 26 23 23 26 23 23 26 23 23 26 23
23 26 23 23 26 23 23 26 23 23 26 23 23 26 23 23 26 23 23 26 23 23 26
23 23 26 23 23 26 23 23 26 23 23 26 23 23 26 23 23 26 23 23 26 23 23
26 23 23 26 23 23 26 23 23 26 23 23 26 23 23 26 23 23 26 23 23 26 23
23 26 23 23 26 23 23 26 23 23 26 23 23 26 23 23 26 23 23 26 23 23 26
23 23 26 23 23 26 23 23 26 23 23 26 23 23 26 23 23 26 23 23 26 23 23
26 23 23 26 23 23 26 23 23 26 23 23 26 23 23 26 23 23 26 23 23 26 23
23 26 23 23 26 23 23 26 23 23 26 23 23 26 23 23 26 23 23 26 23 23 26
23 23 26 23 23 26 23 23 26 23 23 26 23 23 26 23 23 26 23 23 26 23 23
26 23 23 26 23 23 26 23 23 26 23 23 26 23 23 26 23 23 26 23 23 26 23
23 26 23 23 26 23 23 26 23 23 26 23 23 26 23 23 26 23 23 26 23 23 26
23 23 26 23 23 26 23 23 26 23 23 26 23 23 26 23 23 26 23 23 26 23 23
26 23 23 26 23 23 26 23 23 26 23 23 26 23 23 26 23 23 26 23 23 26 23
23
26 23 23 26 23 23 26 23 23 26 23 23 26 23 23 26 23 23 26 23 23 26 23
23 26 23 23 26 23 23 26 23 23 26 23 23 26 23 23 26 23 23 26 23 23 26
23 23 26 23 23 26 23 23 26 23 23 26 23 23 26 23 23 26 23 23 26 23 23
26 23 23 26 23 23 26 23 23 26 23 23 26 23 23 26 23 23 26 23 23 26 23
23 26 23 23 26 23 23 26 23 23 26 23 23 26 23 23 26 23 23 26 23 23 26
23 23 26 23 23 26 23 23 26 23 23 26 23 23 26 23 23 26 23 23 26 23 23
26 23 23 26 23 23 26 23 23 26 23 23 26 23 23 26 23 23 26 23 23 26 23
23 26 23 23 26 23 23 26 23 23 26 23 23 26 23 23 26 23 23 26 23 23 26
23 23 26 23 23 26 23 23 26 23 23 26 23 23 26 23 23 26 23 23 26 23 23
26 23 23 26 23 23 26 23 23 26 23 23 26 23 23 26 23 23 26 23 23 26 23
23 26 23 23 26 23 23 26 23 23 26 23 23 26 23 23 26 23 23 26 23 23 26
23 23 26 23 23 26 23 23 26 23 23 26 23 23 26 23 23 26 23 23 26 23 23
26 23 23 26 23 23 26 23 23 26 23 23 26 23 23 26 23 23 26 23 23 26 23
23
26 23 23 26 23 23 26 23 23 26 23 23 26 23 23 26 23 23 26 23 23 26 23
23 26 23 23 26 23 23 26 23 23 26 23 23 26 23 23 26 23 23 26 23 23 26
23 23 26 23 23 26 23 23 26 23 23 26 23 23 26 23 23 26 23 23 26 23 23
26 23 23 26 23 23 26 23 23 26 23 23 26 23 23 26 23 23 26 23 23 26 23
23 26 23 23 26 23 23 26 23 23 26 23 23 26 23 23 26 23 23 26 23 23 26
23 23 26 23 23 26 23 23 26 23 23 26 23 23 26 23 23 26 23 23 26 23 23
26 23 23 26 23 23 26 23 23 26 23 23 26 23 23 26 23 23 26 23 23 26 23
23 26 23 23 26 23 23 26 23 23 26 23 23 26 23 23 26 23 23 26 23 23 26
23 23 26 23 23 26 23 23 26 23 23 26 23 23 26 23 23 26 23 23 26 23 23
26 23 23 26 23 23 26 23 23 26 23 23 26 23 23 26 23 23 26 23 23 26 23
23 26 23 23 26 23 23 26 23 23 26 23 23 26 23 23 26 23 23 26 23 23 26
23 23 26 23 23 26 23 23 26 23 23 26 23 23 26 23 23 26 23 23 26 23 23
26 23 23 26 23 23 26 23 23 26 23 23 26 23 23 26 23 23 26 23 23 26 23
23
26 23 23 26 23 23 26 23 23 26 23 23 26 23 23 26 23 23 26 23 23 26 23
23 26 23 23 26 23 23 26 23 23 26 23 23 26 23 23 26 23 23 26 23 23 26
23 23 26 23 23 26 23 23 26 23 23 26 23 23 26 23 23 26 23 23 26 23 23
26 23 23 26 23 23 26 23 23 26 23 23 26 23 23 26 23 23 26 23 23 26 23
23 26 23 23 26 23 23 26 23 23 26 23 23 26 23 23 26 23 23 26 23 23 26
23 23 26 23 23 26 23 23 26 23 23 26 23 23 26 23 23 26 23 23 26 23 23
26 23 23 26 23 23 26 23 23 26 23 23 26 23 23 26 23 23 26 23 23 26 23
23 26 23 23 26 23 23 26 23 23 26 23 23 26 23 23 26 23 23 26 23 23 26
23 23 26 23 23 26 23 23 26 23 23 26 23 23 26 23 23 26 23 23 26 23 23
26 23 23 26 23 23 26 23 23 26 23 23 26 23 23 26 23 23 26 23 23 26 23
23 26 23 23 26 23 23 26 23 23 26 23 23 26 23 23 26 23 23 26 23 23 26
23 23 26 23 23 26 23 23 26 23 23 26 23 23 26 23 23 26 23 23 26 23 23
26 23 23 26 23 23 26 23 23 26 23 23 26 23 23 26 23 23 26 23 23 26 23
23
26 23 23 26 23 23 26 23 23 26 23 23 26 23 23 26 23 23 26 23 23 26 23
23 26 23 23 26 23 23 26 23 23 26 23 23 26 23 23 26 23 23 26 23 23 26
23 23 26 23 23 26 23 23 26 23 23 26 23 23 26 23 23 26 23 23 26 23 23
26 23 23 26 23 23 26 23 23 26 23 23 26 23 23 26 23 23 26 23 23 26 23
23 26 23 23 26 23 23 26 23 23 26 23 23 26 23 23 26 23 23 26 23 23 26
23 23 26 23 23 26 23 23 26 23 23 26 23 23 26 23 23 26 23 23 26 23 23
26 23 23 26 23 23 26 23 23 26 23 23 26 23 23 26 23 23 26 23 23 26 23
23 26 23 23 26 23 23 26 23 23 26 23 23 26 23 23 26 23 23 26 23 23 26
23 23 26 23 23 26 23 23 26 23 23 26 23 23 26 23 23 26 23 23 26 23 23
26 23 23 26 23 23 26 23 23 26 23 23 26 23 23 26 23 23 26 23 23 26 23
23 26 23 23 26 23 23 26 23 23 26 23 23 26 23 23 26 23 23 26 23 23 26
23 23 26 23 23 26 23 23 26 23 23 26 23 23 26 23 23 26 23 23 26 23 23
26 23 23 26 23 23 26 23 23 26 23 23 26 23 23 26 23 23 26 23 23 26 23
23
26 23 23 26 23 23 26 23 23 26 23 23 26 23 23 26 23 23 26 23 23 26 23
23 26 23 23 26 23 23 26 23 23 26 23 23 26 23 23 26 23 23 26 23 23 26
23 23 26 23 23 26 23 23 26 23 23 26 23 23 26 23 23 26 23 23 26 23 23
26 23 23 26 23 23 26 23 23 26 23 23 26 23 23 26 23 23 26 23 23 26 23
23 26 23 23 26 23 23 26 23 23 26 23 23 26 23 23 26 23 23 26 23 23 26
23 23 26 23 23 26 23 23 26 23 23 26 23 23 26 23 23 26 23 23 26 23 23
26 23 23 26 23 23 26 23 23 26 23 23 26 23 23 26 23 23 26 23 23 26 23
23 26 23 23 26 23 23 26 23 23 26 23 23 26 23 23 26 23 23 26 23 23 26
23 23 26 23 23 26 23 23 26 23 23 26 23 23 26 23 23 26 23 23 26 23 23
26 23 23 26 23 23 26 23 23 26 23 23 26 23 23 26 23 23 26 23 23 26 23
23 26 23 23 26 23 23 26 23 23 26 23 23 26 23 23 26 23 23 26 23 23 26
23 23 26 23 23 26 23 23 26 23 23 26 23 23 26 23 23 26 23 23 26 23 23
26 23 23 26 23 23 26 23 23 26 23 23 26 23 23 26 23 23 26 23 23 26 23
23
26 23 23 26 23 23 26 23 23 26 23 23 26 23 23 26 23 23 26 23 23 26 23
23 26 23 23 26 23 23 26 23 23 26 23 23 26 23 23 26 23 23 26 23 23 26
23 23 26 23 23 26 23 23 26 23 23 26 23 23 26 23 23 26 23 23 26 23 23
26 23 23 26 23 23 26 23 23 26 23 23 26 23 23 26 23 23 26 23 23 26 23
23 26 23 23 26 23 23 26 23 23 26 23 23 26 23 23 26 23 23 26 23 23 26
23 23 26 23 23 26 23 23 26 23 23 26 23 23 26 23 23 26 23 23 26 23 23
26 23 23 26 23 23 26 23 23 26 23 23 26 23 23 26 23 23 26 23 23 26 23
23 26 23 23 26 23 23 26 23 23 26 23 23 26 23 23 26 23 23 26 23 23 26
23 23 26 23 23 26 23 23 26 23 23 26 23 23 26 23 23 26 23 23 26 23 23
26 23 23 26 23 23 26 23 23 26 23 23 26 23 23 26 23 23 26 23 23 26 23
23 26 23 23 26 23 23 26 23 23 26 23 23 26 23 23 26 23 23 26 23 23 26
23 23 26 23 23 26 23 23 26 23 23 26 23 23 26 23 23 26 23 23 26 23 23
26 23 23 26 23 23 26 23 23 26 23 23 26 23 23 26 23 23 26 23 23 26 23
23
26 23 23 26 23 23 26 23 23 26 23 23 26 23 23 26 23 23 26 23 23 26 23
23 26 23 23 26 23 23 26 23 23 26 23 23 26 23 23 26 23 23 26 23 23 26
23 23 26 23 23 26 23 23 26 23 23 26 23 23 26 23 23 26 23 23 26 23 23
26 23 23 26 23 23 26 23 23 26 23 23 26 23 23 26 23 23 26 23 23 26 23
23 26 23 23 26 23 23 26 23 23 26 23 23 26 23 23 26 23 23 26 23 23 26
23 23 26 23 23 26 23 23 26 23 23 26 23 23 26 23 23 26 23 23 26 23 23
26 23 23 26 23 23 26 23 23 26 23 23 26 23 23 26 23 23 26 23 23 26 23
23 26 23 23 26 23 23 26 23 23 26 23 23 26 23 23 26 23 23 26 23 23 26
23 23 26 23 23 26 23 23 26 23 23 26 23 23 26 23 23 26 23 23 26 23 23
26 23 23 26 23 23 26 23 23 26 23 23 26 23 23 26 23 23 26 23 23 26 23
23 26 23 23 26 23 23 26 23 23 26 23 23 26 23 23 26 23 23 26 23 23 26
23 23 26 23 23 26 23 23 26 23 23 26 23 23 26 23 23 26 23 23 26 23 23
26 23 23 26 23 23 26 23 23 26 23 23 26 23 23 26 23 23 26 23 23 26 23
23
26 23 23 26 23 23 26 23 23 26 23 23 26 23 23 26 23 23 26 23 23 26 23
23 26 23 23 26 23 23 26 23 23 26 23 23 26 23 23 26 23 23 26 23 23 26
23 23 26 23 23 26 23 23 26 23 23 26 23 23 26 23 23 26 23 23 26 23 23
26 23 23 26 23 23 26 23 23 26 23 23 26 23 23 26 23 23 26 23 23 26 23
23 26 23 23 26 23 23 26 23 23 26 23 23 26 23 23 26 23 23 26 23 23 26
23 23 26 23 23 26 23 23 26 23 23 26 23 23 26 23 23 26 23 23 26 23 23
26 23 23 26 23 23 26 23 23 26 23 23 26 23 23 26 23 23 26 23 23 26 23
23 26 23 23 26 23 23 26 23 23 26 23 23 26 23 23 26 23 23 26 23 23 26
23 23 26 23 23 26 23 23 26 23 23 26 23 23 26 23 23 26 23 23 26 23 23
26 23 23 26 23 23 26 23 23 26 23 23 26 23 23 26 23 23 26 23 23 26 23
23 26 23 23 26 23 23 26 23 23 26 23 23 26 23 23 26 23 23 26 23 23 26
23 23 26 23 23 26 23 23 26 23 23 26 23 23 26 23 23 26 23 23 26 23 23
26 23 23 26 23 23 26 23 23 26 23 23 26 23 23 26 23 23 26 23 23 26 23
23
26 23 23 26 23 23 26 23 23 26 23 23 26 23 23 26 23 23 26 23 23 26 23
23 26 23 23 26 23 23 26 23 23 26 23 23 26 23 23 26 23 23 26 23 23 26
23 23 26 23 23 26 23 23 26 23 23 26 23 23 26 23 23 26 23 23 26 23 23
26 23 23 26 23 23 26 23 23 26 23 23 26 23 23 26 23 23 26 23 23 26 23
23 26 23 23 26 23 23 26 23 23 26 23 23 26 23 23 26 23 23 26 23 23 26
23 23 26 23 23 26 23 23 26 23 23 26 23 23 26 23 23 26 23 23 26 23 23
26 23 23 26 23 23 26 23 23 26 23 23 26 23 23 26 23 23 26 23 23 26 23
23 26 23 23 26 23 23 26 23 23 26 23 23 26 23 23 26 23 23 26 23 23 26
23 23 26 23 23 26 23 23 26 23 23 26 23 23 26 23 23 26 23 23 26 23 23
26 23 23 26 23 23 26 23 23 26 23 23 26 23 23 26 23 23 26 23 23 26 23
23 26 23 23 26 23 23 26 23 23 26 23 23 26 23 23 26 23 23 26 23 23 26
23 23 26 23 23 26 23 23 26 23 23 26 23 23 26 23 23 26 23 23 26 23 23
26 23 23 26 23 23 26 23 23 26 23 23 26 23 23 26 23 23 26 23 23 26 23
23
26 23 23 26 23 23 26 23 23 26 23 23 26 23 23 26 23 23 26 23 23 26 23
23 26 23 23 26 23 23 26 23 23 26 23 23 26 23 23 26 23 23 26 23 23 26
23 23 26 23 23 26 23 23 26 23 23 26 23 23 26 23 23 26 23 23 26 23 23
26 23 23 26 23 23 26 23 23 26 23 23 26 23 23 26 23 23 26 23 23 26 23
23 26 23 23 26 23 23 26 23 23 26 23 23 26 23 23 26 23 23 26 23 23 26
23 23 26 23 23 26 23 23 26 23 23 26 23 23 26 23 23 26 23 23 26 23 23
26 23 23 26 23 23 26 23 23 26 23 23 26 23 23 26 23 23 26 23 23 26 23
23 26 23 23 26 23 23 26 23 23 26 23 23 26 23 23 26 23 23 26 23 23 26
23 23 26 23 23 26 23 23 26 23 23 26 23 23 26 23 23 26 23 23 26 23 23
26 23 23 26 23 23 26 23 23 26 23 23 26 23 23 26 23 23 26 23 23 26 23
23 26 23 23 26 23 23 26 23 23 26 23 23 26 23 23 26 23 23 26 23 23 26
23 23 26 23 23 26 23 23 26 23 23 26 23 23 26 23 23 26 23 23 26 23 23
26 23 23 26 23 23 26 23 23 26 23 23 26 23 23 26 23 23 26 23 23 26 23
23
26 23 23 26 23 23 26 23 23 26 23 23 26 23 23 26 23 23 26 23 23 26 23
23 26 23 23 26 23 23 26 23 23 26 23 23 26 23 23 26 23 23 26 23 23 26
23 23 26 23 23 26 23 23 26 23 23 26 23 23 26 23 23 26 23 23 26 23 23
26 23 23 26 23 23 26 23 23 26 23 23 26 23 23 26 23 23 26 23 23 26 23
23 26 23 23 26 23 23 26 23 23 26 23 23 26 23 23 26 23 23 26 23 23 26
23 23 26 23 23 26 23 23 26 23 23 26 23 23 26 23 23 26 23 23 26 23 23
26 23 23 26 23 23 26 23 23 26 23 23 26 23 23 26 23 23 26 23 23 26 23
23 26 23 23 26 23 23 26 23 23 26 23 23 26 23 23 26 23 23 26 23 23 26
23 23 26 23 23 26 23 23 26 23 23 26 23 23 26 23 23 26 23 23 26 23 23
26 23 23 26 23 23 26 23 23 26 23 23 26 23 23 26 23 23 26 23 23 26 23
23 26 23 23 26 23 23 26 23 23 26 23 23 26 23 23 26 23 23 26 23 23 26
23 23 26 23 23 26 23 23 26 23 23 26 23 23 26 23 23 26 23 23 26 23 23
26 23 23 26 23 23 26 23 23 26 23 23 26 23 23 26 23 23 26 23 23 26 23
23
26 23 23 26 23 23 26 23 23 26 23 23 26 23 23 26 23 23 26 23 23 26 23
23 26 23 23 26 23 23 26 23 23 26 23 23 26 23 23 26 23 23 26 23 23 26
23 23 26 23 23 26 23 23 26 23 23 26 23 23 26 23 23 26 23 23 26 23 23
26 23 23 26 23 23 26 23 23 26 23 23 26 23 23 26 23 23 26 23 23 26 23
23 26 23 23 26 23 23 26 23 23 26 23 23 26 23 23 26 23 23 26 23 23 26
23 23 26 23 23 26 23 23 26 23 23 26 23 23 26 23 23 26 23 23 26 23 23
26 23 23 26 23 23 26 23 23 26 23 23 26 23 23 26 23 23 26 23 23 26 23
23 26 23 23 26 23 23 26 23 23 26 23 23 26 23 23 26 23 23 26 23 23 26
23 23 26 23 23 26 23 23 26 23 23 26 23 23 26 23 23 26 23 23 26 23 23
26 23 23 26 23 23 26 23 23 26 23 23 26 23 23 26 23 23 26 23 23 26 23
23 26 23 23 26 23 23 26 23 23 26 23 23 26 23 23 26 23 23 26 23 23 26
23 23 26 23 23 26 23 23 26 23 23 26 23 23 26 23 23 26 23 23 26 23 23
26 23 23 26 23 23 26 23 23 26 23 23 26 23 23 26 23 23 26 23 23 26 23
23
26 23 23 26 23 23 26 23 23 26 23 23 26 23 23 26 23 23 26 23 23 26 23
23 26 23 23 26 23 23 26 23 23 26 23 23 26 23 23 26 23 23 26 23 23 26
23 23 26 23 23 26 23 23 26 23 23 26 23 23 26 23 23 26 23 23 26 23 23
26 23 23 26 23 23 26 23 23 26 23 23 26 23 23 26 23 23 26 23 23 26 23
23 26 23 23 26 23 23 26 23 23 26 23 23 26 23 23 26 23 23 26 23 23 26
23 23 26 23 23 26 23 23 26 23 23 26 23 23 26 23 23 26 23 23 26 23 23
26 23 23 26 23 23 26 23 23 26 23 23 26 23 23 26 23 23 26 23 23 26 23
23 26 23 23 26 23 23 26 23 23 26 23 23 26 23 23 26 23 23 26 23 23 26
23 23 26 23 23 26 23 23 26 23 23 26 23 23 26 23 23 26 23 23 26 23 23
26 23 23 26 23 23 26 23 23 26 23 23 26 23 23 26 23 23 26 23 23 26 23
23 26 23 23 26 23 23 26 23 23 26 23 23 26 23 23 26 23 23 26 23 23 26
23 23 26 23 23 26 23 23 26 23 23 26 23 23 26 23 23 26 23 23 26 23 23
26 23 23 26 23 23 26 23 23 26 23 23 26 23 23 26 23 23 26 23 23 26 23
23
26 23 23 26 23 23 26 23 23 26 23 23 26 23 23 26 23 23 26 23 23 26 23
23 26 23 23 26 23 23 26 23 23 26 23 23 26 23 23 26 23 23 26 23 23 26
23 23 26 23 23 26 23 23 26 23 23 26 23 23 26 23 23 26 23 23 26 23 23
26 23 23 26 23 23 26 23 23 26 23 23 26 23 23 26 23 23 26 23 23 26 23
23 26 23 23 26 23 23 26 23 23 26 23 23 26 23 23 26 23 23 26 23 23 26
23 23 26 23 23 26 23 23 26 23 23 26 23 23 26 23 23 26 23 23 26 23 23
26 23 23 26 23 23 26 23 23 26 23 23 26 23 23 26 23 23 26 23 23 26 23
23 26 23 23 26 23 23 26 23 23 26 23 23 26 23 23 26 23 23 26 23 23 26
23 23 26 23 23 26 23 23 26 23 23 26 23 23 26 23 23 26 23 23 26 23 23
26 23 23 26 23 23 26 23 23 26 23 23 26 23 23 26 23 23 26 23 23 26 23
23 26 23 23 26 23 23 26 23 23 26 23 23 26 23 23 26 23 23 26 23 23 26
23 23 26 23 23 26 23 23 26 23 23 26 23 23 26 23 23 26 23 23 26 23 23
26 23 23 26 23 23 26 23 23 26 23 23 26 23 23 26 23 23 26 23 23 26 23
23
26 23 23 26 23 23 26 23 23 26 23 23 26 23 23 26 23 23 26 23 23 26 23
23 26 23 23 26 23 23 26 23 23 26 23 23 26 23 23 26 23 23 26 23 23 26
23 23 26 23 23 26 23 23 26 23 23 26 23 23 26 23 23 26 23 23 26 23 23
26 23 23 26 23 23 26 23 23 26 23 23 26 23 23 26 23 23 26 23 23 26 23
23 26 23 23 26 23 23 26 23 23 26 23 23 26 23 23 26 23 23 26 23 23 26
23 23 26 23 23 26 23 23 26 23 23 26 23 23 26 23 23 26 23 23 26 23 23
26 23 23 26 23 23 26 23 23 26 23 23 26 23 23 26 23 23 26 23 23 26 23
23 26 23 23 26 23 23 26 23 23 26 23 23 26 23 23 26 23 23 26 23 23 26
23 23 26 23 23 26 23 23 26 23 23 26 23 23 26 23 23 26 23 23 26 23 23
26 23 23 26 23 23 26 23 23 26 23 23 26 23 23 26 23 23 26 23 23 26 23
23 26 23 23 26 23 23 26 23 23 26 23 23 26 23 23 26 23 23 26 23 23 26
23 23 26 23 23 26 23 23 26 23 23 26 23 23 26 23 23 26 23 23 26 23 23
26 23 23 26 23 23 26 23 23 26 23 23 26 23 23 26 23 23 26 23 23 26 23
23
26 23 23 26 23 23 26 23 23 26 23 23 26 23 23 26 23 23 26 23 23 26 23
23 26 23 23 26 23 23 26 23 23 26 23 23 26 23 23 26 23 23 26 23 23 26
23 23 26 23 23 26 23 23 26 23 23 26 23 23 26 23 23 26 23 23 26 23 23
26 23 23 26 23 23 26 23 23 26 23 23 26 23 23 26 23 23 26 23 23 26 23
23 26 23 23 26 23 23 26 23 23 26 23 23 26 23 23 26 23 23 26 23 23 26
23 23 26 23 23 26 23 23 26 23 23 26 23 23 26 23 23 26 23 23 26 23 23
26 23 23 26 23 23 26 23 23 26 23 23 26 23 23 26 23 23 26 23 23 26 23
23 26 23 23 26 23 23 26 23 23 26 23 23 26 23 23 26 23 23 26 23 23 26
23 23 26 23 23 26 23 23 26 23 23 26 23 23 26 23 23 26 23 23 26 23 23
26 23 23 26 23 23 26 23 23 26 23 23 26 23 23 26 23 23 26 23 23 26 23
23 26 23 23 26 23 23 26 23 23 26 23 23 26 23 23 26 23 23 26 23 23 26
23 23 26 23 23 26 23 23 26 23 23 26 23 23 26 23 23 26 23 23 26 23 23
26 23 23 26 23 23 26 23 23 26 23 23 26 23 23 26 23 23 26 23 23 26 23
23
26 23 23 26 23 23 26 23 23 26 23 23 26 23 23 26 23 23 26 23 23 26 23
23 26 23 23 26 23 23 26 23 23 26 23 23 26 23 23 26 23 23 26 23 23 26
23 23 26 23 23 26 23 23 26 23 23 26 23 23 26 23 23 26 23 23 26 23 23
26 23 23 26 23 23 26 23 23 26 23 23 26 23 23 26 23 23 26 23 23 26 23
23 26 23 23 26 23 23 26 23 23 26 23 23 26 23 23 26 23 23 26 23 23 26
23 23 26 23 23 26 23 23 26 23 23 26 23 23 26 23 23 26 23 23 26 23 23
26 23 23 26 23 23 26 23 23 26 23 23 26 23 23 26 23 23 26 23 23 26 23
23 26 23 23 26 23 23 26 23 23 26 23 23 26 23 23 26 23 23 26 23 23 26
23 23 26 23 23 26 23 23 26 23 23 26 23 23 26 23 23 26 23 23 26 23 23
26 23 23 26 23 23 26 23 23 26 23 23 26 23 23 26 23 23 26 23 23 26 23
23 26 23 23 26 23 23 26 23 23 26 23 23 26 23 23 26 23 23 26 23 23 26
23 23 26 23 23 26 23 23 26 23 23 26 23 23 26 23 23 26 23 23 26 23 23
26 23 23 26 23 23 26 23 23 26 23 23 26 23 23 26 23 23 26 23 23 26 23
23
26 23 23 26 23 23 26 23 23 26 23 23 26 23 23 26 23 23 26 23 23 26 23
23 26 23 23 26 23 23 26 23 23 26 23 23 26 23 23 26 23 23 26 23 23 26
23 23 26 23 23 26 23 23 26 23 23 26 23 23 26 23 23 26 23 23 26 23 23
26 23 23 26 23 23 26 23 23 26 23 23 26 23 23 26 23 23 26 23 23 26 23
23 26 23 23 26 23 23 26 23 23 26 23 23 26 23 23 26 23 23 26 23 23 26
23 23 26 23 23 26 23 23 26 23 23 26 23 23 26 23 23 26 23 23 26 23 23
26 23 23 26 23 23 26 23 23 26 23 23 26 23 23 26 23 23 26 23 23 26 23
23 26 23 23 26 23 23 26 23 23 26 23 23 26 23 23 26 23 23 26 23 23 26
23 23 26 23 23 26 23 23 26 23 23 26 23 23 26 23 23 26 23 23 26 23 23
26 23 23 26 23 23 26 23 23 26 23 23 26 23 23 26 23 23 26 23 23 26 23
23 26 23 23 26 23 23 26 23 23 26 23 23 26 23 23 26 23 23 26 23 23 26
23 23 26 23 23 26 23 23 26 23 23 26 23 23 26 23 23 26 23 23 26 23 23
26 23 23 26 23 23 26 23 23 26 23 23 26 23 23 26 23 23 26 23 23 26 23
23
26 23 23 26 23 23 26 23 23 26 23 23 26 23 23 26 23 23 26 23 23 26 23
23 26 23 23 26 23 23 26 23 23 26 23 23 26 23 23 26 23 23 26 23 23 26
23 23 26 23 23 26 23 23 26 23 23 26 23 23 26 23 23 26 23 23 26 23 23
26 23 23 26 23 23 26 23 23 26 23 23 26 23 23 26 23 23 26 23 23 26 23
23 26 23 23 26 23 23 26 23 23 26 23 23 26 23 23 26 23 23 26 23 23 26
23 23 26 23 23 26 23 23 26 23 23 26 23 23 26 23 23 26 23 23 26 23 23
26 23 23 26 23 23 26 23 23 26 23 23 26 23 23 26 23 23 26 23 23 26 23
23 26 23 23 26 23 23 26 23 23 26 23 23 26 23 23 26 23 23 26 23 23 26
23 23 26 23 23 26 23 23 26 23 23 26 23 23 26 23 23 26 23 23 26 23 23
26 23 23 26 23 23 26 23 23 26 23 23 26 23 23 26 23 23 26 23 23 26 23
23 26 23 23 26 23 23 26 23 23 26 23 23 26 23 23 26 23 23 26 23 23 26
23 23 26 23 23 26 23 23 26 23 23 26 23 23 26 23 23 26 23 23 26 23 23
26 23 23 26 23 23 26 23 23 26 23 23 26 23 23 26 23 23 26 23 23 26 23
23
26 23 23 26 23 23 26 23 23 26 23 23 26 23 23 26 23 23 26 23 23 26 23
23 26 23 23 26 23 23 26 23 23 26 23 23 26 23 23 26 23 23 26 23 23 26
23 23 26 23 23 26 23 23 26 23 23 26 23 23 26 23 23 26 23 23 26 23 23
26 23 23 26 23 23 26 23 23 26 23 23 26 23 23 26 23 23 26 23 23 26 23
23 26 23 23 26 23 23 26 23 23 26 23 23 26 23 23 26 23 23 26 23 23 26
23 23 26 23 23 26 23 23 26 23 23 26 23 23 26 23 23 26 23 23 26 23 23
26 23 23 26 23 23 26 23 23 26 23 23 26 23 23 26 23 23 26 23 23 26 23
23 26 23 23 26 23 23 26 23 23 26 23 23 26 23 23 26 23 23 26 23 23 26
23 23 26 23 23 26 23 23 26 23 23 26 23 23 26 23 23 26 23 23 26 23 23
26 23 23 26 23 23 26 23 23 26 23 23 26 23 23 26 23 23 26 23 23 26 23
23 26 23 23 26 23 23 26 23 23 26 23 23 26 23 23 26 23 23 26 23 23 26
23 23 26 23 23 26 23 23 26 23 23 26 23 23 26 23 23 26 23 23 26 23 23
26 23 23 26 23 23 26 23 23 26 23 23 26 23 23 26 23 23 26 23 23 26 23
23
26 23 23 26 23 23 26 23 23 26 23 23 26 23 23 26 23 23 26 23 23 26 23
23 26 23 23 26 23 23 26 23 23 26 23 23 26 23 23 26 23 23 26 23 23 26
23 23 26 23 23 26 23 23 26 23 23 26 23 23 26 23 23 26 23 23 26 23 23
26 23 23 26 23 23 26 23 23 26 23 23 26 23 23 26 23 23 26 23 23 26 23
23 26 23 23 26 23 23 26 23 23 26 23 23 26 23 23 26 23 23 26 23 23 26
23 23 26 23 23 26 23 23 26 23 23 26 23 23 26 23 23 26 23 23 26 23 23
26 23 23 26 23 23 26 23 23 26 23 23 26 23 23 26 23 23 26 23 23 26 23
23 26 23 23 26 23 23 26 23 23 26 23 23 26 23 23 26 23 23 26 23 23 26
23 23 26 23 23 26 23 23 26 23 23 26 23 23 26 23 23 26 23 23 26 23 23
26 23 23 26 23 23 26 23 23 26 23 23 26 23 23 26 23 23 26 23 23 26 23
23 26 23 23 26 23 23 26 23 23 26 23 23 26 23 23 26 23 23 26 23 23 26
23 23 26 23 23 26 23 23 26 23 23 26 23 23 26 23 23 26 23 23 26 23 23
26 23 23 26 23 23 26 23 23 26 23 23 26 23 23 26 23 23 26 23 23 26 23
23
26 23 23 26 23 23 26 23 23 26 23 23 26 23 23 26 23 23 26 23 23 26 23
23 26 23 23 26 23 23 26 23 23 26 23 23 26 23 23 26 23 23 26 23 23 26
23 23 26 23 23 26 23 23 26 23 23 26 23 23 26 23 23 26 23 23 26 23 23
26 23 23 26 23 23 26 23 23 26 23 23 26 23 23 26 23 23 26 23 23 26 23
23 26 23 23 26 23 23 26 23 23 26 23 23 26 23 23 26 23 23 26 23 23 26
23 23 26 23 23 26 23 23 26 23 23 26 23 23 26 23 23 26 23 23 26 23 23
26 23 23 26 23 23 26 23 23 26 23 23 26 23 23 26 23 23 26 23 23 26 23
23 26 23 23 26 23 23 26 23 23 26 23 23 26 23 23 26 23 23 26 23 23 26
23 23 26 23 23 26 23 23 26 23 23 26 23 23 26 23 23 26 23 23 26 23 23
26 23 23 26 23 23 26 23 23 26 23 23 26 23 23 26 23 23 26 23 23 26 23
23 26 23 23 26 23 23 26 23 23 26 23 23 26 23 23 26 23 23 26 23 23 26
23 23 26 23 23 26 23 23 26 23 23 26 23 23 26 23 23 26 23 23 26 23 23
26 23 23 26 23 23 26 23 23 26 23 23 26 23 23 26 23 23 26 23 23 26 23
23
26 23 23 26 23 23 26 23 23 26 23 23 26 23 23 26 23 23 26 23 23 26 23
23 26 23 23 26 23 23 26 23 23 26 23 23 26 23 23 26 23 23 26 23 23 26
23 23 26 23 23 26 23 23 26 23 23 26 23 23 26 23 23 26 23 23 26 23 23
26 23 23 26 23 23 26 23 23 26 23 23 26 23 23 26 23 23 26 23 23 26 23
23 26 23 23 26 23 23 26 23 23 26 23 23 26 23 23 26 23 23 26 23 23 26
23 23 26 23 23 26 23 23 26 23 23 26 23 23 26 23 23 26 23 23 26 23 23
26 23 23 26 23 23 26 23 23 26 23 23 26 23 23 26 23 23 26 23 23 26 23
23 26 23 23 26 23 23 26 23 23 26 23 23 26 23 23 26 23 23 26 23 23 26
23 23 26 23 23 26 23 23 26 23 23 26 23 23 26 23 23 26 23 23 26 23 23
26 23 23 26 23 23 26 23 23 26 23 23 26 23 23 26 23 23 26 23 23 26 23
23 26 23 23 26 23 23 26 23 23 26 23 23 26 23 23 26 23 23 26 23 23 26
23 23 26 23 23 26 23 23 26 23 23 26 23 23 26 23 23 26 23 23 26 23 23
26 23 23 26 23 23 26 23 23 26 23 23 26 23 23 26 23 23 26 23 23 26 23
23
26 23 23 26 23 23 26 23 23 26 23 23 26 23 23 26 23 23 26 23 23 26 23
23 26 23 23 26 23 23 26 23 23 26 23 23 26 23 23 26 23 23 26 23 23 26
23 23 26 23 23 26 23 23 26 23 23 26 23 23 26 23 23 26 23 23 26 23 23
26 23 23 26 23 23 26 23 23 26 23 23 26 23 23 26 23 23 26 23 23 26 23
23 26 23 23 26 23 23 26 23 23 26 23 23 26 23 23 26 23 23 26 23 23 26
23 23 26 23 23 26 23 23 26 23 23 26 23 23 26 23 23 26 23 23 26 23 23
26 23 23 26 23 23 26 23 23 26 23 23 26 23 23 26 23 23 26 23 23 26 23
23 26 23 23 26 23 23 26 23 23 26 23 23 26 23 23 26 23 23 26 23 23 26
23 23 26 23 23 26 23 23 26 23 23 26 23 23 26 23 23 26 23 23 26 23 23
26 23 23 26 23 23 26 23 23 26 23 23 26 23 23 26 23 23 26 23 23 26 23
23 26 23 23 26 23 23 26 23 23 26 23 23 26 23 23 26 23 23 26 23 23 26
23 23 26 23 23 26 23 23 26 23 23 26 23 23 26 23 23 26 23 23 26 23 23
26 23 23 26 23 23 26 23 23 26 23 23 26 23 23 26 23 23 26 23 23 26 23
23
26 23 23 26 23 23 26 23 23 26 23 23 26 23 23 26 23 23 26 23 23 26 23
23 26 23 23 26 23 23 26 23 23 26 23 23 26 23 23 26 23 23 26 23 23 26
23 23 26 23 23 26 23 23 26 23 23 26 23 23 26 23 23 26 23 23 26 23 23
26 23 23 26 23 23 26 23 23 26 23 23 26 23 23 26 23 23 26 23 23 26 23
23 26 23 23 26 23 23 26 23 23 26 23 23 26 23 23 26 23 23 26 23 23 26
23 23 26 23 23 26 23 23 26 23 23 26 23 23 26 23 23 26 23 23 26 23 23
26 23 23 26 23 23 26 23 23 26 23 23 26 23 23 26 23 23 26 23 23 26 23
23 26 23 23 26 23 23 26 23 23 26 23 23 26 23 23 26 23 23 26 23 23 26
23 23 26 23 23 26 23 23 26 23 23 26 23 23 26 23 23 26 23 23 26 23 23
26 23 23 26 23 23 26 23 23 26 23 23 26 23 23 26 23 23 26 23 23 26 23
23 26 23 23 26 23 23 26 23 23 26 23 23 26 23 23 26 23 23 26 23 23 26
23 23 26 23 23 26 23 23 26 23 23 26 23 23 26 23 23 26 23 23 26 23 23
26 23 23 26 23 23 26 23 23 26 23 23 26 23 23 26 23 23 26 23 23 26 23
23
26 23 23 26 23 23 26 23 23 26 23 23 26 23 23 26 23 23 26 23 23 26 23
23 26 23 23 26 23 23 26 23 23 26 23 23 26 23 23 26 23 23 26 23 23 26
23 23 26 23 23 26 23 23 26 23 23 26 23 23 26 23 23 26 23 23 26 23 23
26 23 23 26 23 23 26 23 23 26 23 23 26 23 23 26 23 23 26 23 23 26 23
23 26 23 23 26 23 23 26 23 23 26 23 23 26 23 23 26 23 23 26 23 23 26
23 23 26 23 23 26 23 23 26 23 23 26 23 23 26 23 23 26 23 23 26 23 23
26 23 23 26 23 23 26 23 23 26 23 23 26 23 23 26 23 23 26 23 23 26 23
23 26 23 23 26 23 23 26 23 23 26 23 23 26 23 23 26 23 23 26 23 23 26
23 23 26 23 23 26 23 23 26 23 23 26 23 23 26 23 23 26 23 23 26 23 23
26 23 23 26 23 23 26 23 23 26 23 23 26 23 23 26 23 23 26 23 23 26 23
23 26 23 23 26 23 23 26 23 23 26 23 23 26 23 23 26 23 23 26 23 23 26
23 23 26 23 23 26 23 23 26 23 23 26 23 23 26 23 23 26 23 23 26 23 23
26 23 23 26 23 23 26 23 23 26 23 23 26 23 23 26 23 23 26 23 23 26 23
23
26 23 23 26 23 23 26 23 23 26 23 23 26 23 23 26 23 23 26 23 23 26 23
23 26 23 23 26 23 23 26 23 23 26 23 23 26 23 23 26 23 23 26 23 23 26
23 23 26 23 23 26 23 23 26 23 23 26 23 23 26 23 23 26 23 23 26 23 23
26 23 23 26 23 23 26 23 23 26 23 23 26 23 23 26 23 23 26 23 23 26 23
23 26 23 23 26 23 23 26 23 23 26 23 23 26 23 23 26 23 23 26 23 23 26
23 23 26 23 23 26 23 23 26 23 23 26 23 23 26 23 23 26 23 23 26 23 23
26 23 23 26 23 23 26 23 23 26 23 23 26 23 23 26 23 23 26 23 23 26 23
23 26 23 23 26 23 23 26 23 23 26 23 23 26 23 23 26 23 23 26 23 23 26
23 23 26 23 23 26 23 23 26 23 23 26 23 23 26 23 23 26 23 23 26 23 23
26 23 23 26 23 23 26 23 23 26 23 23 26 23 23 26 23 23 26 23 23 26 23
23 26 23 23 26 23 23 26 23 23 26 23 23 26 23 23 26 23 23 26 23 23 26
23 23 26 23 23 26 23 23 26 23 23 26 23 23 26 23 23 26 23 23 26 23 23
26 23 23 26 23 23 26 23 23 26 23 23 26 23 23 26 23 23 26 23 23 26 23
23
26 23 23 26 23 23 26 23 23 26 23 23 26 23 23 26 23 23 26 23 23 26 23
23 26 23 23 26 23 23 26 23 23 26 23 23 26 23 23 26 23 23 26 23 23 26
23 23 26 23 23 26 23 23 26 23 23 26 23 23 26 23 23 26 23 23 26 23 23
26 23 23 26 23 23 26 23 23 26 23 23 26 23 23 26 23 23 26 23 23 26 23
23 26 23 23 26 23 23 26 23 23 26 23 23 26 23 23 26 23 23 26 23 23 26
23 23 26 23 23 26 23 23 26 23 23 26 23 23 26 23 23 26 23 23 26 23 23
26 23 23 26 23 23 26 23 23 26 23 23 26 23 23 26 23 23 26 23 23 26 23
23 26 23 23 26 23 23 26 23 23 26 23 23 26 23 23 26 23 23 26 23 23 26
23 23 26 23 23 26 23 23 26 23 23 26 23 23 26 23 23 26 23 23 26 23 23
26 23 23 26 23 23 26 23 23 26 23 23 26 23 23 26 23 23 26 23 23 26 23
23 26 23 23 26 23 23 26 23 23 26 23 23 26 23 23 26 23 23 26 23 23 26
23 23 26 23 23 26 23 23 26 23 23 26 23 23 26 23 23 26 23 23 26 23 23
26 23 23 26 23 23 26 23 23 26 23 23 26 23 23 26 23 23 26 23 23 26 23
23
26 23 23 26 23 23 26 23 23 26 23 23 26 23 23 26 23 23 26 23 23 26 23
23 26 23 23 26 23 23 26 23 23 26 23 23 26 23 23 26 23 23 26 23 23 26
23 23 26 23 23 26 23 23 26 23 23 26 23 23 26 23 23 26 23 23 26 23 23
26 23 23 26 23 23 26 23 23 26 23 23 26 23 23 26 23 23 26 23 23 26 23
23 26 23 23 26 23 23 26 23 23 26 23 23 26 23 23 26 23 23 26 23 23 26
23 23 26 23 23 26 23 23 26 23 23 26 23 23 26 23 23 26 23 23 26 23 23
26 23 23 26 23 23 26 23 23 26 23 23 26 23 23 26 23 23 26 23 23 26 23
23 26 23 23 26 23 23 26 23 23 26 23 23 26 23 23 26 23 23 26 23 23 26
23 23 26 23 23 26 23 23 26 23 23 26 23 23 26 23 23 26 23 23 26 23 23
26 23 23 26 23 23 26 23 23 26 23 23 26 23 23 26 23 23 26 23 23 26 23
23 26 23 23 26 23 23 26 23 23 26 23 23 26 23 23 26 23 23 26 23 23 26
23 23 26 23 23 26 23 23 26 23 23 26 23 23 26 23 23 26 23 23 26 23 23
26 23 23 26 23 23 26 23 23 26 23 23 26 23 23 26 23 23 26 23 23 26 23
23
26 23 23 26 23 23 26 23 23 26 23 23 26 23 23 26 23 23 26 23 23 26 23
23 26 23 23 26 23 23 26 23 23 26 23 23 26 23 23 26 23 23 26 23 23 26
23 23 26 23 23 26 23 23 26 23 23 26 23 23 26 23 23 26 23 23 26 23 23
26 23 23 26 23 23 26 23 23 26 23 23 26 23 23 26 23 23 26 23 23 26 23
23 26 23 23 26 23 23 26 23 23 26 23 23 26 23 23 26 23 23 26 23 23 26
23 23 26 23 23 26 23 23 26 23 23 26 23 23 26 23 23 26 23 23 26 23 23
26 23 23 26 23 23 26 23 23 26 23 23 26 23 23 26 23 23 26 23 23 26 23
23 26 23 23 26 23 23 26 23 23 26 23 23 26 23 23 26 23 23 26 23 23 26
23 23 26 23 23 26 23 23 26 23 23 26 23 23 26 23 23 26 23 23 26 23 23
26 23 23 26 23 23 26 23 23 26 23 23 26 23 23 26 23 23 26 23 23 26 23
23 26 23 23 26 23 23 26 23 23 26 23 23 26 23 23 26 23 23 26 23 23 26
23 23 26 23 23 26 23 23 26 23 23 26 23 23 26 23 23 26 23 23 26 23 23
26 23 23 26 23 23 26 23 23 26 23 23 26 23 23 26 23 23 26 23 23 26 23
23
26 23 23 26 23 23 26 23 23 26 23 23 26 23 23 26 23 23 26 23 23 26 23
23 26 23 23 26 23 23 26 23 23 26 23 23 26 23 23 26 23 23 26 23 23 26
23 23 26 23 23 26 23 23 26 23 23 26 23 23 26 23 23 26 23 23 26 23 23
26 23 23 26 23 23 26 23 23 26 23 23 26 23 23 26 23 23 26 23 23 26 23
23 26 23 23 26 23 23 26 23 23 26 23 23 26 23 23 26 23 23 26 23 23 26
23 23 26 23 23 26 23 23 26 23 23 26 23 23 26 23 23 26 23 23 26 23 23
26 23 23 26 23 23 26 23 23 26 23 23 26 23 23 26 23 23 26 23 23 26 23
23 26 23 23 26 23 23 26 23 23 26 23 23 26 23 23 26 23 23 26 23 23 26
23 23 26 23 23 26 23 23 26 23 23 26 23 23 26 23 23 26 23 23 26 23 23
26 23 23 26 23 23 26 23 23 26 23 23 26 23 23 26 23 23 26 23 23 26 23
23 26 23 23 26 23 23 26 23 23 26 23 23 26 23 23 26 23 23 26 23 23 26
23 23 26 23 23 26 23 23 26 23 23 26 23 23 26 23 23 26 23 23 26 23 23
26 23 23 26 23 23 26 23 23 26 23 23 26 23 23 26 23 23 26 23 23 26 23
23
26 23 23 26 23 23 26 23 23 26 23 23 26 23 23 26 23 23 26 23 23 26 23
23 26 23 23 26 23 23 26 23 23 26 23 23 26 23 23 26 23 23 26 23 23 26
23 23 26 23 23 26 23 23 26 23 23 26 23 23 26 23 23 26 23 23 26 23 23
26 23 23 26 23 23 26 23 23 26 23 23 26 23 23 26 23 23 26 23 23 26 23
23 26 23 23 26 23 23 26 23 23 26 23 23 26 23 23 26 23 23 26 23 23 26
23 23 26 23 23 26 23 23 26 23 23 26 23 23 26 23 23 26 23 23 26 23 23
26 23 23 26 23 23 26 23 23 26 23 23 26 23 23 26 23 23 26 23 23 26 23
23 26 23 23 26 23 23 26 23 23 26 23 23 26 23 23 26 23 23 26 23 23 26
23 23 26 23 23 26 23 23 26 23 23 26 23 23 26 23 23 26 23 23 26 23 23
26 23 23 26 23 23 26 23 23 26 23 23 26 23 23 26 23 23 26 23 23 26 23
23 26 23 23 26 23 23 26 23 23 26 23 23 26 23 23 26 23 23 26 23 23 26
23 23 26 23 23 26 23 23 26 23 23 26 23 23 26 23 23 26 23 23 26 23 23
26 23 23 26 23 23 26 23 23 26 23 23 26 23 23 26 23 23 26 23 23 26 23
23
26 23 23 26 23 23 26 23 23 26 23 23 26 23 23 26 23 23 26 23 23 26 23
23 26 23 23 26 23 23 26 23 23 26 23 23 26 23 23 26 23 23 26 23 23 26
23 23 26 23 23 26 23 23 26 23 23 26 23 23 26 23 23 26 23 23 26 23 23
26 23 23 26 23 23 26 23 23 26 23 23 26 23 23 26 23 23 26 23 23 26 23
23 26 23 23 26 23 23 26 23 23 26 23 23 26 23 23 26 23 23 26 23 23 26
23 23 26 23 23 26 23 23 26 23 23 26 23 23 26 23 23 26 23 23 26 23 23
26 23 23 26 23 23 26 23 23 26 23 23 26 23 23 26 23 23 26 23 23 26 23
23 26 23 23 26 23 23 26 23 23 26 23 23 26 23 23 26 23 23 26 23 23 26
23 23 26 23 23 26 23 23 26 23 23 26 23 23 26 23 23 26 23 23 26 23 23
26 23 23 26 23 23 26 23 23 26 23 23 26 23 23 26 23 23 26 23 23 26 23
23 26 23 23 26 23 23 26 23 23 26 23 23 26 23 23 26 23 23 26 23 23 26
23 23 26 23 23 26 23 23 26 23 23 26 23 23 26 23 23 26 23 23 26 23 23
26 23 23 26 23 23 26 23 23 26 23 23 26 23 23 26 23 23 26 23 23 26 23
23
26 23 23 26 23 23 26 23 23 26 23 23 26 23 23 26 23 23 26 23 23 26 23
23 26 23 23 26 23 23 26 23 23 26 23 23 26 23 23 26 23 23 26 23 23 26
23 23 26 23 23 26 23 23 26 23 23 26 23 23 26 23 23 26 23 23 26 23 23
26 23 23 26 23 23 26 23 23 26 23 23 26 23 23 26 23 23 26 23 23 26 23
23 26 23 23 26 23 23 26 23 23 26 23 23 26 23 23 26 23 23 26 23 23 26
23 23 26 23 23 26 23 23 26 23 23 26 23 23 26 23 23 26 23 23 26 23 23
26 23 23 26 23 23 26 23 23 26 23 23 26 23 23 26 23 23 26 23 23 26 23
23 26 23 23 26 23 23 26 23 23 26 23 23 26 23 23 26 23 23 26 23 23 26
23 23 26 23 23 26 23 23 26 23 23 26 23 23 26 23 23 26 23 23 26 23 23
26 23 23 26 23 23 26 23 23 26 23 23 26 23 23 26 23 23 26 23 23 26 23
23 26 23 23 26 23 23 26 23 23 26 23 23 26 23 23 26 23 23 26 23 23 26
23 23 26 23 23 26 23 23 26 23 23 26 23 23 26 23 23 26 23 23 26 23 23
26 23 23 26 23 23 26 23 23 26 23 23 26 23 23 26 23 23 26 23 23 26 23
23
26 23 23 26 23 23 26 23 23 26 23 23 26 23 23 26 23 23 26 23 23 26 23
23 26 23 23 26 23 23 26 23 23 26 23 23 26 23 23 26 23 23 26 23 23 26
23 23 26 23 23 26 23 23 26 23 23 26 23 23 26 23 23 26 23 23 26 23 23
26 23 23 26 23 23 26 23 23 26 23 23 26 23 23 26 23 23 26 23 23 26 23
23 26 23 23 26 23 23 26 23 23 26 23 23 26 23 23 26 23 23 26 23 23 26
23 23 26 23 23 26 23 23 26 23 23 26 23 23 26 23 23 26 23 23 26 23 23
26 23 23 26 23 23 26 23 23 26 23 23 26 23 23 26 23 23 26 23 23 26 23
23 26 23 23 26 23 23 26 23 23 26 23 23 26 23 23 26 23 23 26 23 23 26
23 23 26 23 23 26 23 23 26 23 23 26 23 23 26 23 23 26 23 23 26 23 23
26 23 23 26 23 23 26 23 23 26 23 23 26 23 23 26 23 23 26 23 23 26 23
23 26 23 23 26 23 23 26 23 23 26 23 23 26 23 23 26 23 23 26 23 23 26
23 23 26 23 23 26 23 23 26 23 23 26 23 23 26 23 23 26 23 23 26 23 23
26 23 23 26 23 23 26 23 23 26 23 23 26 23 23 26 23 23 26 23 23 26 23
23
26 23 23 26 23 23 26 23 23 26 23 23 26 23 23 26 23 23 26 23 23 26 23
23 26 23 23 26 23 23 26 23 23 26 23 23 26 23 23 26 23 23 26 23 23 26
23 23 26 23 23 26 23 23 26 23 23 26 23 23 26 23 23 26 23 23 26 23 23
26 23 23 26 23 23 26 23 23 26 23 23 26 23 23 26 23 23 26 23 23 26 23
23 26 23 23 26 23 23 26 23 23 26 23 23 26 23 23 26 23 23 26 23 23 26
23 23 26 23 23 26 23 23 26 23 23 26 23 23 26 23 23 26 23 23 26 23 23
26 23 23 26 23 23 26 23 23 26 23 23 26 23 23 26 23 23 26 23 23 26 23
23 26 23 23 26 23 23 26 23 23 26 23 23 26 23 23 26 23 23 26 23 23 26
23 23 26 23 23 26 23 23 26 23 23 26 23 23 26 23 23 26 23 23 26 23 23
26 23 23 26 23 23 26 23 23 26 23 23 26 23 23 26 23 23 26 23 23 26 23
23 26 23 23 26 23 23 26 23 23 26 23 23 26 23 23 26 23 23 26 23 23 26
23 23 26 23 23 26 23 23 26 23 23 26 23 23 26 23 23 26 23 23 26 23 23
26 23 23 26 23 23 26 23 23 26 23 23 26 23 23 26 23 23 26 23 23 26 23
23
