P3
128 128
255
26 23 23 80 72 72 26 23 23 80 72 72 79 71 71 79 71 71 79 71 71 79 71
71 79 71 71 79 71 71 78 71 71 78 70 70 78 70 70 78 70 70 78 70 70 78
70 70 77 70 70 77 70 70 77 69 69 77 69 69 77 69 69 77 69 69 76 69 69
76 69 69 76 69 69 76 68 68 76 68 68 26 23 23 75 68 68 75 68 68 75 68
68 75 67 67 75 67 67 75 67 67 74 67 67 74 67 67 74 67 67 74 66 66 74
66 66 73 66 66 26 23 23 73 66 66 73 66 66 73 65 65 72 65 65 72 65 65
26 23 23 26 23 23 72 64 64 71 64 64 71 64 64 26 23 23 71 64 64 70 63
63 70 63 63 70 63 63 26 23 23 70 63 63 69 62 62 69 62 62 69 62 62 69
62 62 68 62 62 26 23 23 26 23 23 239 215 215 240 216 216 240 216 216
240 216 216 240 216 216 240 216 216 26 23 23 240 216 216 240 216 216
240 216 216 241 216 216 26 23 23 241 217 217 241 217 217 241 217 217
26 23 23 26 23 23 241 217 217 241 217 217 241 217 217 241 217 217 241
217 217 26 23 23 241 217 217 241 217 217 241 217 217 241 217 217 241
217 217 241 217 217 241 217 217 241 217 217 241 217 217 241 217 217
241 217 217 241 217 217 26 23 23 241 217 217 241 217 217 241 216 216
240 216 216 240 216 216 240 216 216 240 216 216 240 216 216 240 216
216 240 216 216 240 216 216 240 216 216 240 216 216 240 216 216 240
216 216 240 216 216 240 216 216 240 216 216 240 216 216 239 216 216
239 215 215 239 215 215 239 215 215 239 215 215 26 23 23 239 215 215
26 23 23
26 23 23 26 23 23 80 72 72 26 23 23 79 71 71 79 71 71 79 71 71 79 71
71 79 71 71 79 71 71 78 71 71 78 70 70 78 70 70 78 70 70 78 70 70 78
70 70 77 70 70 77 70 70 77 69 69 77 69 69 77 69 69 77 69 69 76 69 69
76 69 69 76 68 68 76 68 68 76 68 68 26 23 23 75 68 68 75 68 68 75 68
68 75 67 67 75 67 67 74 67 67 74 67 67 74 67 67 26 23 23 74 66 66 74
66 66 73 66 66 73 66 66 73 66 66 73 65 65 73 65 65 72 65 65 72 65 65
72 65 65 26 23 23 72 64 64 26 23 23 26 23 23 26 23 23 71 64 64 70 63
63 26 23 23 26 23 23 70 63 63 70 63 63 69 62 62 69 62 62 69 62 62 69
62 62 68 62 62 68 61 61 239 215 215 239 215 215 239 215 215 239 216
216 240 216 216 240 216 216 240 216 216 240 216 216 26 23 23 26 23 23
26 23 23 240 216 216 26 23 23 26 23 23 26 23 23 240 216 216 26 23 23
241 217 217 241 217 217 26 23 23 241 217 217 241 217 217 241 217 217
241 217 217 241 217 217 241 217 217 241 217 217 26 23 23 241 217 217
241 217 217 241 217 217 241 217 217 241 217 217 241 216 216 241 216
216 240 216 216 26 23 23 240 216 216 240 216 216 240 216 216 240 216
216 240 216 216 240 216 216 240 216 216 240 216 216 240 216 216 240
216 216 240 216 216 240 216 216 240 216 216 240 216 216 240 216 216
240 216 216 239 216 216 239 215 215 239 215 215 239 215 215 239 215
215 239 215 215 239 215 215 26 23 23 239 215 215 239 215 215 26 23 23
26 23 23 80 72 72 26 23 23 26 23 23 26 23 23 79 71 71 79 71 71 79 71
71 79 71 71 78 71 71 78 70 70 78 70 70 78 70 70 78 70 70 78 70 70 78
70 70 77 70 70 77 69 69 77 69 69 77 69 69 77 69 69 77 69 69 76 69 69
76 69 69 76 68 68 76 68 68 76 68 68 75 68 68 75 68 68 75 68 68 75 67
67 75 67 67 75 67 67 74 67 67 74 67 67 74 67 67 74 66 66 74 66 66 73
66 66 73 66 66 73 66 66 73 66 66 73 65 65 72 65 65 72 65 65 72 65 65
72 65 65 72 64 64 71 64 64 26 23 23 71 64 64 71 64 64 71 64 64 26 23
23 70 63 63 70 63 63 70 63 63 69 63 63 26 23 23 69 62 62 69 62 62 69
62 62 68 62 62 68 61 61 239 215 215 239 215 215 239 215 215 239 215
215 239 215 215 26 23 23 240 216 216 240 216 216 240 216 216 240 216
216 26 23 23 240 216 216 240 216 216 240 216 216 26 23 23 240 216 216
240 216 216 240 216 216 240 216 216 240 216 216 240 216 216 240 216
216 240 216 216 240 216 216 240 216 216 240 216 216 240 216 216 240
216 216 240 216 216 240 216 216 240 216 216 240 216 216 240 216 216
240 216 216 240 216 216 240 216 216 240 216 216 240 216 216 240 216
216 240 216 216 240 216 216 240 216 216 240 216 216 240 216 216 240
216 216 240 216 216 240 216 216 240 216 216 240 216 216 240 216 216
239 216 216 239 215 215 239 215 215 239 215 215 239 215 215 239 215
215 239 215 215 239 215 215 239 215 215 26 23 23 26 23 23 26 23 23 239
215 215 26 23 23
26 23 23 80 72 72 79 72 72 26 23 23 79 71 71 26 23 23 79 71 71 79 71
71 79 71 71 78 71 71 78 70 70 78 70 70 78 70 70 78 70 70 78 70 70 77
70 70 77 70 70 77 69 69 77 69 69 77 69 69 77 69 69 76 69 69 76 69 69
76 69 69 76 68 68 76 68 68 76 68 68 75 68 68 75 68 68 75 68 68 75 67
67 75 67 67 75 67 67 74 67 67 74 67 67 74 67 67 74 66 66 74 66 66 73
66 66 73 66 66 73 66 66 73 66 66 73 65 65 72 65 65 72 65 65 72 65 65
72 65 65 72 64 64 71 64 64 71 64 64 71 64 64 71 64 64 71 63 63 70 63
63 70 63 63 70 63 63 70 63 63 69 62 62 69 62 62 69 62 62 69 62 62 69
62 62 68 61 61 68 61 61 238 215 215 239 215 215 239 215 215 239 215
215 239 215 215 239 215 215 239 215 215 239 215 215 240 216 216 240
216 216 240 216 216 240 216 216 240 216 216 240 216 216 240 216 216
240 216 216 240 216 216 240 216 216 240 216 216 240 216 216 240 216
216 240 216 216 240 216 216 240 216 216 240 216 216 240 216 216 240
216 216 240 216 216 240 216 216 240 216 216 240 216 216 240 216 216
240 216 216 240 216 216 240 216 216 240 216 216 240 216 216 240 216
216 240 216 216 240 216 216 240 216 216 240 216 216 240 216 216 240
216 216 240 216 216 240 216 216 239 216 216 239 215 215 239 215 215
239 215 215 239 215 215 239 215 215 239 215 215 239 215 215 239 215
215 239 215 215 239 215 215 239 215 215 26 23 23 239 215 215 26 23 23
238 215 215 238 215 215 26 23 23
80 72 72 80 72 72 79 71 71 79 71 71 79 71 71 26 23 23 79 71 71 79 71
71 26 23 23 78 71 71 78 70 70 78 70 70 78 70 70 78 70 70 78 70 70 77
70 70 77 70 70 77 69 69 77 69 69 77 69 69 77 69 69 76 69 69 76 69 69
76 68 68 76 68 68 76 68 68 76 68 68 75 68 68 75 68 68 75 68 68 75 67
67 75 67 67 74 67 67 74 67 67 74 67 67 74 67 67 74 66 66 74 66 66 73
66 66 73 66 66 73 66 66 73 65 65 73 65 65 72 65 65 72 65 65 72 65 65
72 65 65 72 64 64 71 64 64 71 64 64 71 64 64 71 64 64 70 63 63 70 63
63 70 63 63 70 63 63 70 63 63 69 62 62 69 62 62 69 62 62 26 23 23 68
62 62 26 23 23 68 61 61 238 214 214 26 23 23 239 215 215 26 23 23 239
215 215 239 215 215 239 215 215 239 215 215 239 215 215 239 215 215
239 215 215 239 216 216 240 216 216 240 216 216 240 216 216 240 216
216 240 216 216 240 216 216 240 216 216 240 216 216 240 216 216 240
216 216 240 216 216 240 216 216 240 216 216 240 216 216 240 216 216
240 216 216 240 216 216 240 216 216 240 216 216 240 216 216 240 216
216 240 216 216 240 216 216 240 216 216 240 216 216 240 216 216 240
216 216 240 216 216 240 216 216 240 216 216 239 216 216 239 215 215
239 215 215 239 215 215 239 215 215 239 215 215 239 215 215 239 215
215 239 215 215 239 215 215 239 215 215 239 215 215 239 215 215 26 23
23 239 215 215 239 215 215 26 23 23 238 215 215 238 214 214 238 214
214 238 214 214 238 214 214
80 72 72 79 72 72 79 71 71 79 71 71 79 71 71 79 71 71 79 71 71 79 71
71 78 71 71 78 70 70 26 23 23 78 70 70 78 70 70 78 70 70 78 70 70 77
70 70 77 69 69 77 69 69 77 69 69 77 69 69 77 69 69 76 69 69 76 69 69
76 68 68 76 68 68 76 68 68 75 68 68 75 68 68 75 68 68 75 67 67 75 67
67 75 67 67 74 67 67 74 67 67 74 67 67 74 66 66 74 66 66 73 66 66 73
66 66 73 66 66 73 66 66 73 65 65 72 65 65 72 65 65 26 23 23 72 65 65
72 65 65 71 64 64 71 64 64 71 64 64 71 64 64 71 64 64 70 63 63 70 63
63 70 63 63 70 63 63 70 63 63 69 62 62 69 62 62 69 62 62 69 62 62 68
62 62 68 61 61 68 61 61 238 214 214 238 214 214 238 214 214 238 215
215 239 215 215 239 215 215 239 215 215 239 215 215 239 215 215 239
215 215 239 215 215 239 215 215 239 215 215 239 215 215 239 215 215
239 216 216 240 216 216 240 216 216 240 216 216 26 23 23 240 216 216
240 216 216 240 216 216 240 216 216 240 216 216 240 216 216 240 216
216 240 216 216 240 216 216 240 216 216 240 216 216 240 216 216 240
216 216 240 216 216 240 216 216 240 216 216 239 216 216 239 216 216
239 215 215 239 215 215 239 215 215 239 215 215 239 215 215 239 215
215 239 215 215 239 215 215 239 215 215 239 215 215 239 215 215 239
215 215 239 215 215 239 215 215 239 215 215 26 23 23 239 215 215 238
215 215 238 215 215 238 214 214 238 214 214 238 214 214 238 214 214
238 214 214 238 214 214 238 214 214
80 72 72 79 71 71 79 71 71 79 71 71 79 71 71 79 71 71 79 71 71 79 71
71 78 71 71 78 70 70 78 70 70 78 70 70 78 70 70 78 70 70 77 70 70 77
70 70 77 69 69 26 23 23 77 69 69 77 69 69 76 69 69 76 69 69 76 69 69
76 68 68 76 68 68 76 68 68 75 68 68 75 68 68 75 68 68 75 67 67 75 67
67 75 67 67 74 67 67 74 67 67 74 67 67 74 66 66 74 66 66 73 66 66 73
66 66 73 66 66 73 66 66 73 65 65 72 65 65 72 65 65 72 65 65 72 65 65
72 64 64 71 64 64 71 64 64 71 64 64 71 64 64 71 64 64 70 63 63 70 63
63 70 63 63 70 63 63 69 63 63 69 62 62 69 62 62 69 62 62 69 62 62 68
62 62 68 61 61 68 61 61 238 214 214 238 214 214 238 214 214 238 214
214 238 214 214 238 215 215 238 215 215 239 215 215 239 215 215 239
215 215 239 215 215 239 215 215 239 215 215 239 215 215 239 215 215
239 215 215 239 215 215 239 215 215 239 215 215 239 215 215 239 215
215 239 215 215 239 215 215 239 215 215 239 216 216 239 216 216 239
216 216 239 215 215 239 215 215 239 215 215 239 215 215 239 215 215
239 215 215 239 215 215 239 215 215 239 215 215 239 215 215 239 215
215 239 215 215 239 215 215 239 215 215 239 215 215 239 215 215 239
215 215 239 215 215 239 215 215 26 23 23 239 215 215 239 215 215 239
215 215 239 215 215 238 215 215 238 215 215 238 215 215 238 214 214
238 214 214 238 214 214 238 214 214 238 214 214 238 214 214 238 214
214 238 214 214 238 214 214 238 214 214
80 72 72 79 71 71 79 71 71 79 71 71 79 71 71 79 71 71 79 71 71 78 71
71 78 70 70 78 70 70 78 70 70 78 70 70 78 70 70 78 70 70 77 70 70 77
70 70 77 69 69 77 69 69 77 69 69 77 69 69 76 69 69 76 69 69 76 68 68
76 68 68 76 68 68 76 68 68 75 68 68 75 68 68 75 68 68 75 67 67 75 67
67 74 67 67 74 67 67 74 67 67 74 67 67 74 66 66 74 66 66 73 66 66 73
66 66 73 66 66 73 65 65 73 65 65 72 65 65 72 65 65 72 65 65 72 65 65
72 64 64 71 64 64 71 64 64 71 64 64 71 64 64 71 63 63 70 63 63 70 63
63 70 63 63 70 63 63 69 62 62 69 62 62 69 62 62 69 62 62 69 62 62 68
61 61 68 61 61 68 61 61 237 214 214 238 214 214 238 214 214 238 214
214 238 214 214 238 214 214 238 214 214 238 214 214 238 215 215 239
215 215 239 215 215 239 215 215 239 215 215 239 215 215 239 215 215
239 215 215 239 215 215 239 215 215 239 215 215 26 23 23 239 215 215
239 215 215 239 215 215 239 215 215 239 215 215 239 215 215 239 215
215 239 215 215 239 215 215 239 215 215 239 215 215 239 215 215 239
215 215 239 215 215 239 215 215 239 215 215 239 215 215 239 215 215
239 215 215 239 215 215 239 215 215 239 215 215 239 215 215 239 215
215 239 215 215 239 215 215 239 215 215 239 215 215 238 215 215 238
215 215 238 214 214 238 214 214 238 214 214 238 214 214 238 214 214
238 214 214 238 214 214 238 214 214 238 214 214 238 214 214 238 214
214 238 214 214 238 214 214 237 214 214
79 72 72 79 71 71 79 71 71 79 71 71 79 71 71 79 71 71 79 71 71 78 71
71 78 70 70 78 70 70 78 70 70 78 70 70 78 70 70 77 70 70 26 23 23 77
69 69 77 69 69 26 23 23 77 69 69 77 69 69 76 69 69 76 69 69 76 68 68
76 68 68 76 68 68 75 68 68 75 68 68 75 68 68 75 67 67 75 67 67 75 67
67 74 67 67 74 67 67 74 67 67 74 66 66 74 66 66 73 66 66 73 66 66 73
66 66 73 66 66 73 65 65 73 65 65 26 23 23 72 65 65 72 65 65 72 65 65
72 64 64 71 64 64 71 64 64 71 64 64 71 64 64 70 63 63 70 63 63 70 63
63 70 63 63 70 63 63 69 62 62 26 23 23 69 62 62 69 62 62 68 62 62 68
61 61 68 61 61 68 61 61 237 213 213 237 214 214 237 214 214 238 214
214 238 214 214 238 214 214 26 23 23 238 214 214 238 214 214 238 214
214 238 215 215 238 215 215 238 215 215 239 215 215 239 215 215 239
215 215 239 215 215 239 215 215 239 215 215 239 215 215 239 215 215 26
23 23 239 215 215 239 215 215 239 215 215 239 215 215 239 215 215 239
215 215 239 215 215 239 215 215 239 215 215 239 215 215 239 215 215
239 215 215 239 215 215 239 215 215 239 215 215 239 215 215 239 215
215 239 215 215 239 215 215 239 215 215 239 215 215 238 215 215 238
215 215 238 215 215 26 23 23 238 214 214 238 214 214 26 23 23 238 214
214 238 214 214 238 214 214 238 214 214 238 214 214 238 214 214 238
214 214 238 214 214 238 214 214 238 214 214 237 214 214 237 214 214 26
23 23 237 214 214
79 71 71 79 71 71 79 71 71 79 71 71 79 71 71 26 23 23 78 71 71 78 71
71 78 70 70 78 70 70 78 70 70 78 70 70 78 70 70 77 70 70 77 70 70 77
69 69 77 69 69 26 23 23 77 69 69 76 69 69 76 69 69 76 68 68 76 68 68
76 68 68 76 68 68 75 68 68 75 68 68 75 68 68 75 67 67 75 67 67 75 67
67 74 67 67 74 67 67 74 67 67 74 66 66 74 66 66 73 66 66 73 66 66 73
66 66 73 66 66 73 65 65 72 65 65 26 23 23 72 65 65 26 23 23 72 64 64
71 64 64 71 64 64 71 64 64 71 64 64 26 23 23 70 63 63 70 63 63 70 63
63 70 63 63 70 63 63 69 62 62 26 23 23 69 62 62 26 23 23 68 62 62 26
23 23 26 23 23 68 61 61 237 213 213 26 23 23 26 23 23 237 214 214 26
23 23 238 214 214 26 23 23 238 214 214 238 214 214 238 214 214 238 214
214 238 214 214 238 214 214 26 23 23 238 215 215 238 215 215 238 215
215 239 215 215 239 215 215 239 215 215 239 215 215 26 23 23 239 215
215 239 215 215 239 215 215 239 215 215 239 215 215 239 215 215 239
215 215 239 215 215 239 215 215 239 215 215 239 215 215 239 215 215
239 215 215 239 215 215 239 215 215 238 215 215 238 215 215 238 215
215 238 215 215 238 214 214 238 214 214 238 214 214 238 214 214 238
214 214 26 23 23 238 214 214 238 214 214 238 214 214 238 214 214 238
214 214 238 214 214 238 214 214 238 214 214 238 214 214 237 214 214
237 214 214 237 214 214 237 214 214 237 214 214 237 213 213 237 213
213 237 213 213
79 71 71 79 71 71 79 71 71 79 71 71 79 71 71 79 71 71 78 71 71 78 70
70 78 70 70 78 70 70 78 70 70 78 70 70 78 70 70 77 70 70 77 69 69 77
69 69 77 69 69 77 69 69 77 69 69 76 69 69 76 69 69 76 68 68 76 68 68
76 68 68 76 68 68 75 68 68 75 68 68 75 68 68 75 67 67 75 67 67 74 67
67 74 67 67 74 67 67 74 67 67 74 66 66 74 66 66 73 66 66 73 66 66 73
66 66 73 66 66 73 65 65 72 65 65 26 23 23 72 65 65 72 65 65 72 64 64
71 64 64 71 64 64 71 64 64 71 64 64 26 23 23 70 63 63 70 63 63 70 63
63 70 63 63 69 63 63 69 62 62 69 62 62 69 62 62 69 62 62 68 62 62 68
61 61 68 61 61 68 61 61 236 213 213 237 213 213 237 213 213 237 213
213 237 213 213 237 214 214 237 214 214 237 214 214 238 214 214 238
214 214 238 214 214 238 214 214 238 214 214 26 23 23 238 214 214 238
214 214 238 214 214 238 214 214 238 214 214 238 214 214 238 215 215
238 215 215 238 215 215 238 215 215 238 215 215 238 215 215 238 215
215 238 215 215 238 215 215 238 215 215 238 215 215 238 215 215 238
215 215 238 215 215 238 214 214 238 214 214 238 214 214 238 214 214
238 214 214 238 214 214 238 214 214 238 214 214 238 214 214 238 214
214 238 214 214 238 214 214 238 214 214 238 214 214 238 214 214 238
214 214 238 214 214 238 214 214 238 214 214 237 214 214 237 214 214
237 214 214 237 214 214 237 213 213 237 213 213 237 213 213 237 213
213 237 213 213 237 213 213 237 213 213
79 71 71 79 71 71 79 71 71 79 71 71 79 71 71 79 71 71 78 71 71 78 70
70 78 70 70 78 70 70 78 70 70 78 70 70 77 70 70 77 70 70 77 69 69 77
69 69 77 69 69 77 69 69 76 69 69 76 69 69 76 69 69 76 68 68 76 68 68
76 68 68 75 68 68 75 68 68 75 68 68 75 67 67 75 67 67 75 67 67 74 67
67 74 67 67 74 67 67 74 66 66 74 66 66 73 66 66 73 66 66 73 66 66 73
66 66 73 65 65 73 65 65 72 65 65 72 65 65 72 65 65 26 23 23 72 64 64
71 64 64 71 64 64 71 64 64 71 64 64 26 23 23 70 63 63 70 63 63 70 63
63 70 63 63 69 62 62 26 23 23 69 62 62 69 62 62 69 62 62 68 61 61 68
61 61 68 61 61 68 61 61 236 213 213 236 213 213 237 213 213 237 213
213 237 213 213 237 213 213 237 213 213 26 23 23 237 214 214 237 214
214 237 214 214 238 214 214 238 214 214 26 23 23 238 214 214 238 214
214 238 214 214 238 214 214 238 214 214 26 23 23 238 214 214 26 23 23
238 214 214 238 214 214 238 214 214 238 214 214 238 214 214 238 214
214 238 214 214 238 214 214 238 214 214 238 214 214 238 214 214 238
214 214 238 214 214 238 214 214 238 214 214 238 214 214 238 214 214
238 214 214 238 214 214 238 214 214 238 214 214 238 214 214 238 214
214 238 214 214 238 214 214 238 214 214 238 214 214 237 214 214 237
214 214 237 214 214 237 214 214 237 213 213 237 213 213 237 213 213
237 213 213 237 213 213 237 213 213 237 213 213 237 213 213 237 213
213 237 213 213 237 213 213
26 23 23 79 71 71 79 71 71 79 71 71 26 23 23 78 71 71 78 70 70 78 70
70 78 70 70 78 70 70 78 70 70 26 23 23 77 70 70 77 69 69 77 69 69 77
69 69 77 69 69 77 69 69 76 69 69 76 69 69 76 68 68 76 68 68 76 68 68
76 68 68 75 68 68 75 68 68 75 68 68 75 67 67 75 67 67 75 67 67 74 67
67 74 67 67 74 67 67 74 66 66 74 66 66 73 66 66 73 66 66 73 66 66 73
66 66 73 65 65 72 65 65 72 65 65 72 65 65 72 65 65 72 64 64 71 64 64
71 64 64 71 64 64 71 64 64 71 64 64 70 63 63 70 63 63 70 63 63 70 63
63 70 63 63 69 62 62 69 62 62 69 62 62 69 62 62 68 62 62 68 61 61 68
61 61 68 61 61 68 61 61 236 212 212 236 212 212 236 213 213 236 213
213 237 213 213 237 213 213 237 213 213 237 213 213 237 213 213 237
213 213 237 213 213 237 214 214 237 214 214 237 214 214 238 214 214
238 214 214 238 214 214 238 214 214 238 214 214 238 214 214 238 214
214 238 214 214 238 214 214 238 214 214 238 214 214 238 214 214 238
214 214 238 214 214 238 214 214 238 214 214 238 214 214 238 214 214
238 214 214 238 214 214 238 214 214 238 214 214 238 214 214 238 214
214 238 214 214 238 214 214 238 214 214 238 214 214 238 214 214 238
214 214 237 214 214 237 214 214 237 214 214 237 214 214 237 214 214
237 213 213 237 213 213 237 213 213 237 213 213 237 213 213 237 213
213 237 213 213 237 213 213 237 213 213 237 213 213 26 23 23 237 213
213 236 213 213 236 213 213 26 23 23
79 71 71 79 71 71 79 71 71 79 71 71 79 71 71 78 71 71 26 23 23 78 70
70 78 70 70 26 23 23 78 70 70 77 70 70 77 70 70 77 69 69 77 69 69 77
69 69 77 69 69 77 69 69 76 69 69 76 69 69 76 68 68 76 68 68 76 68 68
76 68 68 75 68 68 75 68 68 75 67 67 75 67 67 75 67 67 74 67 67 74 67
67 74 67 67 74 67 67 74 66 66 74 66 66 73 66 66 73 66 66 73 66 66 73
66 66 73 65 65 72 65 65 72 65 65 72 65 65 72 65 65 72 64 64 71 64 64
71 64 64 71 64 64 71 64 64 71 64 64 70 63 63 70 63 63 70 63 63 70 63
63 70 63 63 69 62 62 69 62 62 69 62 62 69 62 62 68 62 62 68 61 61 68
61 61 68 61 61 67 61 61 236 212 212 236 212 212 236 212 212 236 212
212 236 213 213 236 213 213 236 213 213 237 213 213 237 213 213 237
213 213 237 213 213 237 213 213 237 213 213 237 213 213 237 214 214
237 214 214 237 214 214 237 214 214 237 214 214 237 214 214 238 214
214 238 214 214 238 214 214 238 214 214 238 214 214 238 214 214 238
214 214 238 214 214 238 214 214 238 214 214 238 214 214 238 214 214
238 214 214 238 214 214 238 214 214 238 214 214 237 214 214 237 214
214 237 214 214 237 214 214 237 214 214 237 214 214 237 214 214 237
214 214 237 213 213 237 213 213 237 213 213 237 213 213 237 213 213
237 213 213 237 213 213 237 213 213 237 213 213 237 213 213 237 213
213 237 213 213 237 213 213 26 23 23 236 213 213 236 213 213 236 213
213 236 213 213 236 213 213 236 213 213
79 71 71 79 71 71 79 71 71 79 71 71 78 71 71 78 70 70 78 70 70 78 70
70 78 70 70 78 70 70 26 23 23 77 70 70 77 70 70 77 69 69 77 69 69 77
69 69 77 69 69 76 69 69 76 69 69 76 69 69 76 68 68 76 68 68 76 68 68
75 68 68 75 68 68 75 68 68 75 67 67 75 67 67 75 67 67 74 67 67 74 67
67 74 67 67 74 66 66 74 66 66 73 66 66 73 66 66 73 66 66 73 66 66 73
65 65 73 65 65 72 65 65 72 65 65 72 65 65 72 65 65 72 64 64 71 64 64
71 64 64 71 64 64 71 64 64 71 63 63 70 63 63 70 63 63 70 63 63 70 63
63 69 63 63 69 62 62 69 62 62 69 62 62 69 62 62 68 61 61 68 61 61 68
61 61 68 61 61 67 61 61 235 212 212 235 212 212 236 212 212 236 212
212 236 212 212 236 212 212 236 213 213 236 213 213 236 213 213 26 23
23 237 213 213 237 213 213 237 213 213 237 213 213 237 213 213 237 213
213 237 213 213 237 213 213 237 213 213 237 213 213 237 214 214 237
214 214 237 214 214 237 214 214 237 214 214 237 214 214 237 214 214
237 214 214 237 214 214 237 214 214 237 214 214 237 214 214 237 214
214 237 214 214 237 214 214 237 214 214 237 214 214 237 213 213 237
213 213 237 213 213 237 213 213 237 213 213 237 213 213 237 213 213
237 213 213 237 213 213 237 213 213 237 213 213 237 213 213 26 23 23
237 213 213 237 213 213 237 213 213 26 23 23 236 213 213 236 213 213
236 213 213 236 213 213 236 213 213 236 213 213 236 212 212 236 212
212 236 212 212 236 212 212
79 71 71 79 71 71 79 71 71 79 71 71 78 71 71 26 23 23 26 23 23 78 70
70 78 70 70 26 23 23 26 23 23 77 70 70 77 69 69 77 69 69 77 69 69 77
69 69 77 69 69 76 69 69 76 69 69 76 68 68 76 68 68 76 68 68 76 68 68
75 68 68 75 68 68 75 68 68 75 67 67 75 67 67 75 67 67 74 67 67 74 67
67 74 67 67 74 66 66 74 66 66 73 66 66 73 66 66 73 66 66 73 66 66 73
65 65 72 65 65 72 65 65 72 65 65 72 65 65 72 65 65 71 64 64 71 64 64
71 64 64 71 64 64 71 64 64 70 63 63 70 63 63 70 63 63 70 63 63 70 63
63 69 62 62 69 62 62 69 62 62 69 62 62 68 62 62 68 61 61 68 61 61 68
61 61 68 61 61 67 61 61 235 211 211 235 212 212 235 212 212 235 212
212 236 212 212 236 212 212 236 212 212 236 212 212 236 213 213 236
213 213 236 213 213 236 213 213 237 213 213 237 213 213 237 213 213
237 213 213 237 213 213 237 213 213 237 213 213 237 213 213 237 213
213 237 213 213 237 213 213 237 213 213 237 213 213 237 213 213 237
213 213 237 213 213 237 213 213 237 213 213 237 213 213 237 213 213
237 213 213 237 213 213 237 213 213 237 213 213 237 213 213 237 213
213 237 213 213 237 213 213 237 213 213 237 213 213 237 213 213 237
213 213 237 213 213 237 213 213 237 213 213 237 213 213 237 213 213
236 213 213 236 213 213 236 213 213 236 213 213 26 23 23 236 213 213
236 213 213 236 212 212 26 23 23 26 23 23 236 212 212 236 212 212 236
212 212 236 212 212 236 212 212
79 71 71 79 71 71 26 23 23 78 71 71 26 23 23 78 70 70 78 70 70 78 70
70 78 70 70 26 23 23 26 23 23 77 70 70 77 69 69 77 69 69 26 23 23 26
23 23 76 69 69 76 69 69 76 69 69 76 68 68 76 68 68 76 68 68 75 68 68
75 68 68 75 68 68 75 67 67 75 67 67 75 67 67 74 67 67 74 67 67 74 67
67 74 67 67 74 66 66 74 66 66 73 66 66 73 66 66 73 66 66 73 66 66 73
65 65 72 65 65 72 65 65 72 65 65 72 65 65 72 64 64 71 64 64 71 64 64
71 64 64 71 64 64 71 64 64 70 63 63 70 63 63 70 63 63 70 63 63 70 63
63 69 62 62 69 62 62 69 62 62 69 62 62 68 62 62 68 61 61 68 61 61 68
61 61 68 61 61 67 61 61 235 211 211 235 211 211 235 211 211 235 212
212 235 212 212 235 212 212 236 212 212 236 212 212 236 212 212 236
212 212 236 212 212 236 213 213 236 213 213 236 213 213 236 213 213
236 213 213 236 213 213 237 213 213 237 213 213 237 213 213 237 213
213 237 213 213 237 213 213 237 213 213 237 213 213 237 213 213 237
213 213 237 213 213 237 213 213 237 213 213 237 213 213 237 213 213
237 213 213 237 213 213 237 213 213 237 213 213 237 213 213 237 213
213 237 213 213 237 213 213 237 213 213 237 213 213 237 213 213 236
213 213 236 213 213 236 213 213 236 213 213 236 213 213 26 23 23 236
213 213 236 213 213 236 213 213 236 212 212 26 23 23 236 212 212 236
212 212 236 212 212 236 212 212 236 212 212 26 23 23 26 23 23 26 23 23
235 212 212 235 212 212
79 71 71 79 71 71 79 71 71 78 71 71 78 70 70 26 23 23 78 70 70 78 70
70 78 70 70 26 23 23 77 70 70 77 69 69 26 23 23 77 69 69 26 23 23 26
23 23 76 69 69 76 69 69 76 68 68 26 23 23 76 68 68 76 68 68 75 68 68
75 68 68 75 68 68 75 67 67 75 67 67 75 67 67 74 67 67 74 67 67 74 67
67 74 66 66 74 66 66 73 66 66 73 66 66 73 66 66 73 66 66 73 65 65 73
65 65 72 65 65 72 65 65 72 65 65 72 65 65 72 64 64 71 64 64 71 64 64
71 64 64 71 64 64 71 63 63 70 63 63 70 63 63 70 63 63 70 63 63 69 63
63 69 62 62 69 62 62 69 62 62 69 62 62 26 23 23 68 61 61 68 61 61 68
61 61 67 61 61 67 60 60 234 211 211 234 211 211 235 211 211 235 211
211 235 211 211 26 23 23 235 212 212 235 212 212 236 212 212 236 212
212 236 212 212 236 212 212 236 212 212 236 212 212 236 212 212 236
213 213 236 213 213 236 213 213 236 213 213 236 213 213 236 213 213
236 213 213 236 213 213 236 213 213 236 213 213 237 213 213 237 213
213 237 213 213 237 213 213 237 213 213 237 213 213 237 213 213 237
213 213 237 213 213 236 213 213 236 213 213 236 213 213 236 213 213
236 213 213 236 213 213 236 213 213 236 213 213 236 213 213 236 213
213 26 23 23 236 213 213 236 213 213 236 212 212 26 23 23 26 23 23 236
212 212 236 212 212 236 212 212 236 212 212 26 23 23 236 212 212 236
212 212 236 212 212 236 212 212 235 212 212 235 212 212 235 212 212
235 212 212 235 212 212
79 71 71 26 23 23 78 71 71 78 71 71 78 70 70 78 70 70 78 70 70 78 70
70 78 70 70 77 70 70 26 23 23 77 69 69 77 69 69 77 69 69 77 69 69 76
69 69 76 69 69 76 69 69 76 68 68 76 68 68 76 68 68 26 23 23 75 68 68
75 68 68 75 67 67 75 67 67 75 67 67 74 67 67 74 67 67 74 67 67 74 67
67 74 66 66 74 66 66 73 66 66 73 66 66 73 66 66 73 66 66 73 65 65 72
65 65 72 65 65 72 65 65 72 65 65 72 65 65 26 23 23 71 64 64 26 23 23
71 64 64 71 64 64 70 63 63 70 63 63 70 63 63 70 63 63 70 63 63 69 62
62 69 62 62 69 62 62 26 23 23 69 62 62 68 61 61 68 61 61 68 61 61 68
61 61 67 61 61 67 60 60 234 211 211 234 211 211 234 211 211 235 211
211 235 211 211 235 211 211 235 211 211 26 23 23 235 212 212 235 212
212 235 212 212 236 212 212 236 212 212 236 212 212 236 212 212 236
212 212 236 212 212 236 212 212 26 23 23 236 212 212 26 23 23 236 213
213 236 213 213 236 213 213 236 213 213 236 213 213 236 213 213 236
213 213 236 213 213 236 213 213 236 213 213 236 213 213 236 213 213
236 213 213 236 213 213 236 213 213 236 213 213 236 213 213 236 213
213 236 213 213 236 212 212 236 212 212 26 23 23 236 212 212 236 212
212 236 212 212 236 212 212 236 212 212 236 212 212 236 212 212 236
212 212 236 212 212 236 212 212 26 23 23 235 212 212 235 212 212 235
212 212 235 212 212 235 212 212 235 212 212 235 212 212 235 212 212 26
23 23 235 211 211
79 71 71 79 71 71 26 23 23 78 70 70 78 70 70 26 23 23 78 70 70 78 70
70 78 70 70 77 70 70 26 23 23 77 69 69 77 69 69 77 69 69 77 69 69 76
69 69 76 69 69 76 68 68 76 68 68 76 68 68 76 68 68 75 68 68 75 68 68
75 68 68 75 67 67 26 23 23 75 67 67 26 23 23 74 67 67 74 67 67 74 66
66 74 66 66 74 66 66 73 66 66 73 66 66 73 66 66 73 65 65 73 65 65 72
65 65 72 65 65 72 65 65 72 65 65 72 64 64 71 64 64 71 64 64 71 64 64
71 64 64 71 64 64 70 63 63 70 63 63 70 63 63 70 63 63 70 63 63 69 62
62 69 62 62 69 62 62 69 62 62 68 62 62 26 23 23 68 61 61 68 61 61 68
61 61 67 61 61 67 60 60 234 210 210 234 210 210 234 211 211 234 211
211 234 211 211 26 23 23 235 211 211 235 211 211 235 211 211 235 212
212 235 212 212 235 212 212 235 212 212 235 212 212 235 212 212 236
212 212 236 212 212 236 212 212 236 212 212 236 212 212 236 212 212
236 212 212 236 212 212 236 212 212 236 212 212 236 212 212 236 212
212 236 212 212 236 212 212 236 212 212 236 212 212 236 212 212 236
212 212 236 212 212 236 212 212 236 212 212 26 23 23 236 212 212 26 23
23 236 212 212 236 212 212 236 212 212 236 212 212 236 212 212 236 212
212 236 212 212 236 212 212 236 212 212 236 212 212 235 212 212 235
212 212 235 212 212 235 212 212 26 23 23 235 212 212 235 212 212 235
212 212 235 212 212 26 23 23 235 211 211 235 211 211 26 23 23 235 211
211 235 211 211
79 71 71 78 71 71 78 71 71 78 70 70 26 23 23 78 70 70 78 70 70 78 70
70 77 70 70 77 70 70 77 69 69 77 69 69 77 69 69 77 69 69 77 69 69 76
69 69 76 69 69 76 68 68 76 68 68 76 68 68 76 68 68 75 68 68 75 68 68
75 68 68 75 67 67 75 67 67 75 67 67 74 67 67 74 67 67 74 67 67 74 66
66 74 66 66 73 66 66 73 66 66 73 66 66 73 66 66 73 65 65 73 65 65 72
65 65 72 65 65 72 65 65 72 65 65 72 64 64 71 64 64 71 64 64 71 64 64
71 64 64 71 63 63 70 63 63 70 63 63 70 63 63 70 63 63 69 63 63 69 62
62 69 62 62 69 62 62 69 62 62 68 62 62 68 61 61 68 61 61 68 61 61 67
61 61 67 61 61 67 60 60 233 210 210 234 210 210 234 210 210 234 210
210 234 211 211 234 211 211 234 211 211 234 211 211 235 211 211 235
211 211 235 211 211 235 211 211 235 211 211 235 212 212 235 212 212
235 212 212 235 212 212 235 212 212 235 212 212 235 212 212 236 212
212 236 212 212 236 212 212 236 212 212 236 212 212 236 212 212 236
212 212 236 212 212 236 212 212 236 212 212 236 212 212 236 212 212
236 212 212 236 212 212 236 212 212 236 212 212 236 212 212 236 212
212 236 212 212 236 212 212 236 212 212 236 212 212 235 212 212 235
212 212 235 212 212 235 212 212 235 212 212 235 212 212 235 212 212
235 212 212 235 212 212 235 212 212 235 212 212 235 212 212 235 211
211 235 211 211 235 211 211 235 211 211 26 23 23 26 23 23 26 23 23 235
211 211 26 23 23 234 211 211
79 71 71 26 23 23 78 70 70 78 70 70 78 70 70 78 70 70 78 70 70 78 70
70 77 70 70 26 23 23 26 23 23 26 23 23 77 69 69 77 69 69 76 69 69 76
69 69 76 69 69 76 68 68 76 68 68 76 68 68 75 68 68 75 68 68 75 68 68
75 67 67 75 67 67 75 67 67 74 67 67 74 67 67 74 67 67 74 67 67 74 66
66 74 66 66 73 66 66 73 66 66 73 66 66 73 66 66 73 65 65 72 65 65 72
65 65 72 65 65 72 65 65 72 64 64 71 64 64 71 64 64 71 64 64 71 64 64
71 64 64 70 63 63 70 63 63 70 63 63 14 145 72 15 145 73 14 142 71 14
137 69 13 131 66 12 123 62 11 111 55 68 61 61 68 61 61 68 61 61 68 61
61 67 61 61 67 60 60 67 60 60 233 210 210 233 210 210 233 210 210 234
210 210 234 210 210 234 210 210 234 211 211 234 211 211 234 211 211
234 211 211 234 211 211 235 211 211 235 211 211 235 211 211 235 211
211 235 211 211 235 211 211 235 212 212 235 212 212 235 212 212 235
212 212 235 212 212 235 212 212 235 212 212 235 212 212 235 212 212
235 212 212 235 212 212 235 212 212 235 212 212 235 212 212 235 212
212 235 212 212 235 212 212 235 212 212 235 212 212 235 212 212 235
212 212 235 212 212 235 212 212 235 212 212 235 212 212 235 212 212
235 212 212 235 212 212 235 212 212 235 212 212 235 212 212 235 212
212 235 211 211 235 211 211 235 211 211 26 23 23 26 23 23 26 23 23 235
211 211 235 211 211 235 211 211 26 23 23 234 211 211 234 211 211 234
211 211 234 211 211 234 211 211
78 71 71 26 23 23 26 23 23 78 70 70 26 23 23 78 70 70 78 70 70 26 23
23 77 70 70 77 69 69 26 23 23 26 23 23 26 23 23 77 69 69 26 23 23 76
69 69 76 68 68 76 68 68 76 68 68 76 68 68 75 68 68 75 68 68 75 68 68
75 67 67 75 67 67 75 67 67 74 67 67 74 67 67 74 67 67 74 66 66 74 66
66 73 66 66 73 66 66 73 66 66 73 66 66 73 65 65 73 65 65 26 23 23 72
65 65 72 65 65 72 65 65 72 64 64 71 64 64 71 64 64 71 64 64 71 64 64
71 64 64 17 168 84 17 168 84 17 166 83 16 163 82 16 159 80 15 155 77
15 150 75 14 144 72 14 138 69 13 131 65 12 123 61 11 114 57 10 102 51
68 61 61 67 61 61 67 60 60 67 60 60 233 209 209 233 210 210 233 210
210 233 210 210 233 210 210 234 210 210 234 210 210 234 210 210 234
211 211 234 211 211 234 211 211 234 211 211 234 211 211 234 211 211
235 211 211 235 211 211 235 211 211 235 211 211 235 211 211 235 211
211 235 211 211 235 211 211 235 211 211 235 212 212 235 212 212 235
212 212 26 23 23 235 212 212 235 212 212 235 212 212 235 212 212 235
212 212 235 212 212 235 212 212 235 212 212 235 212 212 235 212 212
235 212 212 235 212 212 235 212 212 235 212 212 235 211 211 235 211
211 235 211 211 235 211 211 235 211 211 235 211 211 235 211 211 235
211 211 26 23 23 235 211 211 235 211 211 26 23 23 26 23 23 234 211 211
234 211 211 26 23 23 234 211 211 234 211 211 26 23 23 234 211 211 26
23 23 26 23 23 234 211 211
78 71 71 78 70 70 78 70 70 78 70 70 78 70 70 78 70 70 78 70 70 26 23
23 77 70 70 77 69 69 26 23 23 26 23 23 77 69 69 76 69 69 26 23 23 76
69 69 76 68 68 76 68 68 76 68 68 75 68 68 75 68 68 75 68 68 75 67 67
75 67 67 75 67 67 74 67 67 74 67 67 74 67 67 74 67 67 74 66 66 74 66
66 73 66 66 73 66 66 73 66 66 73 66 66 73 65 65 72 65 65 72 65 65 72
65 65 72 65 65 72 65 65 72 64 64 71 64 64 71 64 64 17 173 86 18 179 89
18 179 90 18 178 89 18 176 88 17 173 86 17 169 85 17 165 83 16 161 80
16 156 78 15 150 75 14 144 72 14 138 69 13 131 65 12 123 61 11 114 57
10 104 52 9 92 46 7 74 37 67 60 60 232 209 209 232 209 209 233 209 209
233 210 210 233 210 210 233 210 210 233 210 210 233 210 210 234 210
210 234 210 210 234 210 210 234 211 211 234 211 211 234 211 211 234
211 211 234 211 211 234 211 211 234 211 211 234 211 211 235 211 211
235 211 211 235 211 211 235 211 211 235 211 211 235 211 211 235 211
211 235 211 211 235 211 211 235 211 211 235 211 211 235 211 211 235
211 211 235 211 211 235 211 211 235 211 211 235 211 211 235 211 211
235 211 211 235 211 211 235 211 211 235 211 211 235 211 211 235 211
211 235 211 211 235 211 211 235 211 211 235 211 211 235 211 211 234
211 211 234 211 211 234 211 211 234 211 211 26 23 23 26 23 23 234 211
211 234 211 211 26 23 23 234 211 211 234 211 211 234 211 211 234 211
211 234 210 210 234 210 210 234 210 210
78 70 70 78 70 70 78 70 70 78 70 70 78 70 70 78 70 70 77 70 70 77 70
70 77 69 69 77 69 69 77 69 69 77 69 69 77 69 69 76 69 69 76 69 69 76
68 68 26 23 23 76 68 68 76 68 68 75 68 68 75 68 68 75 68 68 75 67 67
75 67 67 75 67 67 74 67 67 74 67 67 74 67 67 74 66 66 74 66 66 74 66
66 73 66 66 73 66 66 73 66 66 73 66 66 73 65 65 72 65 65 72 65 65 72
65 65 72 65 65 72 64 64 71 64 64 71 64 64 18 185 92 19 187 94 19 187
93 19 185 93 18 183 92 18 180 90 18 177 88 17 173 86 17 169 84 16 164
82 16 159 79 15 154 77 15 148 74 14 142 71 13 135 67 13 128 64 12 120
60 11 112 56 10 102 51 9 91 46 8 77 39 232 209 209 232 209 209 232 209
209 233 209 209 233 209 209 233 210 210 233 210 210 233 210 210 233
210 210 233 210 210 234 210 210 234 210 210 234 210 210 234 210 210
234 211 211 234 211 211 234 211 211 234 211 211 234 211 211 234 211
211 234 211 211 234 211 211 234 211 211 234 211 211 234 211 211 234
211 211 235 211 211 235 211 211 235 211 211 235 211 211 235 211 211
235 211 211 235 211 211 235 211 211 235 211 211 235 211 211 235 211
211 235 211 211 235 211 211 234 211 211 234 211 211 234 211 211 234
211 211 26 23 23 234 211 211 234 211 211 234 211 211 234 211 211 234
211 211 234 211 211 234 211 211 234 211 211 234 211 211 234 211 211
234 211 211 234 211 211 234 210 210 234 210 210 234 210 210 234 210
210 234 210 210 234 210 210 234 210 210 234 210 210
78 70 70 78 70 70 78 70 70 78 70 70 78 70 70 78 70 70 77 70 70 77 70
70 77 69 69 77 69 69 77 69 69 77 69 69 76 69 69 76 69 69 76 69 69 76
68 68 76 68 68 76 68 68 76 68 68 75 68 68 75 68 68 75 68 68 75 67 67
75 67 67 74 67 67 74 67 67 74 67 67 74 67 67 74 66 66 74 66 66 73 66
66 73 66 66 26 23 23 73 66 66 73 65 65 73 65 65 72 65 65 72 65 65 72
65 65 72 65 65 72 64 64 18 184 92 19 191 96 19 193 96 19 192 96 19 191
95 19 189 94 19 186 93 18 183 91 18 179 90 18 175 88 17 171 85 17 166
83 16 161 81 16 156 78 15 150 75 14 144 72 14 138 69 13 131 65 12 124
62 12 116 58 11 107 54 10 98 49 9 87 43 7 74 37 5 55 27 232 209 209
232 209 209 232 209 209 233 209 209 233 209 209 233 210 210 233 210
210 233 210 210 233 210 210 233 210 210 233 210 210 233 210 210 234
210 210 234 210 210 234 210 210 234 210 210 234 210 210 234 211 211
234 211 211 234 211 211 234 211 211 234 211 211 234 211 211 234 211
211 234 211 211 234 211 211 234 211 211 234 211 211 234 211 211 234
211 211 234 211 211 234 211 211 234 211 211 234 211 211 234 211 211
234 211 211 234 211 211 234 211 211 234 211 211 234 211 211 234 211
211 234 211 211 234 211 211 234 211 211 234 211 211 234 211 211 234
211 211 234 211 211 234 210 210 234 210 210 234 210 210 234 210 210
234 210 210 234 210 210 234 210 210 234 210 210 234 210 210 233 210
210 233 210 210 233 210 210 233 210 210 233 210 210
78 70 70 78 70 70 78 70 70 78 70 70 78 70 70 77 70 70 77 70 70 77 69
69 77 69 69 77 69 69 77 69 69 26 23 23 76 69 69 76 69 69 76 68 68 76
68 68 76 68 68 76 68 68 75 68 68 75 68 68 26 23 23 75 67 67 75 67 67
75 67 67 74 67 67 74 67 67 74 67 67 74 67 67 74 66 66 74 66 66 26 23
23 73 66 66 26 23 23 73 66 66 73 65 65 72 65 65 72 65 65 72 65 65 72
65 65 72 65 65 19 189 95 20 195 98 20 197 98 20 196 98 20 195 98 19
193 97 19 191 95 19 187 94 18 184 92 18 180 90 18 176 88 17 172 86 17
167 84 16 162 81 16 157 78 15 151 76 15 145 73 14 139 70 13 133 66 13
126 63 12 118 59 11 110 55 10 101 51 9 92 46 8 81 40 7 68 34 5 50 25
232 209 209 232 209 209 232 209 209 232 209 209 232 209 209 233 209
209 233 209 209 233 210 210 233 210 210 233 210 210 233 210 210 233
210 210 233 210 210 233 210 210 233 210 210 234 210 210 234 210 210
234 210 210 234 210 210 234 210 210 234 210 210 234 210 210 234 210
210 234 211 211 234 211 211 234 211 211 234 211 211 234 211 211 26 23
23 234 211 211 26 23 23 234 211 211 234 211 211 234 211 211 234 211
211 234 211 211 234 211 211 234 211 211 234 211 211 234 210 210 26 23
23 234 210 210 234 210 210 234 210 210 234 210 210 234 210 210 234 210
210 234 210 210 234 210 210 26 23 23 234 210 210 233 210 210 233 210
210 233 210 210 233 210 210 233 210 210 233 210 210 233 210 210 233
210 210 233 210 210 233 210 210
78 70 70 78 70 70 78 70 70 78 70 70 78 70 70 77 70 70 77 70 70 26 23
23 77 69 69 77 69 69 77 69 69 76 69 69 76 69 69 76 69 69 76 68 68 76
68 68 76 68 68 76 68 68 75 68 68 75 68 68 26 23 23 75 67 67 75 67 67
75 67 67 74 67 67 74 67 67 74 67 67 74 66 66 26 23 23 73 66 66 73 66
66 73 66 66 26 23 23 73 65 65 73 65 65 72 65 65 72 65 65 72 65 65 72
65 65 19 192 96 20 198 99 20 200 100 20 200 100 20 198 99 20 197 98 19
194 97 19 191 96 19 188 94 18 185 92 18 181 90 18 177 88 17 172 86 17
168 84 16 163 81 16 157 79 15 152 76 15 146 73 14 140 70 13 134 67 13
127 63 12 120 60 11 112 56 10 104 52 9 95 47 8 85 42 7 74 37 6 60 30 4
42 21 232 208 208 232 209 209 232 209 209 232 209 209 232 209 209 232
209 209 233 209 209 233 209 209 233 209 209 233 210 210 233 210 210
233 210 210 233 210 210 233 210 210 233 210 210 233 210 210 233 210
210 233 210 210 233 210 210 234 210 210 234 210 210 234 210 210 234
210 210 234 210 210 234 210 210 234 210 210 234 210 210 26 23 23 234
210 210 234 210 210 234 210 210 26 23 23 234 210 210 234 210 210 234
210 210 234 210 210 234 210 210 234 210 210 234 210 210 234 210 210
234 210 210 234 210 210 233 210 210 233 210 210 233 210 210 233 210
210 233 210 210 233 210 210 233 210 210 233 210 210 233 210 210 233
210 210 26 23 23 233 210 210 233 210 210 233 210 210 233 210 210 233
210 210 233 210 210 233 210 210
78 70 70 78 70 70 78 70 70 78 70 70 77 70 70 77 70 70 77 69 69 77 69
69 77 69 69 77 69 69 77 69 69 76 69 69 76 69 69 76 68 68 76 68 68 76
68 68 76 68 68 75 68 68 75 68 68 75 68 68 75 67 67 75 67 67 75 67 67
74 67 67 74 67 67 74 67 67 74 67 67 74 66 66 74 66 66 73 66 66 73 66
66 73 66 66 73 66 66 73 65 65 72 65 65 72 65 65 72 65 65 72 65 65 19
191 95 20 199 100 20 201 101 20 202 101 20 201 100 20 199 100 20 197
99 19 195 97 19 192 96 19 188 94 18 185 92 18 181 90 18 177 88 17 172
86 17 167 84 16 163 81 16 157 79 15 152 76 15 146 73 14 140 70 13 134
67 13 127 64 12 120 60 11 113 56 10 105 52 10 96 48 9 87 44 8 77 38 7
65 33 5 51 26 3 32 16 231 208 208 232 208 208 232 209 209 232 209 209
232 209 209 232 209 209 232 209 209 232 209 209 233 209 209 233 209
209 233 209 209 233 209 209 233 210 210 233 210 210 233 210 210 233
210 210 233 210 210 233 210 210 233 210 210 233 210 210 233 210 210
233 210 210 233 210 210 233 210 210 233 210 210 233 210 210 233 210
210 233 210 210 233 210 210 233 210 210 233 210 210 233 210 210 233
210 210 233 210 210 233 210 210 233 210 210 233 210 210 233 210 210
233 210 210 233 210 210 233 210 210 233 210 210 233 210 210 233 210
210 233 210 210 233 210 210 233 210 210 233 210 210 233 210 210 233
210 210 233 210 210 233 210 210 233 210 210 233 209 209 233 209 209
233 209 209 233 209 209 233 209 209 233 209 209
78 70 70 78 70 70 78 70 70 78 70 70 77 70 70 77 70 70 77 69 69 77 69
69 77 69 69 77 69 69 76 69 69 76 69 69 76 69 69 76 68 68 76 68 68 26
23 23 76 68 68 75 68 68 75 68 68 75 68 68 75 67 67 75 67 67 75 67 67
74 67 67 74 67 67 74 67 67 74 66 66 74 66 66 73 66 66 73 66 66 73 66
66 73 66 66 73 66 66 73 65 65 72 65 65 72 65 65 72 65 65 72 65 65 20
199 99 20 202 101 20 203 102 20 203 101 20 201 101 20 200 100 20 197
99 19 194 97 19 191 96 19 188 94 18 184 92 18 180 90 18 176 88 17 172
86 17 167 83 16 162 81 16 157 78 15 152 76 15 146 73 14 140 70 13 134
67 13 127 64 12 120 60 11 113 57 11 106 53 10 97 49 9 89 44 8 79 39 7
68 34 6 56 28 4 41 20 3 26 13 231 208 208 231 208 208 232 208 208 232
209 209 232 209 209 232 209 209 232 209 209 232 209 209 232 209 209
232 209 209 232 209 209 233 209 209 233 209 209 233 209 209 233 209
209 233 210 210 233 210 210 233 210 210 233 210 210 233 210 210 233
210 210 233 210 210 233 210 210 233 210 210 233 210 210 233 210 210
233 210 210 233 210 210 233 210 210 233 210 210 233 210 210 233 210
210 233 210 210 233 210 210 233 210 210 233 210 210 233 210 210 233
210 210 233 210 210 233 210 210 233 210 210 233 210 210 26 23 23 233
210 210 233 210 210 233 210 210 233 209 209 233 209 209 233 209 209
233 209 209 233 209 209 233 209 209 233 209 209 232 209 209 232 209
209 232 209 209 232 209 209 232 209 209
78 70 70 78 70 70 78 70 70 77 70 70 77 70 70 26 23 23 77 69 69 77 69
69 26 23 23 77 69 69 76 69 69 76 69 69 26 23 23 76 68 68 76 68 68 76
68 68 26 23 23 75 68 68 75 68 68 75 67 67 75 67 67 75 67 67 74 67 67
74 67 67 74 67 67 74 67 67 74 66 66 74 66 66 73 66 66 73 66 66 73 66
66 73 66 66 73 65 65 73 65 65 72 65 65 72 65 65 72 65 65 20 197 98 20
202 101 20 204 102 20 204 102 20 203 101 20 201 101 20 199 100 20 197
98 19 194 97 19 191 95 19 187 94 18 183 92 18 179 90 18 175 88 17 171
85 17 166 83 16 161 81 16 156 78 15 151 75 15 145 73 14 139 70 13 133
67 13 127 63 12 120 60 11 113 57 11 106 53 10 98 49 9 89 45 8 80 40 7
70 35 6 58 29 5 45 23 3 29 14 231 208 208 231 208 208 231 208 208 231
208 208 231 208 208 232 208 208 232 209 209 232 209 209 232 209 209
232 209 209 232 209 209 232 209 209 232 209 209 232 209 209 232 209
209 232 209 209 233 209 209 233 209 209 233 209 209 233 209 209 233
209 209 233 209 209 233 209 209 233 209 209 233 209 209 233 210 210
233 210 210 233 210 210 233 210 210 233 210 210 233 210 210 233 210
210 233 210 210 233 210 210 233 210 210 233 209 209 233 209 209 233
209 209 233 209 209 233 209 209 233 209 209 26 23 23 233 209 209 233
209 209 233 209 209 233 209 209 232 209 209 232 209 209 232 209 209 26
23 23 232 209 209 232 209 209 232 209 209 232 209 209 232 209 209 232
209 209 232 209 209 232 209 209
78 70 70 78 70 70 26 23 23 77 70 70 77 69 69 77 69 69 77 69 69 26 23
23 77 69 69 76 69 69 76 69 69 76 69 69 76 68 68 76 68 68 76 68 68 76
68 68 75 68 68 75 68 68 75 68 68 75 67 67 75 67 67 75 67 67 74 67 67
74 67 67 74 67 67 74 66 66 74 66 66 74 66 66 73 66 66 73 66 66 73 66
66 73 66 66 73 65 65 72 65 65 26 23 23 72 65 65 19 191 96 20 200 100
20 203 102 20 204 102 20 204 102 20 202 101 20 201 100 20 198 99 20
196 98 19 193 96 19 190 95 19 186 93 18 182 91 18 178 89 17 174 87 17
170 85 16 165 82 16 160 80 15 155 77 15 150 75 14 144 72 14 138 69 13
132 66 13 126 63 12 119 60 11 112 56 11 105 53 10 97 49 9 89 44 8 80
40 7 70 35 6 60 30 5 48 24 3 33 17 3 26 13 231 208 208 231 208 208 231
208 208 231 208 208 231 208 208 231 208 208 231 208 208 232 208 208
232 209 209 232 209 209 232 209 209 232 209 209 232 209 209 232 209
209 232 209 209 232 209 209 232 209 209 232 209 209 232 209 209 232
209 209 232 209 209 232 209 209 232 209 209 232 209 209 232 209 209
232 209 209 233 209 209 233 209 209 233 209 209 233 209 209 233 209
209 233 209 209 233 209 209 232 209 209 232 209 209 232 209 209 232
209 209 232 209 209 232 209 209 232 209 209 232 209 209 232 209 209
232 209 209 232 209 209 232 209 209 232 209 209 232 209 209 232 209
209 232 209 209 232 209 209 232 209 209 232 209 209 232 209 209 232
209 209 26 23 23 232 209 209 232 209 209
26 23 23 78 70 70 77 70 70 26 23 23 26 23 23 77 69 69 77 69 69 26 23
23 77 69 69 76 69 69 76 69 69 76 68 68 76 68 68 76 68 68 76 68 68 75
68 68 26 23 23 75 68 68 75 67 67 75 67 67 75 67 67 74 67 67 74 67 67
74 67 67 74 67 67 74 66 66 74 66 66 73 66 66 73 66 66 73 66 66 73 66
66 73 65 65 73 65 65 72 65 65 72 65 65 72 65 65 20 197 98 20 202 101
20 203 102 20 204 102 20 203 101 20 201 101 20 200 100 20 197 99 19
194 97 19 191 96 19 188 94 18 185 92 18 181 90 18 177 88 17 173 86 17
168 84 16 163 82 16 159 79 15 154 77 15 148 74 14 143 71 14 137 69 13
131 66 12 125 62 12 118 59 11 111 56 10 104 52 10 97 48 9 88 44 8 80
40 7 70 35 6 60 30 5 49 24 4 36 18 3 26 13 3 26 13 231 207 207 231 208
208 231 208 208 231 208 208 231 208 208 231 208 208 231 208 208 231
208 208 231 208 208 232 208 208 232 208 208 232 209 209 232 209 209
232 209 209 232 209 209 232 209 209 232 209 209 232 209 209 232 209
209 232 209 209 232 209 209 232 209 209 232 209 209 232 209 209 232
209 209 232 209 209 232 209 209 232 209 209 232 209 209 232 209 209
232 209 209 232 209 209 232 209 209 232 209 209 232 209 209 232 209
209 232 209 209 232 209 209 232 209 209 26 23 23 232 209 209 232 209
209 232 209 209 232 209 209 26 23 23 232 209 209 232 209 209 232 209
209 232 209 209 232 209 209 232 209 209 26 23 23 26 23 23 232 208 208
232 208 208 26 23 23
78 70 70 77 70 70 77 70 70 77 69 69 77 69 69 77 69 69 77 69 69 77 69
69 76 69 69 76 69 69 76 69 69 26 23 23 76 68 68 76 68 68 76 68 68 75
68 68 26 23 23 75 68 68 75 67 67 75 67 67 75 67 67 74 67 67 74 67 67
74 67 67 74 67 67 74 66 66 74 66 66 73 66 66 73 66 66 73 66 66 73 66
66 73 65 65 72 65 65 72 65 65 72 65 65 19 188 94 20 198 99 20 202 101
20 203 101 20 203 101 20 202 101 20 200 100 20 198 99 20 196 98 19 193
96 19 190 95 19 187 93 18 183 92 18 179 90 18 175 88 17 171 85 17 166
83 16 162 81 16 157 78 15 152 76 15 147 73 14 141 71 14 135 68 13 129
65 12 123 62 12 117 58 11 110 55 10 103 51 10 95 48 9 87 44 8 79 39 7
70 35 6 60 30 5 49 25 4 37 18 3 26 13 3 26 13 230 207 207 230 207 207
230 207 207 231 208 208 231 208 208 231 208 208 231 208 208 231 208
208 231 208 208 231 208 208 231 208 208 231 208 208 231 208 208 231
208 208 232 208 208 232 208 208 232 208 208 232 209 209 232 209 209
232 209 209 232 209 209 232 209 209 232 209 209 232 209 209 232 209
209 232 209 209 232 209 209 232 209 209 232 209 209 232 209 209 232
209 209 232 209 209 232 209 209 232 209 209 232 209 209 232 209 209
232 209 209 232 209 209 232 209 209 26 23 23 232 209 209 232 209 209
232 209 209 232 209 209 26 23 23 232 208 208 232 208 208 232 208 208
26 23 23 231 208 208 231 208 208 231 208 208 231 208 208 231 208 208
231 208 208 231 208 208
26 23 23 77 70 70 77 70 70 77 69 69 26 23 23 77 69 69 77 69 69 77 69
69 26 23 23 76 69 69 76 68 68 76 68 68 26 23 23 76 68 68 75 68 68 75
68 68 75 68 68 75 67 67 75 67 67 75 67 67 74 67 67 74 67 67 74 67 67
74 67 67 74 66 66 74 66 66 73 66 66 73 66 66 73 66 66 73 66 66 73 65
65 73 65 65 72 65 65 72 65 65 72 65 65 19 192 96 20 199 99 20 201 100
20 202 101 20 201 101 20 200 100 20 198 99 20 196 98 19 194 97 19 191
96 20 189 95 24 190 98 21 183 93 18 177 89 17 173 87 17 169 84 16 164
82 16 160 80 15 155 77 15 150 75 14 145 72 14 139 70 13 134 67 13 128
64 12 122 61 12 115 58 11 108 54 10 101 51 9 94 47 9 86 43 8 78 39 7
69 34 6 59 30 5 49 24 4 37 18 3 26 13 3 26 13 230 207 207 230 207 207
230 207 207 230 207 207 230 207 207 230 207 207 231 208 208 231 208
208 231 208 208 231 208 208 26 23 23 231 208 208 231 208 208 231 208
208 231 208 208 231 208 208 231 208 208 26 23 23 231 208 208 231 208
208 231 208 208 232 208 208 232 208 208 232 208 208 232 208 208 232
208 208 232 208 208 232 208 208 232 208 208 232 208 208 232 208 208
232 208 208 232 208 208 232 208 208 232 208 208 232 208 208 232 208
208 232 208 208 232 208 208 232 208 208 231 208 208 231 208 208 231
208 208 26 23 23 231 208 208 231 208 208 231 208 208 26 23 23 231 208
208 231 208 208 231 208 208 26 23 23 231 208 208 231 208 208 231 208
208 26 23 23
26 23 23 77 70 70 77 69 69 77 69 69 26 23 23 77 69 69 77 69 69 76 69
69 26 23 23 76 69 69 76 68 68 76 68 68 26 23 23 76 68 68 75 68 68 75
68 68 26 23 23 75 67 67 75 67 67 75 67 67 74 67 67 26 23 23 74 67 67
74 67 67 74 66 66 74 66 66 73 66 66 26 23 23 73 66 66 26 23 23 73 65
65 72 65 65 72 65 65 72 65 65 72 65 65 19 193 97 20 198 99 20 200 100
20 200 100 20 199 100 20 198 99 20 196 98 19 194 97 19 192 96 20 190
95 39 206 113 63 227 136 32 193 104 18 176 88 17 171 85 17 167 83 16
162 81 16 158 79 15 153 76 15 148 74 14 143 71 14 137 69 13 132 66 13
126 63 12 120 60 11 113 57 11 106 53 10 99 50 9 92 46 8 84 42 8 76 38
7 67 34 6 58 29 5 48 24 4 36 18 3 26 13 3 26 13 3 26 13 230 207 207
230 207 207 230 207 207 26 23 23 230 207 207 230 207 207 230 207 207
230 207 207 231 207 207 231 208 208 231 208 208 231 208 208 231 208
208 231 208 208 231 208 208 231 208 208 231 208 208 231 208 208 231
208 208 231 208 208 231 208 208 231 208 208 231 208 208 231 208 208
231 208 208 231 208 208 231 208 208 26 23 23 231 208 208 231 208 208
231 208 208 231 208 208 231 208 208 26 23 23 231 208 208 231 208 208
231 208 208 231 208 208 231 208 208 231 208 208 231 208 208 231 208
208 26 23 23 231 208 208 231 208 208 231 208 208 26 23 23 231 208 208
231 208 208 231 208 208 26 23 23 231 208 208 231 208 208 231 208 208
26 23 23
77 70 70 77 70 70 77 69 69 77 69 69 26 23 23 77 69 69 26 23 23 76 69
69 76 69 69 76 68 68 76 68 68 76 68 68 76 68 68 75 68 68 75 68 68 75
68 68 26 23 23 75 67 67 75 67 67 74 67 67 74 67 67 74 67 67 74 67 67
74 66 66 74 66 66 73 66 66 73 66 66 73 66 66 73 66 66 73 65 65 73 65
65 72 65 65 72 65 65 72 65 65 18 181 90 19 193 96 20 196 98 20 198 99
20 198 99 20 197 99 20 196 98 19 194 97 19 192 96 19 189 95 22 190 97
62 227 136 87 249 159 34 193 105 18 173 87 17 168 84 16 164 82 16 160
80 16 155 78 15 150 75 15 145 73 14 140 70 13 135 67 13 129 65 12 123
62 12 117 59 11 111 55 10 104 52 10 97 49 9 90 45 8 82 41 7 74 37 7 66
33 6 56 28 5 46 23 4 35 18 3 26 13 3 26 13 3 26 13 229 206 206 229 206
206 229 207 207 230 207 207 230 207 207 230 207 207 230 207 207 230
207 207 230 207 207 230 207 207 230 207 207 230 207 207 230 207 207
231 207 207 231 208 208 231 208 208 231 208 208 231 208 208 231 208
208 231 208 208 231 208 208 231 208 208 231 208 208 231 208 208 231
208 208 231 208 208 231 208 208 231 208 208 231 208 208 231 208 208
231 208 208 231 208 208 231 208 208 231 208 208 231 208 208 231 208
208 231 208 208 231 208 208 26 23 23 231 208 208 231 208 208 231 208
208 231 208 208 231 208 208 231 208 208 231 208 208 231 208 208 231
208 208 26 23 23 231 208 208 26 23 23 231 208 208 231 207 207 231 207
207 230 207 207
77 70 70 77 69 69 77 69 69 77 69 69 77 69 69 26 23 23 76 69 69 76 69
69 26 23 23 26 23 23 76 68 68 76 68 68 26 23 23 26 23 23 75 68 68 75
68 68 75 67 67 75 67 67 75 67 67 74 67 67 74 67 67 74 67 67 74 67 67
74 66 66 74 66 66 73 66 66 73 66 66 73 66 66 73 66 66 73 65 65 73 65
65 72 65 65 72 65 65 72 65 65 18 182 91 19 191 96 19 194 97 20 196 98
20 196 98 19 195 97 19 193 97 19 192 96 19 189 95 19 187 93 20 186 94
37 199 109 39 199 110 21 177 91 17 170 85 17 166 83 16 162 81 16 157
79 15 153 76 15 148 74 14 143 71 14 138 69 13 132 66 13 127 63 12 121
60 11 115 57 11 108 54 10 102 51 9 95 47 9 88 44 8 80 40 7 72 36 6 63
32 5 54 27 4 44 22 3 33 17 3 26 13 3 26 13 3 26 13 229 206 206 229 206
206 229 206 206 229 206 206 229 206 206 230 207 207 230 207 207 230
207 207 230 207 207 230 207 207 230 207 207 230 207 207 230 207 207
230 207 207 230 207 207 230 207 207 230 207 207 230 207 207 230 207
207 231 207 207 231 207 207 231 208 208 231 208 208 231 208 208 231
208 208 231 208 208 231 208 208 231 208 208 231 208 208 231 208 208
231 208 208 231 208 208 231 208 208 231 208 208 231 208 208 231 208
208 231 208 208 231 208 208 231 208 208 231 208 208 231 208 208 26 23
23 26 23 23 231 208 208 231 207 207 26 23 23 26 23 23 230 207 207 230
207 207 26 23 23 230 207 207 230 207 207 230 207 207 230 207 207 230
207 207
77 70 70 26 23 23 77 69 69 77 69 69 26 23 23 77 69 69 76 69 69 26 23
23 76 68 68 26 23 23 76 68 68 76 68 68 26 23 23 26 23 23 75 68 68 75
67 67 26 23 23 75 67 67 74 67 67 74 67 67 74 67 67 74 67 67 74 66 66
74 66 66 73 66 66 73 66 66 73 66 66 73 66 66 73 66 66 73 65 65 72 65
65 72 65 65 72 65 65 72 65 65 18 182 91 19 189 95 19 192 96 19 193 97
19 193 96 19 192 96 19 191 95 19 189 94 19 186 93 18 184 92 18 181 91
19 179 91 19 176 89 17 171 86 17 167 84 16 163 81 16 159 79 15 154 77
15 150 75 15 145 73 14 140 70 13 135 67 13 129 65 12 124 62 12 118 59
11 112 56 11 106 53 10 99 50 9 92 46 9 85 43 8 78 39 7 70 35 6 61 30 5
52 26 4 42 21 3 31 16 3 26 13 3 26 13 3 26 13 3 26 13 229 206 206 229
206 206 229 206 206 229 206 206 229 206 206 229 206 206 229 206 206
229 207 207 230 207 207 230 207 207 230 207 207 230 207 207 230 207
207 230 207 207 230 207 207 230 207 207 230 207 207 230 207 207 230
207 207 230 207 207 230 207 207 230 207 207 230 207 207 230 207 207
230 207 207 230 207 207 230 207 207 230 207 207 230 207 207 230 207
207 230 207 207 230 207 207 230 207 207 230 207 207 230 207 207 230
207 207 230 207 207 26 23 23 230 207 207 230 207 207 26 23 23 26 23 23
230 207 207 230 207 207 26 23 23 230 207 207 26 23 23 230 207 207 230
207 207 26 23 23 230 207 207 230 207 207 26 23 23 230 207 207
26 23 23 77 69 69 77 69 69 77 69 69 77 69 69 26 23 23 26 23 23 76 69
69 76 68 68 26 23 23 76 68 68 76 68 68 26 23 23 26 23 23 75 68 68 26
23 23 75 67 67 75 67 67 74 67 67 74 67 67 74 67 67 74 67 67 74 66 66
74 66 66 73 66 66 73 66 66 73 66 66 73 66 66 73 65 65 73 65 65 72 65
65 72 65 65 72 65 65 72 65 65 18 180 90 19 186 93 19 189 95 19 190 95
19 190 95 19 189 95 19 188 94 19 186 93 18 183 92 18 181 90 18 178 89
18 175 87 17 171 86 17 168 84 16 164 82 16 160 80 16 156 78 15 151 76
15 147 73 14 142 71 14 137 69 13 132 66 13 127 63 12 121 60 12 115 58
11 109 55 10 103 51 10 96 48 9 89 45 8 82 41 7 75 37 7 67 33 6 58 29 5
49 25 4 39 20 3 29 14 3 26 13 3 26 13 3 26 13 3 26 13 228 205 205 228
206 206 229 206 206 229 206 206 229 206 206 229 206 206 229 206 206
229 206 206 229 206 206 229 206 206 229 206 206 229 207 207 230 207
207 230 207 207 230 207 207 230 207 207 230 207 207 230 207 207 230
207 207 230 207 207 230 207 207 230 207 207 230 207 207 230 207 207
230 207 207 230 207 207 230 207 207 230 207 207 230 207 207 230 207
207 230 207 207 230 207 207 230 207 207 230 207 207 230 207 207 230
207 207 230 207 207 230 207 207 26 23 23 230 207 207 26 23 23 26 23 23
230 207 207 230 207 207 26 23 23 230 207 207 230 207 207 26 23 23 26
23 23 230 207 207 230 207 207 230 207 207 230 207 207 26 23 23
26 23 23 26 23 23 77 69 69 77 69 69 76 69 69 26 23 23 76 69 69 76 68
68 76 68 68 76 68 68 76 68 68 75 68 68 75 68 68 75 68 68 75 67 67 75
67 67 75 67 67 74 67 67 74 67 67 74 67 67 74 67 67 74 66 66 74 66 66
73 66 66 73 66 66 73 66 66 73 66 66 73 66 66 73 65 65 72 65 65 72 65
65 72 65 65 72 65 65 72 65 65 18 177 88 18 183 92 19 186 93 19 187 93
19 187 93 19 186 93 18 184 92 18 182 91 18 180 90 18 178 89 17 175 87
17 172 86 17 168 84 16 165 82 16 161 80 16 157 78 15 153 76 15 148 74
14 144 72 14 139 69 13 134 67 13 129 64 12 123 62 12 118 59 11 112 56
11 106 53 10 100 50 9 93 47 9 86 43 8 79 40 7 72 36 6 64 32 6 55 28 5
46 23 4 36 18 3 26 13 3 26 13 3 26 13 3 26 13 3 26 13 228 205 205 228
205 205 228 205 205 228 205 205 228 206 206 229 206 206 229 206 206
229 206 206 229 206 206 229 206 206 229 206 206 229 206 206 229 206
206 229 206 206 229 206 206 229 206 206 229 206 206 229 207 207 230
207 207 230 207 207 230 207 207 230 207 207 230 207 207 230 207 207
230 207 207 230 207 207 230 207 207 230 207 207 230 207 207 230 207
207 230 207 207 230 207 207 230 207 207 230 207 207 230 207 207 230
207 207 230 207 207 230 207 207 230 207 207 230 207 207 230 207 207
230 207 207 230 207 207 230 207 207 230 207 207 230 207 207 230 207
207 230 207 207 26 23 23 230 207 207 230 207 207 229 207 207 26 23 23
26 23 23
77 69 69 77 69 69 77 69 69 77 69 69 76 69 69 76 69 69 76 68 68 76 68
68 76 68 68 76 68 68 75 68 68 75 68 68 75 68 68 75 68 68 75 67 67 75
67 67 75 67 67 74 67 67 74 67 67 74 67 67 74 67 67 74 66 66 74 66 66
73 66 66 73 66 66 73 66 66 73 66 66 73 65 65 73 65 65 72 65 65 72 65
65 72 65 65 72 65 65 72 64 64 17 173 87 18 179 90 18 182 91 18 183 92
18 183 92 18 182 91 18 181 90 18 179 89 18 177 88 17 174 87 17 171 86
17 168 84 16 165 82 16 161 81 16 157 79 15 153 77 15 149 75 14 145 72
14 140 70 14 135 68 13 130 65 13 125 63 12 120 60 11 114 57 11 109 54
10 103 51 10 96 48 9 90 45 8 83 41 8 76 38 7 68 34 6 60 30 5 52 26 4
43 21 3 33 17 3 26 13 3 26 13 3 26 13 3 26 13 3 26 13 26 23 23 228 205
205 228 205 205 26 23 23 228 205 205 228 205 205 228 205 205 26 23 23
228 206 206 229 206 206 229 206 206 26 23 23 229 206 206 229 206 206
26 23 23 26 23 23 229 206 206 229 206 206 26 23 23 229 206 206 229 206
206 229 206 206 229 206 206 229 206 206 229 206 206 229 206 206 229
206 206 229 207 207 229 207 207 229 207 207 229 207 207 229 207 207
230 207 207 230 207 207 229 207 207 229 207 207 229 207 207 229 207
207 229 207 207 229 207 207 229 207 207 229 206 206 229 206 206 229
206 206 229 206 206 229 206 206 229 206 206 229 206 206 229 206 206
229 206 206 229 206 206 229 206 206 229 206 206 229 206 206
77 69 69 77 69 69 77 69 69 76 69 69 76 69 69 76 69 69 76 68 68 76 68
68 76 68 68 76 68 68 75 68 68 75 68 68 75 68 68 75 67 67 75 67 67 75
67 67 74 67 67 74 67 67 74 67 67 74 67 67 74 66 66 74 66 66 73 66 66
73 66 66 73 66 66 73 66 66 73 66 66 73 65 65 72 65 65 72 65 65 72 65
65 26 23 23 72 65 65 72 64 64 17 168 84 18 175 88 18 178 89 18 179 90
18 179 90 18 178 89 18 177 88 18 175 88 17 173 86 17 170 85 17 167 84
16 164 82 16 161 81 16 157 79 15 154 77 15 150 75 15 146 73 14 141 71
14 137 68 13 132 66 13 127 63 12 122 61 12 116 58 11 111 55 11 105 53
10 99 50 9 93 46 9 86 43 8 79 40 7 72 36 6 65 32 6 57 28 5 48 24 4 39
20 3 29 15 3 26 13 3 26 13 3 26 13 3 26 13 3 26 13 227 204 204 26 23
23 227 205 205 228 205 205 228 205 205 228 205 205 228 205 205 228 205
205 228 205 205 228 205 205 228 205 205 228 206 206 228 206 206 26 23
23 26 23 23 229 206 206 229 206 206 229 206 206 229 206 206 229 206
206 229 206 206 229 206 206 26 23 23 229 206 206 229 206 206 229 206
206 229 206 206 229 206 206 229 206 206 229 206 206 229 206 206 229
206 206 229 206 206 229 206 206 229 206 206 229 206 206 229 206 206
229 206 206 229 206 206 229 206 206 229 206 206 229 206 206 229 206
206 229 206 206 229 206 206 229 206 206 229 206 206 229 206 206 229
206 206 229 206 206 229 206 206 229 206 206 229 206 206 229 206 206
77 69 69 77 69 69 26 23 23 76 69 69 76 69 69 76 68 68 76 68 68 76 68
68 76 68 68 75 68 68 75 68 68 75 68 68 75 68 68 75 67 67 75 67 67 75
67 67 74 67 67 74 67 67 74 67 67 74 67 67 74 66 66 74 66 66 26 23 23
73 66 66 73 66 66 73 66 66 73 65 65 73 65 65 72 65 65 72 65 65 72 65
65 72 65 65 72 64 64 26 23 23 16 163 82 17 170 85 17 174 87 17 175 87
17 175 87 17 174 87 17 173 86 17 171 86 17 169 84 17 166 83 16 164 82
16 160 80 16 157 79 15 154 77 15 150 75 15 146 73 14 142 71 14 137 69
13 133 66 13 128 64 12 123 62 12 118 59 11 113 56 11 107 54 10 101 51
10 95 48 9 89 44 8 82 41 8 76 38 7 68 34 6 61 30 5 53 26 4 44 22 4 35
18 3 26 13 3 26 13 3 26 13 3 26 13 3 26 13 3 26 13 227 204 204 227 204
204 227 204 204 227 204 204 227 205 205 227 205 205 228 205 205 228
205 205 228 205 205 228 205 205 228 205 205 228 205 205 228 205 205
228 205 205 228 205 205 228 206 206 228 206 206 228 206 206 229 206
206 229 206 206 26 23 23 229 206 206 229 206 206 229 206 206 229 206
206 229 206 206 229 206 206 229 206 206 229 206 206 229 206 206 229
206 206 26 23 23 229 206 206 229 206 206 229 206 206 229 206 206 229
206 206 229 206 206 229 206 206 229 206 206 229 206 206 229 206 206
229 206 206 229 206 206 229 206 206 229 206 206 229 206 206 229 206
206 229 206 206 229 206 206 229 206 206 26 23 23 229 206 206 229 206
206
77 69 69 77 69 69 76 69 69 76 69 69 76 69 69 76 68 68 76 68 68 76 68
68 76 68 68 75 68 68 75 68 68 75 68 68 75 67 67 75 67 67 75 67 67 74
67 67 74 67 67 74 67 67 74 67 67 74 66 66 74 66 66 73 66 66 73 66 66
73 66 66 73 66 66 73 66 66 73 65 65 72 65 65 72 65 65 72 65 65 72 65
65 72 65 65 72 64 64 71 64 64 16 156 78 17 165 83 17 169 84 17 170 85
17 170 85 17 170 85 17 168 84 17 167 83 16 165 82 16 162 81 16 159 80
16 156 78 15 153 77 15 150 75 15 146 73 14 142 71 14 138 69 13 133 67
13 129 64 12 124 62 12 119 60 11 114 57 11 109 54 10 103 52 10 97 49 9
91 46 8 85 42 8 78 39 7 71 36 6 64 32 6 57 28 5 49 24 4 40 20 3 31 15
3 26 13 3 26 13 3 26 13 3 26 13 3 26 13 3 26 13 226 204 204 227 204
204 227 204 204 227 204 204 227 204 204 227 204 204 227 204 204 227
205 205 227 205 205 228 205 205 228 205 205 228 205 205 228 205 205
228 205 205 228 205 205 228 205 205 228 205 205 228 205 205 228 205
205 228 205 205 228 205 205 228 205 205 228 206 206 228 206 206 228
206 206 228 206 206 228 206 206 229 206 206 229 206 206 229 206 206
229 206 206 229 206 206 229 206 206 229 206 206 229 206 206 229 206
206 229 206 206 229 206 206 229 206 206 229 206 206 229 206 206 229
206 206 229 206 206 229 206 206 229 206 206 228 206 206 228 206 206
228 206 206 228 206 206 228 206 206 228 206 206 228 206 206 228 206
206 228 205 205
77 69 69 76 69 69 26 23 23 76 69 69 76 68 68 76 68 68 76 68 68 76 68
68 75 68 68 75 68 68 26 23 23 75 68 68 75 67 67 75 67 67 75 67 67 74
67 67 74 67 67 74 67 67 74 67 67 74 66 66 74 66 66 73 66 66 26 23 23
73 66 66 73 66 66 73 65 65 73 65 65 72 65 65 72 65 65 72 65 65 72 65
65 72 64 64 71 64 64 71 64 64 15 148 74 16 159 80 16 163 82 16 165 82
17 165 83 16 165 82 16 164 82 16 162 81 16 160 80 16 158 79 16 155 78
15 152 76 15 149 74 15 145 73 14 142 71 14 138 69 13 133 67 13 129 65
12 125 62 12 120 60 11 115 57 11 110 55 10 104 52 10 99 49 9 93 47 9
87 43 8 81 40 7 74 37 7 67 34 6 60 30 5 52 26 4 44 22 4 35 18 3 26 13
3 26 13 3 26 13 3 26 13 3 26 13 3 26 13 3 26 13 226 203 203 226 204
204 226 204 204 226 204 204 227 204 204 227 204 204 227 204 204 227
204 204 227 204 204 227 204 204 227 205 205 227 205 205 227 205 205
227 205 205 228 205 205 228 205 205 228 205 205 228 205 205 228 205
205 228 205 205 71 143 14 80 159 16 81 163 16 81 162 16 79 159 16 76
153 15 73 145 15 67 135 13 61 121 12 51 102 10 228 205 205 26 23 23
228 205 205 228 205 205 228 205 205 228 205 205 228 205 205 228 205
205 228 205 205 228 205 205 228 205 205 228 205 205 228 205 205 26 23
23 228 205 205 228 205 205 228 205 205 228 205 205 228 205 205 228 205
205 228 205 205 26 23 23 228 205 205 228 205 205
77 69 69 76 69 69 26 23 23 76 68 68 76 68 68 76 68 68 76 68 68 76 68
68 75 68 68 75 68 68 26 23 23 75 67 67 75 67 67 26 23 23 26 23 23 74
67 67 74 67 67 74 67 67 74 66 66 74 66 66 73 66 66 73 66 66 26 23 23
26 23 23 73 66 66 73 65 65 72 65 65 72 65 65 72 65 65 72 65 65 72 65
65 72 64 64 71 64 64 71 64 64 13 134 67 15 152 76 16 157 79 16 159 80
16 160 80 16 160 80 16 159 79 16 157 79 16 155 78 15 153 77 15 150 75
15 147 74 14 144 72 14 141 70 14 137 69 13 133 67 13 129 65 12 125 62
12 120 60 12 115 58 11 110 55 11 105 53 10 100 50 9 94 47 9 89 44 8 82
41 8 76 38 7 69 35 6 63 31 6 55 28 5 47 24 4 39 20 3 31 15 3 26 13 3
26 13 3 26 13 3 26 13 3 26 13 3 26 13 225 203 203 226 203 203 226 203
203 226 203 203 226 203 203 226 204 204 226 204 204 226 204 204 227
204 204 227 204 204 227 204 204 227 204 204 227 204 204 227 204 204
227 204 204 227 204 204 227 205 205 227 205 205 227 205 205 73 146 15
86 172 17 89 178 18 90 181 18 90 180 18 89 177 18 86 173 17 83 167 17
80 159 16 75 150 15 70 140 14 63 127 13 55 110 11 43 87 9 228 205 205
228 205 205 228 205 205 228 205 205 228 205 205 228 205 205 228 205
205 228 205 205 26 23 23 228 205 205 228 205 205 26 23 23 228 205 205
228 205 205 228 205 205 228 205 205 228 205 205 228 205 205 228 205
205 26 23 23 228 205 205 228 205 205
76 69 69 76 69 69 76 69 69 76 68 68 76 68 68 76 68 68 26 23 23 75 68
68 75 68 68 75 68 68 75 67 67 75 67 67 75 67 67 75 67 67 26 23 23 74
67 67 74 67 67 74 66 66 74 66 66 74 66 66 73 66 66 26 23 23 73 66 66
73 66 66 73 65 65 73 65 65 72 65 65 72 65 65 72 65 65 72 65 65 72 65
65 71 64 64 71 64 64 71 64 64 71 64 64 14 144 72 15 150 75 15 153 77
15 154 77 15 154 77 15 154 77 15 152 76 15 150 75 15 148 74 15 145 73
14 143 71 14 139 70 14 136 68 13 132 66 13 128 64 12 124 62 12 120 60
12 115 58 11 111 55 11 106 53 10 101 50 10 95 48 9 90 45 8 84 42 8 78
39 7 71 36 6 65 32 6 58 29 5 50 25 4 42 21 3 34 17 3 26 13 3 26 13 3
26 13 3 26 13 3 26 13 3 26 13 3 26 13 225 202 202 225 203 203 225 203
203 225 203 203 226 203 203 226 203 203 226 203 203 226 203 203 226
204 204 226 204 204 226 204 204 226 204 204 227 204 204 227 204 204
227 204 204 227 204 204 227 204 204 227 204 204 83 167 17 91 182 18 94
189 19 95 191 19 95 191 19 94 189 19 93 185 19 90 181 18 87 175 17 84
167 17 79 159 16 75 149 15 69 138 14 62 124 12 54 107 11 43 85 9 228
205 205 228 205 205 228 205 205 228 205 205 228 205 205 228 205 205
228 205 205 228 205 205 228 205 205 228 205 205 228 205 205 26 23 23
228 205 205 228 205 205 26 23 23 228 205 205 228 205 205 228 205 205
228 205 205 228 205 205 227 205 205
76 69 69 76 69 69 26 23 23 76 68 68 76 68 68 76 68 68 76 68 68 75 68
68 75 68 68 26 23 23 26 23 23 26 23 23 75 67 67 26 23 23 26 23 23 74
67 67 74 67 67 74 66 66 74 66 66 73 66 66 73 66 66 73 66 66 73 66 66
73 66 66 73 65 65 72 65 65 72 65 65 72 65 65 72 65 65 72 65 65 72 64
64 71 64 64 71 64 64 71 64 64 71 64 64 13 133 67 14 143 71 15 147 73
15 148 74 15 148 74 15 148 74 15 147 73 14 145 72 14 143 71 14 140 70
14 137 69 13 134 67 13 131 65 13 127 64 12 123 62 12 119 60 12 115 58
11 111 55 11 106 53 10 101 50 10 96 48 9 90 45 8 85 42 8 79 39 7 73 36
7 66 33 6 59 30 5 52 26 4 45 22 4 37 19 3 29 14 3 26 13 3 26 13 3 26
13 3 26 13 3 26 13 3 26 13 3 26 13 225 202 202 26 23 23 225 202 202
225 203 203 225 203 203 26 23 23 226 203 203 226 203 203 226 203 203
226 203 203 226 203 203 226 204 204 226 204 204 226 204 204 226 204
204 26 23 23 227 204 204 85 171 17 93 187 19 97 194 19 99 197 20 99
198 20 98 197 20 97 194 19 95 190 19 93 185 19 90 179 18 86 172 17 82
164 16 77 154 15 72 144 14 66 131 13 58 117 12 50 99 10 38 76 8 227
205 205 227 205 205 227 205 205 227 205 205 227 205 205 227 205 205 26
23 23 227 205 205 26 23 23 26 23 23 227 205 205 227 205 205 227 205
205 227 205 205 227 205 205 227 205 205 227 205 205 26 23 23 227 204
204 227 204 204
76 69 69 76 69 69 26 23 23 26 23 23 76 68 68 76 68 68 75 68 68 75 68
68 75 68 68 75 67 67 26 23 23 75 67 67 74 67 67 74 67 67 26 23 23 26
23 23 26 23 23 74 66 66 74 66 66 73 66 66 73 66 66 73 66 66 73 66 66
73 65 65 73 65 65 26 23 23 72 65 65 72 65 65 72 65 65 72 65 65 71 64
64 71 64 64 71 64 64 71 64 64 71 64 64 11 112 56 13 134 67 14 139 69
14 141 71 14 142 71 14 142 71 14 141 70 14 139 70 14 137 69 13 135 67
13 132 66 13 129 64 13 126 63 12 122 61 12 118 59 11 114 57 11 110 55
11 105 53 10 101 50 10 96 48 9 90 45 9 85 43 8 79 40 7 73 37 7 67 34 6
61 30 5 54 27 5 47 23 4 39 20 3 31 16 3 26 13 3 26 13 3 26 13 3 26 13
3 26 13 3 26 13 3 26 13 224 202 202 224 202 202 26 23 23 225 202 202
225 202 202 225 202 202 225 203 203 225 203 203 225 203 203 225 203
203 226 203 203 226 203 203 226 203 203 226 203 203 226 203 203 226
203 203 226 204 204 83 166 17 93 187 19 98 196 20 100 200 20 101 202
20 101 201 20 100 200 20 98 197 20 96 193 19 94 188 19 91 181 18 87
174 17 83 166 17 79 157 16 73 147 15 68 135 14 61 122 12 53 106 11 44
87 9 31 61 6 227 204 204 227 204 204 26 23 23 26 23 23 26 23 23 227
204 204 227 204 204 227 204 204 26 23 23 227 204 204 227 204 204 227
204 204 227 204 204 227 204 204 227 204 204 26 23 23 26 23 23 26 23 23
227 204 204
76 69 69 76 68 68 26 23 23 26 23 23 76 68 68 75 68 68 75 68 68 26 23
23 75 68 68 75 67 67 26 23 23 26 23 23 74 67 67 74 67 67 74 67 67 26
23 23 74 66 66 74 66 66 73 66 66 73 66 66 73 66 66 73 66 66 73 66 66
73 65 65 72 65 65 72 65 65 72 65 65 72 65 65 72 65 65 72 64 64 71 64
64 71 64 64 71 64 64 71 64 64 71 64 64 70 63 63 12 122 61 13 130 65 13
134 67 13 135 67 13 135 67 13 134 67 13 133 66 13 131 66 13 129 64 13
126 63 12 123 62 12 120 60 12 116 58 11 113 56 11 109 54 10 104 52 10
100 50 10 95 48 9 90 45 8 85 42 8 80 40 7 74 37 7 68 34 6 62 31 6 55
28 5 48 24 4 41 20 3 33 17 3 26 13 3 26 13 3 26 13 3 26 13 3 26 13 3
26 13 3 26 13 3 26 13 139 125 125 139 125 125 138 124 124 138 124 124
138 124 124 224 202 202 225 202 202 225 202 202 225 202 202 225 203
203 225 203 203 225 203 203 26 23 23 26 23 23 26 23 23 26 23 23 26 23
23 91 182 18 97 194 19 100 200 20 101 203 20 102 204 20 101 203 20 100
201 20 99 198 20 97 193 19 94 188 19 91 182 18 88 175 18 84 167 17 79
158 16 74 148 15 69 137 14 62 124 12 55 110 11 46 93 9 35 71 7 19 38 4
227 204 204 227 204 204 26 23 23 227 204 204 227 204 204 227 204 204
26 23 23 26 23 23 227 204 204 227 204 204 26 23 23 227 204 204 227 204
204 227 204 204 26 23 23 26 23 23 227 204 204 227 204 204
76 68 68 76 68 68 76 68 68 76 68 68 76 68 68 75 68 68 26 23 23 75 68
68 75 67 67 75 67 67 75 67 67 74 67 67 74 67 67 74 67 67 26 23 23 74
66 66 74 66 66 74 66 66 73 66 66 73 66 66 26 23 23 73 66 66 26 23 23
73 65 65 72 65 65 72 65 65 72 65 65 72 65 65 72 65 65 71 64 64 71 64
64 71 64 64 71 64 64 71 64 64 71 64 64 70 63 63 10 100 50 12 120 60 12
125 62 13 127 64 13 128 64 13 127 64 13 126 63 12 125 62 12 122 61 12
120 60 12 117 59 11 114 57 11 110 55 11 107 53 10 103 51 10 98 49 9 94
47 9 89 45 8 84 42 8 79 40 7 74 37 7 68 34 6 62 31 6 56 28 5 49 24 4
42 21 3 35 17 3 27 13 3 26 13 3 26 13 3 26 13 3 26 13 3 26 13 3 26 13
3 26 13 3 26 13 141 127 127 141 127 127 140 126 126 140 126 126 140
126 126 26 23 23 26 23 23 26 23 23 26 23 23 26 23 23 26 23 23 26 23 23
26 23 23 26 23 23 26 23 23 26 23 23 85 170 17 94 188 19 98 197 20 101
201 20 102 204 20 102 204 20 101 203 20 100 200 20 98 197 20 96 193 19
94 187 19 91 181 18 87 174 17 83 167 17 79 158 16 74 148 15 69 137 14
62 125 12 55 111 11 47 95 9 38 75 8 25 49 5 226 204 204 226 204 204
226 204 204 26 23 23 226 204 204 226 204 204 226 204 204 226 204 204
226 204 204 226 204 204 226 204 204 26 23 23 226 204 204 226 204 204
26 23 23 226 204 204 226 204 204 226 204 204
76 68 68 76 68 68 76 68 68 76 68 68 75 68 68 75 68 68 75 68 68 75 67
67 75 67 67 75 67 67 75 67 67 74 67 67 74 67 67 74 67 67 74 67 67 74
66 66 74 66 66 73 66 66 73 66 66 73 66 66 73 66 66 73 65 65 73 65 65
72 65 65 72 65 65 72 65 65 72 65 65 72 65 65 72 64 64 71 64 64 71 64
64 71 64 64 71 64 64 71 64 64 70 63 63 70 63 63 70 63 63 11 106 53 11
115 57 12 118 59 12 120 60 12 120 60 12 119 59 12 118 59 12 116 58 11
113 57 11 111 55 11 107 54 10 104 52 10 100 50 10 96 48 9 92 46 9 88
44 8 83 42 8 78 39 7 73 36 7 67 34 6 62 31 6 55 28 5 49 25 4 42 21 4
35 18 3 28 14 3 26 13 3 26 13 3 26 13 3 26 13 3 26 13 3 26 13 3 26 13
3 26 13 26 23 23 26 23 23 26 23 23 26 23 23 26 23 23 26 23 23 26 23 23
26 23 23 26 23 23 26 23 23 26 23 23 26 23 23 26 23 23 26 23 23 26 23
23 26 23 23 26 23 23 89 177 18 95 190 19 99 197 20 101 201 20 101 203
20 101 203 20 101 201 20 100 200 21 99 196 21 95 191 19 93 185 19 90
179 18 86 172 17 82 165 16 78 156 16 73 146 15 68 136 14 62 124 12 55
110 11 47 95 9 38 76 8 27 53 5 13 26 3 226 203 203 226 203 203 226 204
204 226 204 204 226 204 204 226 204 204 226 204 204 26 23 23 226 204
204 226 204 204 226 204 204 226 204 204 226 203 203 26 23 23 226 203
203 226 203 203 226 203 203
76 68 68 76 68 68 26 23 23 75 68 68 26 23 23 75 68 68 75 68 68 75 67
67 75 67 67 75 67 67 74 67 67 74 67 67 26 23 23 74 67 67 26 23 23 74
66 66 74 66 66 73 66 66 73 66 66 73 66 66 73 66 66 73 65 65 73 65 65
72 65 65 72 65 65 72 65 65 72 65 65 72 64 64 71 64 64 71 64 64 71 64
64 154 139 139 154 139 139 154 138 138 154 138 138 153 138 138 153 138
138 153 138 138 10 101 51 11 108 54 11 110 55 11 111 56 11 111 55 11
110 55 11 108 54 11 106 53 10 104 52 10 101 50 10 97 49 9 94 47 9 90
45 9 86 43 8 81 41 8 76 38 7 71 36 7 66 33 6 61 30 5 55 27 5 49 24 4
42 21 4 35 18 3 28 14 3 26 13 3 26 13 3 26 13 3 26 13 3 26 13 3 26 13
3 26 13 3 26 13 26 23 23 26 23 23 26 23 23 26 23 23 26 23 23 26 23 23
26 23 23 26 23 23 26 23 23 26 23 23 26 23 23 26 23 23 26 23 23 26 23
23 26 23 23 26 23 23 26 23 23 77 155 15 89 179 18 95 190 19 98 196 20
100 199 20 100 200 20 100 200 20 100 199 20 148 246 70 123 219 46 94
188 19 91 182 18 88 176 18 85 169 17 81 162 16 77 153 15 72 144 14 67
133 13 61 121 12 54 108 11 47 93 9 38 75 8 27 53 5 13 26 3 226 203 203
226 203 203 26 23 23 226 203 203 26 23 23 226 203 203 226 203 203 226
203 203 226 203 203 226 203 203 226 203 203 226 203 203 26 23 23 26 23
23 26 23 23 226 203 203 226 203 203
76 68 68 76 68 68 76 68 68 26 23 23 26 23 23 75 68 68 75 67 67 75 67
67 26 23 23 26 23 23 74 67 67 74 67 67 26 23 23 74 67 67 74 66 66 74
66 66 73 66 66 73 66 66 73 66 66 73 66 66 73 65 65 73 65 65 72 65 65
72 65 65 172 138 17 166 133 17 155 124 16 141 113 14 125 100 13 106 85
11 82 66 8 43 34 4 156 140 140 155 140 140 155 140 140 155 139 139 155
139 139 154 139 139 154 139 139 9 95 47 10 100 50 10 102 51 10 102 51
10 102 51 10 100 50 10 98 49 10 96 48 9 93 47 9 90 45 9 86 43 8 83 41
8 78 39 7 74 37 7 69 35 6 64 32 6 59 30 5 53 27 5 48 24 4 41 21 3 35
17 3 28 14 3 26 13 3 26 13 3 26 13 3 26 13 3 26 13 3 26 13 3 26 13 3
26 13 3 26 13 26 23 23 26 23 23 26 23 23 26 23 23 26 23 23 26 23 23 26
23 23 26 23 23 26 23 23 26 23 23 26 23 23 26 23 23 26 23 23 26 23 23
26 23 23 26 23 23 26 23 23 79 158 16 89 178 18 94 187 19 96 193 19 98
196 20 98 197 20 98 196 20 97 195 20 104 200 27 96 190 21 92 184 18 89
178 18 86 172 17 83 165 17 79 158 16 75 149 15 70 140 14 65 129 13 59
118 12 52 105 10 45 90 9 36 72 7 26 51 5 13 26 3 225 203 203 225 203
203 225 203 203 225 203 203 26 23 23 226 203 203 226 203 203 26 23 23
26 23 23 226 203 203 226 203 203 226 203 203 26 23 23 26 23 23 226 203
203 225 203 203 225 203 203
76 68 68 76 68 68 75 68 68 26 23 23 26 23 23 75 68 68 75 67 67 75 67
67 75 67 67 74 67 67 26 23 23 26 23 23 26 23 23 74 66 66 74 66 66 73
66 66 73 66 66 73 66 66 160 144 144 160 144 144 160 144 144 159 143
143 189 152 19 190 152 19 183 147 18 173 139 17 161 129 16 147 118 15
132 105 13 114 91 11 94 75 9 70 56 7 40 32 4 157 141 141 156 141 141
156 141 141 156 140 140 156 140 140 156 140 140 7 72 36 9 86 43 9 90
45 9 92 46 9 92 46 9 91 46 9 90 45 9 88 44 8 85 42 8 82 41 8 79 39 7
75 37 7 71 35 7 66 33 6 62 31 6 57 28 5 51 26 5 46 23 4 40 20 3 33 17
3 27 13 3 26 13 3 26 13 3 26 13 3 26 13 3 26 13 3 26 13 3 26 13 3 26
13 3 26 13 26 23 23 26 23 23 26 23 23 26 23 23 26 23 23 26 23 23 26 23
23 26 23 23 26 23 23 26 23 23 26 23 23 26 23 23 26 23 23 26 23 23 26
23 23 26 23 23 26 23 23 26 23 23 78 156 16 87 174 17 92 183 18 94 188
19 96 191 19 96 192 19 96 191 19 95 190 19 93 187 19 92 183 18 89 179
18 87 174 17 84 167 17 80 161 16 76 153 15 72 144 14 67 135 13 62 125
12 56 113 11 50 100 10 43 85 9 34 68 7 24 47 5 13 26 3 225 203 203 225
203 203 225 203 203 225 203 203 26 23 23 26 23 23 26 23 23 225 203 203
225 203 203 225 203 203 225 203 203 225 203 203 26 23 23 26 23 23 225
203 203 225 203 203 225 203 203
76 68 68 76 68 68 75 68 68 26 23 23 75 68 68 26 23 23 26 23 23 26 23
23 26 23 23 74 67 67 74 67 67 163 146 146 163 146 146 162 146 146 162
146 146 162 146 146 162 146 146 161 145 145 161 145 145 161 145 145
161 145 145 198 158 20 199 160 20 194 155 19 185 148 19 174 140 17 162
130 16 148 118 15 132 106 13 115 92 12 96 77 10 75 60 7 50 40 5 26 20
3 158 142 142 157 142 142 157 142 142 157 141 141 157 141 141 157 141
141 6 62 31 8 76 38 8 80 40 8 81 41 8 81 41 8 80 40 8 78 39 8 76 38 7
73 37 7 70 35 7 66 33 6 62 31 6 58 29 5 53 27 5 48 24 4 43 21 4 37 19
3 31 16 3 26 13 3 26 13 3 26 13 3 26 13 3 26 13 3 26 13 3 26 13 3 26
13 3 26 13 3 26 13 26 23 23 26 23 23 26 23 23 26 23 23 26 23 23 26 23
23 26 23 23 26 23 23 26 23 23 26 23 23 26 23 23 26 23 23 26 23 23 26
23 23 26 23 23 26 23 23 26 23 23 26 23 23 26 23 23 75 151 15 84 168 17
89 177 18 91 182 18 93 185 19 93 186 19 93 186 19 92 184 18 91 181 18
89 178 18 87 173 17 84 168 17 81 162 16 77 155 15 74 147 15 69 139 14
65 129 13 59 119 12 54 107 11 47 94 9 40 79 8 31 62 6 21 41 4 13 26 3
139 125 125 139 125 125 139 125 125 139 125 125 138 125 125 138 124
124 225 202 202 225 202 202 26 23 23 26 23 23 26 23 23 26 23 23 225
202 202 26 23 23 225 202 202 225 202 202 225 202 202
76 68 68 75 68 68 75 68 68 75 68 68 165 149 149 165 149 149 165 148
148 165 148 148 165 148 148 164 148 148 164 148 148 164 148 148 164
147 147 164 147 147 163 147 147 163 147 147 163 147 147 163 146 146
162 146 146 162 146 146 195 156 19 204 163 20 200 160 20 193 154 19
184 147 18 172 138 17 160 128 16 146 117 15 130 104 13 114 91 11 95 76
10 75 60 7 52 42 5 26 20 3 26 20 3 159 143 143 158 143 143 158 142 142
158 142 142 158 142 142 158 142 142 157 142 142 6 63 32 7 68 34 7 69
35 7 69 34 7 68 34 7 66 33 6 63 32 6 60 30 6 57 28 5 53 27 5 49 24 4
44 22 4 39 20 3 34 17 3 28 14 3 26 13 3 26 13 3 26 13 3 26 13 3 26 13
3 26 13 3 26 13 3 26 13 3 26 13 3 26 13 26 23 23 26 23 23 26 23 23 26
23 23 26 23 23 26 23 23 26 23 23 26 23 23 26 23 23 26 23 23 26 23 23
26 23 23 26 23 23 26 23 23 26 23 23 26 23 23 26 23 23 26 23 23 26 23
23 26 23 23 71 142 14 80 161 16 85 170 17 88 175 18 89 178 18 90 179
18 89 179 18 89 177 18 87 174 17 85 171 17 83 166 17 81 161 16 77 155
15 74 148 15 70 140 14 66 132 13 61 122 12 56 112 11 50 100 10 44 87 9
36 72 7 27 55 5 17 33 3 13 26 3 141 127 127 141 126 126 140 126 126
140 126 126 140 126 126 140 126 126 139 125 125 139 125 125 139 125
125 139 125 125 138 125 125 138 124 124 138 124 124 225 202 202 225
202 202 225 202 202 225 202 202
167 151 151 167 150 150 167 150 150 167 150 150 166 150 150 166 150
150 166 149 149 166 149 149 166 149 149 165 149 149 165 149 149 165
148 148 165 148 148 165 148 148 164 148 148 164 148 148 164 148 148
164 147 147 163 147 147 163 147 147 202 162 20 203 162 20 198 158 20
190 152 19 180 144 18 168 135 17 156 124 16 142 113 14 126 101 13 110
88 11 92 73 9 72 58 7 50 40 5 26 20 3 26 20 3 160 144 144 159 144 144
159 143 143 159 143 143 159 143 143 159 143 143 158 143 143 158 142
142 5 48 24 5 54 27 6 55 28 6 55 28 5 54 27 5 52 26 5 49 25 5 46 23 4
43 21 4 38 19 3 34 17 3 29 14 3 26 13 3 26 13 3 26 13 3 26 13 3 26 13
3 26 13 3 26 13 3 26 13 3 26 13 3 26 13 26 23 23 26 23 23 26 23 23 26
23 23 26 23 23 26 23 23 26 23 23 26 23 23 26 23 23 26 23 23 26 23 23
26 23 23 26 23 23 26 23 23 26 23 23 26 23 23 26 23 23 26 23 23 26 23
23 26 23 23 26 23 23 26 23 23 65 130 13 75 151 15 81 161 16 83 167 17
85 170 17 86 171 17 85 171 17 85 169 17 83 167 17 82 163 16 79 159 16
77 153 15 74 147 15 70 140 14 66 133 13 62 124 12 57 115 11 52 104 10
46 92 9 39 79 8 32 63 6 23 46 5 13 26 3 13 26 3 142 128 128 142 128
128 142 127 127 141 127 127 141 127 127 141 127 127 141 127 127 140
126 126 140 126 126 140 126 126 140 126 126 140 126 126 139 125 125
139 125 125 139 125 125 139 125 125 138 125 125
168 151 151 168 151 151 168 151 151 168 151 151 167 151 151 167 150
150 167 150 150 167 150 150 167 150 150 166 150 150 166 150 150 166
149 149 166 149 149 166 149 149 165 149 149 165 149 149 165 148 148
165 148 148 164 148 148 164 148 148 200 160 20 198 159 20 193 154 19
193 156 27 199 165 43 163 130 16 150 120 15 136 109 14 121 97 12 104
83 10 86 69 9 67 54 7 45 36 5 26 20 3 26 20 3 26 20 3 160 144 144 160
144 144 160 144 144 160 144 144 160 144 144 159 143 143 159 143 143
159 143 143 159 143 143 4 36 18 4 39 20 4 40 20 4 39 19 4 37 18 3 34
17 3 30 15 3 26 13 3 26 13 3 26 13 3 26 13 3 26 13 3 26 13 3 26 13 3
26 13 3 26 13 3 26 13 3 26 13 3 26 13 26 23 23 26 23 23 26 23 23 26 23
23 26 23 23 26 23 23 26 23 23 26 23 23 26 23 23 26 23 23 26 23 23 26
23 23 26 23 23 26 23 23 26 23 23 26 23 23 26 23 23 26 23 23 26 23 23
26 23 23 26 23 23 26 23 23 26 23 23 56 112 11 69 139 14 75 150 15 78
157 16 80 160 16 81 162 16 81 162 16 80 160 16 79 158 16 77 154 15 75
150 15 72 145 14 69 139 14 66 132 13 62 124 12 58 115 12 53 106 11 47
95 9 41 83 8 35 69 7 27 53 5 17 34 3 13 26 3 13 26 3 143 129 129 143
129 129 143 129 129 143 128 128 142 128 128 142 128 128 142 128 128
142 128 128 141 127 127 141 127 127 141 127 127 141 127 127 141 127
127 140 126 126 140 126 126 140 126 126 140 126 126
169 152 152 169 152 152 169 152 152 168 152 152 168 151 151 168 151
151 168 151 151 168 151 151 167 151 151 167 151 151 167 150 150 167
150 150 167 150 150 166 150 150 166 150 150 166 149 149 166 149 149
166 149 149 165 149 149 186 149 19 195 156 19 192 154 19 186 149 19
177 142 18 167 134 17 155 124 16 143 114 14 129 103 13 114 91 11 97 78
10 79 64 8 60 48 6 39 31 4 26 20 3 26 20 3 26 20 3 161 145 145 161 145
145 161 145 145 161 145 145 160 144 144 160 144 144 160 144 144 160
144 144 160 144 144 159 143 143 159 143 143 3 26 13 3 26 13 3 26 13 3
26 13 3 26 13 3 26 13 3 26 13 3 26 13 3 26 13 3 26 13 3 26 13 3 26 13
3 26 13 3 26 13 3 26 13 26 23 23 26 23 23 26 23 23 26 23 23 26 23 23
26 23 23 26 23 23 26 23 23 26 23 23 26 23 23 26 23 23 26 23 23 26 23
23 26 23 23 26 23 23 26 23 23 26 23 23 26 23 23 26 23 23 26 23 23 26
23 23 151 136 136 150 135 135 150 135 135 150 135 135 150 135 135 61
123 12 69 137 14 72 145 14 75 149 15 76 151 15 76 151 15 75 150 15 74
148 15 72 144 14 70 140 14 67 135 13 64 129 13 61 122 12 57 114 11 53
105 11 48 95 10 42 84 8 36 72 7 29 58 6 21 41 4 13 26 3 13 26 3 26 23
23 26 23 23 26 23 23 26 23 23 26 23 23 26 23 23 26 23 23 143 129 129
143 129 129 143 128 128 142 128 128 142 128 128 142 128 128 142 128
128 142 127 127 141 127 127 141 127 127 141 127 127
170 153 153 170 153 153 169 153 153 169 152 152 169 152 152 169 152
152 169 152 152 168 152 152 168 151 151 168 151 151 168 151 151 168
151 151 167 151 151 167 150 150 167 150 150 167 150 150 167 150 150
166 150 150 166 150 150 179 144 18 186 149 19 184 147 18 177 142 18
169 135 17 159 127 16 147 118 15 134 107 13 120 96 12 105 84 11 89 71
9 71 57 7 52 42 5 31 25 3 26 20 3 26 20 3 26 20 3 162 146 146 162 146
146 162 146 146 162 145 145 161 145 145 161 145 145 161 145 145 161
145 145 160 144 144 160 144 144 160 144 144 160 144 144 26 23 23 26 23
23 3 26 13 3 26 13 3 26 13 3 26 13 3 26 13 3 26 13 3 26 13 3 26 13 3
26 13 26 23 23 26 23 23 26 23 23 26 23 23 26 23 23 26 23 23 26 23 23
26 23 23 26 23 23 26 23 23 26 23 23 26 23 23 26 23 23 26 23 23 26 23
23 26 23 23 26 23 23 26 23 23 26 23 23 153 138 138 153 137 137 152 137
137 152 137 137 152 137 137 152 137 137 151 136 136 151 136 136 151
136 136 151 136 136 50 101 10 61 121 12 65 131 13 68 136 14 69 139 14
70 139 14 69 139 14 68 137 14 67 133 13 65 129 13 62 124 12 59 118 12
55 111 11 51 103 10 47 94 9 42 84 8 36 73 7 30 60 6 22 45 4 13 27 3 13
26 3 13 26 3 26 23 23 26 23 23 26 23 23 26 23 23 26 23 23 26 23 23 26
23 23 26 23 23 26 23 23 26 23 23 144 129 129 143 129 129 143 129 129
143 129 129 143 128 128 142 128 128 142 128 128 142 128 128
171 154 154 170 153 153 170 153 153 170 153 153 170 153 153 170 153
153 169 152 152 169 152 152 169 152 152 169 152 152 169 152 152 168
152 152 168 151 151 168 151 151 168 151 151 167 151 151 167 151 151
167 150 150 167 150 150 167 134 17 176 141 18 174 139 17 167 134 17
159 127 16 149 119 15 137 110 14 125 100 12 111 89 11 96 76 10 79 63 8
61 49 6 42 34 4 26 20 3 26 20 3 26 20 3 26 20 3 163 147 147 163 147
147 163 146 146 162 146 146 162 146 146 162 146 146 162 146 146 161
145 145 161 145 145 161 145 145 161 145 145 161 145 145 160 144 144
160 144 144 160 144 144 26 23 23 26 23 23 26 23 23 26 23 23 26 23 23
26 23 23 26 23 23 26 23 23 26 23 23 26 23 23 26 23 23 26 23 23 26 23
23 26 23 23 26 23 23 26 23 23 26 23 23 26 23 23 26 23 23 26 23 23 155
140 140 155 140 140 155 139 139 155 139 139 154 139 139 154 139 139
154 139 139 154 138 138 154 138 138 153 138 138 153 138 138 153 138
138 153 137 137 152 137 137 152 137 137 152 137 137 152 137 137 152
136 136 50 100 10 57 114 11 60 121 12 62 125 12 63 126 13 63 126 13 62
124 12 60 121 12 58 117 12 56 112 11 53 106 11 49 98 10 45 90 9 41 81
8 35 71 7 29 59 6 23 45 5 14 29 3 13 26 3 13 26 3 26 23 23 26 23 23 26
23 23 26 23 23 26 23 23 26 23 23 26 23 23 26 23 23 26 23 23 26 23 23
26 23 23 26 23 23 144 130 130 144 130 130 144 130 130 144 129 129 143
129 129 143 129 129 143 129 129
171 154 154 171 154 154 171 154 154 171 154 154 170 153 153 170 153
153 170 153 153 170 153 153 170 153 153 169 152 152 169 152 152 169
152 152 169 152 152 169 152 152 168 152 152 168 151 151 168 151 151
168 151 151 168 151 151 141 112 14 163 130 16 161 129 16 156 125 16
148 118 15 138 110 14 126 101 13 114 91 11 100 80 10 85 68 8 68 55 7
50 40 5 31 25 3 26 20 3 26 20 3 26 20 3 26 20 3 164 147 147 164 147
147 163 147 147 163 147 147 163 147 147 163 146 146 26 23 23 26 23 23
26 23 23 162 146 146 162 145 145 161 145 145 161 145 145 161 145 145
161 145 145 160 144 144 160 144 144 160 144 144 160 144 144 160 144
144 159 143 143 159 143 143 159 143 143 159 143 143 159 143 143 158
142 142 158 142 142 158 142 142 158 142 142 157 142 142 157 141 141
157 141 141 157 141 141 157 141 141 156 141 141 156 140 140 156 140
140 156 140 140 155 140 140 155 140 140 155 140 140 155 139 139 155
139 139 154 139 139 154 139 139 154 139 139 154 138 138 153 138 138
153 138 138 153 138 138 153 138 138 153 137 137 152 137 137 32 63 6 46
91 9 51 102 10 54 108 11 55 110 11 55 110 11 55 109 11 53 106 11 51
103 10 49 98 10 46 91 9 42 84 8 38 76 8 33 66 7 28 55 6 21 43 4 14 28
3 13 26 3 13 26 3 26 23 23 26 23 23 26 23 23 26 23 23 26 23 23 26 23
23 26 23 23 26 23 23 26 23 23 26 23 23 26 23 23 26 23 23 26 23 23 145
131 131 145 131 131 145 130 130 145 130 130 144 130 130 144 130 130
144 130 130
172 155 155 172 154 154 171 154 154 171 154 154 171 154 154 171 154
154 171 154 154 170 153 153 170 153 153 170 153 153 170 153 153 170
153 153 169 152 152 169 152 152 169 152 152 169 152 152 169 152 152
168 152 152 168 151 151 168 151 151 146 117 15 147 118 15 142 114 14
135 108 13 125 100 13 114 91 11 101 81 10 87 70 9 72 58 7 56 44 6 38
30 4 26 20 3 26 20 3 26 20 3 26 20 3 26 20 3 26 23 23 26 23 23 26 23
23 26 23 23 26 23 23 26 23 23 26 23 23 26 23 23 26 23 23 26 23 23 26
23 23 26 23 23 162 146 146 162 145 145 161 145 145 161 145 145 161 145
145 161 145 145 161 144 144 160 144 144 160 144 144 160 144 144 160
144 144 159 144 144 159 143 143 159 143 143 159 143 143 159 143 143
158 143 143 158 142 142 158 142 142 158 142 142 158 142 142 157 142
142 157 141 141 157 141 141 157 141 141 156 141 141 156 141 141 156
140 140 156 140 140 156 140 140 155 140 140 155 140 140 155 139 139
155 139 139 155 139 139 154 139 139 154 139 139 154 138 138 154 138
138 153 138 138 153 138 138 153 138 138 27 54 5 39 77 8 43 87 9 45 91
9 46 92 9 46 92 9 45 90 9 43 86 9 41 81 8 38 75 8 34 68 7 30 59 6 24
49 5 19 37 4 13 26 3 13 26 3 13 26 3 26 23 23 26 23 23 26 23 23 26 23
23 26 23 23 26 23 23 26 23 23 26 23 23 26 23 23 26 23 23 26 23 23 26
23 23 26 23 23 146 132 132 146 132 132 146 131 131 146 131 131 146 131
131 145 131 131 145 131 131 145 131 131
172 155 155 172 155 155 172 155 155 172 155 155 172 154 154 171 154
154 171 154 154 171 154 154 171 154 154 171 154 154 170 153 153 170
153 153 170 153 153 170 153 153 170 153 153 169 152 152 169 152 152
169 152 152 169 152 152 169 152 152 120 96 12 129 103 13 126 101 13
120 96 12 110 88 11 100 80 10 87 70 9 73 59 7 58 46 6 41 33 4 26 20 3
26 20 3 26 20 3 26 20 3 26 20 3 26 23 23 26 23 23 26 23 23 26 23 23 26
23 23 26 23 23 26 23 23 26 23 23 26 23 23 26 23 23 26 23 23 26 23 23
163 146 146 162 146 146 162 146 146 162 146 146 162 146 146 162 145
145 161 145 145 161 145 145 161 145 145 161 145 145 161 145 145 160
144 144 160 144 144 160 144 144 160 144 144 160 144 144 159 143 143
159 143 143 159 143 143 159 143 143 158 143 143 158 142 142 158 142
142 158 142 142 158 142 142 157 142 142 157 141 141 157 141 141 157
141 141 157 141 141 156 141 141 156 141 141 156 140 140 156 140 140
155 140 140 155 140 140 155 140 140 155 139 139 155 139 139 154 139
139 154 139 139 154 139 139 154 138 138 154 138 138 153 138 138 28 57
6 33 66 7 35 70 7 35 71 7 35 70 7 33 66 7 31 62 6 28 56 6 24 48 5 19
39 4 14 28 3 13 26 3 13 26 3 13 26 3 26 23 23 26 23 23 26 23 23 26 23
23 26 23 23 26 23 23 26 23 23 26 23 23 26 23 23 26 23 23 26 23 23 26
23 23 26 23 23 148 133 133 147 133 133 147 132 132 147 132 132 147 132
132 147 132 132 146 132 132 146 132 132 146 131 131
173 156 156 173 155 155 173 155 155 172 155 155 172 155 155 172 155
155 172 155 155 172 154 154 171 154 154 171 154 154 171 154 154 171
154 154 171 153 153 170 153 153 170 153 153 170 153 153 170 153 153
170 153 153 169 152 152 169 152 152 169 152 152 104 83 10 107 85 11
102 81 10 93 75 9 83 66 8 71 57 7 57 46 6 42 33 4 26 20 3 26 20 3 26
20 3 26 20 3 26 20 3 26 23 23 26 23 23 26 23 23 26 23 23 26 23 23 26
23 23 26 23 23 26 23 23 26 23 23 26 23 23 26 23 23 26 23 23 164 147
147 163 147 147 163 147 147 163 147 147 163 146 146 162 146 146 162
146 146 162 146 146 162 146 146 162 145 145 161 145 145 161 145 145
161 145 145 161 145 145 161 145 145 160 144 144 160 144 144 160 144
144 160 144 144 160 144 144 159 143 143 159 143 143 159 143 143 159
143 143 158 143 143 158 142 142 158 142 142 158 142 142 158 142 142
157 142 142 157 142 142 157 141 141 157 141 141 157 141 141 156 141
141 156 141 141 156 140 140 156 140 140 156 140 140 155 140 140 155
140 140 155 139 139 155 139 139 155 139 139 154 139 139 154 139 139
154 139 139 13 26 3 19 38 4 21 43 4 22 43 4 21 41 4 18 37 4 15 31 3 13
26 3 13 26 3 13 26 3 13 26 3 26 23 23 26 23 23 26 23 23 26 23 23 26 23
23 26 23 23 26 23 23 26 23 23 26 23 23 26 23 23 26 23 23 26 23 23 26
23 23 149 134 134 149 134 134 148 134 134 148 133 133 148 133 133 148
133 133 148 133 133 147 133 133 147 132 132 147 132 132 147 132 132
173 156 156 173 156 156 173 156 156 173 156 156 173 155 155 172 155
155 172 155 155 172 155 155 172 155 155 172 154 154 171 154 154 171
154 154 171 154 154 171 154 154 171 154 154 170 153 153 170 153 153
170 153 153 170 153 153 170 153 153 169 152 152 169 152 152 78 62 8 79
63 8 73 58 7 63 51 6 51 41 5 38 30 4 26 20 3 26 20 3 26 20 3 26 20 3
26 20 3 26 23 23 26 23 23 26 23 23 26 23 23 26 23 23 26 23 23 26 23 23
26 23 23 26 23 23 26 23 23 165 148 148 165 148 148 164 148 148 164 148
148 164 147 147 164 147 147 163 147 147 163 147 147 163 147 147 163
147 147 163 146 146 162 146 146 162 146 146 162 146 146 162 146 146
162 145 145 161 145 145 161 145 145 161 145 145 161 145 145 161 145
145 160 144 144 160 144 144 160 144 144 160 144 144 160 144 144 159
143 143 159 143 143 159 143 143 159 143 143 159 143 143 158 142 142
158 142 142 158 142 142 158 142 142 158 142 142 157 142 142 157 141
141 157 141 141 157 141 141 156 141 141 156 141 141 156 140 140 156
140 140 156 140 140 155 140 140 155 140 140 155 140 140 155 139 139
155 139 139 154 139 139 154 139 139 26 23 23 13 26 3 13 26 3 13 26 3
13 26 3 13 26 3 13 26 3 26 23 23 26 23 23 26 23 23 26 23 23 26 23 23
26 23 23 26 23 23 26 23 23 26 23 23 26 23 23 26 23 23 150 135 135 150
135 135 150 135 135 150 135 135 150 135 135 149 134 134 149 134 134
149 134 134 149 134 134 149 134 134 148 134 134 148 133 133 148 133
133 148 133 133 148 133 133
174 156 156 174 156 156 173 156 156 173 156 156 173 156 156 173 156
156 173 155 155 172 155 155 172 155 155 172 155 155 172 155 155 172
154 154 171 154 154 171 154 154 171 154 154 171 154 154 171 154 154
170 153 153 170 153 153 170 153 153 170 153 153 170 153 153 169 153
153 169 152 152 43 34 4 37 30 4 27 21 3 26 20 3 26 20 3 26 20 3 26 20
3 26 20 3 26 23 23 26 23 23 26 23 23 26 23 23 26 23 23 26 23 23 26 23
23 26 23 23 166 149 149 166 149 149 165 149 149 165 149 149 165 149
149 165 148 148 165 148 148 164 148 148 164 148 148 164 148 148 164
147 147 164 147 147 163 147 147 163 147 147 163 147 147 163 147 147
163 146 146 162 146 146 162 146 146 162 146 146 162 146 146 162 145
145 161 145 145 161 145 145 161 145 145 161 145 145 161 145 145 160
144 144 160 144 144 160 144 144 160 144 144 160 144 144 159 143 143
159 143 143 159 143 143 159 143 143 159 143 143 158 143 143 158 142
142 158 142 142 158 142 142 158 142 142 157 142 142 157 141 141 157
141 141 157 141 141 157 141 141 156 141 141 156 141 141 156 140 140
156 140 140 156 140 140 155 140 140 155 140 140 155 139 139 155 139
139 155 139 139 154 139 139 154 139 139 154 139 139 154 138 138 26 23
23 26 23 23 26 23 23 26 23 23 153 137 137 153 137 137 152 137 137 152
137 137 152 137 137 152 137 137 152 136 136 151 136 136 151 136 136
151 136 136 151 136 136 151 136 136 150 135 135 150 135 135 150 135
135 150 135 135 150 135 135 149 134 134 149 134 134 149 134 134 149
134 134 149 134 134 148 134 134
174 157 157 174 157 157 174 156 156 174 156 156 173 156 156 173 156
156 173 156 156 173 156 156 173 155 155 172 155 155 172 155 155 172
155 155 172 155 155 172 155 155 171 154 154 171 154 154 171 154 154
171 154 154 171 154 154 171 153 153 170 153 153 170 153 153 170 153
153 170 153 153 170 153 153 169 152 152 26 23 23 26 20 3 26 20 3 26 23
23 26 23 23 26 23 23 26 23 23 26 23 23 26 23 23 167 151 151 167 150
150 167 150 150 167 150 150 167 150 150 166 150 150 166 150 150 166
149 149 166 149 149 166 149 149 165 149 149 165 149 149 165 148 148
165 148 148 165 148 148 164 148 148 164 148 148 164 148 148 164 147
147 164 147 147 163 147 147 163 147 147 163 147 147 163 146 146 163
146 146 162 146 146 162 146 146 162 146 146 162 146 146 162 145 145
161 145 145 161 145 145 161 145 145 161 145 145 161 144 144 160 144
144 160 144 144 160 144 144 160 144 144 160 144 144 159 143 143 159
143 143 159 143 143 159 143 143 159 143 143 158 143 143 158 142 142
158 142 142 158 142 142 158 142 142 157 142 142 157 141 141 157 141
141 157 141 141 157 141 141 156 141 141 156 141 141 156 140 140 156
140 140 156 140 140 155 140 140 155 140 140 155 139 139 155 139 139
155 139 139 154 139 139 154 139 139 154 139 139 154 138 138 154 138
138 153 138 138 153 138 138 153 138 138 153 138 138 153 137 137 152
137 137 152 137 137 152 137 137 152 137 137 152 136 136 151 136 136
151 136 136 151 136 136 151 136 136 151 136 136 151 135 135 150 135
135 150 135 135 150 135 135 150 135 135 150 135 135 149 134 134 149
134 134
175 157 157 174 157 157 174 157 157 174 157 157 174 156 156 174 156
156 173 156 156 173 156 156 173 156 156 173 156 156 173 155 155 172
155 155 172 155 155 172 155 155 172 155 155 172 155 155 171 154 154
171 154 154 171 154 154 171 154 154 171 154 154 171 153 153 170 153
153 170 153 153 170 153 153 170 153 153 170 153 153 169 152 152 169
152 152 169 152 152 169 152 152 169 152 152 168 152 152 168 151 151
168 151 151 168 151 151 168 151 151 167 151 151 167 150 150 167 150
150 167 150 150 167 150 150 166 150 150 166 150 150 166 149 149 166
149 149 166 149 149 165 149 149 165 149 149 165 149 149 165 148 148
165 148 148 164 148 148 164 148 148 164 148 148 164 147 147 164 147
147 163 147 147 163 147 147 163 147 147 163 147 147 163 146 146 162
146 146 162 146 146 162 146 146 162 146 146 162 146 146 161 145 145
161 145 145 161 145 145 161 145 145 161 145 145 160 144 144 160 144
144 160 144 144 160 144 144 160 144 144 160 144 144 159 143 143 159
143 143 159 143 143 159 143 143 159 143 143 158 142 142 158 142 142
158 142 142 158 142 142 158 142 142 157 142 142 157 141 141 157 141
141 157 141 141 157 141 141 156 141 141 156 141 141 156 140 140 156
140 140 156 140 140 155 140 140 155 140 140 155 140 140 155 139 139
155 139 139 154 139 139 154 139 139 154 139 139 154 138 138 154 138
138 153 138 138 153 138 138 153 138 138 153 138 138 153 137 137 153
137 137 152 137 137 152 137 137 152 137 137 152 137 137 152 136 136
151 136 136 151 136 136 151 136 136 151 136 136 151 136 136 150 135
135 150 135 135 150 135 135 150 135 135
175 157 157 175 157 157 175 157 157 174 157 157 174 157 157 174 157
157 174 156 156 174 156 156 173 156 156 173 156 156 173 156 156 173
156 156 173 155 155 172 155 155 172 155 155 172 155 155 172 155 155
172 155 155 171 154 154 171 154 154 171 154 154 171 154 154 171 154
154 171 153 153 170 153 153 170 153 153 170 153 153 170 153 153 170
153 153 169 152 152 169 152 152 169 152 152 169 152 152 169 152 152
168 152 152 168 151 151 168 151 151 168 151 151 168 151 151 167 151
151 167 151 151 167 150 150 167 150 150 167 150 150 166 150 150 166
150 150 166 149 149 166 149 149 166 149 149 165 149 149 165 149 149
165 149 149 165 148 148 165 148 148 165 148 148 164 148 148 164 148
148 164 148 148 164 147 147 164 147 147 163 147 147 163 147 147 163
147 147 163 146 146 163 146 146 162 146 146 162 146 146 162 146 146
162 146 146 162 145 145 161 145 145 161 145 145 161 145 145 161 145
145 161 145 145 160 144 144 160 144 144 160 144 144 160 144 144 160
144 144 159 144 144 159 143 143 159 143 143 159 143 143 159 143 143
159 143 143 158 142 142 158 142 142 158 142 142 158 142 142 158 142
142 157 142 142 157 141 141 157 141 141 157 141 141 157 141 141 156
141 141 156 141 141 156 140 140 156 140 140 156 140 140 155 140 140
155 140 140 155 140 140 155 139 139 155 139 139 154 139 139 154 139
139 154 139 139 154 139 139 154 138 138 154 138 138 153 138 138 153
138 138 153 138 138 153 138 138 153 137 137 152 137 137 152 137 137
152 137 137 152 137 137 152 137 137 151 136 136 151 136 136 151 136
136 151 136 136 151 136 136 151 136 136
175 158 158 175 158 158 175 157 157 175 157 157 174 157 157 174 157
157 174 157 157 174 157 157 174 156 156 174 156 156 173 156 156 173
156 156 173 156 156 173 155 155 173 155 155 172 155 155 172 155 155
172 155 155 172 155 155 172 154 154 171 154 154 171 154 154 171 154
154 171 154 154 171 154 154 171 153 153 170 153 153 170 153 153 170
153 153 170 153 153 170 153 153 169 152 152 169 152 152 169 152 152
169 152 152 169 152 152 168 152 152 168 151 151 168 151 151 168 151
151 168 151 151 167 151 151 167 151 151 167 150 150 167 150 150 167
150 150 166 150 150 166 150 150 166 149 149 166 149 149 166 149 149
166 149 149 165 149 149 165 149 149 165 148 148 165 148 148 165 148
148 164 148 148 164 148 148 164 148 148 164 147 147 164 147 147 163
147 147 163 147 147 163 147 147 163 147 147 163 146 146 162 146 146
162 146 146 162 146 146 162 146 146 162 146 146 162 145 145 161 145
145 161 145 145 161 145 145 161 145 145 161 145 145 160 144 144 160
144 144 160 144 144 160 144 144 160 144 144 159 143 143 159 143 143
159 143 143 159 143 143 159 143 143 158 143 143 158 142 142 158 142
142 158 142 142 158 142 142 158 142 142 157 142 142 157 141 141 157
141 141 157 141 141 157 141 141 156 141 141 156 141 141 156 140 140
156 140 140 156 140 140 155 140 140 155 140 140 155 140 140 155 139
139 155 139 139 155 139 139 154 139 139 154 139 139 154 139 139 154
138 138 154 138 138 153 138 138 153 138 138 153 138 138 153 138 138
153 137 137 153 137 137 152 137 137 152 137 137 152 137 137 152 137
137 152 136 136 151 136 136 151 136 136
176 158 158 175 158 158 175 158 158 175 157 157 175 157 157 175 157
157 174 157 157 174 157 157 174 157 157 174 156 156 174 156 156 173
156 156 173 156 156 173 156 156 173 156 156 173 155 155 173 155 155
172 155 155 172 155 155 172 155 155 172 155 155 172 154 154 171 154
154 171 154 154 171 154 154 171 154 154 171 154 154 170 153 153 170
153 153 170 153 153 170 153 153 170 153 153 170 153 153 169 152 152
169 152 152 169 152 152 169 152 152 169 152 152 168 152 152 168 151
151 168 151 151 168 151 151 168 151 151 167 151 151 167 151 151 167
150 150 167 150 150 167 150 150 167 150 150 166 150 150 166 150 150
166 149 149 166 149 149 166 149 149 165 149 149 165 149 149 165 148
148 165 148 148 165 148 148 164 148 148 164 148 148 164 148 148 164
147 147 164 147 147 163 147 147 163 147 147 163 147 147 163 147 147
163 146 146 163 146 146 162 146 146 162 146 146 162 146 146 162 146
146 162 145 145 161 145 145 161 145 145 161 145 145 161 145 145 161
145 145 160 144 144 160 144 144 160 144 144 160 144 144 160 144 144
160 144 144 159 143 143 159 143 143 159 143 143 159 143 143 159 143
143 158 143 143 158 142 142 158 142 142 158 142 142 158 142 142 158
142 142 157 142 142 157 141 141 157 141 141 157 141 141 157 141 141
156 141 141 156 141 141 156 140 140 156 140 140 156 140 140 155 140
140 155 140 140 155 140 140 155 139 139 155 139 139 155 139 139 154
139 139 154 139 139 154 139 139 154 138 138 154 138 138 153 138 138
153 138 138 153 138 138 153 138 138 153 137 137 153 137 137 152 137
137 152 137 137 152 137 137 152 137 137
176 158 158 176 158 158 175 158 158 175 158 158 175 158 158 175 157
157 175 157 157 174 157 157 174 157 157 174 157 157 174 157 157 174
156 156 174 156 156 173 156 156 173 156 156 173 156 156 173 156 156
173 155 155 172 155 155 172 155 155 172 155 155 172 155 155 172 155
155 172 154 154 171 154 154 171 154 154 171 154 154 171 154 154 171
154 154 170 153 153 170 153 153 170 153 153 170 153 153 170 153 153
170 153 153 169 152 152 169 152 152 169 152 152 169 152 152 169 152
152 168 152 152 168 151 151 168 151 151 168 151 151 168 151 151 167
151 151 167 151 151 167 150 150 167 150 150 167 150 150 167 150 150
166 150 150 166 150 150 166 149 149 166 149 149 166 149 149 165 149
149 165 149 149 165 149 149 165 148 148 165 148 148 164 148 148 164
148 148 164 148 148 164 148 148 164 147 147 164 147 147 163 147 147
163 147 147 163 147 147 163 147 147 163 146 146 162 146 146 162 146
146 162 146 146 162 146 146 162 146 146 162 145 145 161 145 145 161
145 145 161 145 145 161 145 145 161 145 145 160 144 144 160 144 144
160 144 144 160 144 144 160 144 144 159 144 144 159 143 143 159 143
143 159 143 143 159 143 143 159 143 143 158 143 143 158 142 142 158
142 142 158 142 142 158 142 142 157 142 142 157 142 142 157 141 141
157 141 141 157 141 141 157 141 141 156 141 141 156 141 141 156 140
140 156 140 140 156 140 140 155 140 140 155 140 140 155 140 140 155
139 139 155 139 139 155 139 139 154 139 139 154 139 139 154 139 139
154 138 138 154 138 138 154 138 138 153 138 138 153 138 138 153 138
138 153 138 138 153 137 137 152 137 137
176 158 158 176 158 158 176 158 158 175 158 158 175 158 158 175 158
158 175 157 157 175 157 157 175 157 157 174 157 157 174 157 157 174
157 157 174 156 156 174 156 156 173 156 156 173 156 156 173 156 156
173 156 156 173 155 155 173 155 155 172 155 155 172 155 155 172 155
155 172 155 155 172 155 155 171 154 154 171 154 154 171 154 154 171
154 154 171 154 154 171 154 154 170 153 153 170 153 153 170 153 153
170 153 153 170 153 153 169 153 153 169 152 152 169 152 152 169 152
152 169 152 152 169 152 152 168 152 152 168 151 151 168 151 151 168
151 151 168 151 151 167 151 151 167 151 151 167 150 150 167 150 150
167 150 150 167 150 150 166 150 150 166 150 150 166 149 149 166 149
149 166 149 149 165 149 149 165 149 149 165 149 149 165 148 148 165
148 148 165 148 148 164 148 148 164 148 148 164 148 148 164 147 147
164 147 147 163 147 147 163 147 147 163 147 147 163 147 147 163 146
146 163 146 146 162 146 146 162 146 146 162 146 146 162 146 146 162
145 145 161 145 145 161 145 145 161 145 145 161 145 145 161 145 145
161 144 144 160 144 144 160 144 144 160 144 144 160 144 144 160 144
144 159 143 143 159 143 143 159 143 143 159 143 143 159 143 143 159
143 143 158 143 143 158 142 142 158 142 142 158 142 142 158 142 142
157 142 142 157 142 142 157 141 141 157 141 141 157 141 141 157 141
141 156 141 141 156 141 141 156 140 140 156 140 140 156 140 140 155
140 140 155 140 140 155 140 140 155 139 139 155 139 139 155 139 139
154 139 139 154 139 139 154 139 139 154 139 139 154 138 138 154 138
138 153 138 138 153 138 138 153 138 138
176 159 159 176 158 158 176 158 158 176 158 158 176 158 158 175 158
158 175 158 158 175 158 158 175 157 157 175 157 157 174 157 157 174
157 157 174 157 157 174 157 157 174 156 156 174 156 156 173 156 156
173 156 156 173 156 156 173 156 156 173 155 155 172 155 155 172 155
155 172 155 155 172 155 155 172 155 155 172 154 154 171 154 154 171
154 154 171 154 154 171 154 154 171 154 154 171 153 153 170 153 153
170 153 153 170 153 153 170 153 153 170 153 153 169 152 152 169 152
152 169 152 152 169 152 152 169 152 152 169 152 152 168 152 152 168
151 151 168 151 151 168 151 151 168 151 151 167 151 151 167 151 151
167 150 150 167 150 150 167 150 150 167 150 150 166 150 150 166 150
150 166 149 149 166 149 149 166 149 149 165 149 149 165 149 149 165
149 149 165 148 148 165 148 148 165 148 148 164 148 148 164 148 148
164 148 148 164 147 147 164 147 147 163 147 147 163 147 147 163 147
147 163 147 147 163 146 146 163 146 146 162 146 146 162 146 146 162
146 146 162 146 146 162 145 145 161 145 145 161 145 145 161 145 145
161 145 145 161 145 145 161 145 145 160 144 144 160 144 144 160 144
144 160 144 144 160 144 144 160 144 144 159 143 143 159 143 143 159
143 143 159 143 143 159 143 143 158 143 143 158 142 142 158 142 142
158 142 142 158 142 142 158 142 142 157 142 142 157 142 142 157 141
141 157 141 141 157 141 141 157 141 141 156 141 141 156 141 141 156
140 140 156 140 140 156 140 140 155 140 140 155 140 140 155 140 140
155 139 139 155 139 139 155 139 139 154 139 139 154 139 139 154 139
139 154 139 139 154 138 138 154 138 138
176 159 159 176 159 159 176 159 159 176 158 158 176 158 158 176 158
158 175 158 158 175 158 158 175 158 158 175 157 157 175 157 157 175
157 157 174 157 157 174 157 157 174 157 157 174 156 156 174 156 156
173 156 156 173 156 156 173 156 156 173 156 156 173 155 155 173 155
155 172 155 155 172 155 155 172 155 155 172 155 155 172 155 155 172
154 154 171 154 154 171 154 154 171 154 154 171 154 154 171 154 154
170 153 153 170 153 153 170 153 153 170 153 153 170 153 153 170 153
153 169 152 152 169 152 152 169 152 152 169 152 152 169 152 152 168
152 152 168 151 151 168 151 151 168 151 151 168 151 151 168 151 151
167 151 151 167 151 151 167 150 150 167 150 150 167 150 150 167 150
150 166 150 150 166 150 150 166 149 149 166 149 149 166 149 149 165
149 149 165 149 149 165 149 149 165 148 148 165 148 148 165 148 148
164 148 148 164 148 148 164 148 148 164 147 147 164 147 147 163 147
147 163 147 147 163 147 147 163 147 147 163 147 147 163 146 146 162
146 146 162 146 146 162 146 146 162 146 146 162 146 146 162 145 145
161 145 145 161 145 145 161 145 145 161 145 145 161 145 145 160 144
144 160 144 144 160 144 144 160 144 144 160 144 144 160 144 144 159
144 144 159 143 143 159 143 143 159 143 143 159 143 143 159 143 143
158 143 143 158 142 142 158 142 142 158 142 142 158 142 142 158 142
142 157 142 142 157 141 141 157 141 141 157 141 141 157 141 141 156
141 141 156 141 141 156 141 141 156 140 140 156 140 140 156 140 140
155 140 140 155 140 140 155 140 140 155 139 139 155 139 139 155 139
139 154 139 139 154 139 139 154 139 139
177 159 159 177 159 159 176 159 159 176 159 159 176 158 158 176 158
158 176 158 158 175 158 158 175 158 158 175 158 158 175 157 157 175
157 157 175 157 157 174 157 157 174 157 157 174 157 157 174 157 157
174 156 156 174 156 156 173 156 156 173 156 156 173 156 156 173 156
156 173 155 155 172 155 155 172 155 155 172 155 155 172 155 155 172
155 155 172 154 154 171 154 154 171 154 154 171 154 154 171 154 154
171 154 154 171 153 153 170 153 153 170 153 153 170 153 153 170 153
153 170 153 153 169 153 153 169 152 152 169 152 152 169 152 152 169
152 152 169 152 152 168 152 152 168 151 151 168 151 151 168 151 151
168 151 151 168 151 151 167 151 151 167 150 150 167 150 150 167 150
150 167 150 150 166 150 150 166 150 150 166 150 150 166 149 149 166
149 149 166 149 149 165 149 149 165 149 149 165 149 149 165 148 148
165 148 148 165 148 148 164 148 148 164 148 148 164 148 148 164 147
147 164 147 147 164 147 147 163 147 147 163 147 147 163 147 147 163
147 147 163 146 146 162 146 146 162 146 146 162 146 146 162 146 146
162 146 146 162 145 145 161 145 145 161 145 145 161 145 145 161 145
145 161 145 145 161 145 145 160 144 144 160 144 144 160 144 144 160
144 144 160 144 144 160 144 144 159 143 143 159 143 143 159 143 143
159 143 143 159 143 143 159 143 143 158 143 143 158 142 142 158 142
142 158 142 142 158 142 142 157 142 142 157 142 142 157 141 141 157
141 141 157 141 141 157 141 141 156 141 141 156 141 141 156 141 141
156 140 140 156 140 140 156 140 140 155 140 140 155 140 140 155 140
140 155 139 139 155 139 139 155 139 139
177 159 159 177 159 159 177 159 159 176 159 159 176 159 159 176 158
158 176 158 158 176 158 158 175 158 158 175 158 158 175 158 158 175
157 157 175 157 157 175 157 157 174 157 157 174 157 157 174 157 157
174 157 157 174 156 156 174 156 156 173 156 156 173 156 156 173 156
156 173 156 156 173 155 155 173 155 155 172 155 155 172 155 155 172
155 155 172 155 155 172 155 155 172 154 154 171 154 154 171 154 154
171 154 154 171 154 154 171 154 154 170 153 153 170 153 153 170 153
153 170 153 153 170 153 153 170 153 153 169 152 152 169 152 152 169
152 152 169 152 152 169 152 152 169 152 152 168 152 152 168 151 151
168 151 151 168 151 151 168 151 151 168 151 151 167 151 151 167 150
150 167 150 150 167 150 150 167 150 150 166 150 150 166 150 150 166
150 150 166 149 149 166 149 149 166 149 149 165 149 149 165 149 149
165 149 149 165 148 148 165 148 148 165 148 148 164 148 148 164 148
148 164 148 148 164 147 147 164 147 147 164 147 147 163 147 147 163
147 147 163 147 147 163 147 147 163 146 146 163 146 146 162 146 146
162 146 146 162 146 146 162 146 146 162 145 145 161 145 145 161 145
145 161 145 145 161 145 145 161 145 145 161 145 145 160 144 144 160
144 144 160 144 144 160 144 144 160 144 144 160 144 144 159 144 144
159 143 143 159 143 143 159 143 143 159 143 143 159 143 143 158 143
143 158 142 142 158 142 142 158 142 142 158 142 142 158 142 142 157
142 142 157 142 142 157 141 141 157 141 141 157 141 141 157 141 141
156 141 141 156 141 141 156 140 140 156 140 140 156 140 140 156 140
140 155 140 140 155 140 140 155 140 140
177 159 159 177 159 159 177 159 159 177 159 159 176 159 159 176 159
159 176 158 158 176 158 158 176 158 158 176 158 158 175 158 158 175
158 158 175 158 158 175 157 157 175 157 157 174 157 157 174 157 157
174 157 157 174 157 157 174 156 156 174 156 156 173 156 156 173 156
156 173 156 156 173 156 156 173 156 156 173 155 155 172 155 155 172
155 155 172 155 155 172 155 155 172 155 155 172 154 154 171 154 154
171 154 154 171 154 154 171 154 154 171 154 154 171 154 154 170 153
153 170 153 153 170 153 153 170 153 153 170 153 153 170 153 153 169
152 152 169 152 152 169 152 152 169 152 152 169 152 152 169 152 152
168 151 151 168 151 151 168 151 151 168 151 151 168 151 151 167 151
151 167 151 151 167 150 150 167 150 150 167 150 150 167 150 150 166
150 150 166 150 150 166 149 149 166 149 149 166 149 149 166 149 149
165 149 149 165 149 149 165 149 149 165 148 148 165 148 148 165 148
148 164 148 148 164 148 148 164 148 148 164 148 148 164 147 147 164
147 147 163 147 147 163 147 147 163 147 147 163 147 147 163 146 146
163 146 146 162 146 146 162 146 146 162 146 146 162 146 146 162 146
146 162 145 145 161 145 145 161 145 145 161 145 145 161 145 145 161
145 145 161 144 144 160 144 144 160 144 144 160 144 144 160 144 144
160 144 144 160 144 144 159 143 143 159 143 143 159 143 143 159 143
143 159 143 143 159 143 143 158 143 143 158 142 142 158 142 142 158
142 142 158 142 142 158 142 142 157 142 142 157 141 141 157 141 141
157 141 141 157 141 141 157 141 141 156 141 141 156 141 141 156 140
140 156 140 140 156 140 140 156 140 140
177 159 159 177 159 159 177 159 159 177 159 159 177 159 159 176 159
159 176 159 159 176 158 158 176 158 158 176 158 158 176 158 158 175
158 158 175 158 158 175 158 158 175 157 157 175 157 157 175 157 157
174 157 157 174 157 157 174 157 157 174 156 156 174 156 156 174 156
156 173 156 156 173 156 156 173 156 156 173 156 156 173 155 155 172
155 155 172 155 155 172 155 155 172 155 155 172 155 155 172 154 154
171 154 154 171 154 154 171 154 154 171 154 154 171 154 154 171 154
154 170 153 153 170 153 153 170 153 153 170 153 153 170 153 153 170
153 153 169 153 153 169 152 152 169 152 152 169 152 152 169 152 152
169 152 152 168 152 152 168 151 151 168 151 151 168 151 151 168 151
151 168 151 151 167 151 151 167 151 151 167 150 150 167 150 150 167
150 150 167 150 150 166 150 150 166 150 150 166 149 149 166 149 149
166 149 149 166 149 149 165 149 149 165 149 149 165 149 149 165 148
148 165 148 148 165 148 148 164 148 148 164 148 148 164 148 148 164
148 148 164 147 147 164 147 147 163 147 147 163 147 147 163 147 147
163 147 147 163 146 146 163 146 146 162 146 146 162 146 146 162 146
146 162 146 146 162 146 146 162 145 145 161 145 145 161 145 145 161
145 145 161 145 145 161 145 145 161 145 145 160 144 144 160 144 144
160 144 144 160 144 144 160 144 144 160 144 144 159 143 143 159 143
143 159 143 143 159 143 143 159 143 143 159 143 143 158 143 143 158
142 142 158 142 142 158 142 142 158 142 142 158 142 142 157 142 142
157 142 142 157 141 141 157 141 141 157 141 141 157 141 141 157 141
141 156 141 141 156 141 141 156 140 140
177 160 160 177 159 159 177 159 159 177 159 159 177 159 159 177 159
159 176 159 159 176 159 159 176 158 158 176 158 158 176 158 158 176
158 158 175 158 158 175 158 158 175 158 158 175 157 157 175 157 157
175 157 157 174 157 157 174 157 157 174 157 157 174 156 156 174 156
156 174 156 156 173 156 156 173 156 156 173 156 156 173 156 156 173
155 155 173 155 155 172 155 155 172 155 155 172 155 155 172 155 155
172 155 155 172 154 154 171 154 154 171 154 154 171 154 154 171 154
154 171 154 154 171 153 153 170 153 153 170 153 153 170 153 153 170
153 153 170 153 153 170 153 153 169 152 152 169 152 152 169 152 152
169 152 152 169 152 152 169 152 152 168 152 152 168 151 151 168 151
151 168 151 151 168 151 151 168 151 151 167 151 151 167 150 150 167
150 150 167 150 150 167 150 150 167 150 150 166 150 150 166 150 150
166 149 149 166 149 149 166 149 149 166 149 149 165 149 149 165 149
149 165 149 149 165 148 148 165 148 148 165 148 148 164 148 148 164
148 148 164 148 148 164 148 148 164 147 147 164 147 147 163 147 147
163 147 147 163 147 147 163 147 147 163 146 146 163 146 146 162 146
146 162 146 146 162 146 146 162 146 146 162 146 146 162 145 145 161
145 145 161 145 145 161 145 145 161 145 145 161 145 145 161 145 145
160 144 144 160 144 144 160 144 144 160 144 144 160 144 144 160 144
144 160 144 144 159 143 143 159 143 143 159 143 143 159 143 143 159
143 143 159 143 143 158 143 143 158 142 142 158 142 142 158 142 142
158 142 142 158 142 142 157 142 142 157 142 142 157 141 141 157 141
141 157 141 141 157 141 141 156 141 141
178 160 160 177 160 160 177 159 159 177 159 159 177 159 159 177 159
159 177 159 159 176 159 159 176 159 159 176 158 158 176 158 158 176
158 158 176 158 158 175 158 158 175 158 158 175 158 158 175 157 157
175 157 157 175 157 157 174 157 157 174 157 157 174 157 157 174 157
157 174 156 156 174 156 156 173 156 156 173 156 156 173 156 156 173
156 156 173 155 155 173 155 155 172 155 155 172 155 155 172 155 155
172 155 155 172 155 155 172 154 154 171 154 154 171 154 154 171 154
154 171 154 154 171 154 154 171 154 154 170 153 153 170 153 153 170
153 153 170 153 153 170 153 153 170 153 153 169 153 153 169 152 152
169 152 152 169 152 152 169 152 152 169 152 152 168 152 152 168 151
151 168 151 151 168 151 151 168 151 151 168 151 151 167 151 151 167
151 151 167 150 150 167 150 150 167 150 150 167 150 150 167 150 150
166 150 150 166 150 150 166 149 149 166 149 149 166 149 149 166 149
149 165 149 149 165 149 149 165 149 149 165 148 148 165 148 148 165
148 148 164 148 148 164 148 148 164 148 148 164 148 148 164 147 147
164 147 147 163 147 147 163 147 147 163 147 147 163 147 147 163 147
147 163 146 146 162 146 146 162 146 146 162 146 146 162 146 146 162
146 146 162 145 145 161 145 145 161 145 145 161 145 145 161 145 145
161 145 145 161 145 145 161 144 144 160 144 144 160 144 144 160 144
144 160 144 144 160 144 144 160 144 144 159 143 143 159 143 143 159
143 143 159 143 143 159 143 143 159 143 143 158 143 143 158 142 142
158 142 142 158 142 142 158 142 142 158 142 142 158 142 142 157 142
142 157 141 141 157 141 141 157 141 141
178 160 160 177 160 160 177 160 160 177 159 159 177 159 159 177 159
159 177 159 159 177 159 159 176 159 159 176 159 159 176 158 158 176
158 158 176 158 158 176 158 158 175 158 158 175 158 158 175 158 158
175 157 157 175 157 157 175 157 157 174 157 157 174 157 157 174 157
157 174 157 157 174 156 156 174 156 156 173 156 156 173 156 156 173
156 156 173 156 156 173 156 156 173 155 155 172 155 155 172 155 155
172 155 155 172 155 155 172 155 155 172 154 154 171 154 154 171 154
154 171 154 154 171 154 154 171 154 154 171 154 154 171 153 153 170
153 153 170 153 153 170 153 153 170 153 153 170 153 153 170 153 153
169 152 152 169 152 152 169 152 152 169 152 152 169 152 152 169 152
152 168 152 152 168 151 151 168 151 151 168 151 151 168 151 151 168
151 151 167 151 151 167 151 151 167 150 150 167 150 150 167 150 150
167 150 150 166 150 150 166 150 150 166 150 150 166 149 149 166 149
149 166 149 149 166 149 149 165 149 149 165 149 149 165 149 149 165
148 148 165 148 148 165 148 148 164 148 148 164 148 148 164 148 148
164 148 148 164 147 147 164 147 147 163 147 147 163 147 147 163 147
147 163 147 147 163 147 147 163 146 146 162 146 146 162 146 146 162
146 146 162 146 146 162 146 146 162 146 146 162 145 145 161 145 145
161 145 145 161 145 145 161 145 145 161 145 145 161 145 145 160 144
144 160 144 144 160 144 144 160 144 144 160 144 144 160 144 144 159
144 144 159 143 143 159 143 143 159 143 143 159 143 143 159 143 143
159 143 143 158 143 143 158 142 142 158 142 142 158 142 142 158 142
142 158 142 142 157 142 142 157 142 142
178 160 160 178 160 160 177 160 160 177 160 160 177 159 159 177 159
159 177 159 159 177 159 159 177 159 159 176 159 159 176 159 159 176
158 158 176 158 158 176 158 158 176 158 158 175 158 158 175 158 158
175 158 158 175 157 157 175 157 157 175 157 157 174 157 157 174 157
157 174 157 157 174 157 157 174 156 156 174 156 156 173 156 156 173
156 156 173 156 156 173 156 156 173 156 156 173 155 155 172 155 155
172 155 155 172 155 155 172 155 155 172 155 155 172 155 155 172 154
154 171 154 154 171 154 154 171 154 154 171 154 154 171 154 154 171
154 154 170 153 153 170 153 153 170 153 153 170 153 153 170 153 153
170 153 153 169 153 153 169 152 152 169 152 152 169 152 152 169 152
152 169 152 152 168 152 152 168 152 152 168 151 151 168 151 151 168
151 151 168 151 151 168 151 151 167 151 151 167 150 150 167 150 150
167 150 150 167 150 150 167 150 150 166 150 150 166 150 150 166 149
149 166 149 149 166 149 149 166 149 149 165 149 149 165 149 149 165
149 149 165 149 149 165 148 148 165 148 148 165 148 148 164 148 148
164 148 148 164 148 148 164 148 148 164 147 147 164 147 147 163 147
147 163 147 147 163 147 147 163 147 147 163 147 147 163 146 146 162
146 146 162 146 146 162 146 146 162 146 146 162 146 146 162 146 146
162 145 145 161 145 145 161 145 145 161 145 145 161 145 145 161 145
145 161 145 145 160 144 144 160 144 144 160 144 144 160 144 144 160
144 144 160 144 144 160 144 144 159 143 143 159 143 143 159 143 143
159 143 143 159 143 143 159 143 143 158 143 143 158 142 142 158 142
142 158 142 142 158 142 142 158 142 142
178 160 160 178 160 160 178 160 160 177 160 160 177 160 160 177 159
159 177 159 159 177 159 159 177 159 159 176 159 159 176 159 159 176
159 159 176 158 158 176 158 158 176 158 158 176 158 158 175 158 158
175 158 158 175 158 158 175 157 157 175 157 157 175 157 157 174 157
157 174 157 157 174 157 157 174 157 157 174 156 156 174 156 156 173
156 156 173 156 156 173 156 156 173 156 156 173 156 156 173 155 155
173 155 155 172 155 155 172 155 155 172 155 155 172 155 155 172 155
155 172 154 154 171 154 154 171 154 154 171 154 154 171 154 154 171
154 154 171 154 154 170 153 153 170 153 153 170 153 153 170 153 153
170 153 153 170 153 153 170 153 153 169 152 152 169 152 152 169 152
152 169 152 152 169 152 152 169 152 152 168 152 152 168 151 151 168
151 151 168 151 151 168 151 151 168 151 151 167 151 151 167 151 151
167 150 150 167 150 150 167 150 150 167 150 150 167 150 150 166 150
150 166 150 150 166 149 149 166 149 149 166 149 149 166 149 149 165
149 149 165 149 149 165 149 149 165 148 148 165 148 148 165 148 148
165 148 148 164 148 148 164 148 148 164 148 148 164 148 148 164 147
147 164 147 147 163 147 147 163 147 147 163 147 147 163 147 147 163
147 147 163 146 146 162 146 146 162 146 146 162 146 146 162 146 146
162 146 146 162 146 146 162 145 145 161 145 145 161 145 145 161 145
145 161 145 145 161 145 145 161 145 145 161 144 144 160 144 144 160
144 144 160 144 144 160 144 144 160 144 144 160 144 144 159 143 143
159 143 143 159 143 143 159 143 143 159 143 143 159 143 143 159 143
143 158 143 143 158 142 142 158 142 142
178 160 160 178 160 160 178 160 160 178 160 160 177 160 160 177 160
160 177 159 159 177 159 159 177 159 159 177 159 159 176 159 159 176
159 159 176 159 159 176 158 158 176 158 158 176 158 158 176 158 158
175 158 158 175 158 158 175 158 158 175 157 157 175 157 157 175 157
157 174 157 157 174 157 157 174 157 157 174 157 157 174 156 156 174
156 156 173 156 156 173 156 156 173 156 156 173 156 156 173 156 156
173 155 155 173 155 155 172 155 155 172 155 155 172 155 155 172 155
155 172 155 155 172 154 154 171 154 154 171 154 154 171 154 154 171
154 154 171 154 154 171 154 154 171 153 153 170 153 153 170 153 153
170 153 153 170 153 153 170 153 153 170 153 153 169 152 152 169 152
152 169 152 152 169 152 152 169 152 152 169 152 152 169 152 152 168
152 152 168 151 151 168 151 151 168 151 151 168 151 151 168 151 151
167 151 151 167 151 151 167 150 150 167 150 150 167 150 150 167 150
150 166 150 150 166 150 150 166 150 150 166 149 149 166 149 149 166
149 149 166 149 149 165 149 149 165 149 149 165 149 149 165 148 148
165 148 148 165 148 148 164 148 148 164 148 148 164 148 148 164 148
148 164 147 147 164 147 147 164 147 147 163 147 147 163 147 147 163
147 147 163 147 147 163 147 147 163 146 146 163 146 146 162 146 146
162 146 146 162 146 146 162 146 146 162 146 146 162 145 145 161 145
145 161 145 145 161 145 145 161 145 145 161 145 145 161 145 145 161
144 144 160 144 144 160 144 144 160 144 144 160 144 144 160 144 144
160 144 144 159 144 144 159 143 143 159 143 143 159 143 143 159 143
143 159 143 143 159 143 143 158 143 143
178 160 160 178 160 160 178 160 160 178 160 160 178 160 160 177 160
160 177 159 159 177 159 159 177 159 159 177 159 159 177 159 159 176
159 159 176 159 159 176 159 159 176 158 158 176 158 158 176 158 158
176 158 158 175 158 158 175 158 158 175 158 158 175 157 157 175 157
157 175 157 157 174 157 157 174 157 157 174 157 157 174 157 157 174
156 156 174 156 156 174 156 156 173 156 156 173 156 156 173 156 156
173 156 156 173 155 155 173 155 155 172 155 155 172 155 155 172 155
155 172 155 155 172 155 155 172 154 154 171 154 154 171 154 154 171
154 154 171 154 154 171 154 154 171 154 154 171 154 154 170 153 153
170 153 153 170 153 153 170 153 153 170 153 153 170 153 153 169 153
153 169 152 152 169 152 152 169 152 152 169 152 152 169 152 152 169
152 152 168 152 152 168 151 151 168 151 151 168 151 151 168 151 151
168 151 151 168 151 151 167 151 151 167 150 150 167 150 150 167 150
150 167 150 150 167 150 150 166 150 150 166 150 150 166 150 150 166
149 149 166 149 149 166 149 149 166 149 149 165 149 149 165 149 149
165 149 149 165 148 148 165 148 148 165 148 148 164 148 148 164 148
148 164 148 148 164 148 148 164 147 147 164 147 147 164 147 147 163
147 147 163 147 147 163 147 147 163 147 147 163 147 147 163 146 146
163 146 146 162 146 146 162 146 146 162 146 146 162 146 146 162 146
146 162 145 145 161 145 145 161 145 145 161 145 145 161 145 145 161
145 145 161 145 145 161 145 145 160 144 144 160 144 144 160 144 144
160 144 144 160 144 144 160 144 144 160 144 144 159 143 143 159 143
143 159 143 143 159 143 143 159 143 143
178 160 160 178 160 160 178 160 160 178 160 160 178 160 160 177 160
160 177 160 160 177 159 159 177 159 159 177 159 159 177 159 159 177
159 159 176 159 159 176 159 159 176 158 158 176 158 158 176 158 158
176 158 158 175 158 158 175 158 158 175 158 158 175 158 158 175 157
157 175 157 157 175 157 157 174 157 157 174 157 157 174 157 157 174
157 157 174 156 156 174 156 156 174 156 156 173 156 156 173 156 156
173 156 156 173 156 156 173 155 155 173 155 155 172 155 155 172 155
155 172 155 155 172 155 155 172 155 155 172 155 155 172 154 154 171
154 154 171 154 154 171 154 154 171 154 154 171 154 154 171 154 154
170 153 153 170 153 153 170 153 153 170 153 153 170 153 153 170 153
153 170 153 153 169 152 152 169 152 152 169 152 152 169 152 152 169
152 152 169 152 152 168 152 152 168 152 152 168 151 151 168 151 151
168 151 151 168 151 151 168 151 151 167 151 151 167 151 151 167 150
150 167 150 150 167 150 150 167 150 150 167 150 150 166 150 150 166
150 150 166 149 149 166 149 149 166 149 149 166 149 149 165 149 149
165 149 149 165 149 149 165 149 149 165 148 148 165 148 148 165 148
148 164 148 148 164 148 148 164 148 148 164 148 148 164 147 147 164
147 147 164 147 147 163 147 147 163 147 147 163 147 147 163 147 147
163 147 147 163 146 146 163 146 146 162 146 146 162 146 146 162 146
146 162 146 146 162 146 146 162 145 145 161 145 145 161 145 145 161
145 145 161 145 145 161 145 145 161 145 145 161 145 145 160 144 144
160 144 144 160 144 144 160 144 144 160 144 144 160 144 144 160 144
144 159 144 144 159 143 143 159 143 143
178 160 160 178 160 160 178 160 160 178 160 160 178 160 160 178 160
160 177 160 160 177 160 160 177 159 159 177 159 159 177 159 159 177
159 159 177 159 159 176 159 159 176 159 159 176 158 158 176 158 158
176 158 158 176 158 158 175 158 158 175 158 158 175 158 158 175 158
158 175 157 157 175 157 157 175 157 157 174 157 157 174 157 157 174
157 157 174 157 157 174 156 156 174 156 156 174 156 156 173 156 156
173 156 156 173 156 156 173 156 156 173 155 155 173 155 155 172 155
155 172 155 155 172 155 155 172 155 155 172 155 155 172 155 155 172
154 154 171 154 154 171 154 154 171 154 154 171 154 154 171 154 154
171 154 154 171 153 153 170 153 153 170 153 153 170 153 153 170 153
153 170 153 153 170 153 153 169 153 153 169 152 152 169 152 152 169
152 152 169 152 152 169 152 152 169 152 152 168 152 152 168 151 151
168 151 151 168 151 151 168 151 151 168 151 151 168 151 151 167 151
151 167 151 151 167 150 150 167 150 150 167 150 150 167 150 150 166
150 150 166 150 150 166 150 150 166 149 149 166 149 149 166 149 149
166 149 149 165 149 149 165 149 149 165 149 149 165 149 149 165 148
148 165 148 148 165 148 148 164 148 148 164 148 148 164 148 148 164
148 148 164 147 147 164 147 147 164 147 147 163 147 147 163 147 147
163 147 147 163 147 147 163 147 147 163 146 146 163 146 146 162 146
146 162 146 146 162 146 146 162 146 146 162 146 146 162 145 145 162
145 145 161 145 145 161 145 145 161 145 145 161 145 145 161 145 145
161 145 145 160 144 144 160 144 144 160 144 144 160 144 144 160 144
144 160 144 144 160 144 144 159 144 144
178 161 161 178 160 160 178 160 160 178 160 160 178 160 160 178 160
160 178 160 160 177 160 160 177 160 160 177 159 159 177 159 159 177
159 159 177 159 159 176 159 159 176 159 159 176 159 159 176 158 158
176 158 158 176 158 158 176 158 158 175 158 158 175 158 158 175 158
158 175 158 158 175 157 157 175 157 157 175 157 157 174 157 157 174
157 157 174 157 157 174 157 157 174 156 156 174 156 156 174 156 156
173 156 156 173 156 156 173 156 156 173 156 156 173 155 155 173 155
155 172 155 155 172 155 155 172 155 155 172 155 155 172 155 155 172
155 155 172 154 154 171 154 154 171 154 154 171 154 154 171 154 154
171 154 154 171 154 154 171 153 153 170 153 153 170 153 153 170 153
153 170 153 153 170 153 153 170 153 153 170 153 153 169 152 152 169
152 152 169 152 152 169 152 152 169 152 152 169 152 152 168 152 152
168 151 151 168 151 151 168 151 151 168 151 151 168 151 151 168 151
151 167 151 151 167 151 151 167 150 150 167 150 150 167 150 150 167
150 150 167 150 150 166 150 150 166 150 150 166 150 150 166 149 149
166 149 149 166 149 149 166 149 149 165 149 149 165 149 149 165 149
149 165 148 148 165 148 148 165 148 148 165 148 148 164 148 148 164
148 148 164 148 148 164 148 148 164 147 147 164 147 147 164 147 147
163 147 147 163 147 147 163 147 147 163 147 147 163 147 147 163 146
146 163 146 146 162 146 146 162 146 146 162 146 146 162 146 146 162
146 146 162 145 145 162 145 145 161 145 145 161 145 145 161 145 145
161 145 145 161 145 145 161 145 145 161 144 144 160 144 144 160 144
144 160 144 144 160 144 144 160 144 144
179 161 161 178 161 161 178 160 160 178 160 160 178 160 160 178 160
160 178 160 160 177 160 160 177 160 160 177 159 159 177 159 159 177
159 159 177 159 159 177 159 159 176 159 159 176 159 159 176 159 159
176 158 158 176 158 158 176 158 158 176 158 158 175 158 158 175 158
158 175 158 158 175 157 157 175 157 157 175 157 157 175 157 157 174
157 157 174 157 157 174 157 157 174 157 157 174 156 156 174 156 156
174 156 156 173 156 156 173 156 156 173 156 156 173 156 156 173 155
155 173 155 155 172 155 155 172 155 155 172 155 155 172 155 155 172
155 155 172 155 155 172 154 154 171 154 154 171 154 154 171 154 154
171 154 154 171 154 154 171 154 154 171 154 154 170 153 153 170 153
153 170 153 153 170 153 153 170 153 153 170 153 153 170 153 153 169
152 152 169 152 152 169 152 152 169 152 152 169 152 152 169 152 152
169 152 152 168 152 152 168 151 151 168 151 151 168 151 151 168 151
151 168 151 151 168 151 151 167 151 151 167 151 151 167 150 150 167
150 150 167 150 150 167 150 150 167 150 150 166 150 150 166 150 150
166 149 149 166 149 149 166 149 149 166 149 149 166 149 149 165 149
149 165 149 149 165 149 149 165 148 148 165 148 148 165 148 148 165
148 148 164 148 148 164 148 148 164 148 148 164 148 148 164 147 147
164 147 147 164 147 147 163 147 147 163 147 147 163 147 147 163 147
147 163 147 147 163 146 146 163 146 146 162 146 146 162 146 146 162
146 146 162 146 146 162 146 146 162 146 146 162 145 145 161 145 145
161 145 145 161 145 145 161 145 145 161 145 145 161 145 145 161 144
144 160 144 144 160 144 144 160 144 144
179 161 161 178 161 161 178 160 160 178 160 160 178 160 160 178 160
160 178 160 160 178 160 160 177 160 160 177 160 160 177 159 159 177
159 159 177 159 159 177 159 159 177 159 159 176 159 159 176 159 159
176 159 159 176 158 158 176 158 158 176 158 158 176 158 158 175 158
158 175 158 158 175 158 158 175 157 157 175 157 157 175 157 157 175
157 157 174 157 157 174 157 157 174 157 157 174 157 157 174 156 156
174 156 156 174 156 156 173 156 156 173 156 156 173 156 156 173 156
156 173 156 156 173 155 155 172 155 155 172 155 155 172 155 155 172
155 155 172 155 155 172 155 155 172 154 154 171 154 154 171 154 154
171 154 154 171 154 154 171 154 154 171 154 154 171 154 154 170 153
153 170 153 153 170 153 153 170 153 153 170 153 153 170 153 153 170
153 153 169 153 153 169 152 152 169 152 152 169 152 152 169 152 152
169 152 152 169 152 152 168 152 152 168 151 151 168 151 151 168 151
151 168 151 151 168 151 151 168 151 151 167 151 151 167 151 151 167
150 150 167 150 150 167 150 150 167 150 150 167 150 150 166 150 150
166 150 150 166 150 150 166 149 149 166 149 149 166 149 149 166 149
149 165 149 149 165 149 149 165 149 149 165 149 149 165 148 148 165
148 148 165 148 148 164 148 148 164 148 148 164 148 148 164 148 148
164 148 148 164 147 147 164 147 147 163 147 147 163 147 147 163 147
147 163 147 147 163 147 147 163 147 147 163 146 146 163 146 146 162
146 146 162 146 146 162 146 146 162 146 146 162 146 146 162 146 146
162 145 145 161 145 145 161 145 145 161 145 145 161 145 145 161 145
145 161 145 145 161 145 145 160 144 144
179 161 161 179 161 161 178 161 161 178 160 160 178 160 160 178 160
160 178 160 160 178 160 160 178 160 160 177 160 160 177 160 160 177
159 159 177 159 159 177 159 159 177 159 159 177 159 159 176 159 159
176 159 159 176 158 158 176 158 158 176 158 158 176 158 158 176 158
158 175 158 158 175 158 158 175 158 158 175 157 157 175 157 157 175
157 157 175 157 157 174 157 157 174 157 157 174 157 157 174 157 157
174 156 156 174 156 156 174 156 156 173 156 156 173 156 156 173 156
156 173 156 156 173 156 156 173 155 155 172 155 155 172 155 155 172
155 155 172 155 155 172 155 155 172 155 155 172 154 154 171 154 154
171 154 154 171 154 154 171 154 154 171 154 154 171 154 154 171 154
154 171 153 153 170 153 153 170 153 153 170 153 153 170 153 153 170
153 153 170 153 153 170 153 153 169 152 152 169 152 152 169 152 152
169 152 152 169 152 152 169 152 152 169 152 152 168 152 152 168 151
151 168 151 151 168 151 151 168 151 151 168 151 151 168 151 151 167
151 151 167 151 151 167 150 150 167 150 150 167 150 150 167 150 150
167 150 150 166 150 150 166 150 150 166 150 150 166 149 149 166 149
149 166 149 149 166 149 149 165 149 149 165 149 149 165 149 149 165
149 149 165 148 148 165 148 148 165 148 148 164 148 148 164 148 148
164 148 148 164 148 148 164 148 148 164 147 147 164 147 147 163 147
147 163 147 147 163 147 147 163 147 147 163 147 147 163 147 147 163
146 146 163 146 146 162 146 146 162 146 146 162 146 146 162 146 146
162 146 146 162 146 146 162 145 145 161 145 145 161 145 145 161 145
145 161 145 145 161 145 145 161 145 145
179 161 161 179 161 161 178 161 161 178 160 160 178 160 160 178 160
160 178 160 160 178 160 160 178 160 160 177 160 160 177 160 160 177
159 159 177 159 159 177 159 159 177 159 159 177 159 159 176 159 159
176 159 159 176 159 159 176 158 158 176 158 158 176 158 158 176 158
158 175 158 158 175 158 158 175 158 158 175 158 158 175 157 157 175
157 157 175 157 157 174 157 157 174 157 157 174 157 157 174 157 157
174 157 157 174 156 156 174 156 156 173 156 156 173 156 156 173 156
156 173 156 156 173 156 156 173 156 156 173 155 155 173 155 155 172
155 155 172 155 155 172 155 155 172 155 155 172 155 155 172 154 154
172 154 154 171 154 154 171 154 154 171 154 154 171 154 154 171 154
154 171 154 154 171 153 153 170 153 153 170 153 153 170 153 153 170
153 153 170 153 153 170 153 153 170 153 153 169 152 152 169 152 152
169 152 152 169 152 152 169 152 152 169 152 152 169 152 152 168 152
152 168 151 151 168 151 151 168 151 151 168 151 151 168 151 151 168
151 151 167 151 151 167 151 151 167 150 150 167 150 150 167 150 150
167 150 150 167 150 150 166 150 150 166 150 150 166 150 150 166 149
149 166 149 149 166 149 149 166 149 149 166 149 149 165 149 149 165
149 149 165 149 149 165 148 148 165 148 148 165 148 148 165 148 148
164 148 148 164 148 148 164 148 148 164 148 148 164 147 147 164 147
147 164 147 147 163 147 147 163 147 147 163 147 147 163 147 147 163
147 147 163 146 146 163 146 146 163 146 146 162 146 146 162 146 146
162 146 146 162 146 146 162 146 146 162 146 146 162 145 145 161 145
145 161 145 145 161 145 145 161 145 145
179 161 161 179 161 161 179 161 161 178 161 161 178 160 160 178 160
160 178 160 160 178 160 160 178 160 160 178 160 160 177 160 160 177
160 160 177 159 159 177 159 159 177 159 159 177 159 159 177 159 159
176 159 159 176 159 159 176 159 159 176 158 158 176 158 158 176 158
158 176 158 158 175 158 158 175 158 158 175 158 158 175 158 158 175
157 157 175 157 157 175 157 157 174 157 157 174 157 157 174 157 157
174 157 157 174 157 157 174 156 156 174 156 156 173 156 156 173 156
156 173 156 156 173 156 156 173 156 156 173 156 156 173 155 155 173
155 155 172 155 155 172 155 155 172 155 155 172 155 155 172 155 155
172 155 155 172 154 154 171 154 154 171 154 154 171 154 154 171 154
154 171 154 154 171 154 154 171 154 154 170 153 153 170 153 153 170
153 153 170 153 153 170 153 153 170 153 153 170 153 153 169 153 153
169 152 152 169 152 152 169 152 152 169 152 152 169 152 152 169 152
152 168 152 152 168 152 152 168 151 151 168 151 151 168 151 151 168
151 151 168 151 151 168 151 151 167 151 151 167 151 151 167 150 150
167 150 150 167 150 150 167 150 150 167 150 150 166 150 150 166 150
150 166 150 150 166 149 149 166 149 149 166 149 149 166 149 149 165
149 149 165 149 149 165 149 149 165 149 149 165 148 148 165 148 148
165 148 148 165 148 148 164 148 148 164 148 148 164 148 148 164 148
148 164 147 147 164 147 147 164 147 147 163 147 147 163 147 147 163
147 147 163 147 147 163 147 147 163 146 146 163 146 146 162 146 146
162 146 146 162 146 146 162 146 146 162 146 146 162 146 146 162 146
146 162 145 145 161 145 145 161 145 145
179 161 161 179 161 161 179 161 161 178 161 161 178 160 160 178 160
160 178 160 160 178 160 160 178 160 160 178 160 160 177 160 160 177
160 160 177 159 159 177 159 159 177 159 159 177 159 159 177 159 159
177 159 159 176 159 159 176 159 159 176 158 158 176 158 158 176 158
158 176 158 158 176 158 158 175 158 158 175 158 158 175 158 158 175
157 157 175 157 157 175 157 157 175 157 157 174 157 157 174 157 157
174 157 157 174 157 157 174 156 156 174 156 156 174 156 156 173 156
156 173 156 156 173 156 156 173 156 156 173 156 156 173 156 156 173
155 155 173 155 155 172 155 155 172 155 155 172 155 155 172 155 155
172 155 155 172 155 155 172 154 154 171 154 154 171 154 154 171 154
154 171 154 154 171 154 154 171 154 154 171 154 154 170 153 153 170
153 153 170 153 153 170 153 153 170 153 153 170 153 153 170 153 153
169 153 153 169 152 152 169 152 152 169 152 152 169 152 152 169 152
152 169 152 152 169 152 152 168 152 152 168 151 151 168 151 151 168
151 151 168 151 151 168 151 151 168 151 151 167 151 151 167 151 151
167 150 150 167 150 150 167 150 150 167 150 150 167 150 150 166 150
150 166 150 150 166 150 150 166 149 149 166 149 149 166 149 149 166
149 149 166 149 149 165 149 149 165 149 149 165 149 149 165 149 149
165 148 148 165 148 148 165 148 148 164 148 148 164 148 148 164 148
148 164 148 148 164 148 148 164 147 147 164 147 147 164 147 147 163
147 147 163 147 147 163 147 147 163 147 147 163 147 147 163 146 146
163 146 146 162 146 146 162 146 146 162 146 146 162 146 146 162 146
146 162 146 146 162 146 146 162 145 145
179 161 161 179 161 161 179 161 161 179 161 161 178 161 161 178 160
160 178 160 160 178 160 160 178 160 160 178 160 160 178 160 160 177
160 160 177 160 160 177 159 159 177 159 159 177 159 159 177 159 159
177 159 159 176 159 159 176 159 159 176 159 159 176 158 158 176 158
158 176 158 158 176 158 158 176 158 158 175 158 158 175 158 158 175
158 158 175 157 157 175 157 157 175 157 157 175 157 157 174 157 157
174 157 157 174 157 157 174 157 157 174 156 156 174 156 156 174 156
156 173 156 156 173 156 156 173 156 156 173 156 156 173 156 156 173
156 156 173 155 155 173 155 155 172 155 155 172 155 155 172 155 155
172 155 155 172 155 155 172 155 155 172 154 154 171 154 154 171 154
154 171 154 154 171 154 154 171 154 154 171 154 154 171 154 154 170
153 153 170 153 153 170 153 153 170 153 153 170 153 153 170 153 153
170 153 153 170 153 153 169 152 152 169 152 152 169 152 152 169 152
152 169 152 152 169 152 152 169 152 152 168 152 152 168 151 151 168
151 151 168 151 151 168 151 151 168 151 151 168 151 151 168 151 151
167 151 151 167 151 151 167 150 150 167 150 150 167 150 150 167 150
150 167 150 150 166 150 150 166 150 150 166 150 150 166 149 149 166
149 149 166 149 149 166 149 149 166 149 149 165 149 149 165 149 149
165 149 149 165 148 148 165 148 148 165 148 148 165 148 148 164 148
148 164 148 148 164 148 148 164 148 148 164 148 148 164 147 147 164
147 147 164 147 147 163 147 147 163 147 147 163 147 147 163 147 147
163 147 147 163 146 146 163 146 146 162 146 146 162 146 146 162 146
146 162 146 146 162 146 146 162 146 146
179 161 161 179 161 161 179 161 161 179 161 161 178 161 161 178 160
160 178 160 160 178 160 160 178 160 160 178 160 160 178 160 160 178
160 160 177 160 160 177 160 160 177 159 159 177 159 159 177 159 159
177 159 159 177 159 159 176 159 159 176 159 159 176 159 159 176 158
158 176 158 158 176 158 158 176 158 158 175 158 158 175 158 158 175
158 158 175 158 158 175 157 157 175 157 157 175 157 157 175 157 157
174 157 157 174 157 157 174 157 157 174 157 157 174 156 156 174 156
156 174 156 156 173 156 156 173 156 156 173 156 156 173 156 156 173
156 156 173 155 155 173 155 155 173 155 155 172 155 155 172 155 155
172 155 155 172 155 155 172 155 155 172 155 155 172 154 154 171 154
154 171 154 154 171 154 154 171 154 154 171 154 154 171 154 154 171
154 154 170 153 153 170 153 153 170 153 153 170 153 153 170 153 153
170 153 153 170 153 153 170 153 153 169 152 152 169 152 152 169 152
152 169 152 152 169 152 152 169 152 152 169 152 152 168 152 152 168
152 152 168 151 151 168 151 151 168 151 151 168 151 151 168 151 151
168 151 151 167 151 151 167 151 151 167 150 150 167 150 150 167 150
150 167 150 150 167 150 150 167 150 150 166 150 150 166 150 150 166
150 150 166 149 149 166 149 149 166 149 149 166 149 149 165 149 149
165 149 149 165 149 149 165 149 149 165 148 148 165 148 148 165 148
148 165 148 148 164 148 148 164 148 148 164 148 148 164 148 148 164
148 148 164 147 147 164 147 147 164 147 147 163 147 147 163 147 147
163 147 147 163 147 147 163 147 147 163 146 146 163 146 146 162 146
146 162 146 146 162 146 146 162 146 146
179 161 161 179 161 161 179 161 161 179 161 161 179 161 161 178 161
161 178 160 160 178 160 160 178 160 160 178 160 160 178 160 160 178
160 160 177 160 160 177 160 160 177 159 159 177 159 159 177 159 159
177 159 159 177 159 159 177 159 159 176 159 159 176 159 159 176 158
158 176 158 158 176 158 158 176 158 158 176 158 158 175 158 158 175
158 158 175 158 158 175 158 158 175 157 157 175 157 157 175 157 157
174 157 157 174 157 157 174 157 157 174 157 157 174 157 157 174 156
156 174 156 156 174 156 156 173 156 156 173 156 156 173 156 156 173
156 156 173 156 156 173 155 155 173 155 155 173 155 155 172 155 155
172 155 155 172 155 155 172 155 155 172 155 155 172 155 155 172 154
154 171 154 154 171 154 154 171 154 154 171 154 154 171 154 154 171
154 154 171 154 154 171 153 153 170 153 153 170 153 153 170 153 153
170 153 153 170 153 153 170 153 153 170 153 153 169 153 153 169 152
152 169 152 152 169 152 152 169 152 152 169 152 152 169 152 152 169
152 152 168 152 152 168 151 151 168 151 151 168 151 151 168 151 151
168 151 151 168 151 151 167 151 151 167 151 151 167 151 151 167 150
150 167 150 150 167 150 150 167 150 150 167 150 150 166 150 150 166
150 150 166 150 150 166 149 149 166 149 149 166 149 149 166 149 149
166 149 149 165 149 149 165 149 149 165 149 149 165 149 149 165 148
148 165 148 148 165 148 148 165 148 148 164 148 148 164 148 148 164
148 148 164 148 148 164 147 147 164 147 147 164 147 147 163 147 147
163 147 147 163 147 147 163 147 147 163 147 147 163 147 147 163 146
146 163 146 146 162 146 146 162 146 146
179 161 161 179 161 161 179 161 161 179 161 161 179 161 161 178 161
161 178 160 160 178 160 160 178 160 160 178 160 160 178 160 160 178
160 160 178 160 160 177 160 160 177 160 160 177 159 159 177 159 159
177 159 159 177 159 159 177 159 159 176 159 159 176 159 159 176 159
159 176 158 158 176 158 158 176 158 158 176 158 158 176 158 158 175
158 158 175 158 158 175 158 158 175 158 158 175 157 157 175 157 157
175 157 157 174 157 157 174 157 157 174 157 157 174 157 157 174 157
157 174 156 156 174 156 156 174 156 156 173 156 156 173 156 156 173
156 156 173 156 156 173 156 156 173 155 155 173 155 155 172 155 155
172 155 155 172 155 155 172 155 155 172 155 155 172 155 155 172 155
155 172 154 154 171 154 154 171 154 154 171 154 154 171 154 154 171
154 154 171 154 154 171 154 154 171 153 153 170 153 153 170 153 153
170 153 153 170 153 153 170 153 153 170 153 153 170 153 153 169 153
153 169 152 152 169 152 152 169 152 152 169 152 152 169 152 152 169
152 152 169 152 152 168 152 152 168 151 151 168 151 151 168 151 151
168 151 151 168 151 151 168 151 151 168 151 151 167 151 151 167 151
151 167 150 150 167 150 150 167 150 150 167 150 150 167 150 150 167
150 150 166 150 150 166 150 150 166 150 150 166 149 149 166 149 149
166 149 149 166 149 149 165 149 149 165 149 149 165 149 149 165 149
149 165 148 148 165 148 148 165 148 148 165 148 148 164 148 148 164
148 148 164 148 148 164 148 148 164 148 148 164 147 147 164 147 147
164 147 147 163 147 147 163 147 147 163 147 147 163 147 147 163 147
147 163 147 147 163 146 146 163 146 146
179 161 161 179 161 161 179 161 161 179 161 161 179 161 161 179 161
161 178 161 161 178 160 160 178 160 160 178 160 160 178 160 160 178
160 160 178 160 160 177 160 160 177 160 160 177 159 159 177 159 159
177 159 159 177 159 159 177 159 159 177 159 159 176 159 159 176 159
159 176 159 159 176 158 158 176 158 158 176 158 158 176 158 158 175
158 158 175 158 158 175 158 158 175 158 158 175 157 157 175 157 157
175 157 157 175 157 157 174 157 157 174 157 157 174 157 157 174 157
157 174 157 157 174 156 156 174 156 156 174 156 156 173 156 156 173
156 156 173 156 156 173 156 156 173 156 156 173 155 155 173 155 155
172 155 155 172 155 155 172 155 155 172 155 155 172 155 155 172 155
155 172 155 155 172 154 154 171 154 154 171 154 154 171 154 154 171
154 154 171 154 154 171 154 154 171 154 154 171 153 153 170 153 153
170 153 153 170 153 153 170 153 153 170 153 153 170 153 153 170 153
153 170 153 153 169 152 152 169 152 152 169 152 152 169 152 152 169
152 152 169 152 152 169 152 152 168 152 152 168 152 152 168 151 151
168 151 151 168 151 151 168 151 151 168 151 151 168 151 151 167 151
151 167 151 151 167 150 150 167 150 150 167 150 150 167 150 150 167
150 150 167 150 150 166 150 150 166 150 150 166 150 150 166 149 149
166 149 149 166 149 149 166 149 149 166 149 149 165 149 149 165 149
149 165 149 149 165 149 149 165 148 148 165 148 148 165 148 148 165
148 148 164 148 148 164 148 148 164 148 148 164 148 148 164 148 148
164 147 147 164 147 147 164 147 147 163 147 147 163 147 147 163 147
147 163 147 147 163 147 147 163 147 147
179 161 161 179 161 161 179 161 161 179 161 161 179 161 161 179 161
161 178 161 161 178 160 160 178 160 160 178 160 160 178 160 160 178
160 160 178 160 160 178 160 160 177 160 160 177 160 160 177 159 159
177 159 159 177 159 159 177 159 159 177 159 159 176 159 159 176 159
159 176 159 159 176 158 158 176 158 158 176 158 158 176 158 158 176
158 158 175 158 158 175 158 158 175 158 158 175 158 158 175 157 157
175 157 157 175 157 157 175 157 157 174 157 157 174 157 157 174 157
157 174 157 157 174 157 157 174 156 156 174 156 156 174 156 156 173
156 156 173 156 156 173 156 156 173 156 156 173 156 156 173 155 155
173 155 155 172 155 155 172 155 155 172 155 155 172 155 155 172 155
155 172 155 155 172 155 155 172 154 154 171 154 154 171 154 154 171
154 154 171 154 154 171 154 154 171 154 154 171 154 154 171 154 154
170 153 153 170 153 153 170 153 153 170 153 153 170 153 153 170 153
153 170 153 153 170 153 153 169 152 152 169 152 152 169 152 152 169
152 152 169 152 152 169 152 152 169 152 152 169 152 152 168 152 152
168 151 151 168 151 151 168 151 151 168 151 151 168 151 151 168 151
151 168 151 151 167 151 151 167 151 151 167 150 150 167 150 150 167
150 150 167 150 150 167 150 150 167 150 150 166 150 150 166 150 150
166 150 150 166 149 149 166 149 149 166 149 149 166 149 149 166 149
149 165 149 149 165 149 149 165 149 149 165 149 149 165 148 148 165
148 148 165 148 148 165 148 148 164 148 148 164 148 148 164 148 148
164 148 148 164 148 148 164 147 147 164 147 147 164 147 147 163 147
147 163 147 147 163 147 147 163 147 147
179 161 161 179 161 161 179 161 161 179 161 161 179 161 161 179 161
161 178 161 161 178 161 161 178 160 160 178 160 160 178 160 160 178
160 160 178 160 160 178 160 160 177 160 160 177 160 160 177 159 159
177 159 159 177 159 159 177 159 159 177 159 159 177 159 159 176 159
159 176 159 159 176 159 159 176 158 158 176 158 158 176 158 158 176
158 158 176 158 158 175 158 158 175 158 158 175 158 158 175 158 158
175 157 157 175 157 157 175 157 157 175 157 157 174 157 157 174 157
157 174 157 157 174 157 157 174 156 156 174 156 156 174 156 156 173
156 156 173 156 156 173 156 156 173 156 156 173 156 156 173 156 156
173 155 155 173 155 155 172 155 155 172 155 155 172 155 155 172 155
155 172 155 155 172 155 155 172 155 155 172 154 154 171 154 154 171
154 154 171 154 154 171 154 154 171 154 154 171 154 154 171 154 154
171 154 154 170 153 153 170 153 153 170 153 153 170 153 153 170 153
153 170 153 153 170 153 153 170 153 153 169 153 153 169 152 152 169
152 152 169 152 152 169 152 152 169 152 152 169 152 152 169 152 152
168 152 152 168 151 151 168 151 151 168 151 151 168 151 151 168 151
151 168 151 151 168 151 151 167 151 151 167 151 151 167 150 150 167
150 150 167 150 150 167 150 150 167 150 150 167 150 150 166 150 150
166 150 150 166 150 150 166 149 149 166 149 149 166 149 149 166 149
149 166 149 149 165 149 149 165 149 149 165 149 149 165 149 149 165
148 148 165 148 148 165 148 148 165 148 148 164 148 148 164 148 148
164 148 148 164 148 148 164 148 148 164 147 147 164 147 147 164 147
147 164 147 147 163 147 147 163 147 147
179 161 161 179 161 161 179 161 161 179 161 161 179 161 161 179 161
161 179 161 161 178 161 161 178 160 160 178 160 160 178 160 160 178
160 160 178 160 160 178 160 160 178 160 160 177 160 160 177 160 160
177 159 159 177 159 159 177 159 159 177 159 159 177 159 159 177 159
159 176 159 159 176 159 159 176 159 159 176 158 158 176 158 158 176
158 158 176 158 158 175 158 158 175 158 158 175 158 158 175 158 158
175 157 157 175 157 157 175 157 157 175 157 157 174 157 157 174 157
157 174 157 157 174 157 157 174 157 157 174 156 156 174 156 156 174
156 156 173 156 156 173 156 156 173 156 156 173 156 156 173 156 156
173 156 156 173 155 155 173 155 155 172 155 155 172 155 155 172 155
155 172 155 155 172 155 155 172 155 155 172 155 155 172 154 154 171
154 154 171 154 154 171 154 154 171 154 154 171 154 154 171 154 154
171 154 154 171 154 154 170 153 153 170 153 153 170 153 153 170 153
153 170 153 153 170 153 153 170 153 153 170 153 153 169 153 153 169
152 152 169 152 152 169 152 152 169 152 152 169 152 152 169 152 152
169 152 152 168 152 152 168 152 152 168 151 151 168 151 151 168 151
151 168 151 151 168 151 151 168 151 151 167 151 151 167 151 151 167
151 151 167 150 150 167 150 150 167 150 150 167 150 150 167 150 150
167 150 150 166 150 150 166 150 150 166 150 150 166 149 149 166 149
149 166 149 149 166 149 149 166 149 149 165 149 149 165 149 149 165
149 149 165 149 149 165 148 148 165 148 148 165 148 148 165 148 148
164 148 148 164 148 148 164 148 148 164 148 148 164 148 148 164 147
147 164 147 147 164 147 147 163 147 147
179 161 161 179 161 161 179 161 161 179 161 161 179 161 161 179 161
161 179 161 161 178 161 161 178 161 161 178 160 160 178 160 160 178
160 160 178 160 160 178 160 160 178 160 160 177 160 160 177 160 160
177 159 159 177 159 159 177 159 159 177 159 159 177 159 159 177 159
159 176 159 159 176 159 159 176 159 159 176 158 158 176 158 158 176
158 158 176 158 158 176 158 158 175 158 158 175 158 158 175 158 158
175 158 158 175 157 157 175 157 157 175 157 157 175 157 157 174 157
157 174 157 157 174 157 157 174 157 157 174 157 157 174 156 156 174
156 156 174 156 156 173 156 156 173 156 156 173 156 156 173 156 156
173 156 156 173 156 156 173 155 155 173 155 155 172 155 155 172 155
155 172 155 155 172 155 155 172 155 155 172 155 155 172 155 155 172
154 154 171 154 154 171 154 154 171 154 154 171 154 154 171 154 154
171 154 154 171 154 154 171 154 154 170 153 153 170 153 153 170 153
153 170 153 153 170 153 153 170 153 153 170 153 153 170 153 153 169
153 153 169 152 152 169 152 152 169 152 152 169 152 152 169 152 152
169 152 152 169 152 152 169 152 152 168 152 152 168 151 151 168 151
151 168 151 151 168 151 151 168 151 151 168 151 151 168 151 151 167
151 151 167 151 151 167 150 150 167 150 150 167 150 150 167 150 150
167 150 150 167 150 150 166 150 150 166 150 150 166 150 150 166 149
149 166 149 149 166 149 149 166 149 149 166 149 149 165 149 149 165
149 149 165 149 149 165 149 149 165 149 149 165 148 148 165 148 148
165 148 148 165 148 148 164 148 148 164 148 148 164 148 148 164 148
148 164 148 148 164 147 147 164 147 147
179 161 161 179 161 161 179 161 161 179 161 161 179 161 161 179 161
161 179 161 161 179 161 161 178 161 161 178 160 160 178 160 160 178
160 160 178 160 160 178 160 160 178 160 160 178 160 160 177 160 160
177 160 160 177 159 159 177 159 159 177 159 159 177 159 159 177 159
159 177 159 159 176 159 159 176 159 159 176 159 159 176 158 158 176
158 158 176 158 158 176 158 158 176 158 158 175 158 158 175 158 158
175 158 158 175 158 158 175 157 157 175 157 157 175 157 157 175 157
157 174 157 157 174 157 157 174 157 157 174 157 157 174 157 157 174
156 156 174 156 156 174 156 156 173 156 156 173 156 156 173 156 156
173 156 156 173 156 156 173 156 156 173 155 155 173 155 155 172 155
155 172 155 155 172 155 155 172 155 155 172 155 155 172 155 155 172
155 155 172 154 154 171 154 154 171 154 154 171 154 154 171 154 154
171 154 154 171 154 154 171 154 154 171 154 154 170 153 153 170 153
153 170 153 153 170 153 153 170 153 153 170 153 153 170 153 153 170
153 153 170 153 153 169 152 152 169 152 152 169 152 152 169 152 152
169 152 152 169 152 152 169 152 152 169 152 152 168 152 152 168 151
151 168 151 151 168 151 151 168 151 151 168 151 151 168 151 151 168
151 151 167 151 151 167 151 151 167 151 151 167 150 150 167 150 150
167 150 150 167 150 150 167 150 150 167 150 150 166 150 150 166 150
150 166 150 150 166 149 149 166 149 149 166 149 149 166 149 149 166
149 149 165 149 149 165 149 149 165 149 149 165 149 149 165 148 148
165 148 148 165 148 148 165 148 148 164 148 148 164 148 148 164 148
148 164 148 148 164 148 148 164 148 148
179 161 161 179 161 161 179 161 161 179 161 161 179 161 161 179 161
161 179 161 161 179 161 161 178 161 161 178 160 160 178 160 160 178
160 160 178 160 160 178 160 160 178 160 160 178 160 160 177 160 160
177 160 160 177 159 159 177 159 159 177 159 159 177 159 159 177 159
159 177 159 159 176 159 159 176 159 159 176 159 159 176 158 158 176
158 158 176 158 158 176 158 158 176 158 158 175 158 158 175 158 158
175 158 158 175 158 158 175 157 157 175 157 157 175 157 157 175 157
157 175 157 157 174 157 157 174 157 157 174 157 157 174 157 157 174
157 157 174 156 156 174 156 156 174 156 156 173 156 156 173 156 156
173 156 156 173 156 156 173 156 156 173 156 156 173 155 155 173 155
155 172 155 155 172 155 155 172 155 155 172 155 155 172 155 155 172
155 155 172 155 155 172 154 154 171 154 154 171 154 154 171 154 154
171 154 154 171 154 154 171 154 154 171 154 154 171 154 154 171 153
153 170 153 153 170 153 153 170 153 153 170 153 153 170 153 153 170
153 153 170 153 153 170 153 153 169 152 152 169 152 152 169 152 152
169 152 152 169 152 152 169 152 152 169 152 152 169 152 152 168 152
152 168 152 152 168 151 151 168 151 151 168 151 151 168 151 151 168
151 151 168 151 151 168 151 151 167 151 151 167 151 151 167 150 150
167 150 150 167 150 150 167 150 150 167 150 150 167 150 150 166 150
150 166 150 150 166 150 150 166 149 149 166 149 149 166 149 149 166
149 149 166 149 149 166 149 149 165 149 149 165 149 149 165 149 149
165 149 149 165 148 148 165 148 148 165 148 148 165 148 148 164 148
148 164 148 148 164 148 148 164 148 148
179 162 162 179 161 161 179 161 161 179 161 161 179 161 161 179 161
161 179 161 161 179 161 161 178 161 161 178 161 161 178 160 160 178
160 160 178 160 160 178 160 160 178 160 160 178 160 160 178 160 160
177 160 160 177 160 160 177 159 159 177 159 159 177 159 159 177 159
159 177 159 159 177 159 159 176 159 159 176 159 159 176 159 159 176
158 158 176 158 158 176 158 158 176 158 158 176 158 158 175 158 158
175 158 158 175 158 158 175 158 158 175 157 157 175 157 157 175 157
157 175 157 157 174 157 157 174 157 157 174 157 157 174 157 157 174
157 157 174 156 156 174 156 156 174 156 156 174 156 156 173 156 156
173 156 156 173 156 156 173 156 156 173 156 156 173 156 156 173 155
155 173 155 155 172 155 155 172 155 155 172 155 155 172 155 155 172
155 155 172 155 155 172 155 155 172 154 154 171 154 154 171 154 154
171 154 154 171 154 154 171 154 154 171 154 154 171 154 154 171 154
154 171 153 153 170 153 153 170 153 153 170 153 153 170 153 153 170
153 153 170 153 153 170 153 153 170 153 153 169 153 153 169 152 152
169 152 152 169 152 152 169 152 152 169 152 152 169 152 152 169 152
152 168 152 152 168 152 152 168 151 151 168 151 151 168 151 151 168
151 151 168 151 151 168 151 151 168 151 151 167 151 151 167 151 151
167 150 150 167 150 150 167 150 150 167 150 150 167 150 150 167 150
150 167 150 150 166 150 150 166 150 150 166 150 150 166 149 149 166
149 149 166 149 149 166 149 149 166 149 149 165 149 149 165 149 149
165 149 149 165 149 149 165 148 148 165 148 148 165 148 148 165 148
148 165 148 148 164 148 148 164 148 148
179 162 162 179 161 161 179 161 161 179 161 161 179 161 161 179 161
161 179 161 161 179 161 161 179 161 161 178 161 161 178 160 160 178
160 160 178 160 160 178 160 160 178 160 160 178 160 160 178 160 160
177 160 160 177 160 160 177 159 159 177 159 159 177 159 159 177 159
159 177 159 159 177 159 159 176 159 159 176 159 159 176 159 159 176
159 159 176 158 158 176 158 158 176 158 158 176 158 158 176 158 158
175 158 158 175 158 158 175 158 158 175 158 158 175 157 157 175 157
157 175 157 157 175 157 157 174 157 157 174 157 157 174 157 157 174
157 157 174 157 157 174 156 156 174 156 156 174 156 156 173 156 156
173 156 156 173 156 156 173 156 156 173 156 156 173 156 156 173 155
155 173 155 155 173 155 155 172 155 155 172 155 155 172 155 155 172
155 155 172 155 155 172 155 155 172 155 155 172 154 154 171 154 154
171 154 154 171 154 154 171 154 154 171 154 154 171 154 154 171 154
154 171 154 154 171 153 153 170 153 153 170 153 153 170 153 153 170
153 153 170 153 153 170 153 153 170 153 153 170 153 153 169 153 153
169 152 152 169 152 152 169 152 152 169 152 152 169 152 152 169 152
152 169 152 152 169 152 152 168 152 152 168 151 151 168 151 151 168
151 151 168 151 151 168 151 151 168 151 151 168 151 151 167 151 151
167 151 151 167 151 151 167 150 150 167 150 150 167 150 150 167 150
150 167 150 150 167 150 150 166 150 150 166 150 150 166 150 150 166
149 149 166 149 149 166 149 149 166 149 149 166 149 149 166 149 149
165 149 149 165 149 149 165 149 149 165 149 149 165 148 148 165 148
148 165 148 148 165 148 148 164 148 148
180 162 162 179 161 161 179 161 161 179 161 161 179 161 161 179 161
161 179 161 161 179 161 161 179 161 161 178 161 161 178 160 160 178
160 160 178 160 160 178 160 160 178 160 160 178 160 160 178 160 160
177 160 160 177 160 160 177 160 160 177 159 159 177 159 159 177 159
159 177 159 159 177 159 159 177 159 159 176 159 159 176 159 159 176
159 159 176 158 158 176 158 158 176 158 158 176 158 158 176 158 158
175 158 158 175 158 158 175 158 158 175 158 158 175 158 158 175 157
157 175 157 157 175 157 157 175 157 157 174 157 157 174 157 157 174
157 157 174 157 157 174 157 157 174 156 156 174 156 156 174 156 156
173 156 156 173 156 156 173 156 156 173 156 156 173 156 156 173 156
156 173 155 155 173 155 155 173 155 155 172 155 155 172 155 155 172
155 155 172 155 155 172 155 155 172 155 155 172 155 155 172 154 154
171 154 154 171 154 154 171 154 154 171 154 154 171 154 154 171 154
154 171 154 154 171 154 154 171 153 153 170 153 153 170 153 153 170
153 153 170 153 153 170 153 153 170 153 153 170 153 153 170 153 153
169 153 153 169 152 152 169 152 152 169 152 152 169 152 152 169 152
152 169 152 152 169 152 152 169 152 152 168 152 152 168 151 151 168
151 151 168 151 151 168 151 151 168 151 151 168 151 151 168 151 151
168 151 151 167 151 151 167 151 151 167 150 150 167 150 150 167 150
150 167 150 150 167 150 150 167 150 150 166 150 150 166 150 150 166
150 150 166 150 150 166 149 149 166 149 149 166 149 149 166 149 149
166 149 149 165 149 149 165 149 149 165 149 149 165 149 149 165 149
149 165 148 148 165 148 148 165 148 148
180 162 162 179 161 161 179 161 161 179 161 161 179 161 161 179 161
161 179 161 161 179 161 161 179 161 161 178 161 161 178 161 161 178
160 160 178 160 160 178 160 160 178 160 160 178 160 160 178 160 160
178 160 160 177 160 160 177 160 160 177 159 159 177 159 159 177 159
159 177 159 159 177 159 159 177 159 159 176 159 159 176 159 159 176
159 159 176 159 159 176 158 158 176 158 158 176 158 158 176 158 158
176 158 158 175 158 158 175 158 158 175 158 158 175 158 158 175 157
157 175 157 157 175 157 157 175 157 157 174 157 157 174 157 157 174
157 157 174 157 157 174 157 157 174 157 157 174 156 156 174 156 156
174 156 156 173 156 156 173 156 156 173 156 156 173 156 156 173 156
156 173 156 156 173 155 155 173 155 155 173 155 155 172 155 155 172
155 155 172 155 155 172 155 155 172 155 155 172 155 155 172 155 155
172 154 154 171 154 154 171 154 154 171 154 154 171 154 154 171 154
154 171 154 154 171 154 154 171 154 154 171 153 153 170 153 153 170
153 153 170 153 153 170 153 153 170 153 153 170 153 153 170 153 153
170 153 153 170 153 153 169 152 152 169 152 152 169 152 152 169 152
152 169 152 152 169 152 152 169 152 152 169 152 152 168 152 152 168
152 152 168 151 151 168 151 151 168 151 151 168 151 151 168 151 151
168 151 151 168 151 151 167 151 151 167 151 151 167 151 151 167 150
150 167 150 150 167 150 150 167 150 150 167 150 150 167 150 150 166
150 150 166 150 150 166 150 150 166 149 149 166 149 149 166 149 149
166 149 149 166 149 149 166 149 149 165 149 149 165 149 149 165 149
149 165 149 149 165 148 148 165 148 148
180 162 162 179 162 162 179 161 161 179 161 161 179 161 161 179 161
161 179 161 161 179 161 161 179 161 161 179 161 161 178 161 161 178
160 160 178 160 160 178 160 160 178 160 160 178 160 160 178 160 160
178 160 160 177 160 160 177 160 160 177 160 160 177 159 159 177 159
159 177 159 159 177 159 159 177 159 159 177 159 159 176 159 159 176
159 159 176 159 159 176 158 158 176 158 158 176 158 158 176 158 158
176 158 158 176 158 158 175 158 158 175 158 158 175 158 158 175 158
158 175 157 157 175 157 157 175 157 157 175 157 157 174 157 157 174
157 157 174 157 157 174 157 157 174 157 157 174 156 156 174 156 156
174 156 156 174 156 156 173 156 156 173 156 156 173 156 156 173 156
156 173 156 156 173 156 156 173 155 155 173 155 155 172 155 155 172
155 155 172 155 155 172 155 155 172 155 155 172 155 155 172 155 155
172 155 155 172 154 154 171 154 154 171 154 154 171 154 154 171 154
154 171 154 154 171 154 154 171 154 154 171 154 154 171 153 153 170
153 153 170 153 153 170 153 153 170 153 153 170 153 153 170 153 153
170 153 153 170 153 153 170 153 153 169 152 152 169 152 152 169 152
152 169 152 152 169 152 152 169 152 152 169 152 152 169 152 152 169
152 152 168 152 152 168 151 151 168 151 151 168 151 151 168 151 151
168 151 151 168 151 151 168 151 151 167 151 151 167 151 151 167 151
151 167 150 150 167 150 150 167 150 150 167 150 150 167 150 150 167
150 150 166 150 150 166 150 150 166 150 150 166 150 150 166 149 149
166 149 149 166 149 149 166 149 149 166 149 149 165 149 149 165 149
149 165 149 149 165 149 149 165 149 149
180 162 162 179 162 162 179 161 161 179 161 161 179 161 161 179 161
161 179 161 161 179 161 161 179 161 161 179 161 161 178 161 161 178
161 161 178 160 160 178 160 160 178 160 160 178 160 160 178 160 160
178 160 160 178 160 160 177 160 160 177 160 160 177 159 159 177 159
159 177 159 159 177 159 159 177 159 159 177 159 159 176 159 159 176
159 159 176 159 159 176 159 159 176 158 158 176 158 158 176 158 158
176 158 158 176 158 158 175 158 158 175 158 158 175 158 158 175 158
158 175 157 157 175 157 157 175 157 157 175 157 157 175 157 157 174
157 157 174 157 157 174 157 157 174 157 157 174 157 157 174 156 156
174 156 156 174 156 156 174 156 156 173 156 156 173 156 156 173 156
156 173 156 156 173 156 156 173 156 156 173 155 155 173 155 155 172
155 155 172 155 155 172 155 155 172 155 155 172 155 155 172 155 155
172 155 155 172 155 155 172 154 154 171 154 154 171 154 154 171 154
154 171 154 154 171 154 154 171 154 154 171 154 154 171 154 154 171
154 154 170 153 153 170 153 153 170 153 153 170 153 153 170 153 153
170 153 153 170 153 153 170 153 153 170 153 153 169 152 152 169 152
152 169 152 152 169 152 152 169 152 152 169 152 152 169 152 152 169
152 152 169 152 152 168 152 152 168 151 151 168 151 151 168 151 151
168 151 151 168 151 151 168 151 151 168 151 151 168 151 151 167 151
151 167 151 151 167 150 150 167 150 150 167 150 150 167 150 150 167
150 150 167 150 150 167 150 150 166 150 150 166 150 150 166 150 150
166 149 149 166 149 149 166 149 149 166 149 149 166 149 149 166 149
149 165 149 149 165 149 149 165 149 149
180 162 162 180 162 162 179 161 161 179 161 161 179 161 161 179 161
161 179 161 161 179 161 161 179 161 161 179 161 161 178 161 161 178
161 161 178 160 160 178 160 160 178 160 160 178 160 160 178 160 160
178 160 160 178 160 160 177 160 160 177 160 160 177 160 160 177 159
159 177 159 159 177 159 159 177 159 159 177 159 159 177 159 159 176
159 159 176 159 159 176 159 159 176 158 158 176 158 158 176 158 158
176 158 158 176 158 158 176 158 158 175 158 158 175 158 158 175 158
158 175 158 158 175 157 157 175 157 157 175 157 157 175 157 157 175
157 157 174 157 157 174 157 157 174 157 157 174 157 157 174 157 157
174 156 156 174 156 156 174 156 156 173 156 156 173 156 156 173 156
156 173 156 156 173 156 156 173 156 156 173 156 156 173 155 155 173
155 155 172 155 155 172 155 155 172 155 155 172 155 155 172 155 155
172 155 155 172 155 155 172 155 155 172 154 154 171 154 154 171 154
154 171 154 154 171 154 154 171 154 154 171 154 154 171 154 154 171
154 154 171 154 154 170 153 153 170 153 153 170 153 153 170 153 153
170 153 153 170 153 153 170 153 153 170 153 153 170 153 153 169 153
153 169 152 152 169 152 152 169 152 152 169 152 152 169 152 152 169
152 152 169 152 152 169 152 152 168 152 152 168 152 152 168 151 151
168 151 151 168 151 151 168 151 151 168 151 151 168 151 151 168 151
151 167 151 151 167 151 151 167 151 151 167 150 150 167 150 150 167
150 150 167 150 150 167 150 150 167 150 150 166 150 150 166 150 150
166 150 150 166 150 150 166 149 149 166 149 149 166 149 149 166 149
149 166 149 149 165 149 149 165 149 149
180 162 162 180 162 162 179 161 161 179 161 161 179 161 161 179 161
161 179 161 161 179 161 161 179 161 161 179 161 161 179 161 161 178
161 161 178 160 160 178 160 160 178 160 160 178 160 160 178 160 160
178 160 160 178 160 160 178 160 160 177 160 160 177 160 160 177 159
159 177 159 159 177 159 159 177 159 159 177 159 159 177 159 159 176
159 159 176 159 159 176 159 159 176 159 159 176 158 158 176 158 158
176 158 158 176 158 158 176 158 158 175 158 158 175 158 158 175 158
158 175 158 158 175 158 158 175 157 157 175 157 157 175 157 157 175
157 157 174 157 157 174 157 157 174 157 157 174 157 157 174 157 157
174 157 157 174 156 156 174 156 156 174 156 156 173 156 156 173 156
156 173 156 156 173 156 156 173 156 156 173 156 156 173 156 156 173
155 155 173 155 155 172 155 155 172 155 155 172 155 155 172 155 155
172 155 155 172 155 155 172 155 155 172 155 155 172 154 154 171 154
154 171 154 154 171 154 154 171 154 154 171 154 154 171 154 154 171
154 154 171 154 154 171 154 154 170 153 153 170 153 153 170 153 153
170 153 153 170 153 153 170 153 153 170 153 153 170 153 153 170 153
153 169 153 153 169 152 152 169 152 152 169 152 152 169 152 152 169
152 152 169 152 152 169 152 152 169 152 152 168 152 152 168 152 152
168 151 151 168 151 151 168 151 151 168 151 151 168 151 151 168 151
151 168 151 151 167 151 151 167 151 151 167 151 151 167 150 150 167
150 150 167 150 150 167 150 150 167 150 150 167 150 150 167 150 150
166 150 150 166 150 150 166 150 150 166 149 149 166 149 149 166 149
149 166 149 149 166 149 149 166 149 149
180 162 162 180 162 162 179 162 162 179 161 161 179 161 161 179 161
161 179 161 161 179 161 161 179 161 161 179 161 161 179 161 161 178
161 161 178 161 161 178 160 160 178 160 160 178 160 160 178 160 160
178 160 160 178 160 160 178 160 160 177 160 160 177 160 160 177 159
159 177 159 159 177 159 159 177 159 159 177 159 159 177 159 159 177
159 159 176 159 159 176 159 159 176 159 159 176 158 158 176 158 158
176 158 158 176 158 158 176 158 158 176 158 158 175 158 158 175 158
158 175 158 158 175 158 158 175 157 157 175 157 157 175 157 157 175
157 157 175 157 157 174 157 157 174 157 157 174 157 157 174 157 157
174 157 157 174 156 156 174 156 156 174 156 156 174 156 156 173 156
156 173 156 156 173 156 156 173 156 156 173 156 156 173 156 156 173
155 155 173 155 155 173 155 155 172 155 155 172 155 155 172 155 155
172 155 155 172 155 155 172 155 155 172 155 155 172 155 155 172 154
154 171 154 154 171 154 154 171 154 154 171 154 154 171 154 154 171
154 154 171 154 154 171 154 154 171 154 154 170 153 153 170 153 153
170 153 153 170 153 153 170 153 153 170 153 153 170 153 153 170 153
153 170 153 153 169 153 153 169 152 152 169 152 152 169 152 152 169
152 152 169 152 152 169 152 152 169 152 152 169 152 152 169 152 152
168 152 152 168 151 151 168 151 151 168 151 151 168 151 151 168 151
151 168 151 151 168 151 151 168 151 151 167 151 151 167 151 151 167
150 150 167 150 150 167 150 150 167 150 150 167 150 150 167 150 150
167 150 150 166 150 150 166 150 150 166 150 150 166 150 150 166 149
149 166 149 149 166 149 149 166 149 149
180 162 162 180 162 162 179 162 162 179 161 161 179 161 161 179 161
161 179 161 161 179 161 161 179 161 161 179 161 161 179 161 161 178
161 161 178 161 161 178 160 160 178 160 160 178 160 160 178 160 160
178 160 160 178 160 160 178 160 160 177 160 160 177 160 160 177 160
160 177 159 159 177 159 159 177 159 159 177 159 159 177 159 159 177
159 159 176 159 159 176 159 159 176 159 159 176 159 159 176 158 158
176 158 158 176 158 158 176 158 158 176 158 158 175 158 158 175 158
158 175 158 158 175 158 158 175 158 158 175 157 157 175 157 157 175
157 157 175 157 157 175 157 157 174 157 157 174 157 157 174 157 157
174 157 157 174 157 157 174 156 156 174 156 156 174 156 156 174 156
156 173 156 156 173 156 156 173 156 156 173 156 156 173 156 156 173
156 156 173 155 155 173 155 155 173 155 155 172 155 155 172 155 155
172 155 155 172 155 155 172 155 155 172 155 155 172 155 155 172 154
154 172 154 154 171 154 154 171 154 154 171 154 154 171 154 154 171
154 154 171 154 154 171 154 154 171 154 154 171 154 154 170 153 153
170 153 153 170 153 153 170 153 153 170 153 153 170 153 153 170 153
153 170 153 153 170 153 153 169 153 153 169 152 152 169 152 152 169
152 152 169 152 152 169 152 152 169 152 152 169 152 152 169 152 152
169 152 152 168 152 152 168 151 151 168 151 151 168 151 151 168 151
151 168 151 151 168 151 151 168 151 151 168 151 151 167 151 151 167
151 151 167 151 151 167 150 150 167 150 150 167 150 150 167 150 150
167 150 150 167 150 150 166 150 150 166 150 150 166 150 150 166 150
150 166 149 149 166 149 149 166 149 149
180 162 162 180 162 162 180 162 162 179 161 161 179 161 161 179 161
161 179 161 161 179 161 161 179 161 161 179 161 161 179 161 161 179
161 161 178 161 161 178 160 160 178 160 160 178 160 160 178 160 160
178 160 160 178 160 160 178 160 160 178 160 160 177 160 160 177 160
160 177 159 159 177 159 159 177 159 159 177 159 159 177 159 159 177
159 159 177 159 159 176 159 159 176 159 159 176 159 159 176 158 158
176 158 158 176 158 158 176 158 158 176 158 158 176 158 158 175 158
158 175 158 158 175 158 158 175 158 158 175 158 158 175 157 157 175
157 157 175 157 157 175 157 157 174 157 157 174 157 157 174 157 157
174 157 157 174 157 157 174 157 157 174 156 156 174 156 156 174 156
156 173 156 156 173 156 156 173 156 156 173 156 156 173 156 156 173
156 156 173 156 156 173 155 155 173 155 155 173 155 155 172 155 155
172 155 155 172 155 155 172 155 155 172 155 155 172 155 155 172 155
155 172 154 154 172 154 154 171 154 154 171 154 154 171 154 154 171
154 154 171 154 154 171 154 154 171 154 154 171 154 154 171 154 154
170 153 153 170 153 153 170 153 153 170 153 153 170 153 153 170 153
153 170 153 153 170 153 153 170 153 153 170 153 153 169 152 152 169
152 152 169 152 152 169 152 152 169 152 152 169 152 152 169 152 152
169 152 152 169 152 152 168 152 152 168 152 152 168 151 151 168 151
151 168 151 151 168 151 151 168 151 151 168 151 151 168 151 151 167
151 151 167 151 151 167 151 151 167 150 150 167 150 150 167 150 150
167 150 150 167 150 150 167 150 150 167 150 150 166 150 150 166 150
150 166 150 150 166 150 150 166 149 149
180 162 162 180 162 162 180 162 162 179 161 161 179 161 161 179 161
161 179 161 161 179 161 161 179 161 161 179 161 161 179 161 161 179
161 161 178 161 161 178 161 161 178 160 160 178 160 160 178 160 160
178 160 160 178 160 160 178 160 160 178 160 160 177 160 160 177 160
160 177 160 160 177 159 159 177 159 159 177 159 159 177 159 159 177
159 159 177 159 159 176 159 159 176 159 159 176 159 159 176 159 159
176 158 158 176 158 158 176 158 158 176 158 158 176 158 158 176 158
158 175 158 158 175 158 158 175 158 158 175 158 158 175 157 157 175
157 157 175 157 157 175 157 157 175 157 157 174 157 157 174 157 157
174 157 157 174 157 157 174 157 157 174 157 157 174 156 156 174 156
156 174 156 156 173 156 156 173 156 156 173 156 156 173 156 156 173
156 156 173 156 156 173 156 156 173 155 155 173 155 155 173 155 155
172 155 155 172 155 155 172 155 155 172 155 155 172 155 155 172 155
155 172 155 155 172 154 154 172 154 154 171 154 154 171 154 154 171
154 154 171 154 154 171 154 154 171 154 154 171 154 154 171 154 154
171 154 154 170 153 153 170 153 153 170 153 153 170 153 153 170 153
153 170 153 153 170 153 153 170 153 153 170 153 153 170 153 153 169
152 152 169 152 152 169 152 152 169 152 152 169 152 152 169 152 152
169 152 152 169 152 152 169 152 152 168 152 152 168 152 152 168 151
151 168 151 151 168 151 151 168 151 151 168 151 151 168 151 151 168
151 151 168 151 151 167 151 151 167 151 151 167 150 150 167 150 150
167 150 150 167 150 150 167 150 150 167 150 150 167 150 150 166 150
150 166 150 150 166 150 150 166 150 150
180 162 162 180 162 162 180 162 162 179 162 162 179 161 161 179 161
161 179 161 161 179 161 161 179 161 161 179 161 161 179 161 161 179
161 161 178 161 161 178 161 161 178 160 160 178 160 160 178 160 160
178 160 160 178 160 160 178 160 160 178 160 160 178 160 160 177 160
160 177 160 160 177 159 159 177 159 159 177 159 159 177 159 159 177
159 159 177 159 159 177 159 159 176 159 159 176 159 159 176 159 159
176 159 159 176 158 158 176 158 158 176 158 158 176 158 158 176 158
158 175 158 158 175 158 158 175 158 158 175 158 158 175 158 158 175
157 157 175 157 157 175 157 157 175 157 157 175 157 157 174 157 157
174 157 157 174 157 157 174 157 157 174 157 157 174 156 156 174 156
156 174 156 156 174 156 156 173 156 156 173 156 156 173 156 156 173
156 156 173 156 156 173 156 156 173 156 156 173 155 155 173 155 155
172 155 155 172 155 155 172 155 155 172 155 155 172 155 155 172 155
155 172 155 155 172 155 155 172 154 154 172 154 154 171 154 154 171
154 154 171 154 154 171 154 154 171 154 154 171 154 154 171 154 154
171 154 154 171 154 154 170 153 153 170 153 153 170 153 153 170 153
153 170 153 153 170 153 153 170 153 153 170 153 153 170 153 153 170
153 153 169 152 152 169 152 152 169 152 152 169 152 152 169 152 152
169 152 152 169 152 152 169 152 152 169 152 152 168 152 152 168 152
152 168 151 151 168 151 151 168 151 151 168 151 151 168 151 151 168
151 151 168 151 151 168 151 151 167 151 151 167 151 151 167 151 151
167 150 150 167 150 150 167 150 150 167 150 150 167 150 150 167 150
150 167 150 150 166 150 150 166 150 150
180 162 162 180 162 162 180 162 162 179 162 162 179 161 161 179 161
161 179 161 161 179 161 161 179 161 161 179 161 161 179 161 161 179
161 161 179 161 161 178 161 161 178 160 160 178 160 160 178 160 160
178 160 160 178 160 160 178 160 160 178 160 160 178 160 160 177 160
160 177 160 160 177 160 160 177 159 159 177 159 159 177 159 159 177
159 159 177 159 159 177 159 159 176 159 159 176 159 159 176 159 159
176 159 159 176 158 158 176 158 158 176 158 158 176 158 158 176 158
158 176 158 158 175 158 158 175 158 158 175 158 158 175 158 158 175
158 158 175 157 157 175 157 157 175 157 157 175 157 157 174 157 157
174 157 157 174 157 157 174 157 157 174 157 157 174 157 157 174 156
156 174 156 156 174 156 156 174 156 156 173 156 156 173 156 156 173
156 156 173 156 156 173 156 156 173 156 156 173 156 156 173 155 155
173 155 155 172 155 155 172 155 155 172 155 155 172 155 155 172 155
155 172 155 155 172 155 155 172 155 155 172 154 154 172 154 154 171
154 154 171 154 154 171 154 154 171 154 154 171 154 154 171 154 154
171 154 154 171 154 154 171 154 154 170 153 153 170 153 153 170 153
153 170 153 153 170 153 153 170 153 153 170 153 153 170 153 153 170
153 153 170 153 153 169 153 153 169 152 152 169 152 152 169 152 152
169 152 152 169 152 152 169 152 152 169 152 152 169 152 152 169 152
152 168 152 152 168 151 151 168 151 151 168 151 151 168 151 151 168
151 151 168 151 151 168 151 151 168 151 151 167 151 151 167 151 151
167 151 151 167 150 150 167 150 150 167 150 150 167 150 150 167 150
150 167 150 150 167 150 150 166 150 150
180 162 162 180 162 162 180 162 162 180 162 162 179 161 161 179 161
161 179 161 161 179 161 161 179 161 161 179 161 161 179 161 161 179
161 161 179 161 161 178 161 161 178 161 161 178 160 160 178 160 160
178 160 160 178 160 160 178 160 160 178 160 160 178 160 160 177 160
160 177 160 160 177 160 160 177 159 159 177 159 159 177 159 159 177
159 159 177 159 159 177 159 159 177 159 159 176 159 159 176 159 159
176 159 159 176 159 159 176 158 158 176 158 158 176 158 158 176 158
158 176 158 158 175 158 158 175 158 158 175 158 158 175 158 158 175
158 158 175 157 157 175 157 157 175 157 157 175 157 157 175 157 157
174 157 157 174 157 157 174 157 157 174 157 157 174 157 157 174 157
157 174 156 156 174 156 156 174 156 156 173 156 156 173 156 156 173
156 156 173 156 156 173 156 156 173 156 156 173 156 156 173 155 155
173 155 155 173 155 155 172 155 155 172 155 155 172 155 155 172 155
155 172 155 155 172 155 155 172 155 155 172 155 155 172 154 154 172
154 154 171 154 154 171 154 154 171 154 154 171 154 154 171 154 154
171 154 154 171 154 154 171 154 154 171 154 154 170 153 153 170 153
153 170 153 153 170 153 153 170 153 153 170 153 153 170 153 153 170
153 153 170 153 153 170 153 153 169 153 153 169 152 152 169 152 152
169 152 152 169 152 152 169 152 152 169 152 152 169 152 152 169 152
152 169 152 152 168 152 152 168 152 152 168 151 151 168 151 151 168
151 151 168 151 151 168 151 151 168 151 151 168 151 151 168 151 151
167 151 151 167 151 151 167 150 150 167 150 150 167 150 150 167 150
150 167 150 150 167 150 150 167 150 150
180 162 162 180 162 162 180 162 162 180 162 162 179 161 161 179 161
161 179 161 161 179 161 161 179 161 161 179 161 161 179 161 161 179
161 161 179 161 161 178 161 161 178 161 161 178 160 160 178 160 160
178 160 160 178 160 160 178 160 160 178 160 160 178 160 160 178 160
160 177 160 160 177 160 160 177 159 159 177 159 159 177 159 159 177
159 159 177 159 159 177 159 159 177 159 159 176 159 159 176 159 159
176 159 159 176 159 159 176 158 158 176 158 158 176 158 158 176 158
158 176 158 158 176 158 158 175 158 158 175 158 158 175 158 158 175
158 158 175 158 158 175 157 157 175 157 157 175 157 157 175 157 157
175 157 157 174 157 157 174 157 157 174 157 157 174 157 157 174 157
157 174 156 156 174 156 156 174 156 156 174 156 156 173 156 156 173
156 156 173 156 156 173 156 156 173 156 156 173 156 156 173 156 156
173 155 155 173 155 155 173 155 155 172 155 155 172 155 155 172 155
155 172 155 155 172 155 155 172 155 155 172 155 155 172 155 155 172
154 154 172 154 154 171 154 154 171 154 154 171 154 154 171 154 154
171 154 154 171 154 154 171 154 154 171 154 154 171 154 154 170 153
153 170 153 153 170 153 153 170 153 153 170 153 153 170 153 153 170
153 153 170 153 153 170 153 153 170 153 153 169 153 153 169 152 152
169 152 152 169 152 152 169 152 152 169 152 152 169 152 152 169 152
152 169 152 152 169 152 152 168 152 152 168 152 152 168 151 151 168
151 151 168 151 151 168 151 151 168 151 151 168 151 151 168 151 151
168 151 151 167 151 151 167 151 151 167 151 151 167 150 150 167 150
150 167 150 150 167 150 150 167 150 150
180 162 162 180 162 162 180 162 162 180 162 162 179 161 161 179 161
161 179 161 161 179 161 161 179 161 161 179 161 161 179 161 161 179
161 161 179 161 161 179 161 161 178 161 161 178 160 160 178 160 160
178 160 160 178 160 160 178 160 160 178 160 160 178 160 160 178 160
160 177 160 160 177 160 160 177 160 160 177 159 159 177 159 159 177
159 159 177 159 159 177 159 159 177 159 159 177 159 159 176 159 159
176 159 159 176 159 159 176 159 159 176 158 158 176 158 158 176 158
158 176 158 158 176 158 158 175 158 158 175 158 158 175 158 158 175
158 158 175 158 158 175 157 157 175 157 157 175 157 157 175 157 157
175 157 157 174 157 157 174 157 157 174 157 157 174 157 157 174 157
157 174 157 157 174 156 156 174 156 156 174 156 156 174 156 156 173
156 156 173 156 156 173 156 156 173 156 156 173 156 156 173 156 156
173 156 156 173 155 155 173 155 155 173 155 155 172 155 155 172 155
155 172 155 155 172 155 155 172 155 155 172 155 155 172 155 155 172
155 155 172 154 154 172 154 154 171 154 154 171 154 154 171 154 154
171 154 154 171 154 154 171 154 154 171 154 154 171 154 154 171 154
154 170 153 153 170 153 153 170 153 153 170 153 153 170 153 153 170
153 153 170 153 153 170 153 153 170 153 153 170 153 153 169 153 153
169 152 152 169 152 152 169 152 152 169 152 152 169 152 152 169 152
152 169 152 152 169 152 152 169 152 152 168 152 152 168 152 152 168
151 151 168 151 151 168 151 151 168 151 151 168 151 151 168 151 151
168 151 151 168 151 151 167 151 151 167 151 151 167 151 151 167 150
150 167 150 150 167 150 150 167 150 150
180 162 162 180 162 162 180 162 162 180 162 162 179 162 162 179 161
161 179 161 161 179 161 161 179 161 161 179 161 161 179 161 161 179
161 161 179 161 161 179 161 161 178 161 161 178 160 160 178 160 160
178 160 160 178 160 160 178 160 160 178 160 160 178 160 160 178 160
160 178 160 160 177 160 160 177 160 160 177 159 159 177 159 159 177
159 159 177 159 159 177 159 159 177 159 159 177 159 159 176 159 159
176 159 159 176 159 159 176 159 159 176 158 158 176 158 158 176 158
158 176 158 158 176 158 158 176 158 158 175 158 158 175 158 158 175
158 158 175 158 158 175 158 158 175 157 157 175 157 157 175 157 157
175 157 157 175 157 157 174 157 157 174 157 157 174 157 157 174 157
157 174 157 157 174 157 157 174 156 156 174 156 156 174 156 156 174
156 156 173 156 156 173 156 156 173 156 156 173 156 156 173 156 156
173 156 156 173 156 156 173 155 155 173 155 155 173 155 155 172 155
155 172 155 155 172 155 155 172 155 155 172 155 155 172 155 155 172
155 155 172 155 155 172 154 154 171 154 154 171 154 154 171 154 154
171 154 154 171 154 154 171 154 154 171 154 154 171 154 154 171 154
154 171 154 154 170 153 153 170 153 153 170 153 153 170 153 153 170
153 153 170 153 153 170 153 153 170 153 153 170 153 153 170 153 153
169 153 153 169 152 152 169 152 152 169 152 152 169 152 152 169 152
152 169 152 152 169 152 152 169 152 152 169 152 152 169 152 152 168
152 152 168 151 151 168 151 151 168 151 151 168 151 151 168 151 151
168 151 151 168 151 151 168 151 151 168 151 151 167 151 151 167 151
151 167 150 150 167 150 150 167 150 150
180 162 162 180 162 162 180 162 162 180 162 162 179 162 162 179 161
161 179 161 161 179 161 161 179 161 161 179 161 161 179 161 161 179
161 161 179 161 161 179 161 161 178 161 161 178 161 161 178 160 160
178 160 160 178 160 160 178 160 160 178 160 160 178 160 160 178 160
160 178 160 160 177 160 160 177 160 160 177 160 160 177 159 159 177
159 159 177 159 159 177 159 159 177 159 159 177 159 159 177 159 159
176 159 159 176 159 159 176 159 159 176 159 159 176 158 158 176 158
158 176 158 158 176 158 158 176 158 158 176 158 158 175 158 158 175
158 158 175 158 158 175 158 158 175 158 158 175 157 157 175 157 157
175 157 157 175 157 157 174 157 157 174 157 157 174 157 157 174 157
157 174 157 157 174 157 157 174 157 157 174 156 156 174 156 156 174
156 156 173 156 156 173 156 156 173 156 156 173 156 156 173 156 156
173 156 156 173 156 156 173 156 156 173 155 155 173 155 155 172 155
155 172 155 155 172 155 155 172 155 155 172 155 155 172 155 155 172
155 155 172 155 155 172 155 155 172 154 154 171 154 154 171 154 154
171 154 154 171 154 154 171 154 154 171 154 154 171 154 154 171 154
154 171 154 154 171 154 154 170 153 153 170 153 153 170 153 153 170
153 153 170 153 153 170 153 153 170 153 153 170 153 153 170 153 153
170 153 153 170 153 153 169 152 152 169 152 152 169 152 152 169 152
152 169 152 152 169 152 152 169 152 152 169 152 152 169 152 152 169
152 152 168 152 152 168 151 151 168 151 151 168 151 151 168 151 151
168 151 151 168 151 151 168 151 151 168 151 151 168 151 151 167 151
151 167 151 151 167 151 151 167 150 150
