P3
256 256
255
0 32 0 0 32 0 32 32 0 32 32 0 33 32 0 33 32 0 0 32 0 0 32 0 0 32 0 0
32 0 33 32 0 33 32 0 33 32 0 33 32 0 0 32 0 0 32 0 33 32 0 0 32 0 33
32 0 33 32 0 0 32 0 33 32 0 0 32 0 0 32 0 33 32 0 33 32 0 33 32 0 0 32
0 0 32 0 33 33 0 0 33 0 33 33 0 33 33 0 0 33 0 33 33 0 0 33 0 0 33 0
33 33 0 0 33 0 33 33 0 33 33 0 0 33 0 0 33 0 0 33 0 0 33 0 33 33 0 33
33 0 33 33 0 33 33 0 0 33 0 0 33 0 0 33 0 0 33 0 33 33 0 33 33 0 0 33
0 33 33 0 0 33 0 0 33 0 33 33 0 0 33 0 33 33 0 33 33 0 0 33 0 33 33 0
0 33 0 0 33 0 33 33 0 33 33 0 33 33 0 33 33 0 0 33 0 0 33 0 0 33 0 0
33 0 33 33 0 33 33 0 33 33 0 33 33 0 0 33 0 0 33 0 33 33 0 0 33 0 33
33 0 33 33 0 0 33 0 33 33 0 0 33 0 0 33 0 33 33 0 33 33 0 33 33 0 0 33
0 0 33 0 33 33 0 0 33 0 33 33 0 33 33 0 0 33 0 33 33 0 0 33 0 0 33 0
33 33 0 0 33 0 33 33 0 33 33 0 0 33 0 0 33 0 0 33 0 0 33 0 33 33 0 33
33 0 33 33 0 33 33 0 0 33 0 0 33 0 0 33 0 0 33 0 33 33 0 33 33 0 0 33
0 33 33 0 0 33 0 0 33 0 33 33 0 0 33 0 33 33 0 33 33 0 0 33 0 33 33 0
0 33 0 0 33 0 33 33 0 33 33 0 33 33 0 33 33 0 0 33 0 0 33 0 0 33 0 0
33 0 33 33 0 33 33 0 33 33 0 33 33 0 0 33 0 0 33 0 33 33 0 0 33 0 33
33 0 33 33 0 0 33 0 33 33 0 0 33 0 0 33 0 33 33 0 0 33 0 33 33 0 0 33
0 0 33 0 33 33 0 0 33 0 33 33 0 33 33 0 0 33 0 33 33 0 0 33 0 0 33 0
33 33 0 0 33 0 33 33 0 33 33 0 0 33 0 0 33 0 0 33 0 0 33 0 33 33 0 33
33 0 33 33 0 33 33 0 0 33 0 0 33 0 0 33 0 0 33 0 33 33 0 33 33 0 0 33
0 33 33 0 0 33 0 0 33 0 33 33 0 0 33 0 33 33 0 33 33 0 0 33 0 33 33 0
0 33 0 0 33 0 33 33 0 33 33 0 33 33 0 33 33 0 0 33 0 0 33 0 0 33 0 0
33 0 33 33 0 33 33 0 33 33 0 33 33 0 0 33 0 0 33 0 0 33 0 0 33 0 33 33
0 33 33 0 0 33 0 33 33 0 0 33 0 0 33 0 33 33 0 0 33 0 33 33 0 0 33 0 0
33 0 0 33 0 0 33 0 33 33 0 33 33 0 0 33 0 33 33 0 0 33 0 0 33 0 33 33
0 0 33 0 32 33 0 32 32 0 0 32 0 32 32 0 0 32 0 0 32 0 32 32 0 32 32 0
32 32 0 32 32 0 0 32 0 0 32 0 0 32 0 0 32 0 32 32 0 32 32 0 32 32 0 32
32 0 0 32 0 0 32 0 32 32 0 0 32 0
34 34 0 34 34 0 34 34 0 34 34 0 0 34 0 34 34 0 34 34 0 0 34 0 0 34 0
34 34 0 0 34 0 0 34 0 34 34 0 34 34 0 0 34 0 34 34 0 34 34 0 0 34 0 0
34 0 34 34 0 0 34 0 0 34 0 34 34 0 34 34 0 0 34 0 34 34 0 34 34 0 0 34
0 0 34 0 34 34 0 0 34 0 0 34 0 34 34 0 34 34 0 0 34 0 0 34 0 35 34 0 0
34 0 0 34 0 35 34 0 35 34 0 0 34 0 35 34 0 35 34 0 0 34 0 0 34 0 35 34
0 0 34 0 0 34 0 35 34 0 35 34 0 0 34 0 35 34 0 35 34 0 0 34 0 0 34 0
35 34 0 0 34 0 0 34 0 35 34 0 35 34 0 0 34 0 35 34 0 35 34 0 0 34 0 0
34 0 35 34 0 35 34 0 0 34 0 0 34 0 0 34 0 35 34 0 35 34 0 0 35 0 35 35
0 35 35 0 0 35 0 0 35 0 35 35 0 0 35 0 0 35 0 35 35 0 35 35 0 0 35 0
35 35 0 35 35 0 0 35 0 0 35 0 35 35 0 0 35 0 0 35 0 35 35 0 35 35 0 0
35 0 35 35 0 35 35 0 0 35 0 0 35 0 35 35 0 0 35 0 0 35 0 35 35 0 35 35
0 0 35 0 0 35 0 35 35 0 0 35 0 0 35 0 35 35 0 35 35 0 0 35 0 35 35 0
35 35 0 0 35 0 0 35 0 35 35 0 0 35 0 0 35 0 35 35 0 35 35 0 0 35 0 35
35 0 35 35 0 0 35 0 0 35 0 35 35 0 0 35 0 0 35 0 35 35 0 35 35 0 0 35
0 35 35 0 35 35 0 0 35 0 0 35 0 35 35 0 0 35 0 35 35 0 0 35 0 0 35 0
35 35 0 35 35 0 0 35 0 35 35 0 35 35 0 0 35 0 0 35 0 35 35 0 0 35 0 0
35 0 35 35 0 35 35 0 0 35 0 35 35 0 35 35 0 0 35 0 0 35 0 35 35 0 0 35
0 0 35 0 35 35 0 35 35 0 0 35 0 35 35 0 35 35 0 0 35 0 0 35 0 35 35 0
35 35 0 0 35 0 35 35 0 35 35 0 0 35 0 0 35 0 35 35 0 0 35 0 0 35 0 35
35 0 35 35 0 0 35 0 35 35 0 35 35 0 0 35 0 0 35 0 35 35 0 0 35 0 0 35
0 35 35 0 35 35 0 0 35 0 35 35 0 35 35 0 0 35 0 0 34 0 35 34 0 0 34 0
0 34 0 34 34 0 34 34 0 0 34 0 34 34 0 34 34 0 0 34 0 34 34 0 0 34 0 0
34 0 34 34 0 0 34 0 0 34 0 34 34 0 34 34 0 0 34 0 34 34 0 34 34 0 0 34
0 0 34 0 34 34 0 0 34 0 0 34 0 34 34 0 34 34 0 0 34 0 34 34 0 34 34 0
0 34 0 0 34 0 34 34 0 0 34 0 0 34 0 34 34 0 34 34 0 0 34 0 34 34 0 34
34 0 0 34 0 0 34 0 34 34 0 34 34 0 0 34 0 34 34 0 34 34 0 0 34 0 0 34
0 34 34 0 0 34 0 0 34 0 34 34 0 34 34 0 0 34 0 34 34 0 34 34 0 0 34 0
0 34 0 34 34 0 0 34 0 0 34 0
0 35 0 0 35 0 36 35 0 0 35 0 0 35 0 36 35 0 0 35 0 36 35 0 0 35 0 0 35
0 36 35 0 0 35 0 0 35 0 0 35 0 36 35 0 36 35 0 0 35 0 36 35 0 36 35 0
0 35 0 0 35 0 0 35 0 36 35 0 0 35 0 0 35 0 36 35 0 0 35 0 0 35 0 0 35
0 36 35 0 36 35 0 0 35 0 36 35 0 36 35 0 0 35 0 36 36 0 0 36 0 36 36 0
36 36 0 0 36 0 36 36 0 36 36 0 36 36 0 0 36 0 0 36 0 36 36 0 0 36 0 0
36 0 36 36 0 0 36 0 36 36 0 0 36 0 36 36 0 36 36 0 0 36 0 36 36 0 36
36 0 36 36 0 0 36 0 0 36 0 36 36 0 36 36 0 0 36 0 37 36 0 0 36 0 37 36
0 0 36 0 0 36 0 37 36 0 0 36 0 0 36 0 37 36 0 37 36 0 37 36 0 0 36 0
37 36 0 37 36 0 0 36 0 37 36 0 0 36 0 37 36 0 0 36 0 0 36 0 37 36 0 0
36 0 0 36 0 0 36 0 37 36 0 37 36 0 0 36 0 0 36 0 37 36 0 0 36 0 0 36 0
0 36 0 37 36 0 37 36 0 0 36 0 37 36 0 37 36 0 0 36 0 0 36 0 0 36 0 37
36 0 0 36 0 0 36 0 37 36 0 0 36 0 37 36 0 0 36 0 37 36 0 37 36 0 0 36
0 37 36 0 37 36 0 0 36 0 0 36 0 0 36 0 37 36 0 37 36 0 0 36 0 37 36 0
37 36 0 37 36 0 0 36 0 0 36 0 37 36 0 0 36 0 0 36 0 37 36 0 37 36 0 37
36 0 0 36 0 37 36 0 37 36 0 0 36 0 37 36 0 37 36 0 37 36 0 0 36 0 0 36
0 37 36 0 0 36 0 0 36 0 37 36 0 0 36 0 37 36 0 0 36 0 0 36 0 37 36 0 0
36 0 0 36 0 0 36 0 37 36 0 37 36 0 0 36 0 37 36 0 37 36 0 0 36 0 37 36
0 0 36 0 37 36 0 0 36 0 0 36 0 37 36 0 0 36 0 0 36 0 0 36 0 36 36 0 36
36 0 0 36 0 36 36 0 36 36 0 0 36 0 36 36 0 0 36 0 36 36 0 36 36 0 0 36
0 36 36 0 36 36 0 0 36 0 0 36 0 0 36 0 36 36 0 0 36 0 0 36 0 36 36 0 0
36 0 36 36 0 0 36 0 36 36 0 36 36 0 0 36 0 36 36 0 36 36 0 36 36 0 0
36 0 0 36 0 36 36 0 36 36 0 0 36 0 36 36 0 0 36 0 36 36 0 0 36 0 0 36
0 36 36 0 0 36 0 0 36 0 36 36 0 36 36 0 36 36 0 0 36 0 36 36 0 36 36 0
0 36 0 36 36 0 0 36 0 36 36 0 0 36 0 0 36 0 36 36 0 0 36 0 0 36 0 0 36
0 36 36 0 36 36 0 0 36 0 0 36 0 35 36 0 0 36 0 0 36 0 0 35 0 35 35 0
35 35 0 0 35 0 35 35 0 35 35 0 0 35 0 0 35 0 0 35 0 35 35 0 0 35 0 0
35 0 35 35 0 0 35 0 35 35 0 0 35 0 35 35 0 35 35 0 0 35 0 35 35 0 35
35 0 0 35 0 35 35 0
37 36 0 37 36 0 0 36 0 37 36 0 37 36 0 37 36 0 0 36 0 37 36 0 0 36 0
37 36 0 0 36 0 0 36 0 0 37 0 37 37 0 0 37 0 0 37 0 0 37 0 37 37 0 37
37 0 0 37 0 0 37 0 0 37 0 38 37 0 0 37 0 0 37 0 0 37 0 38 37 0 0 37 0
0 37 0 0 37 0 38 37 0 38 37 0 0 37 0 0 37 0 0 37 0 38 37 0 0 37 0 0 37
0 0 37 0 38 37 0 0 37 0 38 37 0 0 37 0 38 37 0 38 37 0 38 37 0 0 37 0
38 37 0 38 37 0 38 37 0 0 37 0 0 37 0 38 37 0 38 37 0 38 37 0 0 37 0
38 37 0 38 37 0 38 37 0 0 37 0 38 37 0 0 37 0 38 37 0 0 37 0 0 37 0 0
37 0 38 37 0 0 37 0 0 37 0 0 38 0 38 38 0 38 38 0 0 38 0 0 38 0 0 38 0
38 38 0 0 38 0 0 38 0 0 38 0 38 38 0 0 38 0 38 38 0 0 38 0 38 38 0 38
38 0 38 38 0 0 38 0 38 38 0 38 38 0 38 38 0 0 38 0 0 38 0 38 38 0 38
38 0 38 38 0 0 38 0 38 38 0 39 38 0 39 38 0 0 38 0 39 38 0 0 38 0 39
38 0 0 38 0 0 38 0 0 38 0 39 38 0 0 38 0 0 38 0 0 38 0 39 38 0 39 38 0
0 38 0 0 38 0 0 38 0 39 38 0 0 38 0 0 38 0 0 38 0 39 38 0 0 38 0 39 38
0 0 38 0 39 38 0 39 38 0 39 38 0 0 38 0 38 38 0 38 38 0 38 38 0 0 38 0
0 38 0 38 38 0 38 38 0 38 38 0 0 38 0 38 38 0 38 38 0 38 38 0 0 38 0
38 38 0 0 38 0 38 38 0 0 38 0 0 38 0 0 38 0 38 38 0 0 38 0 0 38 0 0 38
0 38 38 0 38 38 0 0 38 0 0 38 0 0 38 0 38 38 0 0 38 0 0 38 0 0 38 0 38
38 0 0 38 0 38 38 0 0 38 0 38 38 0 38 38 0 38 38 0 0 38 0 38 38 0 38
38 0 38 38 0 0 38 0 0 38 0 38 38 0 38 38 0 38 38 0 0 38 0 38 38 0 38
38 0 38 38 0 0 38 0 38 38 0 0 38 0 38 38 0 0 38 0 0 38 0 0 38 0 38 38
0 0 38 0 0 38 0 0 38 0 38 38 0 38 38 0 0 38 0 0 38 0 0 38 0 38 38 0 0
38 0 0 38 0 0 38 0 38 38 0 0 38 0 38 37 0 0 37 0 38 37 0 37 37 0 37 37
0 0 37 0 37 37 0 37 37 0 37 37 0 0 37 0 0 37 0 37 37 0 37 37 0 37 37 0
0 37 0 37 37 0 37 37 0 37 37 0 0 37 0 37 37 0 0 37 0 37 37 0 0 37 0 0
37 0 37 37 0 37 37 0 37 37 0 0 37 0 37 37 0 37 37 0 37 37 0 0 37 0 37
37 0 0 37 0 37 37 0 0 37 0 0 37 0 0 37 0 37 37 0 0 37 0 0 37 0 0 37 0
37 37 0 37 37 0 0 37 0 0 37 0 0 37 0 37 37 0 0 37 0 0 37 0 0 37 0 36
37 0 0 37 0 36 37 0 0 37 0
0 38 0 39 38 0 39 38 0 0 38 0 0 38 0 0 38 0 39 38 0 0 38 0 39 38 0 0
38 0 39 38 0 39 38 0 39 38 0 0 38 0 0 38 0 0 38 0 39 38 0 39 38 0 0 38
0 0 38 0 0 38 0 39 38 0 0 38 0 39 38 0 0 38 0 39 38 0 39 38 0 39 38 0
0 38 0 0 38 0 0 38 0 39 38 0 39 38 0 0 38 0 0 38 0 0 38 0 39 38 0 0 38
0 40 38 0 0 38 0 40 38 0 40 39 0 40 39 0 0 39 0 0 39 0 0 39 0 40 39 0
40 39 0 0 39 0 0 39 0 0 39 0 40 39 0 0 39 0 40 39 0 0 39 0 40 39 0 40
39 0 40 39 0 0 39 0 0 39 0 0 39 0 40 39 0 40 39 0 0 39 0 0 39 0 0 39 0
40 39 0 0 39 0 40 39 0 0 39 0 40 39 0 40 39 0 40 39 0 0 39 0 0 39 0 40
39 0 40 39 0 40 39 0 0 39 0 0 39 0 0 39 0 40 39 0 0 39 0 40 39 0 0 39
0 40 39 0 40 39 0 40 39 0 0 39 0 0 39 0 40 39 0 40 39 0 40 39 0 0 39 0
0 39 0 0 39 0 40 39 0 0 39 0 40 39 0 0 39 0 40 39 0 40 39 0 40 39 0 0
39 0 0 39 0 40 39 0 40 39 0 40 39 0 0 39 0 0 39 0 0 39 0 40 40 0 0 40
0 40 40 0 0 40 0 40 40 0 40 40 0 40 40 0 0 40 0 0 40 0 40 40 0 40 40 0
40 40 0 0 40 0 0 40 0 0 40 0 40 40 0 0 40 0 40 40 0 0 40 0 40 40 0 40
40 0 40 40 0 0 40 0 0 40 0 40 40 0 40 40 0 40 40 0 0 40 0 0 40 0 0 40
0 40 40 0 0 40 0 40 40 0 0 40 0 40 40 0 40 40 0 40 40 0 0 40 0 0 40 0
40 40 0 40 40 0 40 40 0 0 40 0 0 40 0 0 40 0 40 40 0 0 40 0 40 40 0 0
40 0 40 40 0 40 39 0 40 39 0 0 39 0 0 39 0 40 39 0 40 39 0 40 39 0 0
39 0 40 39 0 0 39 0 40 39 0 0 39 0 40 39 0 0 39 0 0 39 0 40 39 0 40 39
0 40 39 0 0 39 0 40 39 0 0 39 0 39 39 0 0 39 0 0 39 0 0 39 0 39 39 0
39 39 0 39 39 0 0 39 0 0 39 0 39 39 0 39 39 0 39 39 0 0 39 0 39 39 0 0
39 0 39 39 0 0 39 0 0 39 0 0 39 0 39 39 0 39 39 0 39 39 0 0 39 0 0 39
0 39 39 0 39 39 0 39 39 0 0 39 0 39 39 0 0 39 0 39 39 0 0 39 0 0 39 0
0 39 0 39 39 0 39 39 0 39 39 0 0 39 0 0 39 0 39 39 0 39 39 0 39 39 0 0
39 0 39 39 0 0 39 0 38 39 0 0 39 0 0 39 0 0 39 0 38 38 0 38 38 0 38 38
0 0 38 0 0 38 0 38 38 0 38 38 0 38 38 0 0 38 0 38 38 0 0 38 0 38 38 0
0 38 0 0 38 0 0 38 0 38 38 0 38 38 0 38 38 0 0 38 0 0 38 0 38 38 0 38
38 0 38 38 0 0 38 0 38 38 0
40 39 0 0 39 0 0 39 0 0 39 0 0 39 0 40 39 0 0 39 0 40 39 0 0 39 0 0 39
0 41 39 0 0 39 0 41 39 0 0 39 0 0 39 0 41 39 0 41 39 0 41 39 0 0 39 0
0 39 0 0 39 0 0 39 0 41 39 0 0 40 0 41 40 0 0 40 0 0 40 0 41 40 0 41
40 0 41 40 0 0 40 0 0 40 0 41 40 0 41 40 0 41 40 0 0 40 0 0 40 0 0 40
0 41 40 0 41 40 0 0 40 0 41 40 0 0 40 0 41 40 0 41 40 0 41 40 0 41 40
0 0 40 0 41 40 0 0 40 0 41 40 0 41 40 0 0 40 0 41 40 0 0 40 0 42 40 0
42 40 0 0 40 0 0 40 0 0 40 0 42 40 0 42 40 0 42 40 0 0 40 0 0 40 0 42
40 0 0 40 0 42 40 0 0 40 0 0 41 0 0 41 0 0 41 0 42 41 0 42 41 0 0 41 0
0 41 0 0 41 0 42 41 0 42 41 0 42 41 0 0 41 0 0 41 0 42 41 0 0 41 0 42
41 0 0 41 0 0 41 0 0 41 0 0 41 0 42 41 0 0 41 0 42 41 0 0 41 0 0 41 0
42 41 0 42 41 0 42 41 0 0 41 0 0 41 0 42 41 0 42 41 0 42 41 0 0 41 0 0
41 0 0 41 0 42 41 0 42 41 0 0 41 0 42 41 0 0 41 0 42 41 0 42 41 0 42
41 0 42 41 0 0 41 0 42 41 0 0 41 0 42 41 0 42 41 0 0 41 0 42 41 0 0 41
0 42 41 0 42 41 0 0 41 0 0 41 0 0 41 0 42 41 0 42 41 0 42 41 0 42 41 0
0 41 0 42 41 0 0 41 0 42 41 0 42 41 0 0 41 0 0 41 0 0 41 0 42 41 0 42
41 0 0 41 0 0 41 0 0 41 0 42 41 0 42 41 0 42 41 0 0 41 0 0 41 0 42 41
0 0 41 0 42 41 0 0 41 0 0 41 0 0 41 0 0 41 0 42 41 0 0 41 0 42 41 0 0
41 0 0 41 0 42 41 0 0 41 0 41 41 0 0 41 0 0 41 0 41 41 0 41 41 0 41 41
0 0 41 0 0 41 0 0 41 0 41 41 0 41 41 0 0 41 0 41 41 0 0 41 0 41 41 0
41 41 0 41 41 0 41 41 0 0 41 0 0 41 0 41 41 0 41 41 0 41 41 0 0 41 0 0
41 0 0 41 0 41 41 0 41 41 0 0 41 0 41 41 0 0 41 0 41 41 0 41 41 0 41
41 0 41 41 0 0 41 0 41 41 0 0 41 0 41 41 0 41 41 0 0 41 0 0 41 0 0 40
0 41 40 0 40 40 0 0 40 0 0 40 0 0 40 0 40 40 0 40 40 0 40 40 0 0 40 0
0 40 0 40 40 0 0 40 0 40 40 0 0 40 0 0 40 0 0 40 0 0 40 0 40 40 0 0 40
0 40 40 0 0 40 0 0 40 0 40 40 0 0 40 0 40 40 0 0 40 0 0 40 0 40 40 0
40 40 0 40 40 0 0 40 0 0 40 0 0 40 0 0 40 0 40 40 0 0 40 0 40 40 0 0
40 0 0 40 0 39 40 0 39 40 0 39 40 0 0 40 0 0 40 0 39 40 0 39 39 0 39
39 0 0 39 0 0 39 0 0 39 0
42 40 0 42 40 0 42 40 0 0 40 0 0 40 0 42 40 0 0 40 0 42 40 0 42 40 0 0
41 0 0 41 0 0 41 0 42 41 0 42 41 0 0 41 0 42 41 0 0 41 0 0 41 0 42 41
0 42 41 0 42 41 0 42 41 0 0 41 0 0 41 0 0 41 0 43 41 0 43 41 0 0 41 0
0 41 0 0 41 0 0 41 0 43 41 0 43 41 0 0 41 0 43 41 0 0 41 0 0 41 0 43
41 0 43 41 0 43 41 0 0 41 0 0 41 0 43 41 0 0 41 0 43 41 0 43 41 0 0 41
0 0 42 0 0 42 0 43 42 0 43 42 0 0 42 0 43 42 0 0 42 0 0 42 0 43 42 0
43 42 0 43 42 0 43 42 0 0 42 0 0 42 0 0 42 0 43 42 0 43 42 0 0 42 0 0
42 0 0 42 0 0 42 0 43 42 0 43 42 0 0 42 0 43 42 0 0 42 0 0 42 0 44 42
0 44 42 0 44 42 0 0 42 0 0 42 0 44 42 0 0 42 0 44 42 0 44 42 0 0 42 0
0 42 0 0 42 0 44 42 0 44 42 0 0 42 0 44 42 0 0 42 0 0 42 0 44 42 0 44
42 0 44 42 0 44 42 0 0 42 0 0 42 0 0 42 0 44 42 0 44 42 0 0 43 0 0 43
0 0 43 0 0 43 0 44 43 0 44 43 0 0 43 0 44 43 0 0 43 0 0 43 0 44 43 0
44 43 0 44 43 0 0 43 0 0 43 0 44 43 0 0 43 0 44 43 0 44 43 0 0 43 0 0
43 0 0 43 0 44 43 0 44 43 0 0 43 0 44 43 0 0 43 0 0 43 0 44 43 0 44 43
0 44 43 0 44 43 0 0 43 0 0 43 0 0 43 0 44 43 0 44 43 0 0 43 0 0 43 0 0
43 0 0 43 0 43 43 0 43 43 0 0 43 0 43 43 0 0 43 0 0 43 0 43 43 0 43 43
0 43 43 0 0 43 0 0 43 0 43 43 0 0 43 0 43 43 0 43 43 0 0 43 0 0 43 0 0
43 0 43 43 0 43 43 0 0 43 0 43 43 0 0 43 0 0 43 0 43 43 0 43 43 0 43
43 0 43 43 0 0 43 0 0 43 0 0 43 0 43 43 0 43 42 0 0 42 0 0 42 0 0 42 0
0 42 0 43 42 0 43 42 0 0 42 0 43 42 0 0 42 0 0 42 0 43 42 0 43 42 0 43
42 0 0 42 0 0 42 0 42 42 0 0 42 0 42 42 0 42 42 0 0 42 0 0 42 0 0 42 0
42 42 0 42 42 0 0 42 0 42 42 0 0 42 0 0 42 0 42 42 0 42 42 0 42 42 0
42 42 0 0 42 0 0 42 0 0 42 0 42 42 0 42 42 0 0 42 0 0 42 0 0 42 0 0 42
0 42 42 0 42 42 0 0 42 0 42 42 0 0 42 0 0 42 0 42 42 0 42 42 0 41 42 0
0 42 0 0 42 0 41 42 0 0 41 0 41 41 0 41 41 0 0 41 0 0 41 0 0 41 0 41
41 0 41 41 0 0 41 0 41 41 0 0 41 0 0 41 0 41 41 0 41 41 0 41 41 0 41
41 0 0 41 0 0 41 0 0 41 0 41 41 0 41 41 0 0 41 0 0 41 0 0 41 0 0 41 0
41 41 0 41 41 0 0 41 0
44 42 0 44 42 0 44 42 0 44 42 0 0 42 0 0 42 0 0 42 0 0 42 0 44 42 0 44
42 0 0 42 0 44 42 0 0 42 0 0 42 0 44 42 0 44 42 0 44 42 0 44 42 0 0 42
0 0 42 0 44 42 0 0 42 0 44 42 0 44 42 0 0 42 0 0 42 0 0 42 0 0 42 0 44
42 0 44 42 0 0 42 0 44 43 0 0 43 0 0 43 0 45 43 0 45 43 0 45 43 0 45
43 0 0 43 0 0 43 0 45 43 0 0 43 0 45 43 0 45 43 0 0 43 0 0 43 0 0 43 0
0 43 0 45 43 0 45 43 0 0 43 0 45 43 0 0 43 0 0 43 0 45 43 0 45 43 0 45
43 0 45 43 0 0 43 0 0 43 0 45 43 0 0 43 0 45 43 0 45 43 0 0 43 0 0 43
0 45 43 0 0 43 0 45 43 0 45 43 0 0 43 0 0 44 0 0 44 0 0 44 0 45 44 0
45 44 0 0 44 0 45 44 0 0 44 0 0 44 0 45 44 0 45 44 0 45 44 0 45 44 0 0
44 0 0 44 0 45 44 0 0 44 0 45 44 0 45 44 0 0 44 0 0 44 0 45 44 0 0 44
0 0 44 0 45 44 0 45 44 0 45 44 0 45 44 0 0 44 0 0 44 0 45 44 0 0 44 0
45 44 0 45 44 0 0 44 0 0 44 0 0 44 0 0 44 0 45 44 0 45 44 0 0 44 0 45
44 0 0 44 0 0 44 0 45 44 0 45 44 0 45 44 0 45 44 0 0 44 0 0 44 0 45 44
0 0 44 0 45 44 0 45 44 0 0 44 0 0 44 0 0 44 0 0 44 0 45 44 0 45 44 0 0
44 0 45 44 0 0 44 0 0 44 0 45 44 0 45 44 0 45 44 0 45 44 0 0 44 0 0 44
0 45 44 0 0 44 0 45 44 0 45 44 0 0 44 0 0 44 0 0 44 0 0 44 0 45 44 0
45 44 0 0 44 0 0 44 0 0 44 0 0 44 0 45 44 0 45 44 0 0 44 0 45 44 0 0
44 0 0 44 0 45 44 0 45 44 0 45 44 0 45 44 0 0 44 0 0 44 0 45 44 0 0 44
0 45 44 0 45 44 0 0 44 0 0 44 0 0 44 0 0 44 0 44 44 0 44 44 0 0 44 0
44 44 0 44 44 0 0 44 0 0 44 0 44 44 0 0 44 0 44 44 0 44 44 0 0 44 0 0
44 0 0 44 0 0 44 0 44 44 0 44 44 0 0 44 0 44 44 0 0 44 0 0 44 0 44 44
0 44 44 0 44 44 0 44 44 0 0 44 0 0 44 0 44 44 0 0 44 0 44 44 0 44 44 0
0 43 0 0 43 0 0 43 0 0 43 0 43 43 0 43 43 0 0 43 0 43 43 0 0 43 0 0 43
0 43 43 0 43 43 0 43 43 0 43 43 0 0 43 0 0 43 0 43 43 0 0 43 0 43 43 0
43 43 0 0 43 0 0 43 0 0 43 0 0 43 0 43 43 0 43 43 0 0 43 0 43 43 0 0
43 0 0 43 0 43 43 0 42 43 0 42 43 0 42 43 0 0 43 0 0 43 0 42 43 0 42
43 0 42 43 0 42 43 0 0 42 0 0 42 0 42 42 0 0 42 0 42 42 0 42 42 0 0 42
0 0 42 0 0 42 0 0 42 0
45 43 0 0 43 0 0 43 0 45 43 0 0 43 0 45 43 0 45 43 0 0 43 0 0 43 0 45
43 0 0 43 0 0 43 0 46 43 0 46 43 0 0 43 0 46 43 0 0 43 0 0 43 0 46 43
0 46 44 0 0 44 0 46 44 0 46 44 0 0 44 0 0 44 0 46 44 0 0 44 0 46 44 0
46 44 0 0 44 0 0 44 0 46 44 0 0 44 0 0 44 0 46 44 0 46 44 0 0 44 0 46
44 0 0 44 0 0 44 0 46 44 0 46 44 0 0 44 0 46 44 0 46 44 0 0 44 0 0 44
0 47 44 0 0 44 0 47 44 0 47 44 0 0 44 0 0 44 0 47 45 0 0 45 0 0 45 0
47 45 0 47 45 0 0 45 0 47 45 0 0 45 0 0 45 0 47 45 0 47 45 0 0 45 0 47
45 0 47 45 0 0 45 0 0 45 0 47 45 0 0 45 0 47 45 0 47 45 0 0 45 0 0 45
0 47 45 0 0 45 0 0 45 0 47 45 0 47 45 0 0 45 0 47 45 0 0 45 0 0 45 0
47 45 0 47 45 0 0 45 0 47 45 0 0 45 0 0 45 0 0 45 0 47 45 0 0 45 0 47
45 0 47 45 0 0 45 0 0 45 0 47 45 0 0 45 0 47 45 0 47 46 0 47 46 0 0 46
0 47 46 0 0 46 0 0 46 0 47 46 0 47 46 0 0 46 0 47 46 0 0 46 0 0 46 0 0
46 0 47 46 0 0 46 0 47 46 0 47 46 0 0 46 0 0 46 0 47 46 0 0 46 0 47 46
0 47 46 0 47 46 0 0 46 0 47 46 0 0 46 0 0 46 0 47 46 0 47 46 0 0 46 0
47 46 0 0 46 0 0 46 0 0 46 0 47 46 0 0 46 0 47 46 0 47 46 0 0 46 0 0
46 0 47 46 0 0 46 0 47 46 0 47 46 0 47 46 0 0 46 0 47 46 0 0 46 0 0 46
0 47 46 0 47 46 0 0 46 0 47 46 0 0 46 0 0 46 0 0 46 0 47 46 0 0 46 0
46 46 0 46 46 0 0 46 0 0 46 0 46 46 0 0 46 0 46 46 0 46 46 0 46 46 0 0
46 0 46 46 0 0 46 0 0 46 0 46 46 0 46 46 0 0 46 0 46 46 0 0 46 0 0 46
0 0 46 0 46 45 0 0 45 0 46 45 0 46 45 0 0 45 0 0 45 0 46 45 0 0 45 0
46 45 0 46 45 0 0 45 0 0 45 0 46 45 0 0 45 0 0 45 0 45 45 0 45 45 0 0
45 0 45 45 0 0 45 0 0 45 0 45 45 0 45 45 0 0 45 0 45 45 0 45 45 0 0 45
0 0 45 0 0 45 0 0 45 0 45 45 0 45 45 0 0 45 0 0 45 0 45 45 0 0 45 0 0
45 0 45 45 0 45 45 0 45 45 0 45 45 0 0 45 0 0 45 0 44 45 0 44 45 0 0
45 0 44 45 0 44 44 0 0 44 0 0 44 0 0 44 0 0 44 0 44 44 0 44 44 0 0 44
0 0 44 0 44 44 0 0 44 0 0 44 0 44 44 0 44 44 0 44 44 0 44 44 0 0 44 0
0 44 0 44 44 0 44 44 0 0 44 0 43 44 0 43 44 0 0 44 0 0 44 0 0 44 0 0
44 0 43 44 0 43 44 0 0 44 0
47 44 0 47 44 0 47 44 0 47 44 0 47 44 0 0 44 0 0 44 0 47 44 0 47 44 0
0 44 0 47 45 0 47 45 0 0 45 0 0 45 0 47 45 0 0 45 0 0 45 0 47 45 0 47
45 0 0 45 0 0 45 0 48 45 0 0 45 0 0 45 0 48 45 0 48 45 0 48 45 0 48 45
0 48 45 0 0 45 0 0 45 0 48 45 0 0 45 0 48 45 0 48 45 0 48 45 0 0 45 0
0 45 0 0 45 0 0 46 0 0 46 0 48 46 0 48 46 0 0 46 0 48 46 0 0 46 0 0 46
0 0 46 0 48 46 0 48 46 0 48 46 0 48 46 0 0 46 0 0 46 0 0 46 0 48 46 0
0 46 0 49 46 0 49 46 0 0 46 0 0 46 0 0 46 0 0 46 0 0 46 0 49 46 0 49
46 0 49 46 0 0 46 0 49 46 0 0 46 0 0 46 0 49 46 0 49 46 0 49 46 0 49
46 0 49 47 0 0 47 0 0 47 0 49 47 0 49 47 0 0 47 0 49 47 0 49 47 0 0 47
0 0 47 0 0 47 0 0 47 0 0 47 0 49 47 0 49 47 0 0 47 0 0 47 0 49 47 0 0
47 0 0 47 0 49 47 0 49 47 0 0 47 0 49 47 0 49 47 0 0 47 0 0 47 0 49 47
0 0 47 0 49 47 0 49 47 0 49 47 0 0 47 0 0 47 0 0 47 0 0 47 0 0 47 0 49
47 0 49 47 0 0 47 0 49 47 0 0 47 0 0 47 0 0 47 0 49 47 0 49 47 0 49 47
0 49 47 0 0 47 0 0 47 0 0 47 0 49 47 0 0 47 0 49 47 0 49 47 0 49 47 0
0 47 0 0 47 0 0 47 0 0 47 0 49 47 0 49 47 0 49 47 0 0 47 0 49 47 0 0
47 0 0 47 0 49 47 0 48 47 0 48 47 0 48 47 0 48 47 0 0 47 0 0 47 0 48
47 0 48 47 0 0 47 0 48 47 0 48 47 0 0 47 0 0 47 0 0 47 0 0 47 0 0 47 0
48 47 0 48 47 0 0 47 0 0 47 0 48 47 0 0 47 0 0 47 0 48 47 0 48 47 0 0
47 0 48 47 0 48 47 0 0 47 0 0 47 0 48 47 0 0 47 0 0 47 0 48 47 0 48 47
0 0 47 0 0 47 0 0 47 0 0 47 0 0 47 0 47 47 0 47 47 0 0 47 0 47 47 0 0
47 0 0 47 0 0 47 0 47 47 0 47 47 0 47 47 0 47 47 0 0 47 0 0 47 0 0 47
0 47 47 0 0 47 0 47 47 0 47 47 0 47 47 0 0 47 0 0 47 0 0 47 0 0 46 0
47 46 0 46 46 0 46 46 0 0 46 0 46 46 0 0 46 0 0 46 0 46 46 0 46 46 0
46 46 0 46 46 0 46 46 0 0 46 0 0 46 0 0 46 0 46 46 0 0 46 0 46 46 0 46
46 0 0 46 0 0 46 0 0 46 0 0 46 0 0 46 0 46 46 0 45 46 0 0 46 0 0 46 0
45 46 0 0 46 0 0 46 0 45 46 0 45 46 0 0 46 0 45 46 0 45 45 0 0 45 0 0
45 0 45 45 0 45 45 0 0 45 0 45 45 0 45 45 0 0 45 0 0 45 0 0 45 0 0 45
0 0 45 0 45 45 0 44 45 0
0 45 0 0 45 0 0 46 0 0 46 0 0 46 0 49 46 0 49 46 0 0 46 0 0 46 0 49 46
0 0 46 0 0 46 0 49 46 0 49 46 0 49 46 0 49 46 0 49 46 0 0 46 0 0 46 0
0 46 0 49 46 0 0 46 0 0 46 0 49 46 0 49 46 0 0 46 0 0 46 0 0 46 0 0 46
0 0 47 0 50 47 0 50 47 0 50 47 0 0 47 0 50 47 0 0 47 0 0 47 0 0 47 0
50 47 0 50 47 0 50 47 0 50 47 0 50 47 0 0 47 0 0 47 0 50 47 0 50 47 0
0 47 0 50 47 0 50 47 0 50 47 0 0 47 0 0 47 0 0 47 0 0 47 0 0 47 0 50
47 0 50 47 0 0 47 0 50 48 0 50 48 0 0 48 0 0 48 0 50 48 0 50 48 0 50
48 0 50 48 0 50 48 0 0 48 0 0 48 0 0 48 0 51 48 0 0 48 0 51 48 0 51 48
0 51 48 0 0 48 0 0 48 0 51 48 0 0 48 0 0 48 0 51 48 0 51 48 0 51 48 0
0 48 0 51 48 0 0 48 0 0 48 0 0 48 0 51 48 0 51 48 0 51 48 0 51 48 0 51
48 0 0 48 0 0 48 0 51 48 0 51 48 0 0 48 0 51 48 0 51 48 0 0 48 0 0 49
0 0 49 0 0 49 0 0 49 0 51 49 0 51 49 0 51 49 0 0 49 0 51 49 0 51 49 0
0 49 0 0 49 0 51 49 0 51 49 0 51 49 0 51 49 0 51 49 0 0 49 0 0 49 0 0
49 0 51 49 0 0 49 0 51 49 0 51 49 0 50 49 0 0 49 0 0 49 0 0 49 0 0 49
0 0 49 0 50 49 0 50 49 0 0 49 0 0 49 0 50 49 0 0 49 0 0 49 0 50 49 0
50 49 0 50 49 0 50 49 0 50 49 0 50 49 0 0 49 0 0 49 0 50 49 0 0 49 0 0
49 0 50 49 0 50 49 0 0 49 0 0 49 0 0 49 0 0 49 0 0 49 0 50 49 0 50 49
0 50 49 0 0 49 0 50 49 0 0 49 0 0 49 0 0 49 0 50 49 0 50 49 0 0 49 0
49 49 0 49 49 0 0 49 0 0 49 0 0 49 0 49 49 0 0 49 0 49 49 0 49 49 0 49
49 0 0 49 0 0 49 0 0 49 0 0 48 0 0 48 0 49 48 0 49 48 0 0 48 0 0 48 0
49 48 0 0 48 0 0 48 0 49 48 0 49 48 0 49 48 0 49 48 0 48 48 0 0 48 0 0
48 0 0 48 0 48 48 0 0 48 0 48 48 0 48 48 0 48 48 0 0 48 0 0 48 0 0 48
0 0 48 0 0 48 0 48 48 0 48 48 0 48 48 0 0 48 0 48 48 0 0 48 0 0 48 0 0
48 0 48 48 0 48 48 0 47 48 0 47 48 0 47 48 0 0 48 0 0 48 0 47 47 0 47
47 0 0 47 0 47 47 0 47 47 0 0 47 0 0 47 0 0 47 0 0 47 0 0 47 0 0 47 0
47 47 0 47 47 0 0 47 0 47 47 0 47 47 0 0 47 0 0 47 0 46 47 0 46 47 0
46 47 0 46 47 0 46 47 0 0 47 0 0 47 0 0 47 0 46 47 0 0 47 0 46 47 0 46
47 0 46 47 0 0 46 0 0 46 0
50 47 0 0 47 0 0 47 0 0 47 0 0 47 0 0 47 0 0 47 0 50 47 0 51 47 0 0 47
0 0 47 0 51 47 0 0 47 0 0 47 0 0 47 0 51 47 0 51 47 0 0 47 0 51 47 0
51 47 0 0 48 0 0 48 0 0 48 0 51 48 0 51 48 0 0 48 0 51 48 0 51 48 0 0
48 0 0 48 0 0 48 0 0 48 0 0 48 0 0 48 0 51 48 0 52 48 0 0 48 0 0 48 0
52 48 0 0 48 0 0 48 0 0 48 0 52 48 0 52 48 0 52 48 0 52 48 0 52 48 0 0
49 0 0 49 0 0 49 0 52 49 0 52 49 0 0 49 0 52 49 0 52 49 0 0 49 0 0 49
0 0 49 0 52 49 0 0 49 0 0 49 0 52 49 0 52 49 0 52 49 0 0 49 0 52 49 0
0 49 0 0 49 0 0 49 0 52 49 0 52 49 0 52 49 0 52 49 0 52 49 0 0 49 0 0
49 0 0 49 0 52 49 0 52 49 0 0 49 0 52 50 0 52 50 0 52 50 0 0 50 0 0 50
0 52 50 0 0 50 0 0 50 0 52 50 0 52 50 0 52 50 0 0 50 0 0 50 0 0 50 0 0
50 0 0 50 0 52 50 0 52 50 0 52 50 0 52 50 0 52 50 0 52 50 0 0 50 0 0
50 0 52 50 0 52 50 0 0 50 0 52 50 0 52 50 0 52 50 0 0 50 0 0 50 0 52
50 0 0 50 0 0 50 0 52 50 0 52 50 0 52 50 0 0 50 0 0 50 0 52 50 0 0 50
0 0 50 0 52 50 0 52 50 0 52 50 0 52 50 0 52 50 0 52 50 0 0 50 0 0 50 0
0 50 0 52 50 0 0 50 0 52 50 0 52 50 0 52 50 0 0 50 0 0 50 0 0 50 0 0
50 0 0 50 0 52 50 0 52 50 0 52 50 0 0 50 0 0 50 0 52 50 0 0 50 0 0 50
0 0 50 0 52 50 0 52 50 0 0 50 0 52 50 0 51 50 0 0 50 0 0 50 0 0 50 0
51 50 0 0 50 0 51 50 0 51 50 0 51 50 0 0 50 0 0 50 0 0 50 0 0 50 0 0
50 0 0 50 0 51 50 0 51 50 0 0 50 0 0 50 0 51 50 0 0 50 0 0 50 0 0 50 0
51 50 0 51 50 0 0 50 0 51 50 0 50 50 0 0 50 0 0 50 0 0 50 0 50 50 0 50
50 0 0 50 0 50 50 0 50 50 0 0 50 0 0 50 0 0 50 0 0 50 0 0 50 0 0 50 0
50 50 0 50 50 0 0 50 0 0 50 0 50 50 0 0 50 0 0 50 0 0 49 0 50 49 0 49
49 0 49 49 0 49 49 0 49 49 0 0 49 0 0 49 0 0 49 0 49 49 0 49 49 0 0 49
0 49 49 0 49 49 0 0 49 0 0 49 0 0 49 0 0 49 0 0 49 0 0 49 0 49 49 0 49
49 0 49 49 0 0 49 0 48 49 0 0 49 0 0 49 0 0 49 0 48 49 0 48 49 0 48 49
0 48 49 0 48 49 0 0 48 0 0 48 0 0 48 0 48 48 0 48 48 0 0 48 0 48 48 0
48 48 0 48 48 0 0 48 0 0 48 0 47 48 0 0 48 0 0 48 0 47 48 0 47 48 0 47
48 0 0 48 0 47 48 0
0 48 0 0 48 0 52 48 0 0 48 0 0 48 0 52 48 0 52 48 0 52 48 0 0 48 0 0
48 0 52 48 0 0 48 0 0 48 0 52 49 0 52 49 0 53 49 0 0 49 0 53 49 0 53
49 0 0 49 0 0 49 0 0 49 0 53 49 0 53 49 0 53 49 0 53 49 0 53 49 0 53
49 0 0 49 0 0 49 0 0 49 0 53 49 0 0 49 0 0 49 0 53 49 0 53 49 0 53 49
0 0 49 0 0 50 0 0 50 0 0 50 0 0 50 0 53 50 0 54 50 0 54 50 0 0 50 0 54
50 0 54 50 0 0 50 0 0 50 0 0 50 0 54 50 0 54 50 0 0 50 0 54 50 0 54 50
0 54 50 0 0 50 0 0 50 0 0 50 0 54 50 0 0 50 0 0 50 0 54 50 0 54 50 0 0
50 0 0 51 0 0 51 0 0 51 0 0 51 0 0 51 0 54 51 0 54 51 0 54 51 0 0 51 0
54 51 0 54 51 0 0 51 0 0 51 0 0 51 0 54 51 0 54 51 0 0 51 0 54 51 0 54
51 0 54 51 0 0 51 0 0 51 0 0 51 0 0 51 0 0 51 0 54 51 0 54 51 0 54 51
0 0 51 0 0 51 0 0 51 0 0 51 0 0 51 0 0 51 0 54 51 0 54 51 0 54 51 0 0
51 0 54 51 0 54 51 0 0 52 0 0 52 0 0 52 0 54 52 0 54 52 0 0 52 0 54 52
0 54 52 0 54 52 0 0 52 0 0 52 0 54 52 0 0 52 0 0 52 0 54 52 0 54 52 0
54 52 0 0 52 0 0 52 0 0 52 0 0 52 0 0 52 0 0 52 0 54 52 0 54 52 0 54
52 0 0 52 0 54 52 0 54 52 0 0 52 0 0 52 0 0 52 0 54 52 0 54 52 0 0 52
0 54 52 0 54 52 0 0 52 0 0 52 0 0 52 0 53 52 0 0 52 0 0 52 0 53 52 0
53 52 0 53 52 0 0 52 0 0 52 0 53 52 0 0 52 0 0 52 0 0 52 0 53 52 0 53
52 0 53 52 0 0 52 0 53 52 0 53 52 0 0 52 0 0 52 0 53 52 0 53 52 0 53
52 0 53 52 0 53 52 0 53 52 0 0 52 0 0 52 0 0 52 0 52 52 0 0 52 0 0 52
0 52 52 0 52 52 0 52 51 0 0 51 0 0 51 0 52 51 0 0 51 0 0 51 0 0 51 0
52 51 0 52 51 0 52 51 0 0 51 0 52 51 0 0 51 0 0 51 0 0 51 0 51 51 0 51
51 0 51 51 0 51 51 0 51 51 0 51 51 0 0 51 0 0 51 0 0 51 0 51 51 0 0 51
0 0 51 0 51 51 0 51 51 0 51 51 0 0 51 0 0 51 0 51 51 0 0 51 0 0 51 0 0
51 0 50 51 0 50 51 0 0 51 0 50 51 0 50 50 0 0 50 0 0 50 0 0 50 0 50 50
0 50 50 0 50 50 0 50 50 0 50 50 0 50 50 0 0 50 0 0 50 0 0 50 0 50 50 0
0 50 0 0 50 0 49 50 0 49 50 0 49 50 0 0 50 0 0 50 0 49 50 0 0 50 0 0
50 0 49 50 0 49 50 0 49 50 0 0 50 0 49 49 0 49 49 0 0 49 0 0 49 0 0 49
0 49 49 0 48 49 0 48 49 0
54 49 0 0 49 0 0 49 0 0 49 0 54 49 0 54 49 0 0 49 0 54 50 0 54 50 0 54
50 0 0 50 0 0 50 0 0 50 0 54 50 0 0 50 0 0 50 0 0 50 0 54 50 0 54 50 0
54 50 0 0 50 0 55 50 0 55 50 0 0 50 0 0 50 0 0 50 0 55 50 0 55 50 0 55
50 0 55 50 0 55 51 0 55 51 0 0 51 0 0 51 0 0 51 0 55 51 0 0 51 0 0 51
0 55 51 0 55 51 0 55 51 0 0 51 0 0 51 0 0 51 0 0 51 0 0 51 0 0 51 0 55
51 0 55 51 0 55 51 0 0 51 0 0 51 0 56 51 0 0 51 0 0 51 0 0 52 0 56 52
0 56 52 0 56 52 0 56 52 0 56 52 0 56 52 0 56 52 0 0 52 0 0 52 0 0 52 0
56 52 0 0 52 0 0 52 0 56 52 0 56 52 0 56 52 0 0 52 0 0 52 0 56 52 0 0
52 0 0 52 0 0 52 0 56 52 0 56 52 0 56 52 0 0 52 0 56 52 0 56 52 0 0 52
0 0 52 0 0 53 0 56 53 0 56 53 0 56 53 0 56 53 0 56 53 0 56 53 0 0 53 0
0 53 0 0 53 0 56 53 0 0 53 0 0 53 0 56 53 0 56 53 0 56 53 0 0 53 0 0
53 0 0 53 0 0 53 0 0 53 0 0 53 0 56 53 0 56 53 0 56 53 0 0 53 0 0 53 0
56 53 0 56 53 0 0 53 0 0 53 0 0 53 0 56 53 0 56 53 0 0 53 0 56 53 0 56
53 0 56 53 0 0 53 0 0 53 0 0 53 0 56 53 0 0 53 0 0 53 0 56 53 0 56 53
0 55 53 0 0 53 0 0 53 0 0 53 0 0 53 0 0 53 0 0 53 0 55 53 0 55 53 0 55
53 0 0 53 0 55 53 0 55 53 0 0 53 0 0 53 0 0 53 0 55 53 0 55 53 0 55 53
0 55 53 0 55 53 0 55 53 0 0 53 0 0 53 0 0 53 0 55 53 0 55 53 0 0 53 0
55 53 0 54 53 0 54 53 0 0 53 0 0 53 0 0 53 0 54 53 0 0 53 0 0 53 0 0
53 0 54 53 0 54 53 0 54 53 0 0 53 0 54 53 0 54 53 0 0 53 0 0 53 0 0 53
0 54 53 0 54 53 0 54 53 0 54 53 0 54 53 0 53 53 0 0 53 0 0 53 0 0 53 0
53 53 0 0 53 0 0 53 0 53 53 0 53 53 0 53 53 0 0 53 0 0 53 0 0 53 0 0
53 0 0 53 0 0 53 0 53 53 0 53 53 0 53 52 0 0 52 0 0 52 0 52 52 0 0 52
0 0 52 0 0 52 0 52 52 0 52 52 0 52 52 0 52 52 0 52 52 0 52 52 0 52 52
0 0 52 0 0 52 0 0 52 0 52 52 0 0 52 0 0 52 0 52 52 0 51 52 0 51 52 0 0
52 0 0 52 0 51 52 0 0 52 0 0 52 0 0 52 0 51 52 0 51 52 0 51 51 0 0 51
0 51 51 0 51 51 0 0 51 0 0 51 0 0 51 0 51 51 0 50 51 0 50 51 0 50 51 0
50 51 0 50 51 0 0 51 0 0 51 0 0 51 0 50 51 0 0 51 0 0 51 0 50 51 0 50
51 0 50 51 0 0 51 0
0 50 0 0 51 0 55 51 0 55 51 0 56 51 0 0 51 0 56 51 0 56 51 0 56 51 0 0
51 0 0 51 0 0 51 0 56 51 0 56 51 0 0 51 0 56 51 0 56 51 0 56 51 0 0 51
0 0 51 0 0 51 0 56 51 0 0 51 0 0 52 0 0 52 0 56 52 0 57 52 0 57 52 0 0
52 0 0 52 0 57 52 0 0 52 0 0 52 0 0 52 0 57 52 0 57 52 0 57 52 0 57 52
0 57 52 0 57 52 0 57 52 0 0 52 0 0 52 0 0 52 0 57 52 0 57 52 0 0 53 0
57 53 0 57 53 0 57 53 0 57 53 0 0 53 0 0 53 0 0 53 0 0 53 0 0 53 0 0
53 0 57 53 0 57 53 0 58 53 0 0 53 0 0 53 0 58 53 0 0 53 0 0 53 0 0 53
0 0 53 0 58 53 0 58 53 0 58 53 0 58 53 0 58 53 0 58 53 0 0 54 0 0 54 0
0 54 0 58 54 0 58 54 0 58 54 0 0 54 0 58 54 0 58 54 0 58 54 0 0 54 0 0
54 0 0 54 0 58 54 0 0 54 0 0 54 0 58 54 0 58 54 0 58 54 0 58 54 0 0 54
0 0 54 0 58 54 0 0 54 0 0 54 0 0 54 0 58 54 0 58 54 0 58 54 0 0 54 0
58 54 0 58 54 0 58 54 0 0 54 0 0 54 0 0 54 0 58 54 0 58 54 0 0 54 0 58
55 0 58 55 0 58 55 0 0 55 0 0 55 0 0 55 0 58 55 0 0 55 0 0 55 0 0 55 0
57 55 0 57 55 0 57 55 0 0 55 0 0 55 0 57 55 0 0 55 0 0 55 0 0 55 0 57
55 0 57 55 0 57 55 0 57 55 0 57 55 0 57 55 0 57 55 0 0 55 0 0 55 0 0
55 0 57 55 0 57 55 0 0 55 0 57 55 0 57 55 0 57 55 0 57 55 0 0 55 0 0
55 0 0 55 0 0 55 0 0 55 0 0 55 0 56 55 0 56 55 0 56 55 0 0 55 0 0 55 0
56 55 0 0 55 0 0 55 0 0 55 0 0 55 0 56 55 0 56 55 0 56 55 0 56 55 0 56
55 0 56 55 0 0 55 0 0 55 0 0 55 0 56 55 0 55 55 0 55 55 0 0 55 0 55 54
0 55 54 0 55 54 0 0 54 0 0 54 0 0 54 0 55 54 0 0 54 0 0 54 0 55 54 0
55 54 0 55 54 0 55 54 0 0 54 0 0 54 0 55 54 0 0 54 0 0 54 0 0 54 0 54
54 0 54 54 0 54 54 0 0 54 0 54 54 0 54 54 0 54 54 0 0 54 0 0 54 0 0 54
0 54 54 0 54 54 0 0 54 0 54 54 0 54 54 0 54 54 0 0 54 0 0 54 0 0 54 0
53 54 0 0 54 0 0 53 0 0 53 0 53 53 0 53 53 0 53 53 0 0 53 0 0 53 0 53
53 0 0 53 0 0 53 0 0 53 0 53 53 0 52 53 0 52 53 0 52 53 0 52 53 0 52
53 0 52 53 0 0 53 0 0 53 0 0 53 0 52 53 0 52 53 0 0 53 0 52 53 0 52 53
0 52 52 0 52 52 0 0 52 0 0 52 0 0 52 0 0 52 0 0 52 0 0 52 0 51 52 0 51
52 0 51 52 0 0 52 0 0 52 0
0 52 0 57 52 0 57 52 0 0 52 0 57 52 0 57 52 0 57 52 0 57 52 0 0 52 0 0
52 0 0 52 0 58 52 0 0 52 0 0 52 0 58 52 0 58 52 0 58 52 0 58 53 0 0 53
0 0 53 0 58 53 0 0 53 0 0 53 0 0 53 0 0 53 0 58 53 0 58 53 0 58 53 0 0
53 0 58 53 0 58 53 0 0 53 0 0 53 0 0 53 0 0 53 0 59 53 0 59 53 0 0 53
0 59 53 0 59 54 0 59 54 0 59 54 0 0 54 0 0 54 0 0 54 0 59 54 0 0 54 0
0 54 0 59 54 0 59 54 0 59 54 0 59 54 0 0 54 0 0 54 0 59 54 0 0 54 0 0
54 0 0 54 0 0 54 0 59 54 0 59 54 0 59 54 0 0 54 0 59 55 0 59 55 0 59
55 0 0 55 0 0 55 0 0 55 0 59 55 0 59 55 0 0 55 0 60 55 0 60 55 0 60 55
0 60 55 0 0 55 0 0 55 0 0 55 0 60 55 0 0 55 0 0 55 0 0 55 0 60 55 0 60
55 0 60 55 0 0 55 0 0 55 0 60 55 0 0 55 0 0 55 0 0 55 0 0 55 0 60 56 0
60 56 0 60 56 0 0 56 0 60 56 0 60 56 0 60 56 0 0 56 0 0 56 0 0 56 0 59
56 0 59 56 0 59 56 0 59 56 0 59 56 0 59 56 0 59 56 0 0 56 0 0 56 0 0
56 0 59 56 0 0 56 0 0 56 0 0 56 0 59 56 0 59 56 0 59 56 0 0 56 0 0 56
0 0 56 0 0 56 0 0 56 0 0 56 0 0 56 0 59 56 0 59 56 0 59 56 0 0 56 0 59
56 0 59 56 0 59 56 0 0 56 0 0 56 0 0 56 0 59 56 0 59 56 0 59 56 0 59
56 0 59 56 0 58 56 0 58 56 0 0 56 0 0 56 0 0 56 0 58 56 0 0 56 0 0 56
0 0 56 0 58 56 0 58 56 0 58 56 0 0 56 0 0 56 0 0 56 0 0 56 0 0 56 0 0
56 0 0 56 0 58 56 0 58 56 0 58 56 0 0 56 0 57 56 0 57 56 0 57 56 0 0
56 0 0 56 0 0 56 0 57 56 0 57 56 0 57 56 0 0 56 0 57 56 0 57 56 0 57
56 0 0 56 0 0 56 0 0 56 0 57 56 0 0 56 0 0 56 0 0 56 0 56 56 0 56 56 0
56 56 0 0 56 0 0 56 0 0 56 0 56 56 0 0 56 0 0 56 0 0 56 0 56 56 0 56
56 0 56 56 0 0 55 0 56 55 0 56 55 0 56 55 0 0 55 0 0 55 0 0 55 0 55 55
0 55 55 0 55 55 0 0 55 0 55 55 0 55 55 0 55 55 0 0 55 0 0 55 0 0 55 0
55 55 0 0 55 0 0 55 0 0 55 0 54 55 0 54 55 0 54 55 0 0 55 0 0 55 0 0
55 0 54 55 0 0 55 0 0 55 0 0 54 0 54 54 0 54 54 0 54 54 0 0 54 0 54 54
0 54 54 0 53 54 0 0 54 0 0 54 0 0 54 0 53 54 0 53 54 0 53 54 0 0 54 0
53 54 0 53 54 0 53 54 0 0 54 0 0 54 0 0 54 0 53 54 0 0 54 0 0 54 0 0
53 0 52 53 0 52 53 0 52 53 0
59 53 0 0 53 0 0 53 0 0 53 0 59 53 0 59 53 0 59 53 0 0 53 0 59 53 0 59
53 0 59 53 0 0 53 0 0 54 0 0 54 0 0 54 0 60 54 0 0 54 0 0 54 0 60 54 0
60 54 0 60 54 0 60 54 0 0 54 0 0 54 0 0 54 0 60 54 0 0 54 0 0 54 0 0
54 0 60 54 0 60 54 0 60 54 0 60 54 0 0 55 0 60 55 0 60 55 0 0 55 0 0
55 0 0 55 0 0 55 0 61 55 0 61 55 0 61 55 0 0 55 0 61 55 0 61 55 0 61
55 0 0 55 0 0 55 0 0 55 0 0 55 0 61 55 0 0 55 0 0 55 0 61 55 0 61 56 0
61 56 0 61 56 0 0 56 0 0 56 0 0 56 0 0 56 0 0 56 0 0 56 0 0 56 0 61 56
0 61 56 0 61 56 0 61 56 0 0 56 0 61 56 0 61 56 0 0 56 0 0 56 0 0 56 0
0 56 0 61 56 0 61 56 0 61 56 0 61 56 0 61 56 0 61 57 0 61 57 0 0 57 0
0 57 0 0 57 0 61 57 0 61 57 0 0 57 0 0 57 0 61 57 0 61 57 0 61 57 0 61
57 0 0 57 0 0 57 0 0 57 0 0 57 0 0 57 0 0 57 0 0 57 0 61 57 0 61 57 0
61 57 0 0 57 0 0 57 0 61 57 0 61 57 0 0 57 0 0 57 0 0 57 0 0 57 0 61
57 0 61 57 0 61 57 0 61 57 0 61 57 0 61 57 0 61 57 0 0 57 0 0 57 0 0
58 0 61 58 0 61 58 0 0 58 0 0 58 0 61 58 0 61 58 0 61 58 0 0 58 0 0 58
0 0 58 0 0 58 0 0 58 0 0 58 0 0 58 0 0 58 0 60 58 0 60 58 0 60 58 0 0
58 0 60 58 0 60 58 0 60 58 0 0 58 0 0 58 0 0 58 0 60 58 0 60 58 0 60
58 0 0 58 0 60 58 0 60 58 0 60 58 0 0 58 0 0 58 0 0 58 0 0 58 0 59 58
0 0 58 0 0 58 0 0 58 0 59 58 0 59 58 0 59 58 0 0 58 0 0 58 0 0 58 0 59
58 0 0 58 0 0 58 0 0 58 0 59 57 0 59 57 0 59 57 0 58 57 0 0 57 0 58 57
0 58 57 0 58 57 0 0 57 0 0 57 0 0 57 0 58 57 0 58 57 0 58 57 0 0 57 0
58 57 0 58 57 0 58 57 0 0 57 0 0 57 0 0 57 0 0 57 0 57 57 0 0 57 0 0
57 0 57 57 0 57 57 0 57 57 0 57 57 0 0 57 0 0 57 0 0 57 0 57 57 0 0 57
0 0 57 0 0 57 0 57 57 0 56 57 0 56 57 0 56 57 0 0 57 0 56 56 0 56 56 0
0 56 0 0 56 0 0 56 0 0 56 0 56 56 0 56 56 0 56 56 0 56 56 0 56 56 0 55
56 0 55 56 0 0 56 0 0 56 0 0 56 0 0 56 0 55 56 0 0 56 0 0 56 0 55 56 0
55 56 0 55 56 0 55 56 0 0 56 0 0 55 0 0 55 0 0 55 0 0 55 0 0 55 0 0 55
0 54 55 0 54 55 0 54 55 0 54 55 0 0 55 0 54 55 0 54 55 0 0 55 0 0 55 0
0 55 0 0 55 0 53 55 0
0 54 0 61 54 0 61 54 0 61 54 0 61 54 0 0 54 0 0 54 0 0 54 0 0 55 0 0
55 0 0 55 0 0 55 0 0 55 0 61 55 0 61 55 0 61 55 0 0 55 0 0 55 0 0 55 0
62 55 0 0 55 0 0 55 0 0 55 0 0 55 0 62 55 0 62 55 0 62 55 0 62 56 0 62
56 0 62 56 0 62 56 0 0 56 0 0 56 0 0 56 0 0 56 0 62 56 0 62 56 0 62 56
0 0 56 0 62 56 0 62 56 0 62 56 0 63 56 0 0 56 0 0 56 0 0 56 0 63 56 0
0 56 0 0 57 0 0 57 0 63 57 0 63 57 0 63 57 0 63 57 0 0 57 0 0 57 0 63
57 0 63 57 0 0 57 0 0 57 0 0 57 0 63 57 0 63 57 0 63 57 0 63 57 0 0 57
0 63 57 0 63 57 0 63 57 0 0 57 0 0 57 0 0 58 0 0 58 0 63 58 0 63 58 0
0 58 0 63 58 0 63 58 0 63 58 0 63 58 0 0 58 0 0 58 0 0 58 0 0 58 0 0
58 0 0 58 0 0 58 0 0 58 0 63 58 0 63 58 0 63 58 0 0 58 0 0 58 0 0 58 0
63 58 0 0 58 0 0 58 0 0 58 0 0 58 0 63 58 0 63 58 0 63 59 0 63 59 0 63
59 0 63 59 0 63 59 0 0 59 0 0 59 0 0 59 0 0 59 0 63 59 0 63 59 0 63 59
0 0 59 0 63 59 0 63 59 0 63 59 0 63 59 0 0 59 0 0 59 0 0 59 0 63 59 0
0 59 0 0 59 0 0 59 0 62 59 0 62 59 0 62 59 0 62 59 0 0 59 0 0 59 0 62
59 0 62 59 0 0 59 0 0 59 0 0 59 0 62 59 0 62 59 0 62 59 0 62 59 0 0 59
0 62 59 0 62 59 0 62 59 0 0 59 0 0 59 0 0 59 0 0 59 0 61 59 0 61 59 0
0 59 0 61 59 0 61 59 0 61 59 0 61 59 0 0 59 0 0 59 0 0 59 0 0 59 0 61
59 0 0 59 0 0 59 0 0 59 0 61 59 0 61 59 0 61 59 0 0 59 0 0 59 0 0 59 0
60 59 0 0 59 0 0 59 0 0 59 0 0 59 0 60 59 0 60 59 0 60 59 0 60 59 0 60
59 0 60 59 0 60 59 0 0 59 0 0 59 0 0 59 0 0 59 0 59 59 0 59 59 0 59 59
0 0 59 0 59 59 0 59 59 0 59 59 0 59 59 0 0 58 0 0 58 0 0 58 0 59 58 0
0 58 0 0 58 0 0 58 0 58 58 0 58 58 0 58 58 0 58 58 0 0 58 0 0 58 0 58
58 0 58 58 0 0 58 0 0 58 0 0 58 0 0 58 0 58 58 0 58 58 0 57 58 0 0 58
0 57 58 0 57 58 0 57 58 0 0 58 0 0 58 0 0 58 0 0 58 0 57 58 0 57 57 0
0 57 0 0 57 0 57 57 0 57 57 0 56 57 0 0 57 0 0 57 0 0 57 0 0 57 0 56
57 0 0 57 0 0 57 0 0 57 0 56 57 0 56 57 0 56 57 0 56 57 0 0 57 0 0 57
0 55 57 0 0 57 0 0 57 0 0 56 0 0 56 0 55 56 0 55 56 0 55 56 0 55 56 0
55 56 0 55 56 0 55 56 0
62 55 0 62 55 0 63 55 0 0 55 0 0 56 0 0 56 0 0 56 0 63 56 0 63 56 0 63
56 0 0 56 0 63 56 0 63 56 0 63 56 0 63 56 0 0 56 0 0 56 0 0 56 0 0 56
0 63 56 0 0 56 0 0 56 0 0 56 0 64 57 0 64 57 0 64 57 0 64 57 0 0 57 0
0 57 0 0 57 0 64 57 0 0 57 0 0 57 0 0 57 0 0 57 0 64 57 0 64 57 0 64
57 0 64 57 0 64 57 0 64 57 0 64 57 0 0 58 0 0 58 0 0 58 0 0 58 0 64 58
0 64 58 0 65 58 0 0 58 0 65 58 0 65 58 0 65 58 0 65 58 0 0 58 0 0 58 0
0 58 0 0 58 0 65 58 0 0 58 0 0 58 0 0 58 0 65 58 0 65 59 0 65 59 0 65
59 0 0 59 0 0 59 0 0 59 0 65 59 0 0 59 0 0 59 0 0 59 0 0 59 0 65 59 0
65 59 0 65 59 0 65 59 0 0 59 0 65 59 0 65 59 0 65 59 0 0 59 0 0 59 0 0
59 0 0 59 0 65 59 0 65 59 0 0 59 0 0 60 0 65 60 0 65 60 0 65 60 0 65
60 0 0 60 0 0 60 0 0 60 0 65 60 0 0 60 0 0 60 0 0 60 0 65 60 0 65 60 0
65 60 0 65 60 0 0 60 0 0 60 0 0 60 0 65 60 0 0 60 0 0 60 0 0 60 0 0 60
0 64 60 0 64 60 0 64 60 0 64 60 0 0 60 0 64 60 0 64 60 0 64 60 0 0 60
0 0 60 0 0 60 0 0 60 0 64 60 0 64 60 0 64 60 0 0 60 0 64 60 0 64 60 0
64 60 0 64 60 0 0 60 0 0 60 0 0 60 0 0 60 0 0 61 0 0 61 0 0 61 0 0 61
0 63 61 0 63 61 0 63 61 0 63 61 0 0 61 0 0 61 0 63 61 0 0 61 0 0 61 0
0 61 0 0 61 0 63 61 0 63 61 0 63 61 0 63 61 0 0 61 0 63 61 0 63 61 0
62 60 0 0 60 0 0 60 0 0 60 0 0 60 0 62 60 0 62 60 0 62 60 0 0 60 0 62
60 0 62 60 0 62 60 0 62 60 0 0 60 0 0 60 0 0 60 0 0 60 0 61 60 0 0 60
0 0 60 0 0 60 0 61 60 0 61 60 0 61 60 0 61 60 0 0 60 0 0 60 0 0 60 0
61 60 0 0 60 0 0 60 0 0 60 0 0 60 0 60 60 0 60 60 0 60 60 0 60 60 0 60
60 0 60 60 0 60 60 0 0 60 0 0 60 0 0 60 0 0 60 0 60 60 0 60 60 0 59 60
0 0 60 0 59 60 0 59 59 0 59 59 0 59 59 0 0 59 0 0 59 0 0 59 0 0 59 0
59 59 0 0 59 0 0 59 0 0 59 0 59 59 0 58 59 0 58 59 0 58 59 0 0 59 0 0
59 0 0 59 0 58 59 0 0 59 0 0 59 0 0 59 0 0 59 0 58 59 0 58 59 0 57 58
0 57 58 0 0 58 0 57 58 0 57 58 0 57 58 0 0 58 0 0 58 0 0 58 0 0 58 0
57 58 0 57 58 0 0 58 0 0 58 0 56 58 0 56 58 0 56 58 0 56 58 0 0 58 0 0
58 0 0 58 0 56 58 0 0 57 0
64 56 0 64 57 0 0 57 0 0 57 0 0 57 0 0 57 0 65 57 0 65 57 0 65 57 0 0
57 0 65 57 0 65 57 0 65 57 0 65 57 0 0 57 0 0 57 0 0 57 0 0 57 0 65 57
0 0 58 0 0 58 0 0 58 0 0 58 0 65 58 0 65 58 0 66 58 0 66 58 0 0 58 0 0
58 0 66 58 0 66 58 0 0 58 0 0 58 0 0 58 0 0 58 0 66 58 0 66 58 0 66 59
0 66 59 0 66 59 0 66 59 0 66 59 0 66 59 0 0 59 0 0 59 0 0 59 0 0 59 0
66 59 0 66 59 0 66 59 0 0 59 0 66 59 0 66 59 0 66 59 0 66 59 0 0 59 0
0 59 0 0 60 0 0 60 0 67 60 0 0 60 0 0 60 0 0 60 0 0 60 0 67 60 0 67 60
0 67 60 0 67 60 0 0 60 0 0 60 0 67 60 0 67 60 0 0 60 0 0 60 0 0 60 0 0
60 0 67 60 0 67 60 0 67 60 0 67 60 0 67 61 0 67 61 0 67 61 0 67 61 0 0
61 0 0 61 0 0 61 0 0 61 0 67 61 0 67 61 0 67 61 0 0 61 0 67 61 0 67 61
0 67 61 0 67 61 0 0 61 0 0 61 0 0 61 0 0 61 0 67 61 0 0 61 0 0 61 0 0
61 0 66 61 0 66 61 0 66 61 0 66 61 0 66 61 0 0 61 0 0 61 0 66 62 0 66
62 0 0 62 0 0 62 0 0 62 0 0 62 0 66 62 0 66 62 0 66 62 0 66 62 0 66 62
0 66 62 0 66 62 0 66 62 0 0 62 0 0 62 0 0 62 0 0 62 0 66 62 0 66 62 0
66 62 0 0 62 0 65 62 0 65 62 0 65 62 0 65 62 0 0 62 0 0 62 0 0 62 0 0
62 0 65 62 0 0 62 0 0 62 0 0 62 0 65 62 0 65 62 0 65 62 0 65 62 0 65
62 0 0 62 0 0 62 0 64 62 0 64 62 0 0 62 0 0 62 0 0 62 0 0 62 0 64 62 0
64 62 0 64 62 0 64 62 0 64 62 0 64 62 0 64 62 0 64 62 0 0 62 0 0 62 0
0 62 0 0 62 0 63 62 0 63 62 0 63 62 0 0 62 0 63 62 0 63 62 0 63 62 0
63 62 0 0 62 0 0 62 0 0 62 0 0 62 0 63 62 0 0 62 0 0 62 0 0 62 0 62 62
0 62 61 0 62 61 0 62 61 0 62 61 0 0 61 0 0 61 0 62 61 0 62 61 0 0 61 0
0 61 0 0 61 0 0 61 0 61 61 0 61 61 0 61 61 0 61 61 0 61 61 0 61 61 0
61 61 0 61 61 0 0 61 0 0 61 0 0 61 0 0 61 0 60 61 0 60 61 0 60 61 0 0
61 0 60 61 0 60 61 0 60 61 0 60 61 0 0 60 0 0 60 0 0 60 0 0 60 0 60 60
0 0 60 0 0 60 0 0 60 0 59 60 0 59 60 0 59 60 0 59 60 0 59 60 0 0 60 0
0 60 0 59 60 0 59 60 0 0 60 0 0 60 0 0 60 0 0 60 0 58 60 0 58 60 0 58
59 0 58 59 0 58 59 0 58 59 0 58 59 0 58 59 0 0 59 0 0 59 0 0 59 0 0 59
0 57 59 0 57 59 0 0 59 0 0 59 0
66 58 0 66 58 0 0 58 0 0 58 0 0 58 0 0 58 0 0 58 0 0 58 0 0 58 0 0 58
0 67 58 0 67 58 0 67 58 0 67 58 0 0 58 0 0 59 0 67 59 0 67 59 0 67 59
0 0 59 0 0 59 0 0 59 0 0 59 0 67 59 0 67 59 0 67 59 0 67 59 0 67 59 0
67 59 0 68 59 0 68 59 0 0 59 0 0 59 0 0 60 0 0 60 0 0 60 0 68 60 0 68
60 0 0 60 0 0 60 0 68 60 0 68 60 0 68 60 0 68 60 0 0 60 0 0 60 0 0 60
0 0 60 0 0 60 0 0 60 0 0 60 0 0 61 0 0 61 0 68 61 0 68 61 0 68 61 0 68
61 0 0 61 0 0 61 0 68 61 0 68 61 0 0 61 0 0 61 0 0 61 0 0 61 0 0 61 0
68 61 0 68 61 0 69 61 0 69 61 0 69 61 0 69 61 0 69 62 0 69 62 0 0 62 0
0 62 0 0 62 0 0 62 0 69 62 0 69 62 0 0 62 0 0 62 0 0 62 0 69 62 0 69
62 0 68 62 0 68 62 0 0 62 0 0 62 0 0 62 0 0 62 0 0 62 0 0 62 0 0 62 0
0 62 0 68 62 0 68 62 0 68 62 0 68 63 0 68 63 0 0 63 0 0 63 0 68 63 0
68 63 0 0 63 0 0 63 0 0 63 0 0 63 0 68 63 0 68 63 0 68 63 0 68 63 0 0
63 0 68 63 0 68 63 0 68 63 0 68 63 0 0 63 0 0 63 0 0 63 0 0 63 0 68 63
0 68 63 0 0 63 0 0 63 0 67 63 0 67 63 0 67 63 0 67 63 0 67 63 0 0 63 0
0 63 0 0 63 0 0 63 0 0 63 0 0 63 0 0 63 0 0 63 0 67 63 0 67 63 0 67 63
0 67 63 0 0 63 0 0 63 0 66 63 0 66 63 0 66 63 0 0 63 0 0 63 0 0 63 0 0
63 0 66 63 0 66 63 0 66 63 0 66 63 0 66 63 0 66 63 0 66 63 0 66 63 0
66 63 0 0 63 0 0 63 0 0 63 0 0 63 0 65 63 0 65 63 0 0 63 0 0 63 0 65
63 0 65 63 0 65 63 0 65 63 0 0 63 0 0 63 0 0 63 0 0 63 0 64 63 0 0 63
0 0 63 0 0 63 0 0 63 0 64 63 0 64 63 0 64 63 0 64 63 0 0 63 0 0 63 0
64 63 0 64 63 0 0 63 0 0 63 0 0 63 0 0 63 0 0 63 0 63 63 0 63 63 0 63
63 0 63 63 0 63 63 0 63 63 0 63 63 0 63 63 0 0 62 0 0 62 0 0 62 0 0 62
0 0 62 0 62 62 0 0 62 0 0 62 0 0 62 0 62 62 0 62 62 0 62 62 0 62 62 0
0 62 0 0 62 0 0 62 0 0 62 0 0 62 0 0 62 0 0 62 0 0 62 0 0 62 0 61 62 0
61 62 0 61 62 0 61 62 0 0 61 0 0 61 0 60 61 0 60 61 0 0 61 0 0 61 0 0
61 0 0 61 0 60 61 0 60 61 0 60 61 0 60 61 0 60 61 0 59 61 0 59 61 0 59
61 0 59 61 0 0 61 0 0 61 0 0 61 0 0 61 0 59 60 0 59 60 0 0 60 0 0 60 0
58 60 0 58 60 0 58 60 0
68 59 0 0 59 0 68 59 0 68 59 0 68 59 0 68 59 0 0 59 0 0 59 0 0 59 0 0
59 0 0 59 0 68 59 0 0 60 0 0 60 0 0 60 0 69 60 0 69 60 0 69 60 0 69 60
0 0 60 0 0 60 0 0 60 0 0 60 0 69 60 0 0 60 0 0 60 0 0 60 0 0 60 0 69
60 0 69 61 0 69 61 0 69 61 0 69 61 0 0 61 0 70 61 0 70 61 0 70 61 0 0
61 0 0 61 0 0 61 0 0 61 0 0 61 0 70 61 0 70 61 0 70 61 0 0 61 0 70 62
0 70 62 0 70 62 0 70 62 0 70 62 0 0 62 0 0 62 0 0 62 0 0 62 0 70 62 0
0 62 0 0 62 0 0 62 0 70 62 0 70 62 0 70 62 0 70 62 0 70 62 0 0 62 0 0
62 0 0 63 0 0 63 0 0 63 0 0 63 0 0 63 0 0 63 0 0 63 0 70 63 0 70 63 0
70 63 0 70 63 0 0 63 0 0 63 0 70 63 0 70 63 0 70 63 0 0 63 0 0 63 0 0
63 0 0 63 0 70 63 0 70 63 0 70 63 0 70 64 0 0 64 0 70 64 0 70 64 0 70
64 0 70 64 0 0 64 0 0 64 0 0 64 0 0 64 0 70 64 0 70 64 0 0 64 0 0 64 0
0 64 0 70 64 0 70 64 0 70 64 0 70 64 0 0 64 0 0 64 0 0 64 0 0 64 0 70
64 0 0 64 0 0 64 0 0 64 0 0 64 0 69 64 0 69 64 0 69 64 0 69 64 0 69 64
0 0 64 0 69 64 0 69 65 0 69 65 0 0 65 0 0 65 0 0 65 0 0 65 0 0 65 0 69
65 0 69 65 0 69 65 0 0 65 0 69 65 0 69 65 0 68 65 0 68 65 0 0 65 0 0
65 0 0 65 0 0 65 0 0 65 0 68 65 0 0 65 0 0 65 0 0 65 0 68 65 0 68 65 0
68 65 0 68 65 0 68 65 0 0 65 0 0 65 0 0 65 0 67 65 0 0 65 0 0 65 0 0
65 0 0 65 0 0 65 0 67 65 0 67 65 0 67 65 0 67 65 0 0 65 0 0 65 0 66 65
0 66 65 0 66 65 0 0 65 0 0 65 0 0 65 0 0 65 0 66 65 0 66 65 0 66 64 0
66 64 0 66 64 0 66 64 0 65 64 0 65 64 0 65 64 0 0 64 0 0 64 0 0 64 0 0
64 0 65 64 0 65 64 0 0 64 0 0 64 0 0 64 0 65 64 0 64 64 0 64 64 0 64
64 0 0 64 0 0 64 0 0 64 0 0 64 0 64 64 0 0 64 0 0 64 0 0 64 0 0 64 0
64 64 0 63 64 0 63 64 0 63 64 0 63 64 0 0 64 0 63 64 0 63 63 0 63 63 0
0 63 0 0 63 0 0 63 0 0 63 0 62 63 0 62 63 0 62 63 0 62 63 0 0 63 0 62
63 0 62 63 0 62 63 0 62 63 0 0 63 0 0 63 0 0 63 0 0 63 0 0 63 0 61 63
0 0 63 0 0 63 0 0 62 0 61 62 0 61 62 0 61 62 0 61 62 0 61 62 0 0 62 0
0 62 0 0 62 0 60 62 0 0 62 0 0 62 0 0 62 0 0 62 0 0 62 0 60 62 0 60 62
0 60 62 0 60 62 0 0 62 0
0 60 0 0 60 0 0 60 0 70 60 0 70 60 0 70 60 0 0 60 0 70 60 0 70 60 0 70
61 0 70 61 0 70 61 0 0 61 0 0 61 0 0 61 0 0 61 0 71 61 0 71 61 0 0 61
0 0 61 0 0 61 0 71 61 0 71 61 0 71 61 0 71 61 0 71 62 0 0 62 0 0 62 0
0 62 0 71 62 0 0 62 0 0 62 0 0 62 0 0 62 0 0 62 0 71 62 0 71 62 0 72
62 0 72 62 0 0 62 0 0 62 0 72 62 0 72 63 0 72 63 0 0 63 0 0 63 0 0 63
0 0 63 0 0 63 0 72 63 0 72 63 0 72 63 0 0 63 0 72 63 0 72 63 0 72 63 0
72 63 0 72 63 0 0 63 0 0 63 0 0 63 0 0 64 0 0 64 0 72 64 0 0 64 0 0 64
0 0 64 0 72 64 0 72 64 0 72 64 0 72 64 0 72 64 0 0 64 0 0 64 0 0 64 0
72 64 0 0 64 0 0 64 0 0 64 0 0 64 0 0 64 0 72 64 0 72 65 0 72 65 0 72
65 0 72 65 0 0 65 0 72 65 0 72 65 0 72 65 0 0 65 0 0 65 0 0 65 0 0 65
0 0 65 0 72 65 0 72 65 0 72 65 0 0 65 0 0 65 0 72 65 0 72 65 0 72 65 0
72 65 0 0 65 0 0 65 0 0 65 0 0 65 0 0 65 0 71 66 0 0 66 0 0 66 0 0 66
0 71 66 0 71 66 0 71 66 0 71 66 0 71 66 0 0 66 0 0 66 0 0 66 0 71 66 0
71 66 0 0 66 0 0 66 0 0 66 0 0 66 0 71 66 0 71 66 0 71 66 0 70 66 0 70
66 0 0 66 0 70 66 0 70 66 0 70 66 0 0 66 0 0 66 0 0 66 0 0 66 0 0 66 0
70 66 0 70 66 0 70 66 0 0 66 0 0 66 0 69 66 0 69 66 0 69 66 0 69 66 0
0 66 0 0 66 0 0 66 0 0 66 0 0 66 0 69 66 0 0 66 0 0 66 0 0 66 0 0 66 0
69 66 0 68 66 0 68 66 0 68 66 0 0 66 0 0 66 0 0 66 0 0 66 0 68 66 0 0
66 0 0 66 0 0 66 0 0 66 0 68 66 0 67 66 0 67 66 0 67 66 0 67 66 0 0 66
0 67 66 0 67 66 0 67 66 0 67 66 0 0 66 0 0 66 0 0 66 0 0 66 0 66 66 0
66 66 0 66 66 0 66 66 0 0 66 0 66 66 0 66 66 0 66 65 0 66 65 0 0 65 0
0 65 0 0 65 0 0 65 0 0 65 0 65 65 0 0 65 0 0 65 0 0 65 0 0 65 0 65 65
0 65 65 0 65 65 0 65 65 0 0 65 0 0 65 0 0 65 0 0 65 0 64 65 0 0 65 0 0
65 0 0 65 0 0 65 0 0 65 0 64 65 0 64 65 0 63 64 0 63 64 0 0 64 0 63 64
0 63 64 0 63 64 0 63 64 0 0 64 0 0 64 0 0 64 0 0 64 0 63 64 0 62 64 0
62 64 0 62 64 0 0 64 0 62 64 0 62 64 0 62 64 0 62 64 0 62 64 0 0 63 0
0 63 0 0 63 0 0 63 0 61 63 0 0 63 0 0 63 0 0 63 0 0 63 0 61 63 0 61 63
0 61 63 0 61 63 0
71 61 0 72 61 0 72 61 0 72 61 0 0 61 0 0 61 0 0 61 0 0 62 0 0 62 0 72
62 0 0 62 0 0 62 0 0 62 0 0 62 0 72 62 0 72 62 0 72 62 0 72 62 0 0 62
0 0 62 0 0 62 0 0 62 0 73 62 0 0 63 0 0 63 0 0 63 0 0 63 0 0 63 0 73
63 0 73 63 0 73 63 0 73 63 0 73 63 0 0 63 0 73 63 0 73 63 0 73 63 0 73
63 0 0 63 0 0 64 0 0 64 0 0 64 0 74 64 0 74 64 0 74 64 0 74 64 0 0 64
0 74 64 0 74 64 0 74 64 0 74 64 0 74 64 0 0 64 0 0 64 0 0 64 0 0 64 0
0 65 0 74 65 0 0 65 0 0 65 0 0 65 0 0 65 0 74 65 0 74 65 0 74 65 0 74
65 0 0 65 0 0 65 0 0 65 0 0 65 0 74 65 0 0 65 0 0 65 0 0 65 0 0 65 0 0
66 0 74 66 0 74 66 0 74 66 0 74 66 0 74 66 0 0 66 0 74 66 0 74 66 0 74
66 0 74 66 0 0 66 0 0 66 0 0 66 0 0 66 0 74 66 0 74 66 0 74 66 0 74 66
0 0 66 0 74 66 0 74 66 0 74 66 0 73 66 0 73 67 0 0 67 0 0 67 0 0 67 0
0 67 0 0 67 0 73 67 0 0 67 0 0 67 0 0 67 0 73 67 0 73 67 0 73 67 0 73
67 0 73 67 0 0 67 0 0 67 0 0 67 0 0 67 0 73 67 0 0 67 0 0 67 0 0 67 0
0 67 0 0 67 0 72 67 0 72 67 0 72 67 0 72 67 0 72 67 0 0 67 0 72 67 0
72 67 0 72 67 0 0 67 0 0 67 0 0 67 0 0 67 0 0 67 0 72 67 0 72 67 0 71
67 0 71 67 0 0 67 0 71 67 0 71 67 0 71 67 0 71 67 0 71 67 0 0 67 0 0
67 0 0 67 0 0 67 0 0 67 0 71 67 0 0 67 0 0 67 0 0 67 0 70 67 0 70 67 0
70 67 0 70 67 0 70 67 0 0 67 0 0 67 0 0 67 0 0 67 0 70 67 0 0 67 0 0
67 0 0 67 0 0 67 0 0 67 0 69 67 0 69 67 0 69 67 0 69 67 0 69 67 0 0 67
0 69 67 0 68 67 0 68 67 0 0 67 0 0 67 0 0 67 0 0 67 0 0 67 0 68 67 0
68 67 0 68 67 0 68 67 0 0 67 0 67 67 0 67 67 0 67 67 0 67 67 0 67 67 0
0 67 0 0 67 0 0 67 0 0 67 0 67 67 0 67 67 0 0 67 0 0 67 0 0 67 0 66 67
0 66 66 0 66 66 0 66 66 0 66 66 0 0 66 0 0 66 0 0 66 0 0 66 0 65 66 0
0 66 0 0 66 0 0 66 0 0 66 0 0 66 0 65 66 0 65 66 0 65 66 0 65 66 0 0
66 0 0 66 0 64 66 0 64 66 0 64 66 0 0 66 0 0 65 0 0 65 0 0 65 0 0 65 0
64 65 0 64 65 0 64 65 0 63 65 0 0 65 0 63 65 0 63 65 0 63 65 0 63 65 0
63 65 0 0 65 0 0 65 0 0 65 0 0 65 0 62 65 0 62 65 0 0 64 0 0 64 0 0 64
0 62 64 0 62 64 0 62 64 0
0 62 0 0 62 0 0 62 0 0 62 0 0 62 0 0 63 0 74 63 0 74 63 0 74 63 0 74
63 0 74 63 0 0 63 0 0 63 0 0 63 0 74 63 0 74 63 0 0 63 0 0 63 0 0 63 0
0 63 0 0 64 0 75 64 0 75 64 0 75 64 0 75 64 0 75 64 0 75 64 0 75 64 0
75 64 0 75 64 0 75 64 0 0 64 0 0 64 0 0 64 0 0 64 0 0 64 0 75 65 0 75
65 0 0 65 0 0 65 0 0 65 0 75 65 0 75 65 0 75 65 0 75 65 0 75 65 0 0 65
0 0 65 0 0 65 0 0 65 0 0 65 0 0 65 0 0 66 0 0 66 0 0 66 0 0 66 0 76 66
0 76 66 0 76 66 0 76 66 0 76 66 0 0 66 0 0 66 0 76 66 0 76 66 0 76 66
0 0 66 0 0 66 0 0 66 0 0 66 0 0 67 0 76 67 0 76 67 0 76 67 0 76 67 0
76 67 0 76 67 0 76 67 0 76 67 0 76 67 0 76 67 0 0 67 0 0 67 0 0 67 0 0
67 0 0 67 0 76 67 0 76 67 0 0 67 0 0 67 0 0 67 0 75 67 0 75 68 0 75 68
0 75 68 0 75 68 0 0 68 0 0 68 0 0 68 0 0 68 0 75 68 0 0 68 0 0 68 0 0
68 0 0 68 0 0 68 0 75 68 0 75 68 0 75 68 0 75 68 0 75 68 0 0 68 0 0 68
0 75 68 0 75 68 0 74 68 0 0 68 0 0 68 0 0 68 0 0 68 0 0 68 0 74 68 0
74 68 0 74 68 0 74 69 0 74 69 0 74 69 0 74 69 0 74 69 0 74 69 0 0 69 0
0 69 0 0 69 0 0 69 0 0 69 0 73 69 0 73 69 0 73 69 0 0 69 0 0 69 0 73
69 0 73 69 0 73 69 0 73 69 0 73 69 0 0 69 0 0 69 0 0 69 0 0 69 0 0 69
0 0 69 0 0 69 0 0 69 0 0 69 0 0 69 0 72 69 0 72 69 0 72 69 0 72 69 0
72 69 0 0 69 0 0 69 0 71 69 0 71 69 0 71 69 0 0 69 0 0 69 0 0 69 0 0
69 0 0 69 0 71 69 0 71 69 0 70 69 0 70 69 0 70 69 0 70 69 0 70 69 0 70
69 0 70 69 0 70 69 0 0 69 0 0 69 0 0 69 0 0 69 0 0 68 0 69 68 0 69 68
0 0 68 0 0 68 0 0 68 0 69 68 0 69 68 0 69 68 0 69 68 0 69 68 0 0 68 0
0 68 0 0 68 0 0 68 0 0 68 0 0 68 0 0 68 0 0 68 0 0 68 0 0 68 0 68 68 0
67 68 0 67 68 0 67 68 0 67 68 0 0 68 0 0 68 0 67 68 0 67 68 0 67 68 0
0 68 0 0 67 0 0 67 0 0 67 0 0 67 0 66 67 0 66 67 0 66 67 0 66 67 0 0
67 0 66 67 0 66 67 0 66 67 0 65 67 0 65 67 0 0 67 0 0 67 0 0 67 0 0 67
0 0 67 0 65 67 0 65 67 0 0 66 0 0 66 0 0 66 0 64 66 0 64 66 0 64 66 0
64 66 0 64 66 0 0 66 0 0 66 0 0 66 0 0 66 0 64 66 0 0 66 0 0 66 0 0 66
0 0 66 0 63 66 0 63 65 0
75 63 0 75 63 0 75 63 0 0 64 0 75 64 0 75 64 0 76 64 0 76 64 0 76 64 0
0 64 0 0 64 0 0 64 0 0 64 0 0 64 0 76 64 0 76 64 0 0 64 0 0 64 0 0 65
0 0 65 0 76 65 0 76 65 0 76 65 0 76 65 0 77 65 0 0 65 0 0 65 0 0 65 0
0 65 0 77 65 0 0 65 0 0 65 0 0 65 0 0 66 0 0 66 0 77 66 0 77 66 0 77
66 0 77 66 0 77 66 0 0 66 0 0 66 0 77 66 0 77 66 0 77 66 0 0 66 0 0 66
0 0 66 0 0 66 0 0 67 0 77 67 0 77 67 0 77 67 0 77 67 0 77 67 0 0 67 0
77 67 0 77 67 0 77 67 0 77 67 0 78 67 0 0 67 0 0 67 0 0 67 0 0 67 0 0
67 0 78 68 0 0 68 0 0 68 0 0 68 0 0 68 0 78 68 0 77 68 0 77 68 0 77 68
0 77 68 0 0 68 0 0 68 0 0 68 0 0 68 0 77 68 0 0 68 0 0 68 0 0 68 0 0
68 0 0 68 0 77 69 0 77 69 0 77 69 0 77 69 0 77 69 0 0 69 0 0 69 0 77
69 0 77 69 0 77 69 0 77 69 0 0 69 0 0 69 0 0 69 0 0 69 0 0 69 0 77 69
0 77 69 0 77 69 0 77 69 0 0 69 0 77 69 0 76 69 0 76 69 0 76 69 0 76 69
0 0 70 0 0 70 0 0 70 0 0 70 0 0 70 0 76 70 0 76 70 0 0 70 0 0 70 0 0
70 0 76 70 0 76 70 0 76 70 0 76 70 0 75 70 0 0 70 0 0 70 0 0 70 0 0 70
0 0 70 0 75 70 0 0 70 0 0 70 0 0 70 0 0 70 0 0 70 0 75 70 0 75 70 0 75
70 0 74 70 0 74 70 0 0 70 0 74 70 0 74 70 0 74 70 0 74 70 0 0 70 0 0
70 0 0 70 0 0 70 0 0 70 0 74 70 0 73 70 0 73 70 0 73 70 0 0 70 0 73 70
0 73 70 0 73 70 0 73 70 0 73 70 0 0 70 0 0 70 0 0 70 0 0 70 0 0 70 0 0
70 0 72 70 0 0 70 0 0 70 0 0 70 0 0 70 0 72 70 0 72 70 0 72 70 0 71 70
0 71 70 0 0 70 0 0 70 0 0 70 0 0 70 0 71 70 0 0 70 0 0 70 0 0 70 0 0
70 0 0 70 0 70 70 0 70 70 0 70 70 0 70 70 0 70 70 0 0 70 0 0 70 0 70
70 0 70 69 0 70 69 0 0 69 0 0 69 0 0 69 0 0 69 0 0 69 0 69 69 0 69 69
0 69 69 0 69 69 0 69 69 0 0 69 0 68 69 0 68 69 0 68 69 0 68 69 0 68 69
0 0 69 0 0 69 0 0 69 0 0 69 0 0 69 0 67 69 0 0 69 0 0 69 0 0 68 0 0 68
0 67 68 0 67 68 0 67 68 0 67 68 0 67 68 0 0 68 0 0 68 0 0 68 0 0 68 0
66 68 0 0 68 0 0 68 0 0 68 0 0 68 0 0 68 0 66 68 0 65 68 0 65 68 0 65
67 0 65 67 0 65 67 0 0 67 0 65 67 0 65 67 0 65 67 0 65 67 0 0 67 0 0
67 0 0 67 0 0 67 0 0 67 0
77 64 0 77 64 0 0 65 0 0 65 0 77 65 0 77 65 0 77 65 0 77 65 0 0 65 0 0
65 0 0 65 0 0 65 0 0 65 0 78 65 0 78 65 0 78 65 0 78 66 0 78 66 0 78
66 0 78 66 0 78 66 0 78 66 0 78 66 0 78 66 0 0 66 0 0 66 0 0 66 0 0 66
0 0 66 0 79 66 0 79 67 0 0 67 0 0 67 0 0 67 0 79 67 0 79 67 0 79 67 0
79 67 0 79 67 0 0 67 0 0 67 0 0 67 0 0 67 0 0 67 0 79 67 0 0 67 0 0 68
0 0 68 0 0 68 0 0 68 0 79 68 0 79 68 0 79 68 0 79 68 0 79 68 0 0 68 0
0 68 0 79 68 0 79 68 0 79 68 0 79 68 0 0 68 0 0 69 0 0 69 0 0 69 0 0
69 0 79 69 0 79 69 0 79 69 0 79 69 0 79 69 0 79 69 0 79 69 0 79 69 0
79 69 0 79 69 0 79 69 0 0 69 0 0 69 0 0 69 0 0 69 0 0 70 0 79 70 0 79
70 0 0 70 0 0 70 0 0 70 0 79 70 0 79 70 0 79 70 0 79 70 0 79 70 0 79
70 0 0 70 0 0 70 0 0 70 0 0 70 0 79 70 0 0 70 0 0 70 0 0 70 0 0 70 0 0
70 0 78 71 0 78 71 0 78 71 0 78 71 0 78 71 0 78 71 0 0 71 0 0 71 0 78
71 0 78 71 0 78 71 0 0 71 0 0 71 0 0 71 0 0 71 0 0 71 0 78 71 0 77 71
0 77 71 0 77 71 0 77 71 0 77 71 0 77 71 0 77 71 0 77 71 0 77 71 0 77
71 0 0 71 0 0 71 0 0 71 0 0 71 0 0 71 0 76 71 0 76 71 0 0 71 0 0 71 0
0 71 0 76 71 0 76 71 0 76 71 0 76 71 0 76 71 0 76 71 0 0 71 0 0 71 0 0
71 0 0 71 0 75 71 0 0 71 0 0 71 0 0 71 0 0 71 0 0 71 0 75 71 0 75 71 0
75 71 0 74 71 0 74 71 0 74 71 0 0 71 0 0 71 0 74 71 0 74 71 0 74 71 0
0 71 0 0 71 0 0 71 0 0 71 0 0 71 0 73 71 0 73 71 0 73 71 0 73 71 0 73
71 0 0 71 0 73 71 0 73 71 0 73 71 0 72 71 0 72 71 0 0 71 0 0 71 0 0 71
0 0 71 0 0 71 0 72 71 0 72 71 0 0 71 0 0 71 0 0 71 0 71 71 0 71 71 0
71 71 0 71 71 0 71 71 0 71 71 0 0 71 0 0 71 0 0 71 0 0 71 0 70 71 0 0
71 0 0 71 0 0 71 0 0 71 0 0 70 0 70 70 0 70 70 0 70 70 0 69 70 0 69 70
0 69 70 0 0 70 0 0 70 0 69 70 0 69 70 0 69 70 0 0 70 0 0 70 0 0 70 0 0
70 0 0 70 0 68 70 0 68 70 0 68 70 0 68 70 0 68 70 0 0 69 0 68 69 0 67
69 0 67 69 0 67 69 0 67 69 0 0 69 0 0 69 0 0 69 0 0 69 0 0 69 0 67 69
0 67 69 0 0 69 0 0 69 0 0 69 0 0 69 0 66 69 0 66 69 0 66 68 0 66 68 0
66 68 0 0 68 0 0 68 0 0 68 0 0 68 0
79 66 0 0 66 0 0 66 0 0 66 0 0 66 0 79 66 0 0 66 0 0 66 0 0 66 0 0 66
0 0 66 0 0 66 0 80 66 0 80 66 0 80 67 0 80 67 0 80 67 0 0 67 0 80 67 0
80 67 0 80 67 0 80 67 0 80 67 0 0 67 0 0 67 0 0 67 0 0 67 0 0 67 0 80
68 0 80 68 0 81 68 0 81 68 0 0 68 0 0 68 0 81 68 0 81 68 0 81 68 0 81
68 0 81 68 0 0 68 0 0 68 0 0 68 0 0 68 0 0 69 0 0 69 0 81 69 0 0 69 0
0 69 0 0 69 0 0 69 0 81 69 0 81 69 0 81 69 0 81 69 0 81 69 0 81 69 0 0
69 0 0 69 0 0 69 0 81 70 0 81 70 0 0 70 0 0 70 0 0 70 0 0 70 0 0 70 0
0 70 0 81 70 0 81 70 0 81 70 0 81 70 0 81 70 0 0 70 0 81 70 0 81 70 0
81 70 0 81 71 0 81 71 0 0 71 0 0 71 0 0 71 0 0 71 0 0 71 0 81 71 0 81
71 0 81 71 0 81 71 0 0 71 0 0 71 0 81 71 0 81 71 0 81 71 0 81 71 0 80
71 0 0 71 0 0 71 0 0 71 0 0 72 0 0 72 0 80 72 0 80 72 0 0 72 0 0 72 0
0 72 0 0 72 0 80 72 0 80 72 0 80 72 0 80 72 0 80 72 0 0 72 0 0 72 0 0
72 0 0 72 0 79 72 0 79 72 0 0 72 0 0 72 0 0 72 0 0 72 0 0 72 0 79 72 0
79 72 0 79 72 0 79 72 0 79 72 0 79 72 0 0 72 0 79 73 0 78 73 0 78 73 0
78 73 0 0 73 0 0 73 0 0 73 0 0 73 0 0 73 0 0 73 0 78 73 0 78 73 0 78
73 0 78 73 0 0 73 0 77 73 0 77 73 0 77 73 0 77 73 0 77 73 0 77 73 0 0
73 0 0 73 0 0 73 0 0 73 0 0 73 0 76 73 0 0 73 0 0 73 0 0 73 0 0 73 0 0
73 0 76 73 0 76 73 0 76 73 0 76 73 0 75 73 0 0 73 0 0 73 0 0 73 0 0 73
0 75 73 0 75 73 0 0 73 0 0 73 0 0 73 0 0 73 0 0 73 0 74 73 0 74 73 0
74 73 0 74 73 0 74 73 0 74 73 0 0 73 0 74 73 0 74 73 0 73 72 0 73 72 0
0 72 0 0 72 0 0 72 0 0 72 0 0 72 0 0 72 0 73 72 0 73 72 0 72 72 0 72
72 0 0 72 0 72 72 0 72 72 0 72 72 0 72 72 0 72 72 0 72 72 0 0 72 0 0
72 0 0 72 0 0 72 0 0 72 0 71 72 0 0 72 0 0 72 0 0 72 0 0 72 0 0 72 0
70 72 0 70 71 0 70 71 0 70 71 0 70 71 0 0 71 0 0 71 0 0 71 0 0 71 0 69
71 0 69 71 0 0 71 0 0 71 0 0 71 0 0 71 0 0 71 0 69 71 0 69 71 0 69 71
0 68 71 0 68 71 0 68 71 0 0 70 0 68 70 0 68 70 0 68 70 0 68 70 0 0 70
0 0 70 0 0 70 0 0 70 0 0 70 0 67 70 0 67 70 0 67 70 0 67 70 0 0 70 0 0
70 0 67 70 0 66 69 0 66 69 0
0 67 0 0 67 0 0 67 0 0 67 0 81 67 0 0 67 0 0 67 0 0 67 0 0 67 0 0 67 0
0 67 0 81 67 0 82 67 0 82 68 0 82 68 0 82 68 0 82 68 0 0 68 0 82 68 0
82 68 0 82 68 0 82 68 0 0 68 0 0 68 0 0 68 0 0 68 0 0 69 0 0 69 0 82
69 0 82 69 0 82 69 0 82 69 0 0 69 0 0 69 0 83 69 0 83 69 0 83 69 0 83
69 0 83 69 0 0 69 0 0 69 0 0 70 0 0 70 0 0 70 0 0 70 0 83 70 0 83 70 0
0 70 0 0 70 0 0 70 0 0 70 0 83 70 0 83 70 0 83 70 0 83 70 0 83 70 0 0
71 0 0 71 0 0 71 0 0 71 0 0 71 0 83 71 0 0 71 0 0 71 0 0 71 0 0 71 0 0
71 0 0 71 0 83 71 0 83 71 0 83 71 0 83 71 0 83 72 0 0 72 0 0 72 0 83
72 0 83 72 0 83 72 0 83 72 0 0 72 0 0 72 0 0 72 0 0 72 0 0 72 0 83 72
0 82 72 0 82 72 0 82 72 0 82 72 0 0 72 0 82 72 0 82 72 0 82 73 0 82 73
0 82 73 0 82 73 0 0 73 0 0 73 0 0 73 0 0 73 0 0 73 0 82 73 0 82 73 0 0
73 0 0 73 0 0 73 0 0 73 0 81 73 0 81 73 0 81 73 0 81 73 0 81 73 0 81
73 0 0 73 0 0 73 0 0 73 0 0 73 0 81 74 0 0 74 0 0 74 0 0 74 0 0 74 0 0
74 0 0 74 0 80 74 0 80 74 0 80 74 0 80 74 0 80 74 0 80 74 0 0 74 0 80
74 0 80 74 0 80 74 0 80 74 0 0 74 0 0 74 0 0 74 0 0 74 0 0 74 0 0 74 0
79 74 0 79 74 0 79 74 0 79 74 0 0 74 0 0 74 0 78 74 0 78 74 0 78 74 0
78 74 0 78 74 0 0 74 0 0 74 0 0 74 0 0 74 0 0 74 0 0 74 0 77 74 0 77
74 0 0 74 0 0 74 0 0 74 0 0 74 0 77 74 0 77 74 0 77 74 0 77 74 0 76 74
0 0 74 0 0 74 0 0 74 0 0 74 0 0 74 0 76 74 0 0 74 0 0 74 0 0 74 0 0 74
0 0 74 0 0 74 0 75 74 0 75 74 0 75 74 0 75 74 0 75 74 0 0 74 0 0 74 0
74 74 0 74 74 0 74 74 0 74 74 0 0 74 0 0 74 0 0 74 0 0 74 0 0 74 0 0
73 0 73 73 0 73 73 0 73 73 0 73 73 0 0 73 0 73 73 0 73 73 0 73 73 0 73
73 0 72 73 0 72 73 0 0 73 0 0 73 0 0 73 0 0 73 0 0 73 0 0 73 0 72 73 0
0 73 0 0 73 0 0 73 0 0 73 0 71 73 0 71 73 0 71 73 0 71 72 0 71 72 0 71
72 0 0 72 0 0 72 0 0 72 0 0 72 0 70 72 0 0 72 0 0 72 0 0 72 0 0 72 0 0
72 0 0 72 0 69 72 0 69 72 0 69 72 0 69 72 0 69 72 0 69 71 0 0 71 0 69
71 0 68 71 0 68 71 0 68 71 0 0 71 0 0 71 0 0 71 0 0 71 0 0 71 0 0 71 0
68 71 0 67 71 0
0 68 0 0 68 0 0 68 0 83 68 0 83 68 0 0 68 0 0 68 0 0 68 0 0 68 0 0 68
0 0 68 0 83 69 0 83 69 0 83 69 0 83 69 0 84 69 0 0 69 0 84 69 0 84 69
0 84 69 0 84 69 0 84 69 0 0 69 0 0 69 0 0 69 0 0 70 0 0 70 0 0 70 0 84
70 0 84 70 0 84 70 0 84 70 0 0 70 0 0 70 0 84 70 0 84 70 0 84 70 0 84
70 0 84 70 0 84 71 0 0 71 0 0 71 0 0 71 0 0 71 0 0 71 0 85 71 0 0 71 0
0 71 0 0 71 0 0 71 0 0 71 0 85 71 0 85 71 0 85 72 0 85 72 0 85 72 0 85
72 0 0 72 0 0 72 0 0 72 0 0 72 0 85 72 0 85 72 0 0 72 0 0 72 0 0 72 0
0 72 0 0 72 0 0 72 0 85 73 0 85 73 0 85 73 0 85 73 0 85 73 0 85 73 0 0
73 0 84 73 0 84 73 0 84 73 0 84 73 0 0 73 0 0 73 0 0 73 0 0 73 0 0 73
0 0 73 0 84 73 0 84 74 0 84 74 0 84 74 0 0 74 0 0 74 0 84 74 0 84 74 0
84 74 0 84 74 0 84 74 0 84 74 0 0 74 0 0 74 0 0 74 0 0 74 0 0 74 0 0
74 0 83 74 0 0 74 0 0 74 0 0 74 0 0 74 0 0 74 0 83 75 0 83 75 0 83 75
0 83 75 0 83 75 0 0 75 0 0 75 0 0 75 0 0 75 0 82 75 0 82 75 0 0 75 0 0
75 0 0 75 0 0 75 0 0 75 0 0 75 0 82 75 0 82 75 0 82 75 0 81 75 0 81 75
0 81 75 0 0 75 0 81 75 0 81 75 0 81 75 0 81 75 0 81 75 0 0 75 0 0 75 0
0 75 0 0 75 0 0 75 0 0 75 0 80 75 0 80 75 0 80 75 0 0 75 0 0 75 0 80
75 0 80 75 0 79 75 0 79 75 0 79 75 0 79 75 0 0 75 0 0 75 0 0 75 0 0 75
0 0 75 0 0 75 0 78 75 0 0 75 0 0 75 0 0 75 0 0 75 0 0 75 0 78 75 0 78
75 0 78 75 0 78 75 0 77 75 0 77 75 0 0 75 0 0 75 0 0 75 0 0 75 0 77 75
0 77 75 0 0 75 0 0 75 0 0 75 0 0 75 0 0 75 0 76 75 0 76 75 0 76 75 0
76 75 0 76 75 0 76 75 0 0 75 0 75 75 0 75 75 0 75 75 0 75 75 0 75 75 0
0 75 0 0 75 0 0 75 0 0 75 0 0 75 0 0 75 0 74 75 0 74 75 0 74 75 0 74
74 0 0 74 0 0 74 0 73 74 0 73 74 0 73 74 0 73 74 0 73 74 0 0 74 0 0 74
0 0 74 0 0 74 0 0 74 0 0 74 0 72 74 0 0 74 0 0 74 0 0 74 0 0 74 0 0 74
0 72 74 0 72 74 0 71 74 0 71 73 0 71 73 0 71 73 0 0 73 0 0 73 0 0 73 0
0 73 0 71 73 0 70 73 0 0 73 0 0 73 0 0 73 0 0 73 0 0 73 0 0 73 0 70 73
0 70 73 0 70 73 0 69 72 0 69 72 0 0 72 0 69 72 0 69 72 0 69 72 0 69 72
0 69 72 0 0 72 0
84 69 0 85 69 0 85 69 0 85 69 0 0 69 0 0 69 0 0 69 0 0 69 0 0 69 0 0
69 0 85 70 0 85 70 0 85 70 0 85 70 0 85 70 0 0 70 0 85 70 0 86 70 0 86
70 0 86 70 0 86 70 0 86 70 0 0 70 0 0 70 0 0 71 0 0 71 0 0 71 0 0 71 0
86 71 0 86 71 0 0 71 0 0 71 0 0 71 0 0 71 0 86 71 0 86 71 0 86 71 0 86
72 0 86 72 0 86 72 0 0 72 0 0 72 0 0 72 0 0 72 0 0 72 0 86 72 0 0 72 0
0 72 0 0 72 0 0 72 0 0 72 0 0 73 0 86 73 0 86 73 0 87 73 0 87 73 0 87
73 0 86 73 0 0 73 0 0 73 0 86 73 0 86 73 0 86 73 0 86 73 0 0 73 0 0 73
0 0 74 0 0 74 0 0 74 0 0 74 0 86 74 0 86 74 0 86 74 0 86 74 0 86 74 0
0 74 0 86 74 0 86 74 0 86 74 0 86 74 0 86 74 0 86 74 0 0 74 0 0 75 0 0
75 0 0 75 0 0 75 0 0 75 0 86 75 0 86 75 0 0 75 0 0 75 0 0 75 0 0 75 0
85 75 0 85 75 0 85 75 0 85 75 0 85 75 0 85 75 0 0 75 0 0 75 0 0 75 0 0
75 0 0 76 0 85 76 0 0 76 0 0 76 0 0 76 0 0 76 0 0 76 0 0 76 0 84 76 0
84 76 0 84 76 0 84 76 0 84 76 0 84 76 0 0 76 0 0 76 0 84 76 0 84 76 0
84 76 0 84 76 0 0 76 0 0 76 0 0 76 0 0 76 0 0 76 0 0 76 0 83 76 0 83
76 0 83 76 0 83 76 0 83 76 0 0 76 0 82 76 0 82 77 0 82 77 0 82 77 0 82
77 0 82 77 0 0 77 0 0 77 0 0 77 0 0 77 0 0 77 0 0 77 0 81 77 0 81 77 0
0 77 0 0 77 0 0 77 0 0 77 0 81 77 0 81 77 0 80 77 0 80 77 0 80 77 0 80
77 0 0 77 0 0 77 0 0 77 0 0 77 0 0 77 0 80 77 0 0 77 0 0 77 0 0 77 0 0
77 0 0 77 0 0 77 0 79 77 0 79 77 0 79 77 0 78 77 0 78 77 0 78 77 0 0
77 0 0 77 0 78 77 0 78 76 0 78 76 0 78 76 0 0 76 0 0 76 0 0 76 0 0 76
0 0 76 0 0 76 0 77 76 0 77 76 0 77 76 0 76 76 0 76 76 0 0 76 0 76 76 0
76 76 0 76 76 0 76 76 0 76 76 0 76 76 0 0 76 0 0 76 0 0 76 0 0 76 0 0
76 0 0 76 0 75 76 0 75 76 0 0 76 0 0 76 0 0 76 0 0 76 0 74 75 0 74 75
0 74 75 0 74 75 0 74 75 0 74 75 0 0 75 0 0 75 0 0 75 0 0 75 0 0 75 0
73 75 0 0 75 0 0 75 0 0 75 0 0 75 0 0 75 0 0 75 0 72 75 0 72 75 0 72
75 0 72 74 0 72 74 0 72 74 0 0 74 0 0 74 0 71 74 0 71 74 0 71 74 0 71
74 0 0 74 0 0 74 0 0 74 0 0 74 0 0 74 0 0 74 0 70 74 0 70 74 0 70 73 0
70 73 0 70 73 0 0 73 0
86 70 0 86 70 0 87 70 0 87 70 0 0 70 0 0 70 0 0 70 0 0 70 0 0 70 0 0
70 0 0 71 0 87 71 0 87 71 0 0 71 0 0 71 0 0 71 0 0 71 0 87 71 0 87 71
0 87 71 0 88 71 0 88 71 0 88 72 0 0 72 0 0 72 0 0 72 0 0 72 0 0 72 0
88 72 0 0 72 0 0 72 0 0 72 0 0 72 0 0 72 0 0 72 0 88 72 0 88 73 0 88
73 0 88 73 0 88 73 0 88 73 0 0 73 0 0 73 0 0 73 0 88 73 0 88 73 0 88
73 0 88 73 0 0 73 0 0 74 0 0 74 0 0 74 0 0 74 0 0 74 0 88 74 0 88 74 0
88 74 0 88 74 0 88 74 0 0 74 0 88 74 0 88 74 0 88 74 0 88 74 0 88 75 0
88 75 0 0 75 0 0 75 0 0 75 0 0 75 0 0 75 0 0 75 0 88 75 0 88 75 0 0 75
0 0 75 0 0 75 0 0 75 0 0 75 0 88 75 0 88 76 0 88 76 0 88 76 0 88 76 0
88 76 0 0 76 0 0 76 0 0 76 0 0 76 0 0 76 0 87 76 0 0 76 0 0 76 0 0 76
0 0 76 0 0 76 0 0 76 0 87 76 0 87 76 0 87 77 0 87 77 0 87 77 0 87 77 0
0 77 0 0 77 0 86 77 0 86 77 0 86 77 0 86 77 0 0 77 0 0 77 0 0 77 0 0
77 0 0 77 0 0 77 0 0 77 0 86 77 0 86 77 0 85 77 0 85 77 0 85 77 0 0 77
0 85 77 0 85 77 0 85 77 0 85 77 0 85 78 0 85 78 0 0 78 0 0 78 0 0 78 0
0 78 0 0 78 0 0 78 0 84 78 0 84 78 0 0 78 0 0 78 0 0 78 0 0 78 0 83 78
0 83 78 0 83 78 0 83 78 0 83 78 0 83 78 0 0 78 0 0 78 0 0 78 0 0 78 0
0 78 0 0 78 0 82 78 0 0 78 0 0 78 0 0 78 0 0 78 0 0 78 0 0 78 0 82 78
0 81 78 0 81 78 0 81 78 0 81 78 0 81 78 0 0 78 0 0 78 0 81 78 0 81 78
0 80 78 0 80 78 0 0 78 0 0 78 0 0 78 0 0 78 0 0 78 0 0 78 0 80 78 0 79
78 0 79 78 0 79 78 0 79 78 0 79 78 0 79 78 0 79 78 0 79 78 0 79 78 0
78 78 0 78 78 0 78 78 0 0 78 0 0 78 0 0 78 0 0 78 0 0 77 0 0 77 0 77
77 0 77 77 0 0 77 0 0 77 0 0 77 0 0 77 0 77 77 0 77 77 0 76 77 0 76 77
0 76 77 0 76 77 0 0 77 0 0 77 0 0 77 0 0 77 0 0 77 0 75 77 0 0 77 0 0
77 0 0 77 0 0 77 0 0 77 0 0 77 0 0 77 0 74 76 0 74 76 0 74 76 0 74 76
0 74 76 0 74 76 0 0 76 0 0 76 0 74 76 0 73 76 0 73 76 0 73 76 0 0 76 0
0 76 0 0 76 0 0 76 0 0 76 0 0 76 0 72 76 0 72 75 0 72 75 0 72 75 0 72
75 0 0 75 0 72 75 0 72 75 0 72 75 0 71 75 0 71 75 0 71 75 0 0 75 0 0
75 0 0 75 0 0 75 0 0 75 0
88 71 0 88 71 0 88 71 0 88 71 0 89 71 0 0 71 0 0 71 0 0 71 0 0 71 0 89
72 0 89 72 0 0 72 0 0 72 0 0 72 0 0 72 0 0 72 0 0 72 0 0 72 0 89 72 0
89 72 0 89 72 0 89 73 0 89 73 0 90 73 0 0 73 0 90 73 0 90 73 0 90 73 0
90 73 0 90 73 0 0 73 0 0 73 0 0 73 0 0 73 0 0 74 0 0 74 0 0 74 0 90 74
0 90 74 0 90 74 0 90 74 0 0 74 0 0 74 0 90 74 0 90 74 0 90 74 0 90 74
0 90 74 0 90 75 0 0 75 0 0 75 0 0 75 0 0 75 0 0 75 0 0 75 0 0 75 0 90
75 0 0 75 0 0 75 0 0 75 0 0 75 0 0 75 0 90 76 0 90 76 0 90 76 0 90 76
0 90 76 0 90 76 0 0 76 0 0 76 0 0 76 0 0 76 0 0 76 0 90 76 0 90 76 0 0
76 0 0 76 0 0 77 0 0 77 0 0 77 0 0 77 0 89 77 0 89 77 0 89 77 0 89 77
0 89 77 0 89 77 0 0 77 0 0 77 0 89 77 0 89 77 0 89 77 0 89 77 0 89 77
0 0 77 0 0 78 0 0 78 0 0 78 0 0 78 0 0 78 0 88 78 0 88 78 0 88 78 0 88
78 0 0 78 0 0 78 0 88 78 0 88 78 0 88 78 0 88 78 0 88 78 0 88 78 0 87
78 0 0 78 0 0 78 0 0 78 0 0 78 0 0 78 0 0 78 0 87 79 0 0 79 0 0 79 0 0
79 0 0 79 0 0 79 0 86 79 0 86 79 0 86 79 0 86 79 0 86 79 0 86 79 0 86
79 0 0 79 0 0 79 0 0 79 0 0 79 0 85 79 0 85 79 0 0 79 0 0 79 0 0 79 0
0 79 0 0 79 0 0 79 0 85 79 0 84 79 0 84 79 0 84 79 0 84 79 0 84 79 0
84 79 0 0 79 0 84 79 0 84 79 0 83 79 0 83 79 0 83 79 0 0 79 0 0 79 0 0
79 0 0 79 0 0 79 0 0 79 0 0 79 0 82 79 0 82 79 0 82 79 0 82 79 0 0 79
0 0 79 0 82 79 0 82 79 0 81 79 0 81 79 0 81 79 0 81 79 0 0 79 0 0 79 0
0 79 0 0 79 0 0 79 0 0 79 0 0 79 0 80 79 0 0 79 0 0 79 0 0 79 0 0 79 0
0 79 0 79 79 0 79 79 0 79 79 0 79 79 0 79 79 0 79 79 0 0 79 0 0 79 0 0
79 0 0 79 0 0 79 0 78 79 0 78 79 0 0 79 0 0 78 0 0 78 0 0 78 0 0 78 0
0 78 0 77 78 0 77 78 0 77 78 0 77 78 0 77 78 0 77 78 0 0 78 0 76 78 0
76 78 0 76 78 0 76 78 0 76 78 0 76 78 0 0 78 0 0 78 0 0 78 0 0 78 0 0
78 0 0 77 0 75 77 0 75 77 0 75 77 0 75 77 0 0 77 0 0 77 0 74 77 0 74
77 0 74 77 0 74 77 0 74 77 0 74 77 0 74 77 0 0 77 0 0 77 0 0 77 0 0 77
0 0 76 0 0 76 0 73 76 0 0 76 0 0 76 0 0 76 0 0 76 0 0 76 0 72 76 0 72
76 0 72 76 0 72 76 0
90 72 0 90 72 0 90 72 0 90 72 0 90 72 0 0 72 0 91 72 0 91 72 0 91 73 0
91 73 0 91 73 0 91 73 0 0 73 0 0 73 0 0 73 0 0 73 0 0 73 0 0 73 0 0 73
0 91 73 0 91 73 0 0 74 0 0 74 0 0 74 0 0 74 0 91 74 0 91 74 0 92 74 0
92 74 0 92 74 0 92 74 0 92 74 0 0 74 0 0 75 0 0 75 0 0 75 0 0 75 0 92
75 0 0 75 0 0 75 0 0 75 0 0 75 0 0 75 0 0 75 0 0 75 0 92 75 0 92 76 0
92 76 0 92 76 0 92 76 0 92 76 0 0 76 0 0 76 0 0 76 0 92 76 0 92 76 0
92 76 0 92 76 0 0 76 0 0 76 0 0 77 0 0 77 0 0 77 0 0 77 0 92 77 0 92
77 0 92 77 0 92 77 0 92 77 0 92 77 0 0 77 0 92 77 0 91 77 0 91 77 0 91
77 0 91 78 0 91 78 0 0 78 0 0 78 0 0 78 0 0 78 0 0 78 0 0 78 0 0 78 0
91 78 0 91 78 0 0 78 0 0 78 0 0 78 0 0 78 0 91 78 0 91 78 0 91 79 0 90
79 0 90 79 0 90 79 0 90 79 0 0 79 0 0 79 0 0 79 0 0 79 0 0 79 0 0 79 0
0 79 0 0 79 0 0 79 0 0 79 0 0 79 0 0 79 0 0 79 0 89 79 0 89 79 0 89 79
0 89 80 0 89 80 0 89 80 0 0 80 0 0 80 0 0 80 0 88 80 0 88 80 0 88 80 0
88 80 0 0 80 0 0 80 0 0 80 0 0 80 0 0 80 0 0 80 0 87 80 0 87 80 0 87
80 0 87 80 0 87 80 0 87 80 0 0 80 0 87 80 0 87 80 0 87 80 0 86 80 0 86
80 0 86 80 0 86 80 0 0 80 0 0 80 0 0 80 0 0 80 0 0 80 0 0 80 0 85 80 0
85 80 0 0 80 0 0 80 0 0 80 0 0 80 0 0 80 0 85 80 0 84 80 0 84 80 0 84
80 0 84 80 0 84 80 0 0 80 0 0 80 0 0 80 0 0 80 0 0 80 0 0 80 0 83 80 0
0 80 0 0 80 0 0 80 0 0 80 0 0 80 0 0 80 0 82 80 0 82 80 0 82 80 0 82
80 0 82 80 0 82 80 0 82 80 0 0 80 0 0 80 0 81 80 0 81 80 0 81 80 0 81
80 0 0 80 0 0 80 0 0 80 0 0 80 0 0 80 0 0 80 0 0 80 0 80 80 0 80 80 0
80 80 0 80 80 0 79 80 0 0 80 0 79 80 0 79 80 0 79 80 0 79 80 0 79 80 0
79 80 0 78 80 0 0 80 0 0 80 0 0 79 0 0 79 0 0 79 0 0 79 0 78 79 0 77
79 0 77 79 0 0 79 0 0 79 0 0 79 0 0 79 0 77 79 0 77 79 0 77 79 0 76 79
0 76 79 0 76 79 0 0 79 0 0 79 0 0 79 0 0 79 0 0 78 0 0 78 0 75 78 0 0
78 0 0 78 0 0 78 0 0 78 0 0 78 0 0 78 0 75 78 0 74 78 0 74 78 0 74 78
0 74 78 0 74 78 0 74 78 0 0 78 0 0 77 0 73 77 0 73 77 0 73 77 0 73 77
0 0 77 0 0 77 0 0 77 0
0 73 0 0 73 0 0 73 0 0 73 0 0 73 0 0 73 0 0 73 0 92 73 0 93 74 0 93 74
0 93 74 0 93 74 0 93 74 0 0 74 0 0 74 0 0 74 0 93 74 0 93 74 0 93 74 0
93 74 0 0 75 0 0 75 0 0 75 0 0 75 0 0 75 0 0 75 0 0 75 0 93 75 0 93 75
0 93 75 0 93 75 0 93 75 0 93 76 0 94 76 0 94 76 0 94 76 0 94 76 0 94
76 0 94 76 0 94 76 0 0 76 0 0 76 0 0 76 0 0 76 0 0 76 0 0 77 0 0 77 0
94 77 0 94 77 0 94 77 0 0 77 0 0 77 0 0 77 0 0 77 0 94 77 0 94 77 0 94
77 0 94 77 0 94 78 0 94 78 0 0 78 0 0 78 0 0 78 0 0 78 0 0 78 0 0 78 0
93 78 0 0 78 0 0 78 0 0 78 0 0 78 0 0 78 0 0 78 0 0 79 0 93 79 0 93 79
0 93 79 0 93 79 0 93 79 0 93 79 0 0 79 0 0 79 0 0 79 0 93 79 0 93 79 0
93 79 0 92 79 0 0 79 0 0 79 0 0 80 0 0 80 0 0 80 0 0 80 0 0 80 0 92 80
0 92 80 0 92 80 0 92 80 0 92 80 0 92 80 0 92 80 0 91 80 0 91 80 0 91
80 0 91 80 0 91 80 0 91 80 0 0 80 0 0 80 0 0 81 0 0 81 0 0 81 0 0 81 0
0 81 0 90 81 0 90 81 0 90 81 0 0 81 0 0 81 0 0 81 0 90 81 0 90 81 0 90
81 0 90 81 0 89 81 0 89 81 0 89 81 0 0 81 0 0 81 0 0 81 0 0 81 0 0 81
0 0 81 0 89 81 0 0 81 0 0 81 0 0 81 0 0 81 0 0 81 0 0 81 0 0 82 0 88
82 0 88 82 0 87 82 0 87 82 0 87 82 0 87 82 0 0 82 0 0 82 0 0 82 0 87
82 0 86 82 0 86 82 0 86 82 0 0 82 0 0 82 0 0 82 0 0 82 0 0 82 0 0 82 0
0 82 0 85 82 0 85 82 0 85 82 0 85 82 0 85 82 0 85 82 0 85 82 0 84 82 0
84 82 0 84 82 0 84 82 0 84 82 0 84 82 0 0 82 0 0 82 0 0 82 0 0 82 0 0
82 0 0 82 0 0 82 0 83 82 0 83 82 0 0 82 0 0 82 0 0 81 0 0 81 0 82 81 0
82 81 0 82 81 0 82 81 0 82 81 0 81 81 0 81 81 0 0 81 0 0 81 0 0 81 0 0
81 0 0 81 0 0 81 0 80 81 0 0 81 0 0 81 0 0 81 0 0 81 0 0 81 0 0 81 0
80 81 0 79 81 0 79 81 0 79 81 0 79 81 0 79 81 0 79 81 0 0 81 0 0 81 0
0 80 0 78 80 0 78 80 0 78 80 0 78 80 0 0 80 0 0 80 0 0 80 0 0 80 0 0
80 0 0 80 0 0 80 0 77 80 0 77 80 0 77 80 0 77 80 0 77 80 0 76 80 0 76
80 0 76 80 0 76 79 0 76 79 0 76 79 0 76 79 0 76 79 0 0 79 0 0 79 0 0
79 0 0 79 0 0 79 0 0 79 0 0 79 0 75 79 0 74 79 0 0 79 0 0 79 0 0 78 0
0 78 0 74 78 0 74 78 0
94 74 0 0 74 0 0 74 0 0 74 0 0 74 0 0 74 0 0 74 0 0 74 0 94 75 0 94 75
0 0 75 0 0 75 0 0 75 0 0 75 0 0 75 0 95 75 0 95 75 0 95 75 0 95 75 0
95 75 0 95 76 0 95 76 0 0 76 0 0 76 0 0 76 0 0 76 0 0 76 0 0 76 0 95
76 0 0 76 0 0 76 0 0 76 0 0 77 0 0 77 0 0 77 0 0 77 0 95 77 0 95 77 0
95 77 0 95 77 0 95 77 0 95 77 0 0 77 0 0 77 0 0 78 0 95 78 0 95 78 0
95 78 0 95 78 0 0 78 0 0 78 0 0 78 0 0 78 0 0 78 0 0 78 0 0 78 0 95 78
0 95 79 0 95 79 0 95 79 0 95 79 0 95 79 0 0 79 0 95 79 0 95 79 0 95 79
0 95 79 0 95 79 0 95 79 0 95 79 0 0 79 0 0 80 0 0 80 0 0 80 0 0 80 0 0
80 0 0 80 0 95 80 0 95 80 0 0 80 0 0 80 0 0 80 0 0 80 0 0 80 0 94 80 0
94 80 0 94 80 0 94 81 0 94 81 0 94 81 0 94 81 0 0 81 0 0 81 0 0 81 0 0
81 0 0 81 0 93 81 0 0 81 0 0 81 0 0 81 0 0 81 0 0 81 0 0 81 0 0 81 0
93 81 0 93 82 0 93 82 0 93 82 0 92 82 0 92 82 0 92 82 0 0 82 0 0 82 0
92 82 0 92 82 0 92 82 0 92 82 0 92 82 0 0 82 0 0 82 0 0 82 0 0 82 0 0
82 0 0 82 0 0 82 0 91 82 0 91 82 0 91 82 0 90 82 0 90 82 0 90 82 0 0
82 0 90 83 0 90 83 0 90 83 0 90 83 0 90 83 0 89 83 0 89 83 0 0 83 0 0
83 0 0 83 0 0 83 0 0 83 0 0 83 0 89 83 0 88 83 0 88 83 0 0 83 0 0 83 0
0 83 0 0 83 0 88 83 0 88 83 0 87 83 0 87 83 0 87 83 0 87 83 0 87 83 0
0 83 0 0 83 0 0 83 0 0 83 0 0 83 0 0 83 0 86 83 0 0 83 0 0 83 0 0 83 0
0 83 0 0 83 0 0 83 0 0 83 0 85 83 0 85 83 0 85 83 0 85 83 0 85 83 0 84
83 0 84 83 0 0 83 0 0 83 0 84 83 0 84 83 0 84 83 0 84 83 0 83 83 0 0
83 0 0 83 0 0 83 0 0 83 0 0 83 0 0 83 0 83 83 0 82 83 0 82 82 0 82 82
0 82 82 0 82 82 0 0 82 0 82 82 0 82 82 0 81 82 0 81 82 0 81 82 0 81 82
0 81 82 0 0 82 0 0 82 0 0 82 0 0 82 0 0 82 0 0 82 0 0 82 0 80 82 0 80
82 0 0 82 0 0 82 0 0 82 0 0 82 0 0 82 0 79 82 0 79 81 0 79 81 0 79 81
0 78 81 0 78 81 0 78 81 0 0 81 0 0 81 0 0 81 0 0 81 0 0 81 0 0 81 0 77
81 0 0 81 0 0 81 0 0 81 0 0 81 0 0 81 0 0 80 0 0 80 0 76 80 0 76 80 0
76 80 0 76 80 0 76 80 0 76 80 0 0 80 0 0 80 0 0 80 0 75 80 0 75 80 0
75 80 0 75 80 0 0 80 0
96 75 0 96 75 0 96 75 0 0 75 0 96 75 0 96 75 0 96 75 0 96 75 0 96 76 0
96 76 0 0 76 0 0 76 0 0 76 0 0 76 0 0 76 0 0 76 0 0 76 0 97 76 0 97 76
0 97 77 0 97 77 0 0 77 0 0 77 0 0 77 0 97 77 0 97 77 0 97 77 0 97 77 0
97 77 0 97 77 0 97 77 0 0 78 0 0 78 0 0 78 0 0 78 0 0 78 0 0 78 0 0 78
0 97 78 0 0 78 0 0 78 0 0 78 0 0 78 0 0 79 0 0 79 0 97 79 0 97 79 0 97
79 0 97 79 0 97 79 0 97 79 0 97 79 0 0 79 0 0 79 0 0 79 0 0 79 0 0 80
0 97 80 0 97 80 0 0 80 0 0 80 0 0 80 0 0 80 0 0 80 0 0 80 0 0 80 0 97
80 0 97 80 0 97 80 0 97 80 0 97 81 0 97 81 0 97 81 0 0 81 0 96 81 0 96
81 0 96 81 0 96 81 0 96 81 0 96 81 0 0 81 0 0 81 0 0 81 0 0 81 0 0 81
0 0 82 0 0 82 0 96 82 0 96 82 0 96 82 0 95 82 0 95 82 0 0 82 0 0 82 0
95 82 0 95 82 0 95 82 0 95 82 0 95 82 0 95 82 0 95 82 0 0 82 0 0 83 0
0 83 0 0 83 0 0 83 0 0 83 0 0 83 0 94 83 0 0 83 0 0 83 0 0 83 0 0 83 0
0 83 0 0 83 0 93 83 0 93 83 0 93 83 0 93 83 0 93 83 0 93 83 0 93 83 0
93 83 0 0 83 0 0 83 0 0 83 0 0 84 0 92 84 0 92 84 0 92 84 0 0 84 0 0
84 0 0 84 0 0 84 0 0 84 0 0 84 0 0 84 0 91 84 0 91 84 0 91 84 0 91 84
0 90 84 0 90 84 0 90 84 0 0 84 0 90 84 0 90 84 0 90 84 0 90 84 0 89 84
0 89 84 0 0 84 0 0 84 0 0 84 0 0 84 0 0 84 0 0 84 0 0 84 0 88 84 0 88
84 0 88 84 0 88 84 0 0 84 0 0 84 0 0 84 0 87 84 0 87 84 0 87 84 0 87
84 0 87 84 0 87 84 0 87 84 0 0 84 0 0 84 0 0 84 0 0 84 0 0 84 0 0 84 0
0 84 0 86 84 0 0 84 0 0 84 0 0 84 0 0 84 0 0 84 0 0 84 0 85 84 0 85 84
0 84 84 0 84 84 0 84 84 0 84 84 0 84 84 0 0 84 0 0 84 0 0 84 0 0 84 0
83 84 0 83 84 0 83 84 0 0 84 0 0 84 0 0 84 0 0 83 0 0 83 0 0 83 0 0 83
0 82 83 0 82 83 0 82 83 0 81 83 0 81 83 0 81 83 0 81 83 0 0 83 0 81 83
0 81 83 0 81 83 0 80 83 0 80 83 0 80 83 0 0 83 0 0 83 0 0 83 0 0 83 0
0 83 0 0 82 0 0 82 0 79 82 0 79 82 0 79 82 0 79 82 0 79 82 0 0 82 0 0
82 0 78 82 0 78 82 0 78 82 0 78 82 0 78 82 0 78 82 0 78 82 0 0 82 0 0
82 0 0 81 0 0 81 0 0 81 0 0 81 0 0 81 0 77 81 0 0 81 0 0 81 0 0 81 0 0
81 0 0 81 0 0 81 0
0 76 0 0 76 0 0 76 0 0 76 0 0 76 0 98 76 0 98 76 0 98 76 0 98 77 0 98
77 0 98 77 0 98 77 0 0 77 0 0 77 0 98 77 0 98 77 0 98 77 0 99 77 0 99
77 0 0 78 0 0 78 0 0 78 0 0 78 0 0 78 0 0 78 0 0 78 0 99 78 0 99 78 0
99 78 0 99 78 0 99 78 0 99 79 0 0 79 0 0 79 0 99 79 0 99 79 0 99 79 0
99 79 0 99 79 0 99 79 0 99 79 0 0 79 0 0 79 0 0 80 0 0 80 0 0 80 0 0
80 0 0 80 0 99 80 0 99 80 0 99 80 0 0 80 0 0 80 0 0 80 0 0 80 0 99 81
0 99 81 0 99 81 0 99 81 0 99 81 0 99 81 0 99 81 0 99 81 0 0 81 0 0 81
0 0 81 0 0 81 0 0 81 0 0 82 0 98 82 0 0 82 0 0 82 0 0 82 0 0 82 0 0 82
0 0 82 0 0 82 0 98 82 0 98 82 0 98 82 0 98 82 0 98 82 0 98 82 0 98 83
0 0 83 0 0 83 0 0 83 0 97 83 0 97 83 0 97 83 0 97 83 0 0 83 0 0 83 0 0
83 0 0 83 0 0 83 0 0 83 0 0 83 0 0 83 0 96 83 0 96 84 0 96 84 0 96 84
0 96 84 0 96 84 0 0 84 0 96 84 0 96 84 0 95 84 0 95 84 0 95 84 0 95 84
0 95 84 0 0 84 0 0 84 0 0 84 0 0 84 0 0 84 0 0 84 0 0 84 0 94 84 0 94
85 0 94 85 0 0 85 0 0 85 0 0 85 0 0 85 0 93 85 0 93 85 0 93 85 0 93 85
0 93 85 0 93 85 0 93 85 0 93 85 0 0 85 0 0 85 0 0 85 0 0 85 0 0 85 0 0
85 0 92 85 0 0 85 0 0 85 0 0 85 0 0 85 0 0 85 0 0 85 0 0 85 0 91 85 0
91 85 0 90 85 0 90 85 0 90 85 0 90 85 0 90 85 0 0 85 0 0 85 0 0 85 0
89 85 0 89 85 0 89 85 0 89 85 0 0 85 0 0 85 0 0 85 0 0 85 0 0 85 0 0
85 0 0 85 0 0 85 0 88 85 0 88 85 0 88 85 0 87 85 0 87 85 0 87 85 0 0
85 0 87 85 0 87 85 0 87 85 0 86 85 0 86 85 0 86 85 0 86 85 0 0 85 0 0
85 0 0 85 0 0 85 0 0 85 0 0 85 0 0 85 0 85 85 0 85 85 0 85 85 0 0 85 0
0 85 0 0 85 0 0 85 0 0 85 0 84 85 0 84 85 0 84 85 0 84 85 0 83 85 0 83
85 0 83 85 0 0 85 0 0 85 0 0 84 0 0 84 0 0 84 0 0 84 0 82 84 0 0 84 0
0 84 0 0 84 0 0 84 0 0 84 0 0 84 0 0 84 0 81 84 0 81 84 0 81 84 0 81
84 0 81 84 0 80 84 0 80 84 0 0 84 0 0 84 0 0 84 0 80 83 0 80 83 0 80
83 0 79 83 0 79 83 0 0 83 0 0 83 0 0 83 0 0 83 0 0 83 0 0 83 0 0 83 0
78 83 0 78 83 0 78 83 0 78 83 0 78 83 0 78 82 0 0 82 0 77 82 0 77 82 0
77 82 0 77 82 0 77 82 0 77 82 0
0 77 0 0 77 0 0 77 0 0 77 0 0 77 0 0 77 0 0 77 0 0 77 0 0 78 0 0 78 0
0 78 0 0 78 0 0 78 0 0 78 0 0 78 0 100 78 0 100 78 0 100 78 0 100 78 0
100 79 0 100 79 0 100 79 0 0 79 0 0 79 0 0 79 0 101 79 0 101 79 0 101
79 0 101 79 0 0 79 0 0 80 0 0 80 0 0 80 0 0 80 0 0 80 0 0 80 0 0 80 0
101 80 0 101 80 0 101 80 0 101 80 0 101 80 0 101 81 0 0 81 0 101 81 0
101 81 0 101 81 0 101 81 0 101 81 0 101 81 0 101 81 0 0 81 0 0 81 0 0
81 0 0 82 0 0 82 0 0 82 0 0 82 0 0 82 0 100 82 0 100 82 0 100 82 0 0
82 0 0 82 0 0 82 0 0 82 0 100 82 0 100 83 0 100 83 0 100 83 0 100 83 0
100 83 0 100 83 0 100 83 0 0 83 0 0 83 0 0 83 0 0 83 0 0 83 0 0 83 0
99 83 0 0 83 0 0 84 0 0 84 0 0 84 0 0 84 0 0 84 0 0 84 0 99 84 0 99 84
0 99 84 0 98 84 0 98 84 0 98 84 0 98 84 0 98 84 0 0 84 0 0 84 0 0 85 0
98 85 0 98 85 0 98 85 0 97 85 0 0 85 0 0 85 0 0 85 0 0 85 0 0 85 0 0
85 0 0 85 0 0 85 0 97 85 0 96 85 0 96 85 0 96 85 0 96 85 0 96 85 0 0
85 0 96 86 0 96 86 0 96 86 0 95 86 0 95 86 0 95 86 0 95 86 0 0 86 0 0
86 0 0 86 0 0 86 0 0 86 0 0 86 0 0 86 0 0 86 0 94 86 0 94 86 0 94 86 0
0 86 0 0 86 0 0 86 0 0 86 0 93 86 0 93 86 0 93 86 0 93 86 0 93 86 0 93
86 0 92 86 0 0 86 0 0 86 0 0 86 0 0 86 0 0 86 0 0 86 0 0 86 0 91 86 0
0 86 0 0 87 0 0 87 0 0 87 0 0 87 0 0 87 0 0 87 0 90 87 0 90 87 0 90 87
0 90 87 0 90 87 0 90 87 0 89 87 0 89 87 0 0 87 0 0 87 0 0 87 0 89 87 0
89 87 0 88 87 0 88 86 0 0 86 0 0 86 0 0 86 0 0 86 0 0 86 0 0 86 0 0 86
0 87 86 0 87 86 0 87 86 0 87 86 0 87 86 0 87 86 0 86 86 0 0 86 0 86 86
0 86 86 0 86 86 0 86 86 0 86 86 0 85 86 0 85 86 0 0 86 0 0 86 0 0 86 0
0 86 0 0 86 0 0 86 0 0 86 0 84 86 0 84 86 0 84 86 0 84 86 0 0 86 0 0
86 0 0 86 0 0 86 0 83 86 0 83 85 0 83 85 0 83 85 0 83 85 0 82 85 0 82
85 0 0 85 0 0 85 0 0 85 0 0 85 0 0 85 0 0 85 0 0 85 0 81 85 0 0 85 0 0
85 0 0 85 0 0 85 0 0 85 0 0 85 0 0 84 0 80 84 0 80 84 0 80 84 0 80 84
0 80 84 0 80 84 0 79 84 0 0 84 0 0 84 0 0 84 0 0 84 0 79 84 0 79 84 0
79 84 0 78 84 0 0 83 0 0 83 0 0 83 0 0 83 0 0 83 0
0 78 0 0 78 0 101 78 0 102 78 0 102 78 0 102 78 0 102 78 0 102 78 0
102 79 0 102 79 0 0 79 0 0 79 0 0 79 0 0 79 0 0 79 0 0 79 0 0 79 0 0
79 0 0 79 0 0 80 0 0 80 0 0 80 0 0 80 0 0 80 0 0 80 0 102 80 0 102 80
0 102 80 0 102 80 0 102 80 0 102 81 0 102 81 0 0 81 0 0 81 0 0 81 0 0
81 0 103 81 0 103 81 0 103 81 0 103 81 0 0 81 0 0 81 0 0 82 0 0 82 0 0
82 0 0 82 0 0 82 0 0 82 0 102 82 0 102 82 0 102 82 0 102 82 0 102 82 0
102 82 0 0 83 0 102 83 0 102 83 0 102 83 0 102 83 0 102 83 0 102 83 0
102 83 0 102 83 0 0 83 0 0 83 0 0 83 0 0 83 0 0 84 0 0 84 0 0 84 0 102
84 0 101 84 0 101 84 0 0 84 0 0 84 0 0 84 0 0 84 0 0 84 0 101 84 0 101
84 0 101 85 0 101 85 0 101 85 0 101 85 0 101 85 0 0 85 0 0 85 0 0 85 0
0 85 0 0 85 0 0 85 0 0 85 0 100 85 0 0 85 0 0 85 0 0 85 0 0 86 0 0 86
0 0 86 0 0 86 0 99 86 0 99 86 0 99 86 0 99 86 0 99 86 0 99 86 0 99 86
0 98 86 0 0 86 0 0 86 0 0 86 0 98 86 0 98 86 0 98 86 0 98 86 0 98 87 0
0 87 0 0 87 0 0 87 0 0 87 0 0 87 0 0 87 0 0 87 0 97 87 0 97 87 0 96 87
0 96 87 0 96 87 0 96 87 0 96 87 0 0 87 0 96 87 0 96 87 0 95 87 0 95 87
0 95 87 0 95 87 0 95 87 0 0 87 0 0 87 0 0 87 0 0 87 0 0 87 0 0 87 0 0
87 0 0 88 0 94 88 0 94 88 0 93 88 0 0 88 0 0 88 0 0 88 0 0 88 0 93 88
0 93 88 0 92 88 0 92 88 0 92 88 0 92 88 0 92 88 0 92 88 0 0 88 0 0 88
0 0 88 0 0 88 0 0 88 0 0 88 0 0 88 0 0 88 0 0 88 0 0 88 0 0 88 0 0 88
0 0 88 0 0 88 0 0 88 0 90 88 0 89 88 0 89 88 0 89 88 0 89 88 0 89 88 0
89 88 0 89 88 0 0 88 0 0 88 0 0 88 0 88 88 0 88 88 0 88 87 0 88 87 0 0
87 0 0 87 0 0 87 0 0 87 0 0 87 0 0 87 0 0 87 0 0 87 0 86 87 0 86 87 0
86 87 0 86 87 0 86 87 0 86 87 0 85 87 0 85 87 0 85 87 0 85 87 0 85 87
0 85 87 0 85 87 0 84 87 0 84 87 0 0 87 0 0 87 0 0 87 0 0 87 0 0 87 0 0
86 0 0 86 0 83 86 0 83 86 0 83 86 0 83 86 0 0 86 0 0 86 0 0 86 0 0 86
0 82 86 0 82 86 0 82 86 0 82 86 0 82 86 0 81 86 0 81 86 0 0 86 0 0 86
0 0 85 0 0 85 0 0 85 0 0 85 0 0 85 0 80 85 0 0 85 0 0 85 0 0 85 0 0 85
0 0 85 0 0 85 0 0 85 0 0 85 0 79 85 0 79 85 0 79 84 0 79 84 0
0 79 0 0 79 0 0 79 0 0 79 0 0 79 0 104 79 0 104 79 0 104 79 0 0 80 0 0
80 0 0 80 0 0 80 0 0 80 0 104 80 0 104 80 0 104 80 0 104 80 0 104 80 0
104 80 0 104 81 0 104 81 0 0 81 0 0 81 0 0 81 0 0 81 0 0 81 0 0 81 0
104 81 0 0 81 0 0 81 0 0 82 0 0 82 0 0 82 0 0 82 0 0 82 0 0 82 0 104
82 0 104 82 0 104 82 0 104 82 0 104 82 0 104 82 0 104 83 0 104 83 0 0
83 0 0 83 0 104 83 0 104 83 0 104 83 0 104 83 0 104 83 0 0 83 0 0 83 0
0 84 0 0 84 0 0 84 0 0 84 0 0 84 0 0 84 0 104 84 0 104 84 0 104 84 0
104 84 0 104 84 0 103 84 0 0 84 0 0 85 0 103 85 0 103 85 0 103 85 0
103 85 0 103 85 0 103 85 0 103 85 0 103 85 0 0 85 0 0 85 0 0 85 0 0 85
0 0 86 0 0 86 0 0 86 0 102 86 0 102 86 0 102 86 0 0 86 0 0 86 0 0 86 0
0 86 0 0 86 0 102 86 0 102 86 0 101 86 0 101 86 0 101 87 0 101 87 0
101 87 0 101 87 0 0 87 0 0 87 0 0 87 0 0 87 0 0 87 0 0 87 0 100 87 0
100 87 0 0 87 0 0 87 0 0 87 0 0 87 0 0 87 0 0 87 0 0 87 0 99 88 0 99
88 0 99 88 0 99 88 0 99 88 0 99 88 0 98 88 0 98 88 0 0 88 0 0 88 0 98
88 0 98 88 0 98 88 0 98 88 0 98 88 0 97 88 0 0 88 0 0 88 0 0 88 0 0 88
0 0 88 0 0 88 0 0 88 0 96 88 0 96 88 0 96 88 0 96 89 0 96 89 0 96 89 0
96 89 0 0 89 0 95 89 0 95 89 0 95 89 0 95 89 0 95 89 0 95 89 0 94 89 0
94 89 0 0 89 0 0 89 0 0 89 0 0 89 0 0 89 0 0 89 0 0 89 0 0 89 0 93 89
0 93 89 0 0 89 0 0 89 0 0 89 0 0 89 0 0 89 0 92 89 0 92 89 0 92 89 0
92 89 0 91 89 0 91 89 0 91 89 0 91 89 0 0 89 0 0 89 0 0 89 0 0 89 0 0
89 0 0 89 0 90 89 0 90 89 0 0 89 0 0 89 0 0 89 0 0 89 0 0 89 0 0 89 0
0 89 0 0 89 0 89 89 0 88 89 0 88 89 0 88 89 0 88 89 0 88 89 0 88 88 0
0 88 0 0 88 0 0 88 0 87 88 0 87 88 0 87 88 0 87 88 0 87 88 0 0 88 0 0
88 0 0 88 0 0 88 0 0 88 0 0 88 0 0 88 0 0 88 0 85 88 0 85 88 0 85 88 0
85 88 0 85 88 0 85 88 0 0 88 0 84 88 0 84 88 0 84 87 0 84 87 0 84 87 0
84 87 0 83 87 0 83 87 0 0 87 0 0 87 0 0 87 0 0 87 0 0 87 0 0 87 0 0 87
0 0 87 0 82 87 0 82 87 0 0 87 0 0 87 0 0 86 0 0 86 0 0 86 0 0 86 0 81
86 0 81 86 0 81 86 0 81 86 0 80 86 0 80 86 0 80 86 0 0 86 0 0 86 0 0
86 0 0 86 0
105 80 0 105 80 0 105 80 0 105 80 0 105 80 0 105 80 0 105 80 0 105 80
0 0 80 0 0 81 0 0 81 0 0 81 0 0 81 0 0 81 0 0 81 0 0 81 0 106 81 0 0
81 0 0 81 0 0 82 0 0 82 0 0 82 0 0 82 0 0 82 0 106 82 0 106 82 0 106
82 0 106 82 0 106 82 0 106 82 0 106 83 0 106 83 0 0 83 0 0 83 0 0 83 0
0 83 0 0 83 0 106 83 0 106 83 0 106 83 0 0 83 0 0 84 0 0 84 0 0 84 0 0
84 0 0 84 0 0 84 0 0 84 0 106 84 0 106 84 0 106 84 0 106 84 0 106 84 0
106 85 0 106 85 0 106 85 0 0 85 0 105 85 0 105 85 0 105 85 0 105 85 0
105 85 0 105 85 0 105 85 0 0 85 0 0 86 0 0 86 0 0 86 0 0 86 0 0 86 0 0
86 0 105 86 0 105 86 0 105 86 0 104 86 0 104 86 0 0 86 0 0 86 0 0 86 0
104 87 0 104 87 0 104 87 0 104 87 0 104 87 0 104 87 0 104 87 0 103 87
0 0 87 0 0 87 0 0 87 0 0 87 0 0 87 0 0 87 0 0 88 0 0 88 0 103 88 0 0
88 0 0 88 0 0 88 0 0 88 0 0 88 0 0 88 0 0 88 0 102 88 0 102 88 0 102
88 0 101 88 0 101 88 0 101 88 0 101 88 0 101 88 0 0 89 0 0 89 0 0 89 0
0 89 0 0 89 0 100 89 0 100 89 0 100 89 0 0 89 0 0 89 0 0 89 0 0 89 0 0
89 0 0 89 0 0 89 0 0 89 0 99 89 0 99 89 0 99 89 0 98 89 0 98 89 0 98
89 0 98 89 0 98 90 0 0 90 0 98 90 0 97 90 0 97 90 0 97 90 0 97 90 0 97
90 0 97 90 0 0 90 0 0 90 0 0 90 0 0 90 0 0 90 0 0 90 0 0 90 0 96 90 0
96 90 0 95 90 0 95 90 0 95 90 0 95 90 0 0 90 0 0 90 0 94 90 0 94 90 0
94 90 0 94 90 0 94 90 0 94 90 0 94 90 0 93 90 0 0 90 0 0 90 0 0 90 0 0
90 0 0 90 0 0 90 0 0 90 0 0 90 0 92 90 0 0 90 0 0 90 0 0 90 0 0 90 0 0
90 0 0 90 0 0 90 0 91 90 0 91 90 0 91 90 0 91 90 0 90 90 0 90 90 0 90
90 0 90 90 0 0 90 0 0 90 0 0 90 0 0 90 0 0 90 0 89 90 0 89 90 0 89 90
0 0 90 0 0 90 0 0 90 0 0 90 0 0 90 0 0 89 0 0 89 0 0 89 0 87 89 0 87
89 0 87 89 0 87 89 0 87 89 0 87 89 0 87 89 0 86 89 0 0 89 0 86 89 0 86
89 0 86 89 0 86 89 0 86 89 0 85 89 0 85 89 0 0 89 0 0 89 0 0 89 0 0 89
0 0 89 0 0 88 0 0 88 0 84 88 0 84 88 0 84 88 0 84 88 0 84 88 0 83 88 0
0 88 0 0 88 0 83 88 0 83 88 0 83 88 0 83 88 0 82 88 0 82 88 0 82 88 0
82 88 0 0 87 0 0 87 0 0 87 0 0 87 0 0 87 0 0 87 0 0 87 0 0 87 0 81 87
0 0 87 0 0 87 0
0 81 0 0 81 0 0 81 0 0 81 0 107 81 0 107 81 0 107 81 0 0 81 0 0 81 0 0
82 0 0 82 0 0 82 0 107 82 0 107 82 0 108 82 0 108 82 0 108 82 0 108 82
0 108 82 0 108 82 0 0 83 0 0 83 0 0 83 0 0 83 0 0 83 0 0 83 0 0 83 0
108 83 0 0 83 0 0 83 0 0 84 0 0 84 0 0 84 0 0 84 0 0 84 0 0 84 0 108
84 0 108 84 0 108 84 0 108 84 0 108 84 0 108 85 0 108 85 0 108 85 0 0
85 0 0 85 0 0 85 0 108 85 0 107 85 0 107 85 0 107 85 0 107 85 0 0 85 0
0 86 0 0 86 0 0 86 0 0 86 0 0 86 0 0 86 0 0 86 0 107 86 0 107 86 0 107
86 0 107 86 0 107 86 0 107 87 0 107 87 0 0 87 0 106 87 0 106 87 0 106
87 0 106 87 0 106 87 0 106 87 0 106 87 0 106 87 0 0 87 0 0 87 0 0 88 0
0 88 0 0 88 0 0 88 0 0 88 0 0 88 0 105 88 0 105 88 0 105 88 0 0 88 0 0
88 0 0 88 0 0 88 0 0 88 0 104 89 0 104 89 0 104 89 0 104 89 0 104 89 0
104 89 0 104 89 0 104 89 0 104 89 0 0 89 0 0 89 0 0 89 0 0 89 0 0 89 0
0 89 0 0 89 0 103 89 0 0 90 0 0 90 0 0 90 0 0 90 0 0 90 0 0 90 0 0 90
0 0 90 0 101 90 0 101 90 0 101 90 0 101 90 0 101 90 0 101 90 0 101 90
0 101 90 0 0 90 0 0 90 0 0 90 0 100 90 0 100 90 0 100 90 0 100 91 0 99
91 0 0 91 0 0 91 0 0 91 0 0 91 0 0 91 0 0 91 0 0 91 0 0 91 0 98 91 0
98 91 0 98 91 0 98 91 0 98 91 0 97 91 0 97 91 0 0 91 0 97 91 0 97 91 0
97 91 0 97 91 0 96 91 0 96 91 0 96 91 0 96 91 0 0 91 0 0 91 0 0 91 0 0
91 0 0 91 0 0 91 0 0 91 0 0 91 0 95 91 0 94 91 0 94 91 0 0 91 0 0 91 0
0 91 0 0 91 0 0 91 0 93 91 0 93 91 0 93 91 0 93 91 0 93 91 0 93 91 0
93 91 0 92 91 0 0 91 0 0 91 0 0 91 0 0 91 0 0 91 0 0 91 0 0 91 0 91 91
0 0 91 0 0 91 0 0 91 0 0 91 0 0 91 0 0 91 0 0 91 0 0 91 0 90 91 0 90
91 0 89 91 0 89 91 0 89 91 0 89 91 0 89 91 0 89 91 0 89 91 0 0 91 0 0
91 0 0 90 0 88 90 0 88 90 0 88 90 0 88 90 0 87 90 0 0 90 0 0 90 0 0 90
0 0 90 0 0 90 0 0 90 0 0 90 0 0 90 0 86 90 0 86 90 0 86 90 0 86 90 0
86 90 0 85 90 0 85 90 0 0 90 0 85 90 0 85 89 0 85 89 0 85 89 0 84 89 0
84 89 0 84 89 0 84 89 0 0 89 0 0 89 0 0 89 0 0 89 0 0 89 0 0 89 0 0 89
0 0 89 0 83 89 0 83 88 0 82 88 0 0 88 0 0 88 0 0 88 0 0 88 0 0 88 0 82
88 0 82 88 0
109 82 0 109 82 0 109 82 0 109 82 0 109 82 0 109 82 0 109 82 0 0 82 0
0 82 0 0 82 0 0 83 0 0 83 0 0 83 0 0 83 0 0 83 0 0 83 0 0 83 0 0 83 0
0 83 0 0 83 0 0 84 0 0 84 0 0 84 0 0 84 0 109 84 0 110 84 0 110 84 0
110 84 0 110 84 0 110 84 0 110 84 0 110 85 0 0 85 0 0 85 0 0 85 0 0 85
0 0 85 0 109 85 0 109 85 0 109 85 0 0 85 0 0 85 0 0 86 0 0 86 0 0 86 0
0 86 0 0 86 0 0 86 0 0 86 0 109 86 0 109 86 0 109 86 0 109 86 0 109 87
0 109 87 0 109 87 0 109 87 0 109 87 0 109 87 0 109 87 0 109 87 0 108
87 0 108 87 0 108 87 0 108 87 0 0 88 0 0 88 0 0 88 0 0 88 0 0 88 0 0
88 0 0 88 0 0 88 0 108 88 0 108 88 0 107 88 0 107 88 0 107 88 0 0 89 0
0 89 0 0 89 0 0 89 0 107 89 0 107 89 0 107 89 0 107 89 0 106 89 0 106
89 0 106 89 0 106 89 0 0 89 0 0 89 0 0 90 0 0 90 0 0 90 0 0 90 0 0 90
0 0 90 0 0 90 0 0 90 0 0 90 0 0 90 0 0 90 0 0 90 0 0 90 0 0 90 0 104
90 0 104 90 0 104 91 0 104 91 0 104 91 0 104 91 0 103 91 0 103 91 0
103 91 0 0 91 0 0 91 0 0 91 0 0 91 0 103 91 0 102 91 0 102 91 0 102 91
0 0 91 0 0 91 0 0 91 0 0 91 0 0 91 0 0 91 0 0 92 0 0 92 0 101 92 0 101
92 0 101 92 0 100 92 0 100 92 0 100 92 0 100 92 0 100 92 0 0 92 0 100
92 0 99 92 0 99 92 0 99 92 0 99 92 0 99 92 0 99 92 0 99 92 0 0 92 0 0
92 0 0 92 0 0 92 0 0 92 0 0 92 0 0 92 0 0 92 0 97 92 0 97 92 0 97 92 0
97 92 0 0 92 0 0 92 0 0 92 0 0 92 0 96 92 0 96 92 0 96 92 0 95 92 0 95
92 0 95 92 0 95 92 0 95 92 0 0 92 0 0 92 0 0 92 0 0 92 0 0 92 0 0 92 0
0 92 0 0 92 0 0 92 0 0 92 0 0 92 0 0 92 0 0 92 0 0 92 0 0 92 0 0 92 0
0 92 0 92 92 0 92 92 0 92 92 0 92 92 0 91 92 0 91 92 0 91 92 0 91 92 0
0 92 0 0 92 0 0 92 0 0 92 0 0 92 0 90 92 0 90 92 0 90 92 0 0 92 0 0 92
0 0 92 0 0 92 0 0 92 0 0 92 0 0 92 0 0 92 0 0 91 0 88 91 0 88 91 0 88
91 0 88 91 0 88 91 0 88 91 0 87 91 0 87 91 0 87 91 0 87 91 0 87 91 0
87 91 0 87 91 0 86 91 0 86 91 0 86 91 0 0 91 0 0 91 0 0 91 0 0 91 0 0
90 0 0 90 0 0 90 0 0 90 0 85 90 0 85 90 0 85 90 0 84 90 0 84 90 0 0 90
0 0 90 0 0 90 0 0 90 0 84 90 0 83 90 0 83 90 0 83 89 0 83 89 0 83 89 0
83 89 0 83 89 0 0 89 0
0 83 0 0 83 0 0 83 0 111 83 0 0 83 0 0 83 0 0 83 0 0 83 0 0 83 0 0 83
0 0 84 0 111 84 0 111 84 0 111 84 0 111 84 0 111 84 0 111 84 0 111 84
0 111 84 0 111 84 0 0 84 0 0 85 0 0 85 0 0 85 0 0 85 0 111 85 0 111 85
0 111 85 0 0 85 0 0 85 0 0 85 0 0 86 0 0 86 0 0 86 0 0 86 0 0 86 0 0
86 0 111 86 0 111 86 0 111 86 0 111 86 0 111 86 0 111 87 0 111 87 0
111 87 0 0 87 0 111 87 0 111 87 0 111 87 0 111 87 0 111 87 0 111 87 0
111 87 0 0 88 0 0 88 0 0 88 0 0 88 0 0 88 0 0 88 0 0 88 0 0 88 0 0 88
0 110 88 0 110 88 0 110 88 0 110 89 0 110 89 0 0 89 0 0 89 0 0 89 0
109 89 0 109 89 0 109 89 0 109 89 0 109 89 0 109 89 0 109 89 0 109 90
0 109 90 0 0 90 0 0 90 0 0 90 0 0 90 0 0 90 0 0 90 0 0 90 0 0 90 0 108
90 0 0 90 0 0 90 0 0 90 0 0 91 0 0 91 0 0 91 0 0 91 0 0 91 0 107 91 0
107 91 0 107 91 0 106 91 0 106 91 0 106 91 0 106 91 0 106 91 0 0 91 0
0 91 0 0 91 0 0 92 0 0 92 0 105 92 0 105 92 0 105 92 0 0 92 0 0 92 0 0
92 0 0 92 0 0 92 0 0 92 0 0 92 0 0 92 0 0 92 0 104 92 0 103 92 0 103
92 0 103 92 0 103 92 0 103 92 0 103 93 0 103 93 0 0 93 0 0 93 0 102 93
0 102 93 0 102 93 0 102 93 0 102 93 0 101 93 0 101 93 0 0 93 0 0 93 0
0 93 0 0 93 0 0 93 0 0 93 0 0 93 0 0 93 0 100 93 0 100 93 0 100 93 0
99 93 0 99 93 0 99 93 0 0 93 0 0 93 0 0 93 0 98 93 0 98 93 0 98 93 0
98 93 0 98 93 0 98 93 0 98 93 0 97 93 0 0 93 0 0 93 0 0 93 0 0 93 0 0
93 0 0 93 0 0 93 0 0 93 0 96 93 0 96 93 0 0 93 0 0 93 0 0 93 0 0 93 0
0 93 0 0 93 0 0 93 0 95 93 0 94 93 0 94 93 0 94 93 0 94 93 0 94 93 0
94 93 0 93 93 0 0 93 0 0 93 0 0 93 0 0 93 0 0 93 0 0 93 0 92 93 0 92
93 0 92 93 0 0 93 0 0 93 0 0 93 0 0 93 0 0 93 0 0 93 0 0 93 0 0 93 0
91 93 0 90 93 0 90 93 0 90 93 0 90 93 0 90 93 0 90 93 0 90 93 0 0 93 0
0 93 0 89 93 0 89 92 0 89 92 0 89 92 0 89 92 0 88 92 0 88 92 0 0 92 0
0 92 0 0 92 0 0 92 0 0 92 0 0 92 0 0 92 0 0 92 0 87 92 0 87 92 0 87 92
0 86 92 0 86 92 0 86 92 0 0 91 0 0 91 0 0 91 0 86 91 0 85 91 0 85 91 0
85 91 0 85 91 0 85 91 0 85 91 0 85 91 0 0 91 0 0 91 0 0 91 0 0 91 0 0
91 0 0 90 0 0 90 0 0 90 0 0 90 0
112 83 0 112 84 0 113 84 0 113 84 0 113 84 0 113 84 0 113 84 0 0 84 0
0 84 0 0 84 0 0 84 0 0 85 0 0 85 0 113 85 0 113 85 0 113 85 0 0 85 0 0
85 0 0 85 0 0 85 0 0 85 0 0 86 0 0 86 0 0 86 0 113 86 0 113 86 0 113
86 0 113 86 0 113 86 0 113 86 0 113 86 0 113 86 0 113 87 0 0 87 0 0 87
0 113 87 0 113 87 0 113 87 0 113 87 0 113 87 0 113 87 0 113 87 0 0 88
0 0 88 0 0 88 0 0 88 0 0 88 0 0 88 0 0 88 0 0 88 0 112 88 0 112 88 0
112 88 0 112 89 0 112 89 0 112 89 0 0 89 0 0 89 0 0 89 0 112 89 0 112
89 0 112 89 0 112 89 0 111 89 0 111 89 0 111 90 0 111 90 0 0 90 0 0 90
0 0 90 0 0 90 0 0 90 0 0 90 0 0 90 0 0 90 0 0 90 0 110 90 0 110 91 0 0
91 0 0 91 0 0 91 0 0 91 0 0 91 0 0 91 0 0 91 0 109 91 0 109 91 0 109
91 0 109 91 0 109 91 0 109 91 0 109 92 0 109 92 0 0 92 0 0 92 0 0 92 0
0 92 0 0 92 0 0 92 0 108 92 0 108 92 0 108 92 0 0 92 0 0 92 0 0 92 0 0
92 0 0 93 0 0 93 0 0 93 0 0 93 0 106 93 0 106 93 0 106 93 0 106 93 0
106 93 0 106 93 0 106 93 0 105 93 0 105 93 0 0 93 0 105 93 0 105 93 0
105 93 0 105 93 0 104 93 0 104 94 0 104 94 0 0 94 0 0 94 0 0 94 0 0 94
0 0 94 0 0 94 0 0 94 0 0 94 0 0 94 0 103 94 0 102 94 0 102 94 0 102 94
0 102 94 0 102 94 0 0 94 0 0 94 0 0 94 0 101 94 0 101 94 0 101 94 0
101 94 0 101 94 0 100 94 0 100 94 0 100 94 0 0 94 0 0 94 0 0 94 0 0 94
0 0 94 0 0 94 0 0 94 0 0 95 0 0 95 0 98 95 0 0 95 0 0 95 0 0 95 0 0 95
0 0 95 0 0 95 0 0 95 0 97 95 0 97 95 0 97 95 0 97 95 0 97 95 0 96 95 0
96 95 0 96 95 0 96 95 0 0 95 0 0 95 0 0 95 0 0 95 0 0 95 0 0 95 0 95
94 0 95 94 0 94 94 0 0 94 0 0 94 0 0 94 0 0 94 0 0 94 0 0 94 0 0 94 0
0 94 0 93 94 0 93 94 0 93 94 0 93 94 0 92 94 0 92 94 0 92 94 0 92 94 0
92 94 0 0 94 0 91 94 0 91 94 0 91 94 0 91 94 0 91 94 0 91 94 0 91 94 0
0 94 0 0 94 0 0 94 0 0 94 0 0 94 0 0 94 0 0 94 0 0 93 0 0 93 0 89 93 0
89 93 0 89 93 0 89 93 0 88 93 0 88 93 0 0 93 0 0 93 0 0 93 0 88 93 0
88 93 0 87 93 0 87 93 0 87 93 0 87 93 0 87 93 0 87 93 0 0 92 0 0 92 0
0 92 0 0 92 0 0 92 0 0 92 0 0 92 0 0 92 0 0 92 0 85 92 0 0 92 0 0 92 0
0 92 0 0 92 0 0 92 0 0 91 0 0 91 0
114 84 0 114 84 0 114 85 0 0 85 0 0 85 0 0 85 0 0 85 0 0 85 0 0 85 0 0
85 0 0 85 0 0 85 0 115 86 0 115 86 0 115 86 0 115 86 0 115 86 0 115 86
0 115 86 0 115 86 0 0 86 0 0 86 0 115 87 0 115 87 0 115 87 0 115 87 0
115 87 0 115 87 0 115 87 0 0 87 0 0 87 0 0 87 0 0 88 0 0 88 0 0 88 0 0
88 0 0 88 0 0 88 0 114 88 0 114 88 0 114 88 0 114 88 0 114 88 0 114 89
0 0 89 0 0 89 0 0 89 0 114 89 0 114 89 0 114 89 0 114 89 0 114 89 0
114 89 0 114 89 0 114 90 0 114 90 0 0 90 0 0 90 0 0 90 0 0 90 0 0 90 0
0 90 0 0 90 0 0 90 0 113 90 0 113 91 0 0 91 0 0 91 0 0 91 0 0 91 0 0
91 0 0 91 0 0 91 0 112 91 0 112 91 0 112 91 0 112 91 0 112 92 0 112 92
0 112 92 0 111 92 0 111 92 0 0 92 0 0 92 0 0 92 0 0 92 0 0 92 0 0 92 0
111 92 0 110 92 0 110 93 0 0 93 0 0 93 0 0 93 0 0 93 0 0 93 0 0 93 0 0
93 0 0 93 0 109 93 0 109 93 0 109 93 0 109 93 0 109 93 0 109 93 0 108
94 0 108 94 0 108 94 0 0 94 0 0 94 0 108 94 0 108 94 0 107 94 0 107 94
0 107 94 0 107 94 0 107 94 0 0 94 0 0 94 0 0 94 0 0 94 0 0 94 0 0 94 0
0 94 0 0 95 0 0 95 0 105 95 0 105 95 0 105 95 0 105 95 0 105 95 0 0 95
0 0 95 0 0 95 0 104 95 0 104 95 0 104 95 0 104 95 0 103 95 0 103 95 0
103 95 0 103 95 0 103 95 0 0 95 0 0 95 0 0 95 0 0 95 0 0 95 0 0 95 0 0
95 0 0 95 0 0 95 0 101 95 0 0 95 0 0 96 0 0 96 0 0 96 0 0 96 0 0 96 0
0 96 0 0 96 0 100 96 0 100 96 0 99 96 0 99 96 0 99 96 0 99 96 0 99 96
0 99 96 0 98 96 0 0 96 0 0 96 0 0 96 0 0 96 0 0 96 0 97 96 0 97 96 0
97 96 0 0 96 0 0 96 0 0 96 0 0 96 0 0 96 0 0 96 0 0 96 0 0 96 0 0 96 0
96 96 0 95 96 0 95 96 0 95 96 0 95 96 0 95 95 0 95 95 0 94 95 0 94 95
0 0 95 0 94 95 0 94 95 0 94 95 0 93 95 0 93 95 0 93 95 0 93 95 0 93 95
0 0 95 0 0 95 0 0 95 0 0 95 0 0 95 0 0 95 0 0 95 0 0 95 0 91 95 0 91
95 0 91 95 0 91 95 0 91 95 0 91 95 0 0 95 0 0 95 0 0 95 0 90 95 0 90
94 0 90 94 0 89 94 0 89 94 0 89 94 0 89 94 0 89 94 0 89 94 0 0 94 0 0
94 0 0 94 0 0 94 0 0 94 0 0 94 0 0 94 0 0 94 0 0 94 0 87 94 0 0 93 0 0
93 0 0 93 0 0 93 0 0 93 0 0 93 0 0 93 0 86 93 0 86 93 0 86 93 0 86 93
0 86 93 0 85 93 0 85 93 0 85 93 0
116 85 0 116 85 0 116 85 0 116 86 0 116 86 0 116 86 0 116 86 0 116 86
0 116 86 0 116 86 0 116 86 0 116 86 0 116 86 0 116 87 0 116 87 0 116
87 0 116 87 0 0 87 0 0 87 0 0 87 0 0 87 0 0 87 0 0 87 0 0 88 0 0 88 0
0 88 0 116 88 0 116 88 0 116 88 0 116 88 0 116 88 0 0 88 0 0 88 0 0 89
0 116 89 0 116 89 0 116 89 0 116 89 0 116 89 0 116 89 0 116 89 0 116
89 0 116 89 0 0 90 0 0 90 0 0 90 0 0 90 0 0 90 0 0 90 0 0 90 0 0 90 0
0 90 0 115 90 0 0 90 0 0 91 0 0 91 0 0 91 0 0 91 0 0 91 0 0 91 0 0 91
0 115 91 0 115 91 0 115 91 0 114 91 0 114 92 0 114 92 0 114 92 0 114
92 0 114 92 0 0 92 0 0 92 0 0 92 0 0 92 0 0 92 0 113 92 0 113 92 0 113
93 0 113 93 0 0 93 0 0 93 0 0 93 0 0 93 0 0 93 0 0 93 0 0 93 0 0 93 0
0 93 0 112 93 0 112 93 0 112 94 0 112 94 0 111 94 0 111 94 0 111 94 0
111 94 0 111 94 0 0 94 0 111 94 0 111 94 0 110 94 0 110 94 0 110 94 0
110 94 0 110 94 0 110 95 0 0 95 0 0 95 0 0 95 0 0 95 0 0 95 0 0 95 0 0
95 0 0 95 0 0 95 0 108 95 0 108 95 0 108 95 0 108 95 0 108 95 0 0 95 0
0 95 0 0 95 0 0 96 0 107 96 0 107 96 0 107 96 0 106 96 0 106 96 0 106
96 0 106 96 0 106 96 0 106 96 0 0 96 0 0 96 0 0 96 0 0 96 0 0 96 0 0
96 0 0 96 0 0 96 0 0 96 0 0 96 0 0 96 0 0 96 0 0 96 0 0 96 0 0 96 0 0
96 0 0 96 0 0 96 0 103 97 0 102 97 0 102 97 0 102 97 0 102 97 0 102 97
0 102 97 0 101 97 0 101 97 0 0 97 0 0 97 0 0 97 0 0 97 0 0 97 0 100 97
0 100 97 0 100 97 0 100 97 0 0 97 0 0 97 0 0 97 0 0 97 0 0 97 0 0 97 0
0 97 0 0 97 0 0 97 0 98 97 0 98 97 0 98 97 0 98 97 0 97 97 0 97 97 0
97 97 0 97 97 0 0 97 0 97 97 0 96 97 0 96 97 0 96 97 0 96 97 0 96 97 0
96 97 0 95 97 0 0 97 0 0 97 0 0 97 0 0 96 0 0 96 0 0 96 0 0 96 0 0 96
0 0 96 0 94 96 0 94 96 0 93 96 0 93 96 0 93 96 0 93 96 0 0 96 0 0 96 0
0 96 0 92 96 0 92 96 0 92 96 0 92 96 0 92 96 0 92 96 0 91 96 0 91 96 0
91 96 0 0 96 0 0 96 0 0 96 0 0 95 0 0 95 0 0 95 0 0 95 0 0 95 0 0 95 0
89 95 0 0 95 0 0 95 0 0 95 0 0 95 0 0 95 0 0 95 0 0 95 0 0 95 0 88 95
0 88 95 0 88 95 0 88 94 0 88 94 0 87 94 0 87 94 0 87 94 0 87 94 0 0 94
0 0 94 0 0 94 0 0 94 0 0 94 0 86 94 0 86 94 0
118 86 0 118 86 0 118 86 0 118 86 0 0 87 0 0 87 0 0 87 0 0 87 0 0 87 0
0 87 0 0 87 0 0 87 0 0 87 0 118 87 0 118 88 0 118 88 0 118 88 0 0 88 0
0 88 0 0 88 0 0 88 0 0 88 0 118 88 0 118 88 0 118 89 0 118 89 0 118 89
0 118 89 0 118 89 0 118 89 0 118 89 0 0 89 0 0 89 0 0 89 0 0 90 0 0 90
0 0 90 0 0 90 0 0 90 0 0 90 0 0 90 0 0 90 0 0 90 0 0 90 0 0 91 0 0 91
0 0 91 0 0 91 0 0 91 0 117 91 0 117 91 0 117 91 0 117 91 0 117 91 0
117 91 0 117 92 0 117 92 0 117 92 0 0 92 0 0 92 0 0 92 0 0 92 0 116 92
0 116 92 0 116 92 0 116 92 0 116 93 0 0 93 0 0 93 0 0 93 0 0 93 0 0 93
0 0 93 0 0 93 0 0 93 0 0 93 0 0 93 0 115 93 0 114 94 0 114 94 0 114 94
0 114 94 0 114 94 0 114 94 0 114 94 0 0 94 0 114 94 0 113 94 0 113 94
0 113 94 0 113 95 0 113 95 0 113 95 0 113 95 0 113 95 0 0 95 0 0 95 0
0 95 0 0 95 0 0 95 0 0 95 0 0 95 0 0 95 0 0 95 0 111 95 0 111 96 0 111
96 0 111 96 0 0 96 0 0 96 0 0 96 0 0 96 0 0 96 0 110 96 0 110 96 0 109
96 0 109 96 0 109 96 0 109 96 0 109 96 0 109 96 0 109 96 0 0 96 0 0 97
0 0 97 0 0 97 0 0 97 0 0 97 0 0 97 0 0 97 0 0 97 0 0 97 0 0 97 0 0 97
0 0 97 0 0 97 0 0 97 0 0 97 0 0 97 0 0 97 0 105 97 0 105 97 0 105 97 0
105 97 0 105 97 0 105 97 0 104 97 0 104 97 0 104 97 0 0 98 0 0 98 0 0
98 0 0 98 0 103 98 0 103 98 0 103 98 0 103 98 0 103 98 0 102 98 0 0 98
0 0 98 0 0 98 0 0 98 0 0 98 0 0 98 0 0 98 0 0 98 0 0 98 0 101 98 0 101
98 0 100 98 0 100 98 0 100 98 0 100 98 0 100 98 0 100 98 0 0 98 0 99
98 0 99 98 0 99 98 0 99 98 0 99 98 0 98 98 0 98 98 0 98 98 0 98 98 0 0
98 0 0 98 0 0 98 0 0 98 0 0 98 0 0 98 0 0 98 0 0 98 0 0 98 0 96 98 0
96 98 0 96 98 0 96 98 0 0 98 0 0 98 0 0 98 0 0 97 0 0 97 0 95 97 0 95
97 0 94 97 0 94 97 0 94 97 0 94 97 0 94 97 0 94 97 0 93 97 0 0 97 0 0
97 0 0 97 0 0 97 0 0 97 0 0 97 0 0 97 0 0 97 0 0 97 0 0 97 0 0 97 0 0
97 0 0 97 0 0 97 0 0 97 0 0 96 0 0 96 0 0 96 0 90 96 0 90 96 0 90 96 0
90 96 0 90 96 0 90 96 0 89 96 0 89 96 0 89 96 0 89 96 0 0 96 0 0 96 0
0 96 0 0 96 0 88 95 0 88 95 0 88 95 0 88 95 0 88 95 0 0 95 0 0 95 0 0
95 0 0 95 0 0 95 0 0 95 0
120 87 0 120 87 0 0 87 0 0 87 0 0 87 0 0 88 0 0 88 0 0 88 0 0 88 0 120
88 0 120 88 0 120 88 0 120 88 0 120 88 0 120 88 0 120 89 0 120 89 0
120 89 0 0 89 0 0 89 0 0 89 0 0 89 0 0 89 0 0 89 0 0 89 0 120 90 0 120
90 0 0 90 0 0 90 0 0 90 0 0 90 0 0 90 0 0 90 0 0 90 0 0 91 0 0 91 0 0
91 0 119 91 0 119 91 0 119 91 0 119 91 0 119 91 0 119 91 0 119 91 0
119 91 0 119 92 0 0 92 0 0 92 0 119 92 0 119 92 0 119 92 0 118 92 0
118 92 0 118 92 0 118 92 0 0 93 0 0 93 0 0 93 0 0 93 0 0 93 0 0 93 0 0
93 0 0 93 0 0 93 0 0 93 0 117 93 0 117 94 0 117 94 0 117 94 0 117 94 0
117 94 0 117 94 0 0 94 0 0 94 0 116 94 0 116 94 0 116 94 0 116 94 0
116 95 0 116 95 0 116 95 0 116 95 0 115 95 0 0 95 0 0 95 0 0 95 0 0 95
0 0 95 0 0 95 0 0 95 0 0 95 0 0 96 0 114 96 0 114 96 0 114 96 0 0 96 0
0 96 0 0 96 0 0 96 0 0 96 0 0 96 0 0 96 0 113 96 0 113 96 0 112 96 0
112 97 0 112 97 0 112 97 0 112 97 0 112 97 0 111 97 0 0 97 0 0 97 0 0
97 0 0 97 0 0 97 0 0 97 0 0 97 0 110 97 0 110 97 0 0 97 0 0 97 0 0 98
0 0 98 0 0 98 0 0 98 0 0 98 0 0 98 0 0 98 0 0 98 0 108 98 0 108 98 0
108 98 0 108 98 0 108 98 0 107 98 0 107 98 0 107 98 0 107 98 0 0 98 0
0 98 0 106 98 0 106 98 0 106 98 0 106 98 0 106 98 0 106 98 0 105 99 0
0 99 0 0 99 0 0 99 0 0 99 0 0 99 0 0 99 0 0 99 0 0 99 0 0 99 0 104 99
0 104 99 0 103 99 0 103 99 0 103 99 0 103 99 0 103 99 0 0 99 0 0 99 0
0 99 0 102 99 0 102 99 0 102 99 0 101 99 0 101 99 0 101 99 0 101 99 0
101 99 0 101 99 0 0 99 0 0 99 0 0 99 0 0 99 0 0 99 0 0 99 0 0 99 0 0
99 0 0 99 0 99 99 0 99 99 0 99 99 0 0 99 0 0 99 0 0 99 0 0 99 0 0 99 0
0 99 0 0 99 0 97 99 0 97 99 0 97 99 0 97 99 0 96 99 0 96 99 0 96 99 0
96 99 0 96 99 0 0 99 0 0 98 0 0 98 0 0 98 0 0 98 0 0 98 0 0 98 0 94 98
0 94 98 0 0 98 0 0 98 0 0 98 0 0 98 0 0 98 0 0 98 0 0 98 0 0 98 0 0 98
0 93 98 0 93 98 0 92 98 0 92 98 0 92 98 0 92 98 0 92 98 0 92 98 0 91
97 0 91 97 0 0 97 0 0 97 0 91 97 0 91 97 0 90 97 0 90 97 0 90 97 0 90
97 0 90 97 0 0 97 0 0 97 0 0 97 0 0 97 0 0 97 0 0 97 0 0 96 0 0 96 0 0
96 0 88 96 0 88 96 0 88 96 0 88 96 0 88 96 0 88 96 0
121 88 0 121 88 0 121 88 0 121 88 0 121 88 0 0 88 0 0 89 0 0 89 0 0 89
0 0 89 0 121 89 0 121 89 0 121 89 0 121 89 0 0 89 0 0 89 0 0 90 0 0 90
0 0 90 0 0 90 0 0 90 0 0 90 0 0 90 0 0 90 0 121 90 0 121 90 0 121 91 0
121 91 0 121 91 0 121 91 0 121 91 0 121 91 0 121 91 0 0 91 0 121 91 0
121 92 0 121 92 0 121 92 0 121 92 0 121 92 0 121 92 0 121 92 0 121 92
0 0 92 0 0 92 0 0 92 0 0 93 0 0 93 0 0 93 0 0 93 0 0 93 0 0 93 0 120
93 0 120 93 0 120 93 0 120 93 0 120 94 0 0 94 0 0 94 0 0 94 0 0 94 0 0
94 0 119 94 0 119 94 0 119 94 0 119 94 0 119 94 0 119 95 0 118 95 0
118 95 0 118 95 0 0 95 0 0 95 0 0 95 0 0 95 0 0 95 0 0 95 0 0 95 0 0
95 0 0 96 0 0 96 0 0 96 0 0 96 0 0 96 0 0 96 0 0 96 0 0 96 0 0 96 0 0
96 0 0 96 0 116 96 0 116 97 0 115 97 0 115 97 0 115 97 0 115 97 0 115
97 0 115 97 0 115 97 0 114 97 0 0 97 0 0 97 0 0 97 0 0 97 0 0 97 0 113
98 0 113 98 0 113 98 0 113 98 0 0 98 0 0 98 0 0 98 0 0 98 0 0 98 0 0
98 0 0 98 0 0 98 0 0 98 0 0 98 0 111 98 0 111 98 0 111 98 0 111 99 0
111 99 0 110 99 0 110 99 0 110 99 0 110 99 0 110 99 0 110 99 0 109 99
0 109 99 0 109 99 0 109 99 0 109 99 0 109 99 0 108 99 0 0 99 0 0 99 0
0 99 0 0 99 0 0 99 0 0 99 0 0 99 0 0 99 0 0 99 0 0 100 0 106 100 0 106
100 0 106 100 0 106 100 0 106 100 0 0 100 0 0 100 0 0 100 0 0 100 0
105 100 0 105 100 0 105 100 0 104 100 0 104 100 0 104 100 0 104 100 0
104 100 0 103 100 0 103 100 0 0 100 0 0 100 0 0 100 0 0 100 0 0 100 0
0 100 0 0 100 0 0 100 0 0 100 0 0 100 0 0 100 0 0 100 0 0 100 0 0 100
0 0 100 0 0 100 0 0 100 0 0 100 0 0 100 0 100 100 0 100 100 0 99 100 0
99 100 0 99 100 0 99 100 0 99 100 0 99 100 0 98 100 0 0 100 0 0 100 0
0 100 0 0 100 0 0 100 0 97 100 0 97 100 0 97 100 0 97 100 0 97 100 0 0
100 0 0 100 0 0 100 0 0 100 0 0 99 0 0 99 0 0 99 0 0 99 0 0 99 0 95 99
0 95 99 0 95 99 0 95 99 0 94 99 0 94 99 0 94 99 0 94 99 0 94 99 0 94
99 0 93 99 0 93 99 0 93 99 0 93 99 0 93 99 0 93 99 0 92 99 0 92 99 0
92 99 0 0 98 0 0 98 0 0 98 0 0 98 0 0 98 0 0 98 0 0 98 0 0 98 0 0 98 0
91 98 0 90 98 0 90 98 0 90 98 0 90 98 0 0 98 0 0 98 0 0 98 0 0 97 0 0
97 0 89 97 0 89 97 0 89 97 0 89 97 0 88 97 0
123 89 0 0 89 0 0 89 0 0 89 0 0 89 0 0 89 0 0 89 0 0 89 0 0 90 0 0 90
0 0 90 0 123 90 0 123 90 0 123 90 0 123 90 0 123 90 0 123 90 0 123 91
0 0 91 0 0 91 0 123 91 0 123 91 0 123 91 0 123 91 0 123 91 0 123 91 0
123 91 0 123 92 0 123 92 0 123 92 0 0 92 0 0 92 0 0 92 0 0 92 0 0 92 0
0 92 0 0 93 0 0 93 0 0 93 0 0 93 0 122 93 0 122 93 0 0 93 0 0 93 0 0
93 0 0 93 0 0 94 0 0 94 0 0 94 0 122 94 0 122 94 0 121 94 0 121 94 0
121 94 0 121 94 0 121 94 0 121 94 0 121 95 0 121 95 0 0 95 0 0 95 0 0
95 0 0 95 0 0 95 0 0 95 0 0 95 0 120 95 0 120 95 0 120 96 0 0 96 0 0
96 0 0 96 0 0 96 0 0 96 0 0 96 0 0 96 0 0 96 0 0 96 0 119 96 0 118 97
0 118 97 0 118 97 0 118 97 0 118 97 0 118 97 0 118 97 0 118 97 0 117
97 0 0 97 0 0 97 0 117 97 0 117 97 0 117 98 0 117 98 0 116 98 0 116 98
0 116 98 0 0 98 0 0 98 0 0 98 0 0 98 0 0 98 0 0 98 0 0 98 0 0 98 0 0
98 0 0 99 0 114 99 0 114 99 0 114 99 0 114 99 0 114 99 0 114 99 0 113
99 0 0 99 0 0 99 0 0 99 0 113 99 0 113 99 0 112 99 0 112 99 0 112 99 0
112 100 0 112 100 0 112 100 0 111 100 0 0 100 0 0 100 0 0 100 0 0 100
0 0 100 0 0 100 0 0 100 0 0 100 0 0 100 0 0 100 0 109 100 0 109 100 0
0 100 0 0 100 0 0 100 0 0 100 0 0 100 0 0 100 0 0 100 0 0 101 0 108
101 0 108 101 0 107 101 0 107 101 0 107 101 0 107 101 0 107 101 0 106
101 0 106 101 0 0 101 0 0 101 0 0 101 0 0 101 0 0 101 0 0 101 0 0 101
0 105 101 0 105 101 0 105 101 0 0 101 0 0 101 0 0 101 0 0 101 0 0 101
0 0 101 0 0 101 0 0 101 0 0 101 0 0 101 0 103 101 0 102 101 0 102 101
0 102 101 0 102 101 0 102 101 0 101 101 0 101 101 0 101 101 0 0 101 0
0 101 0 0 101 0 100 101 0 100 101 0 100 101 0 100 101 0 100 101 0 100
101 0 99 101 0 0 101 0 0 101 0 0 101 0 0 101 0 0 101 0 0 101 0 0 101 0
0 101 0 0 101 0 98 101 0 97 101 0 97 101 0 97 101 0 97 101 0 97 101 0
97 101 0 96 100 0 0 100 0 0 100 0 96 100 0 96 100 0 96 100 0 95 100 0
95 100 0 95 100 0 95 100 0 95 100 0 95 100 0 94 100 0 0 100 0 0 100 0
0 100 0 0 100 0 0 100 0 0 100 0 0 100 0 0 100 0 0 100 0 93 100 0 93 99
0 93 99 0 0 99 0 0 99 0 0 99 0 0 99 0 0 99 0 0 99 0 0 99 0 91 99 0 91
99 0 91 99 0 91 99 0 91 99 0 90 99 0 90 99 0 90 99 0 90 98 0 90 98 0 0
98 0 0 98 0 0 98 0 0 98 0
125 90 0 0 90 0 0 90 0 0 90 0 0 90 0 0 90 0 0 90 0 125 90 0 125 90 0
125 91 0 125 91 0 125 91 0 125 91 0 125 91 0 125 91 0 125 91 0 125 91
0 0 91 0 0 92 0 0 92 0 0 92 0 0 92 0 0 92 0 0 92 0 0 92 0 0 92 0 125
92 0 0 92 0 0 93 0 0 93 0 0 93 0 0 93 0 0 93 0 0 93 0 0 93 0 0 93 0
124 93 0 124 94 0 124 94 0 124 94 0 124 94 0 124 94 0 124 94 0 124 94
0 124 94 0 123 94 0 0 94 0 0 95 0 0 95 0 0 95 0 123 95 0 123 95 0 123
95 0 123 95 0 123 95 0 123 95 0 0 95 0 0 95 0 0 96 0 0 96 0 0 96 0 0
96 0 0 96 0 0 96 0 0 96 0 0 96 0 121 96 0 121 96 0 121 96 0 121 97 0
121 97 0 121 97 0 121 97 0 121 97 0 120 97 0 0 97 0 120 97 0 120 97 0
120 97 0 120 97 0 120 98 0 120 98 0 119 98 0 119 98 0 119 98 0 119 98
0 0 98 0 0 98 0 0 98 0 0 98 0 0 98 0 0 98 0 0 99 0 0 99 0 0 99 0 117
99 0 117 99 0 117 99 0 117 99 0 0 99 0 0 99 0 0 99 0 0 99 0 0 99 0 0
99 0 116 99 0 116 100 0 116 100 0 115 100 0 115 100 0 115 100 0 115
100 0 115 100 0 115 100 0 114 100 0 0 100 0 0 100 0 0 100 0 0 100 0 0
100 0 0 100 0 0 100 0 0 100 0 0 101 0 113 101 0 0 101 0 0 101 0 0 101
0 0 101 0 0 101 0 0 101 0 0 101 0 0 101 0 0 101 0 0 101 0 111 101 0
111 101 0 110 101 0 110 101 0 110 101 0 110 101 0 110 101 0 109 101 0
109 101 0 0 101 0 0 102 0 0 102 0 0 102 0 108 102 0 108 102 0 108 102
0 108 102 0 108 102 0 107 102 0 0 102 0 0 102 0 0 102 0 0 102 0 0 102
0 0 102 0 0 102 0 0 102 0 0 102 0 0 102 0 105 102 0 105 102 0 105 102
0 105 102 0 105 102 0 105 102 0 104 102 0 104 102 0 104 102 0 0 102 0
104 102 0 104 102 0 103 102 0 103 102 0 103 102 0 103 102 0 103 102 0
102 102 0 102 102 0 102 102 0 0 102 0 0 102 0 0 102 0 0 102 0 0 102 0
0 102 0 0 102 0 0 102 0 0 102 0 100 102 0 100 102 0 100 102 0 100 102
0 100 102 0 0 102 0 0 102 0 0 102 0 0 102 0 0 102 0 99 102 0 98 102 0
98 102 0 98 102 0 98 102 0 98 102 0 98 102 0 97 102 0 97 102 0 97 101
0 0 101 0 0 101 0 0 101 0 0 101 0 0 101 0 0 101 0 0 101 0 0 101 0 0
101 0 95 101 0 0 101 0 0 101 0 0 101 0 0 101 0 0 101 0 0 101 0 0 101 0
0 101 0 0 101 0 0 101 0 94 101 0 93 101 0 93 100 0 93 100 0 93 100 0
93 100 0 93 100 0 92 100 0 92 100 0 0 100 0 0 100 0 0 100 0 0 100 0 0
100 0 91 100 0 91 100 0 91 100 0 91 100 0 91 99 0 0 99 0 0 99 0 0 99 0
0 99 0
126 90 0 126 91 0 126 91 0 0 91 0 0 91 0 0 91 0 0 91 0 0 91 0 0 91 0
126 91 0 126 92 0 126 92 0 126 92 0 0 92 0 0 92 0 0 92 0 0 92 0 0 92 0
0 92 0 0 92 0 0 93 0 0 93 0 0 93 0 126 93 0 126 93 0 126 93 0 126 93 0
126 93 0 126 93 0 126 94 0 126 94 0 126 94 0 126 94 0 0 94 0 126 94 0
126 94 0 126 94 0 125 94 0 125 94 0 125 95 0 125 95 0 125 95 0 125 95
0 0 95 0 0 95 0 0 95 0 0 95 0 0 95 0 0 95 0 0 96 0 0 96 0 0 96 0 0 96
0 124 96 0 124 96 0 124 96 0 124 96 0 124 96 0 124 96 0 0 97 0 0 97 0
0 97 0 0 97 0 123 97 0 123 97 0 123 97 0 123 97 0 123 97 0 123 97 0
122 98 0 122 98 0 122 98 0 122 98 0 0 98 0 0 98 0 0 98 0 0 98 0 0 98 0
0 98 0 0 98 0 0 98 0 0 99 0 0 99 0 121 99 0 0 99 0 0 99 0 0 99 0 0 99
0 0 99 0 0 99 0 0 99 0 0 99 0 0 99 0 119 100 0 119 100 0 119 100 0 119
100 0 118 100 0 118 100 0 118 100 0 118 100 0 118 100 0 118 100 0 0
100 0 0 100 0 0 100 0 0 100 0 0 101 0 0 101 0 116 101 0 116 101 0 116
101 0 116 101 0 0 101 0 0 101 0 0 101 0 0 101 0 0 101 0 0 101 0 0 101
0 0 101 0 0 101 0 0 101 0 114 102 0 114 102 0 114 102 0 113 102 0 113
102 0 113 102 0 113 102 0 113 102 0 113 102 0 112 102 0 0 102 0 112
102 0 112 102 0 112 102 0 111 102 0 111 102 0 111 102 0 111 102 0 111
102 0 111 102 0 0 102 0 0 102 0 0 103 0 0 103 0 0 103 0 0 103 0 0 103
0 0 103 0 0 103 0 0 103 0 109 103 0 108 103 0 108 103 0 108 103 0 108
103 0 108 103 0 0 103 0 0 103 0 0 103 0 0 103 0 107 103 0 106 103 0
106 103 0 106 103 0 106 103 0 106 103 0 106 103 0 105 103 0 105 103 0
105 103 0 0 103 0 0 103 0 0 103 0 0 103 0 0 103 0 0 103 0 0 103 0 0
103 0 0 103 0 0 103 0 103 103 0 0 103 0 0 103 0 0 103 0 0 103 0 0 103
0 0 103 0 0 103 0 0 103 0 0 103 0 101 103 0 101 103 0 101 103 0 101
103 0 100 103 0 100 103 0 100 103 0 100 103 0 100 103 0 100 103 0 0
103 0 0 103 0 0 103 0 0 103 0 0 103 0 0 103 0 98 103 0 98 103 0 98 103
0 98 103 0 0 103 0 0 102 0 0 102 0 0 102 0 0 102 0 0 102 0 0 102 0 0
102 0 0 102 0 0 102 0 96 102 0 96 102 0 96 102 0 96 102 0 95 102 0 95
102 0 95 102 0 95 102 0 95 102 0 95 102 0 94 102 0 94 102 0 94 102 0
94 101 0 94 101 0 94 101 0 93 101 0 93 101 0 93 101 0 93 101 0 0 101 0
0 101 0 0 101 0 0 101 0 0 101 0 0 101 0 0 101 0 0 101 0 0 101 0 0 100
0 91 100 0 91 100 0 91 100 0
0 91 0 0 91 0 0 92 0 0 92 0 0 92 0 0 92 0 0 92 0 0 92 0 0 92 0 0 92 0
128 92 0 128 92 0 128 93 0 128 93 0 128 93 0 128 93 0 128 93 0 0 93 0
0 93 0 0 93 0 128 93 0 128 94 0 128 94 0 128 94 0 128 94 0 128 94 0
128 94 0 128 94 0 128 94 0 127 94 0 0 95 0 0 95 0 0 95 0 0 95 0 0 95 0
0 95 0 0 95 0 0 95 0 0 95 0 0 95 0 127 96 0 127 96 0 0 96 0 0 96 0 0
96 0 0 96 0 0 96 0 0 96 0 0 96 0 0 96 0 126 97 0 126 97 0 126 97 0 126
97 0 125 97 0 125 97 0 125 97 0 125 97 0 125 97 0 125 97 0 125 98 0 0
98 0 0 98 0 0 98 0 0 98 0 0 98 0 0 98 0 124 98 0 124 98 0 124 98 0 124
99 0 0 99 0 0 99 0 0 99 0 0 99 0 0 99 0 0 99 0 0 99 0 0 99 0 0 99 0 0
99 0 122 99 0 122 100 0 122 100 0 122 100 0 121 100 0 121 100 0 121
100 0 121 100 0 121 100 0 121 100 0 0 100 0 0 100 0 120 100 0 120 101
0 120 101 0 120 101 0 120 101 0 119 101 0 119 101 0 119 101 0 0 101 0
0 101 0 0 101 0 0 101 0 0 101 0 0 101 0 0 101 0 0 102 0 0 102 0 0 102
0 117 102 0 117 102 0 117 102 0 117 102 0 116 102 0 116 102 0 116 102
0 0 102 0 0 102 0 0 102 0 115 102 0 115 102 0 115 102 0 115 103 0 115
103 0 115 103 0 114 103 0 114 103 0 114 103 0 114 103 0 114 103 0 0
103 0 0 103 0 0 103 0 0 103 0 0 103 0 0 103 0 0 103 0 0 103 0 0 103 0
0 103 0 112 103 0 0 103 0 0 103 0 0 103 0 0 104 0 0 104 0 0 104 0 0
104 0 0 104 0 0 104 0 110 104 0 109 104 0 109 104 0 109 104 0 109 104
0 109 104 0 109 104 0 108 104 0 108 104 0 108 104 0 0 104 0 0 104 0 0
104 0 0 104 0 0 104 0 0 104 0 0 104 0 107 104 0 106 104 0 106 104 0 0
104 0 0 104 0 0 104 0 0 104 0 0 104 0 0 104 0 0 104 0 0 104 0 0 104 0
0 104 0 104 104 0 104 104 0 104 104 0 104 104 0 103 104 0 103 104 0
103 104 0 103 104 0 103 104 0 102 104 0 102 104 0 0 104 0 102 104 0
102 104 0 102 104 0 101 104 0 101 104 0 101 104 0 101 104 0 101 104 0
100 104 0 0 104 0 0 104 0 0 104 0 0 104 0 0 104 0 0 104 0 0 104 0 0
104 0 0 104 0 0 104 0 99 104 0 98 104 0 98 103 0 98 103 0 98 103 0 98
103 0 98 103 0 0 103 0 0 103 0 0 103 0 97 103 0 97 103 0 97 103 0 96
103 0 96 103 0 96 103 0 96 103 0 96 103 0 95 103 0 95 103 0 0 103 0 0
103 0 0 103 0 0 103 0 0 102 0 0 102 0 0 102 0 0 102 0 0 102 0 0 102 0
94 102 0 93 102 0 0 102 0 0 102 0 0 102 0 0 102 0 0 102 0 0 102 0 0
102 0 0 102 0 92 101 0 92 101 0 92 101 0
0 92 0 0 92 0 0 92 0 0 92 0 0 93 0 0 93 0 130 93 0 130 93 0 130 93 0
130 93 0 130 93 0 130 93 0 130 93 0 130 94 0 130 94 0 130 94 0 130 94
0 0 94 0 0 94 0 0 94 0 0 94 0 0 94 0 0 95 0 0 95 0 129 95 0 129 95 0
129 95 0 0 95 0 0 95 0 0 95 0 0 95 0 0 95 0 0 96 0 0 96 0 0 96 0 0 96
0 0 96 0 128 96 0 128 96 0 128 96 0 128 96 0 128 97 0 128 97 0 128 97
0 128 97 0 128 97 0 128 97 0 128 97 0 0 97 0 0 97 0 127 97 0 127 98 0
127 98 0 127 98 0 127 98 0 127 98 0 127 98 0 127 98 0 0 98 0 0 98 0 0
98 0 0 99 0 0 99 0 0 99 0 0 99 0 0 99 0 0 99 0 0 99 0 125 99 0 125 99
0 125 99 0 125 99 0 125 100 0 124 100 0 124 100 0 124 100 0 0 100 0 0
100 0 0 100 0 124 100 0 123 100 0 123 100 0 123 100 0 123 101 0 123
101 0 123 101 0 123 101 0 122 101 0 122 101 0 0 101 0 0 101 0 0 101 0
0 101 0 0 101 0 0 101 0 0 102 0 0 102 0 0 102 0 0 102 0 120 102 0 120
102 0 0 102 0 0 102 0 0 102 0 0 102 0 0 102 0 0 102 0 0 102 0 0 102 0
0 103 0 118 103 0 118 103 0 118 103 0 118 103 0 118 103 0 118 103 0
117 103 0 117 103 0 117 103 0 117 103 0 0 103 0 0 103 0 0 103 0 0 103
0 0 103 0 0 104 0 0 104 0 115 104 0 115 104 0 115 104 0 0 104 0 0 104
0 0 104 0 0 104 0 0 104 0 0 104 0 0 104 0 0 104 0 0 104 0 0 104 0 0
104 0 113 104 0 113 104 0 112 104 0 112 104 0 112 104 0 112 105 0 112
105 0 111 105 0 111 105 0 111 105 0 0 105 0 0 105 0 110 105 0 110 105
0 110 105 0 110 105 0 110 105 0 110 105 0 109 105 0 109 105 0 0 105 0
0 105 0 0 105 0 0 105 0 0 105 0 0 105 0 0 105 0 0 105 0 0 105 0 0 105
0 107 105 0 107 105 0 107 105 0 106 105 0 106 105 0 106 105 0 106 105
0 106 105 0 0 105 0 0 105 0 0 105 0 105 105 0 105 105 0 105 105 0 104
105 0 104 105 0 104 105 0 104 105 0 104 105 0 104 105 0 103 105 0 0
105 0 0 105 0 0 105 0 0 105 0 0 105 0 0 105 0 0 105 0 0 105 0 0 105 0
0 105 0 101 105 0 101 105 0 101 105 0 0 105 0 0 105 0 0 105 0 0 105 0
0 105 0 0 105 0 0 105 0 0 105 0 99 105 0 99 105 0 99 105 0 99 104 0 99
104 0 99 104 0 98 104 0 98 104 0 98 104 0 98 104 0 0 104 0 0 104 0 0
104 0 0 104 0 0 104 0 0 104 0 0 104 0 0 104 0 96 104 0 96 104 0 0 104
0 0 104 0 0 104 0 0 104 0 0 104 0 0 103 0 0 103 0 0 103 0 0 103 0 0
103 0 0 103 0 94 103 0 94 103 0 94 103 0 94 103 0 94 103 0 93 103 0 93
103 0 93 103 0 93 103 0 93 103 0 0 102 0 0 102 0
131 93 0 131 93 0 131 93 0 0 93 0 0 93 0 131 93 0 131 94 0 131 94 0
131 94 0 131 94 0 131 94 0 131 94 0 131 94 0 0 94 0 0 94 0 0 95 0 0 95
0 0 95 0 0 95 0 0 95 0 0 95 0 0 95 0 0 95 0 0 95 0 131 96 0 131 96 0
131 96 0 131 96 0 131 96 0 130 96 0 130 96 0 130 96 0 0 96 0 0 97 0
130 97 0 130 97 0 130 97 0 130 97 0 130 97 0 130 97 0 130 97 0 130 97
0 129 98 0 129 98 0 129 98 0 0 98 0 0 98 0 0 98 0 0 98 0 0 98 0 0 98 0
0 98 0 0 99 0 0 99 0 0 99 0 128 99 0 128 99 0 128 99 0 0 99 0 0 99 0 0
99 0 0 99 0 0 100 0 0 100 0 0 100 0 0 100 0 127 100 0 127 100 0 126
100 0 126 100 0 126 100 0 126 100 0 126 100 0 126 101 0 126 101 0 125
101 0 0 101 0 0 101 0 0 101 0 0 101 0 0 101 0 0 101 0 0 101 0 0 101 0
124 102 0 124 102 0 124 102 0 0 102 0 0 102 0 0 102 0 0 102 0 0 102 0
0 102 0 0 102 0 0 102 0 0 102 0 0 103 0 122 103 0 122 103 0 122 103 0
121 103 0 121 103 0 121 103 0 121 103 0 121 103 0 120 103 0 120 103 0
120 103 0 0 103 0 0 103 0 120 104 0 119 104 0 119 104 0 119 104 0 119
104 0 119 104 0 118 104 0 118 104 0 0 104 0 0 104 0 0 104 0 0 104 0 0
104 0 0 104 0 0 104 0 0 104 0 0 105 0 0 105 0 0 105 0 116 105 0 116
105 0 116 105 0 115 105 0 115 105 0 115 105 0 115 105 0 115 105 0 0
105 0 0 105 0 114 105 0 114 105 0 114 105 0 114 105 0 113 105 0 113
105 0 113 105 0 113 105 0 113 106 0 112 106 0 112 106 0 0 106 0 0 106
0 0 106 0 0 106 0 0 106 0 0 106 0 0 106 0 0 106 0 0 106 0 0 106 0 110
106 0 110 106 0 110 106 0 0 106 0 0 106 0 0 106 0 0 106 0 0 106 0 0
106 0 0 106 0 0 106 0 108 106 0 108 106 0 108 106 0 107 106 0 107 106
0 107 106 0 107 106 0 107 106 0 106 106 0 106 106 0 0 106 0 0 106 0 0
106 0 0 106 0 0 106 0 0 106 0 0 106 0 0 106 0 105 106 0 104 106 0 104
106 0 0 106 0 0 106 0 0 106 0 0 106 0 0 106 0 0 106 0 0 106 0 0 106 0
0 106 0 0 106 0 102 106 0 102 106 0 102 106 0 102 106 0 101 106 0 101
106 0 101 106 0 101 106 0 101 106 0 101 106 0 100 106 0 0 106 0 0 106
0 100 106 0 100 106 0 100 105 0 99 105 0 99 105 0 99 105 0 99 105 0 99
105 0 0 105 0 0 105 0 0 105 0 0 105 0 0 105 0 0 105 0 0 105 0 0 105 0
0 105 0 0 105 0 0 105 0 97 105 0 96 105 0 96 105 0 96 105 0 96 105 0
96 104 0 96 104 0 95 104 0 0 104 0 0 104 0 95 104 0 95 104 0 95 104 0
94 104 0 94 104 0 94 104 0 94 104 0 94 104 0 94 104 0 93 104 0 93 104
0 0 103 0
0 94 0 0 94 0 0 94 0 0 94 0 0 94 0 0 94 0 0 94 0 0 95 0 0 95 0 0 95 0
133 95 0 133 95 0 0 95 0 0 95 0 0 95 0 0 95 0 0 96 0 0 96 0 0 96 0 0
96 0 0 96 0 132 96 0 132 96 0 132 96 0 132 96 0 132 97 0 132 97 0 132
97 0 132 97 0 132 97 0 132 97 0 0 97 0 0 97 0 0 97 0 0 98 0 0 98 0 0
98 0 0 98 0 0 98 0 131 98 0 131 98 0 131 98 0 0 98 0 0 98 0 0 99 0 0
99 0 0 99 0 0 99 0 0 99 0 0 99 0 0 99 0 0 99 0 0 99 0 130 99 0 130 100
0 129 100 0 129 100 0 129 100 0 129 100 0 129 100 0 129 100 0 129 100
0 129 100 0 0 100 0 0 101 0 0 101 0 128 101 0 128 101 0 128 101 0 128
101 0 127 101 0 127 101 0 127 101 0 127 101 0 0 102 0 0 102 0 0 102 0
0 102 0 0 102 0 0 102 0 0 102 0 0 102 0 0 102 0 0 102 0 0 102 0 125
103 0 125 103 0 125 103 0 125 103 0 124 103 0 124 103 0 124 103 0 0
103 0 0 103 0 0 103 0 123 103 0 123 103 0 123 104 0 123 104 0 123 104
0 122 104 0 122 104 0 122 104 0 122 104 0 122 104 0 122 104 0 0 104 0
0 104 0 0 104 0 0 104 0 0 104 0 0 105 0 0 105 0 0 105 0 0 105 0 0 105
0 0 105 0 119 105 0 119 105 0 0 105 0 0 105 0 0 105 0 0 105 0 0 105 0
0 105 0 0 105 0 0 105 0 117 106 0 117 106 0 117 106 0 117 106 0 117
106 0 116 106 0 116 106 0 116 106 0 116 106 0 116 106 0 116 106 0 0
106 0 0 106 0 0 106 0 0 106 0 0 106 0 0 106 0 0 106 0 0 106 0 114 106
0 114 106 0 113 106 0 0 107 0 0 107 0 0 107 0 0 107 0 0 107 0 0 107 0
0 107 0 0 107 0 0 107 0 0 107 0 111 107 0 111 107 0 111 107 0 111 107
0 110 107 0 110 107 0 110 107 0 110 107 0 110 107 0 109 107 0 109 107
0 0 107 0 0 107 0 109 107 0 108 107 0 108 107 0 108 107 0 108 107 0
108 107 0 108 107 0 107 107 0 107 107 0 0 107 0 0 107 0 0 107 0 0 107
0 0 107 0 0 107 0 0 107 0 0 107 0 0 107 0 0 107 0 105 107 0 105 107 0
105 107 0 104 107 0 104 107 0 104 107 0 104 107 0 104 107 0 0 107 0 0
107 0 0 107 0 103 107 0 103 107 0 103 107 0 102 107 0 102 107 0 102
107 0 102 107 0 102 107 0 102 107 0 101 107 0 101 107 0 0 107 0 0 107
0 0 107 0 0 107 0 0 107 0 0 106 0 0 106 0 0 106 0 0 106 0 0 106 0 99
106 0 99 106 0 99 106 0 0 106 0 0 106 0 0 106 0 0 106 0 0 106 0 0 106
0 0 106 0 0 106 0 97 106 0 97 106 0 97 106 0 97 106 0 97 106 0 97 105
0 96 105 0 96 105 0 96 105 0 96 105 0 96 105 0 0 105 0 0 105 0 0 105 0
0 105 0 0 105 0 0 105 0 0 105 0 0 105 0 94 105 0 94 105 0 0 104 0
0 95 0 0 95 0 0 95 0 0 95 0 0 95 0 0 95 0 0 95 0 135 95 0 134 95 0 134
96 0 134 96 0 134 96 0 134 96 0 134 96 0 134 96 0 134 96 0 134 96 0 0
96 0 0 97 0 0 97 0 134 97 0 134 97 0 134 97 0 134 97 0 134 97 0 134 97
0 134 97 0 134 98 0 0 98 0 0 98 0 0 98 0 0 98 0 0 98 0 0 98 0 0 98 0 0
98 0 0 99 0 0 99 0 0 99 0 133 99 0 132 99 0 132 99 0 132 99 0 132 99 0
132 99 0 132 100 0 132 100 0 0 100 0 0 100 0 0 100 0 131 100 0 131 100
0 131 100 0 131 100 0 131 100 0 131 101 0 131 101 0 130 101 0 130 101
0 130 101 0 130 101 0 0 101 0 0 101 0 0 101 0 0 101 0 0 102 0 0 102 0
0 102 0 0 102 0 0 102 0 0 102 0 0 102 0 128 102 0 128 102 0 0 102 0 0
102 0 0 103 0 0 103 0 0 103 0 0 103 0 0 103 0 0 103 0 127 103 0 127
103 0 126 103 0 126 103 0 126 103 0 126 104 0 126 104 0 126 104 0 125
104 0 125 104 0 125 104 0 0 104 0 0 104 0 0 104 0 0 104 0 0 104 0 0
104 0 0 105 0 0 105 0 123 105 0 123 105 0 123 105 0 0 105 0 0 105 0 0
105 0 0 105 0 0 105 0 0 105 0 0 105 0 0 105 0 0 106 0 0 106 0 0 106 0
121 106 0 121 106 0 120 106 0 120 106 0 120 106 0 120 106 0 120 106 0
119 106 0 119 106 0 119 106 0 119 106 0 0 106 0 0 106 0 118 107 0 118
107 0 118 107 0 118 107 0 117 107 0 117 107 0 117 107 0 117 107 0 117
107 0 0 107 0 0 107 0 0 107 0 0 107 0 0 107 0 0 107 0 0 107 0 0 107 0
0 107 0 0 107 0 0 107 0 114 107 0 114 107 0 114 108 0 114 108 0 113
108 0 113 108 0 113 108 0 0 108 0 0 108 0 0 108 0 112 108 0 112 108 0
112 108 0 112 108 0 112 108 0 111 108 0 111 108 0 111 108 0 111 108 0
111 108 0 110 108 0 0 108 0 0 108 0 0 108 0 0 108 0 0 108 0 0 108 0 0
108 0 0 108 0 0 108 0 0 108 0 0 108 0 108 108 0 108 108 0 0 108 0 0
108 0 0 108 0 0 108 0 0 108 0 0 108 0 0 108 0 0 108 0 0 108 0 106 108
0 106 108 0 106 108 0 105 108 0 105 108 0 105 108 0 105 108 0 105 108
0 104 108 0 104 108 0 104 108 0 0 108 0 0 108 0 0 108 0 0 108 0 0 108
0 0 108 0 0 108 0 103 108 0 102 108 0 102 108 0 102 108 0 0 108 0 0
108 0 0 108 0 0 108 0 0 108 0 0 107 0 0 107 0 0 107 0 0 107 0 0 107 0
100 107 0 100 107 0 100 107 0 100 107 0 99 107 0 99 107 0 99 107 0 99
107 0 99 107 0 98 107 0 98 107 0 0 107 0 0 107 0 98 107 0 98 107 0 97
107 0 97 107 0 97 106 0 97 106 0 97 106 0 97 106 0 96 106 0 0 106 0 0
106 0 0 106 0 0 106 0 0 106 0 0 106 0 0 106 0 0 106 0 0 106 0 0 106 0
0 106 0
0 95 0 0 95 0 0 96 0 136 96 0 136 96 0 136 96 0 136 96 0 136 96 0 136
96 0 136 96 0 136 96 0 136 97 0 136 97 0 136 97 0 0 97 0 0 97 0 0 97 0
0 97 0 0 97 0 0 97 0 0 98 0 0 98 0 0 98 0 0 98 0 0 98 0 135 98 0 135
98 0 0 98 0 0 99 0 0 99 0 0 99 0 0 99 0 0 99 0 0 99 0 0 99 0 0 99 0
134 99 0 134 99 0 134 100 0 134 100 0 134 100 0 134 100 0 134 100 0
133 100 0 133 100 0 133 100 0 133 100 0 0 101 0 0 101 0 0 101 0 0 101
0 0 101 0 0 101 0 0 101 0 132 101 0 132 101 0 132 101 0 132 102 0 0
102 0 0 102 0 0 102 0 0 102 0 0 102 0 0 102 0 0 102 0 0 102 0 0 102 0
0 103 0 0 103 0 130 103 0 130 103 0 130 103 0 130 103 0 129 103 0 129
103 0 129 103 0 129 103 0 129 104 0 129 104 0 128 104 0 0 104 0 0 104
0 128 104 0 128 104 0 128 104 0 127 104 0 127 104 0 127 104 0 127 105
0 127 105 0 126 105 0 0 105 0 0 105 0 0 105 0 0 105 0 0 105 0 0 105 0
0 105 0 0 105 0 0 105 0 0 106 0 0 106 0 124 106 0 124 106 0 124 106 0
124 106 0 124 106 0 123 106 0 123 106 0 0 106 0 0 106 0 0 106 0 0 106
0 122 106 0 122 107 0 122 107 0 122 107 0 121 107 0 121 107 0 121 107
0 121 107 0 121 107 0 120 107 0 120 107 0 0 107 0 0 107 0 0 107 0 0
107 0 0 107 0 0 107 0 0 108 0 0 108 0 0 108 0 0 108 0 0 108 0 118 108
0 118 108 0 0 108 0 0 108 0 0 108 0 0 108 0 0 108 0 0 108 0 0 108 0 0
108 0 0 108 0 116 108 0 115 108 0 115 108 0 115 108 0 115 108 0 115
108 0 114 109 0 114 109 0 114 109 0 114 109 0 114 109 0 0 109 0 0 109
0 0 109 0 0 109 0 0 109 0 0 109 0 0 109 0 112 109 0 112 109 0 112 109
0 111 109 0 0 109 0 0 109 0 0 109 0 0 109 0 0 109 0 0 109 0 0 109 0 0
109 0 0 109 0 0 109 0 0 109 0 109 109 0 109 109 0 109 109 0 108 109 0
108 109 0 108 109 0 108 109 0 108 109 0 107 109 0 107 109 0 107 109 0
0 109 0 0 109 0 107 109 0 106 109 0 106 109 0 106 109 0 106 109 0 106
109 0 105 109 0 105 109 0 105 109 0 0 109 0 0 109 0 0 109 0 0 109 0 0
109 0 0 109 0 0 109 0 0 109 0 0 109 0 0 109 0 0 109 0 0 109 0 103 109
0 102 109 0 102 109 0 102 109 0 102 109 0 102 108 0 0 108 0 0 108 0 0
108 0 0 108 0 0 108 0 101 108 0 100 108 0 100 108 0 100 108 0 100 108
0 100 108 0 100 108 0 99 108 0 99 108 0 99 108 0 99 108 0 0 108 0 0
108 0 0 108 0 0 108 0 0 108 0 0 107 0 0 107 0 0 107 0 0 107 0 0 107 0
0 107 0 97 107 0 0 107 0 0 107 0 0 107 0 0 107 0 0 107 0 0 107 0 0 107
0 0 107 0 0 107 0
0 96 0 0 96 0 0 96 0 0 96 0 0 97 0 0 97 0 138 97 0 138 97 0 138 97 0
137 97 0 137 97 0 0 97 0 0 98 0 0 98 0 0 98 0 0 98 0 0 98 0 0 98 0 0
98 0 0 98 0 0 98 0 0 99 0 137 99 0 137 99 0 137 99 0 137 99 0 136 99 0
136 99 0 136 99 0 136 99 0 136 100 0 136 100 0 136 100 0 0 100 0 136
100 0 136 100 0 136 100 0 135 100 0 135 100 0 135 101 0 135 101 0 135
101 0 135 101 0 135 101 0 135 101 0 0 101 0 0 101 0 0 101 0 0 101 0 0
102 0 0 102 0 0 102 0 0 102 0 0 102 0 0 102 0 0 102 0 133 102 0 133
102 0 133 103 0 133 103 0 133 103 0 132 103 0 0 103 0 0 103 0 0 103 0
0 103 0 0 103 0 131 103 0 131 104 0 131 104 0 131 104 0 131 104 0 131
104 0 131 104 0 130 104 0 130 104 0 130 104 0 130 104 0 0 104 0 0 105
0 0 105 0 0 105 0 0 105 0 0 105 0 0 105 0 0 105 0 0 105 0 0 105 0 0
105 0 128 105 0 0 106 0 0 106 0 0 106 0 0 106 0 0 106 0 0 106 0 0 106
0 0 106 0 0 106 0 0 106 0 0 106 0 126 106 0 125 107 0 125 107 0 125
107 0 125 107 0 125 107 0 124 107 0 124 107 0 124 107 0 124 107 0 124
107 0 0 107 0 0 107 0 0 107 0 0 108 0 0 108 0 0 108 0 122 108 0 122
108 0 122 108 0 122 108 0 121 108 0 0 108 0 0 108 0 0 108 0 0 108 0 0
108 0 0 108 0 0 108 0 0 108 0 0 108 0 0 109 0 0 109 0 119 109 0 119
109 0 119 109 0 118 109 0 118 109 0 118 109 0 118 109 0 118 109 0 117
109 0 117 109 0 117 109 0 0 109 0 117 109 0 116 109 0 116 109 0 116
109 0 116 109 0 115 109 0 115 109 0 115 109 0 115 110 0 115 110 0 0
110 0 0 110 0 0 110 0 0 110 0 0 110 0 0 110 0 0 110 0 0 110 0 0 110 0
0 110 0 0 110 0 0 110 0 112 110 0 112 110 0 112 110 0 111 110 0 111
110 0 111 110 0 0 110 0 0 110 0 0 110 0 0 110 0 0 110 0 110 110 0 110
110 0 109 110 0 109 110 0 109 110 0 109 110 0 109 110 0 109 110 0 108
110 0 108 110 0 108 110 0 0 110 0 0 110 0 0 110 0 0 110 0 0 110 0 0
110 0 0 110 0 0 110 0 0 110 0 0 110 0 0 110 0 106 110 0 0 110 0 0 110
0 0 110 0 0 110 0 0 110 0 0 110 0 0 110 0 0 110 0 0 110 0 0 110 0 104
110 0 103 110 0 103 110 0 103 110 0 103 110 0 103 109 0 102 109 0 102
109 0 102 109 0 102 109 0 102 109 0 102 109 0 0 109 0 0 109 0 0 109 0
0 109 0 0 109 0 0 109 0 100 109 0 100 109 0 100 109 0 100 109 0 100
109 0 0 109 0 0 109 0 0 109 0 0 109 0 0 109 0 0 108 0 0 108 0 0 108 0
0 108 0 0 108 0 0 108 0 98 108 0 97 108 0 97 108 0 97 108 0 97 108 0
97 108 0 97 108 0 96 108 0 96 108 0 96 108 0
0 97 0 0 97 0 0 97 0 0 97 0 0 97 0 0 97 0 0 98 0 0 98 0 139 98 0 139
98 0 139 98 0 139 98 0 0 98 0 0 98 0 0 99 0 0 99 0 0 99 0 0 99 0 0 99
0 138 99 0 138 99 0 138 99 0 138 99 0 138 100 0 138 100 0 138 100 0
138 100 0 138 100 0 138 100 0 138 100 0 137 100 0 0 100 0 0 101 0 0
101 0 0 101 0 0 101 0 0 101 0 0 101 0 0 101 0 0 101 0 0 101 0 136 102
0 0 102 0 0 102 0 0 102 0 0 102 0 0 102 0 0 102 0 0 102 0 0 102 0 0
103 0 0 103 0 0 103 0 135 103 0 135 103 0 134 103 0 134 103 0 134 103
0 134 103 0 134 103 0 134 104 0 134 104 0 133 104 0 133 104 0 133 104
0 0 104 0 0 104 0 0 104 0 0 104 0 132 104 0 132 105 0 132 105 0 132
105 0 132 105 0 132 105 0 131 105 0 0 105 0 0 105 0 0 105 0 0 105 0 0
106 0 0 106 0 0 106 0 0 106 0 0 106 0 0 106 0 0 106 0 129 106 0 129
106 0 129 106 0 129 106 0 128 107 0 128 107 0 128 107 0 128 107 0 128
107 0 128 107 0 127 107 0 0 107 0 127 107 0 127 107 0 127 107 0 126
107 0 126 108 0 126 108 0 126 108 0 126 108 0 125 108 0 125 108 0 125
108 0 0 108 0 0 108 0 0 108 0 0 108 0 0 108 0 0 108 0 0 108 0 0 109 0
0 109 0 0 109 0 0 109 0 123 109 0 122 109 0 122 109 0 122 109 0 122
109 0 0 109 0 0 109 0 0 109 0 0 109 0 0 109 0 0 109 0 0 109 0 120 110
0 120 110 0 120 110 0 119 110 0 119 110 0 119 110 0 119 110 0 119 110
0 118 110 0 118 110 0 118 110 0 0 110 0 0 110 0 0 110 0 0 110 0 0 110
0 0 110 0 0 110 0 0 110 0 0 110 0 0 110 0 0 110 0 116 110 0 0 110 0 0
111 0 0 111 0 0 111 0 0 111 0 0 111 0 0 111 0 0 111 0 0 111 0 0 111 0
0 111 0 113 111 0 113 111 0 113 111 0 113 111 0 112 111 0 112 111 0
112 111 0 112 111 0 111 111 0 111 111 0 111 111 0 0 111 0 0 111 0 0
111 0 0 111 0 0 111 0 110 111 0 110 111 0 110 111 0 109 111 0 109 111
0 109 111 0 109 111 0 0 111 0 0 111 0 0 111 0 0 111 0 0 111 0 0 111 0
0 111 0 0 111 0 0 111 0 0 111 0 0 111 0 106 111 0 106 111 0 106 111 0
106 111 0 106 111 0 105 111 0 105 111 0 105 111 0 105 111 0 105 111 0
0 111 0 104 111 0 104 111 0 104 111 0 104 111 0 104 111 0 103 110 0
103 110 0 103 110 0 103 110 0 103 110 0 103 110 0 102 110 0 0 110 0 0
110 0 0 110 0 0 110 0 0 110 0 0 110 0 0 110 0 0 110 0 0 110 0 0 110 0
0 110 0 100 110 0 100 110 0 100 110 0 100 110 0 100 110 0 0 109 0 0
109 0 0 109 0 0 109 0 0 109 0 0 109 0 98 109 0 98 109 0 98 109 0 98
109 0 98 109 0 97 109 0 97 109 0 97 109 0 97 109 0 97 109 0
0 98 0 0 98 0 0 98 0 0 98 0 0 98 0 141 98 0 141 98 0 141 99 0 140 99 0
140 99 0 140 99 0 140 99 0 140 99 0 140 99 0 140 99 0 140 99 0 0 100 0
0 100 0 0 100 0 140 100 0 140 100 0 140 100 0 140 100 0 139 100 0 139
100 0 139 101 0 139 101 0 139 101 0 0 101 0 0 101 0 0 101 0 0 101 0 0
101 0 0 101 0 0 102 0 0 102 0 0 102 0 0 102 0 0 102 0 138 102 0 138
102 0 138 102 0 137 102 0 137 103 0 137 103 0 137 103 0 137 103 0 137
103 0 0 103 0 0 103 0 0 103 0 136 103 0 136 104 0 136 104 0 136 104 0
136 104 0 136 104 0 135 104 0 135 104 0 135 104 0 135 104 0 135 104 0
0 105 0 0 105 0 0 105 0 0 105 0 0 105 0 0 105 0 0 105 0 0 105 0 0 105
0 0 106 0 0 106 0 0 106 0 133 106 0 132 106 0 132 106 0 0 106 0 0 106
0 0 106 0 0 106 0 0 106 0 0 107 0 0 107 0 0 107 0 131 107 0 130 107 0
130 107 0 130 107 0 130 107 0 130 107 0 130 107 0 129 107 0 129 108 0
129 108 0 129 108 0 129 108 0 0 108 0 0 108 0 0 108 0 0 108 0 0 108 0
0 108 0 0 108 0 0 108 0 0 109 0 127 109 0 126 109 0 126 109 0 0 109 0
0 109 0 0 109 0 0 109 0 0 109 0 0 109 0 0 109 0 0 109 0 0 109 0 0 109
0 0 110 0 124 110 0 123 110 0 123 110 0 123 110 0 123 110 0 123 110 0
122 110 0 122 110 0 122 110 0 122 110 0 122 110 0 121 110 0 0 110 0 0
110 0 0 110 0 121 110 0 120 111 0 120 111 0 120 111 0 120 111 0 120
111 0 119 111 0 119 111 0 0 111 0 0 111 0 0 111 0 0 111 0 0 111 0 0
111 0 0 111 0 0 111 0 0 111 0 0 111 0 0 111 0 0 111 0 116 111 0 116
111 0 116 111 0 116 111 0 116 111 0 115 112 0 115 112 0 115 112 0 0
112 0 0 112 0 0 112 0 114 112 0 114 112 0 114 112 0 114 112 0 113 112
0 113 112 0 113 112 0 113 112 0 113 112 0 112 112 0 112 112 0 112 112
0 0 112 0 0 112 0 0 112 0 0 112 0 0 112 0 0 112 0 0 112 0 0 112 0 0
112 0 0 112 0 0 112 0 110 112 0 109 112 0 109 112 0 0 112 0 0 112 0 0
112 0 0 112 0 0 112 0 0 112 0 0 112 0 0 112 0 0 112 0 107 112 0 107
112 0 107 112 0 107 112 0 106 112 0 106 112 0 106 112 0 106 112 0 106
112 0 105 112 0 105 112 0 0 112 0 0 112 0 0 112 0 0 112 0 0 111 0 0
111 0 0 111 0 0 111 0 0 111 0 103 111 0 103 111 0 103 111 0 0 111 0 0
111 0 0 111 0 0 111 0 0 111 0 0 111 0 0 111 0 0 111 0 0 111 0 0 111 0
0 111 0 101 111 0 101 111 0 101 111 0 100 111 0 100 111 0 100 110 0
100 110 0 100 110 0 100 110 0 99 110 0 99 110 0 99 110 0 0 110 0 0 110
0 0 110 0 98 110 0 98 110 0 98 110 0 98 110 0 98 110 0 98 110 0
0 98 0 0 99 0 142 99 0 142 99 0 142 99 0 142 99 0 142 99 0 142 99 0
142 99 0 142 100 0 142 100 0 142 100 0 142 100 0 0 100 0 0 100 0 0 100
0 0 100 0 0 100 0 0 101 0 0 101 0 0 101 0 0 101 0 0 101 0 0 101 0 0
101 0 141 101 0 0 101 0 0 102 0 0 102 0 0 102 0 0 102 0 0 102 0 0 102
0 0 102 0 0 102 0 0 102 0 0 103 0 139 103 0 139 103 0 139 103 0 139
103 0 139 103 0 139 103 0 139 103 0 138 103 0 138 104 0 138 104 0 138
104 0 0 104 0 0 104 0 0 104 0 0 104 0 0 104 0 0 104 0 0 105 0 137 105
0 137 105 0 137 105 0 136 105 0 136 105 0 0 105 0 0 105 0 0 105 0 0
106 0 0 106 0 0 106 0 0 106 0 0 106 0 0 106 0 0 106 0 0 106 0 0 106 0
134 106 0 134 107 0 134 107 0 134 107 0 133 107 0 133 107 0 133 107 0
133 107 0 133 107 0 132 107 0 132 107 0 0 107 0 132 108 0 132 108 0
131 108 0 131 108 0 131 108 0 131 108 0 131 108 0 131 108 0 130 108 0
130 108 0 130 108 0 0 109 0 0 109 0 0 109 0 0 109 0 0 109 0 0 109 0 0
109 0 0 109 0 0 109 0 0 109 0 0 109 0 0 109 0 127 110 0 127 110 0 127
110 0 127 110 0 126 110 0 126 110 0 126 110 0 0 110 0 0 110 0 0 110 0
0 110 0 0 110 0 125 110 0 125 110 0 124 111 0 124 111 0 124 111 0 124
111 0 124 111 0 123 111 0 123 111 0 123 111 0 123 111 0 0 111 0 0 111
0 0 111 0 0 111 0 0 111 0 0 111 0 0 111 0 0 111 0 0 112 0 0 112 0 0
112 0 0 112 0 120 112 0 0 112 0 0 112 0 0 112 0 0 112 0 0 112 0 0 112
0 0 112 0 0 112 0 0 112 0 0 112 0 0 112 0 117 112 0 117 112 0 117 112
0 117 112 0 117 112 0 116 112 0 116 112 0 116 112 0 116 112 0 116 113
0 115 113 0 0 113 0 0 113 0 0 113 0 0 113 0 0 113 0 0 113 0 0 113 0
114 113 0 114 113 0 113 113 0 113 113 0 113 113 0 0 113 0 0 113 0 0
113 0 0 113 0 0 113 0 0 113 0 0 113 0 0 113 0 0 113 0 0 113 0 0 113 0
0 113 0 110 113 0 110 113 0 110 113 0 110 113 0 109 113 0 109 113 0
109 113 0 109 113 0 109 113 0 109 113 0 108 113 0 108 113 0 108 113 0
108 113 0 108 113 0 107 113 0 107 113 0 107 113 0 107 113 0 107 113 0
106 113 0 106 113 0 106 113 0 0 113 0 0 113 0 0 112 0 0 112 0 0 112 0
0 112 0 0 112 0 0 112 0 0 112 0 0 112 0 0 112 0 0 112 0 104 112 0 103
112 0 103 112 0 103 112 0 103 112 0 103 112 0 103 112 0 0 112 0 0 112
0 0 112 0 0 112 0 0 112 0 101 112 0 101 112 0 101 112 0 101 111 0 101
111 0 101 111 0 100 111 0 100 111 0 100 111 0 100 111 0 100 111 0 0
111 0 0 111 0 0 111 0 0 111 0 0 111 0 0 111 0 0 111 0 0 111 0 0 111 0
0 99 0 0 99 0 0 99 0 144 100 0 144 100 0 144 100 0 143 100 0 143 100 0
143 100 0 143 100 0 0 100 0 0 101 0 0 101 0 0 101 0 0 101 0 0 101 0 0
101 0 0 101 0 0 101 0 0 101 0 0 102 0 0 102 0 142 102 0 142 102 0 142
102 0 142 102 0 142 102 0 142 102 0 142 102 0 142 103 0 141 103 0 141
103 0 141 103 0 0 103 0 141 103 0 141 103 0 141 103 0 141 103 0 140
104 0 140 104 0 140 104 0 140 104 0 140 104 0 140 104 0 140 104 0 140
104 0 0 104 0 0 105 0 0 105 0 0 105 0 0 105 0 0 105 0 0 105 0 0 105 0
0 105 0 0 105 0 0 106 0 0 106 0 138 106 0 137 106 0 137 106 0 137 106
0 0 106 0 0 106 0 0 106 0 0 107 0 0 107 0 0 107 0 0 107 0 0 107 0 136
107 0 135 107 0 135 107 0 135 107 0 135 107 0 135 108 0 134 108 0 134
108 0 134 108 0 134 108 0 134 108 0 133 108 0 0 108 0 0 108 0 0 108 0
0 108 0 0 109 0 0 109 0 0 109 0 0 109 0 0 109 0 0 109 0 131 109 0 0
109 0 0 109 0 0 109 0 0 109 0 0 110 0 0 110 0 0 110 0 0 110 0 0 110 0
0 110 0 0 110 0 0 110 0 129 110 0 128 110 0 128 110 0 128 110 0 128
111 0 128 111 0 127 111 0 127 111 0 127 111 0 127 111 0 127 111 0 126
111 0 0 111 0 0 111 0 0 111 0 0 111 0 0 111 0 125 111 0 125 112 0 125
112 0 124 112 0 124 112 0 124 112 0 124 112 0 0 112 0 0 112 0 0 112 0
0 112 0 0 112 0 0 112 0 0 112 0 0 112 0 0 112 0 0 112 0 0 112 0 0 113
0 121 113 0 121 113 0 121 113 0 120 113 0 120 113 0 120 113 0 120 113
0 120 113 0 119 113 0 119 113 0 0 113 0 0 113 0 118 113 0 118 113 0
118 113 0 118 113 0 118 113 0 117 113 0 117 113 0 117 113 0 117 113 0
117 113 0 116 113 0 116 113 0 0 113 0 0 113 0 0 114 0 0 114 0 0 114 0
0 114 0 0 114 0 0 114 0 0 114 0 0 114 0 0 114 0 0 114 0 113 114 0 113
114 0 113 114 0 113 114 0 0 114 0 0 114 0 0 114 0 0 114 0 0 114 0 0
114 0 0 114 0 111 114 0 111 114 0 111 114 0 111 114 0 110 114 0 110
114 0 110 114 0 110 114 0 110 114 0 109 114 0 109 114 0 109 114 0 0
114 0 0 114 0 0 114 0 0 114 0 0 114 0 0 114 0 0 114 0 0 114 0 0 114 0
0 114 0 0 114 0 107 114 0 0 113 0 0 113 0 0 113 0 0 113 0 0 113 0 0
113 0 0 113 0 0 113 0 0 113 0 0 113 0 0 113 0 0 113 0 104 113 0 104
113 0 104 113 0 104 113 0 104 113 0 103 113 0 103 113 0 103 113 0 103
113 0 103 113 0 103 113 0 102 113 0 0 113 0 0 113 0 0 113 0 0 112 0
101 112 0 101 112 0 101 112 0 101 112 0 101 112 0 101 112 0 100 112 0
100 112 0 0 112 0 0 112 0 0 112 0 0 112 0 0 112 0 0 112 0 0 112 0 0
112 0
0 100 0 0 100 0 0 100 0 0 100 0 0 100 0 0 101 0 0 101 0 145 101 0 145
101 0 0 101 0 0 101 0 0 101 0 0 101 0 0 101 0 0 102 0 0 102 0 0 102 0
0 102 0 0 102 0 144 102 0 144 102 0 144 102 0 144 103 0 143 103 0 143
103 0 143 103 0 143 103 0 143 103 0 143 103 0 143 103 0 143 103 0 0
104 0 0 104 0 0 104 0 0 104 0 0 104 0 0 104 0 0 104 0 0 104 0 142 105
0 141 105 0 141 105 0 141 105 0 0 105 0 0 105 0 0 105 0 0 105 0 0 105
0 0 106 0 0 106 0 0 106 0 0 106 0 0 106 0 0 106 0 0 106 0 139 106 0
139 106 0 139 106 0 139 107 0 139 107 0 138 107 0 138 107 0 138 107 0
138 107 0 138 107 0 137 107 0 137 107 0 0 108 0 0 108 0 137 108 0 137
108 0 136 108 0 136 108 0 136 108 0 136 108 0 136 108 0 135 108 0 135
109 0 135 109 0 135 109 0 0 109 0 0 109 0 0 109 0 0 109 0 0 109 0 0
109 0 0 109 0 0 109 0 0 110 0 0 110 0 0 110 0 0 110 0 132 110 0 132
110 0 132 110 0 132 110 0 131 110 0 131 110 0 131 110 0 0 111 0 0 111
0 0 111 0 0 111 0 0 111 0 130 111 0 130 111 0 129 111 0 129 111 0 129
111 0 129 111 0 129 111 0 128 112 0 128 112 0 128 112 0 128 112 0 127
112 0 0 112 0 0 112 0 0 112 0 0 112 0 0 112 0 0 112 0 0 112 0 0 112 0
0 112 0 0 113 0 0 113 0 0 113 0 125 113 0 124 113 0 0 113 0 0 113 0 0
113 0 0 113 0 0 113 0 0 113 0 0 113 0 0 113 0 0 113 0 0 113 0 122 113
0 122 113 0 122 113 0 121 114 0 121 114 0 121 114 0 121 114 0 121 114
0 120 114 0 120 114 0 120 114 0 120 114 0 0 114 0 0 114 0 0 114 0 0
114 0 0 114 0 0 114 0 0 114 0 0 114 0 118 114 0 118 114 0 117 114 0
117 114 0 0 114 0 0 114 0 0 114 0 0 114 0 0 114 0 0 114 0 0 114 0 0
114 0 0 115 0 0 115 0 0 115 0 0 115 0 114 115 0 114 115 0 114 115 0
114 115 0 114 115 0 113 115 0 113 115 0 113 115 0 113 115 0 113 115 0
112 115 0 112 115 0 0 115 0 0 115 0 112 115 0 111 115 0 111 115 0 111
115 0 111 115 0 111 115 0 110 115 0 110 115 0 110 115 0 110 115 0 0
115 0 0 115 0 0 115 0 0 115 0 0 115 0 0 115 0 0 115 0 0 115 0 0 115 0
0 114 0 0 114 0 0 114 0 107 114 0 107 114 0 107 114 0 107 114 0 107
114 0 106 114 0 106 114 0 106 114 0 0 114 0 0 114 0 0 114 0 0 114 0
105 114 0 105 114 0 105 114 0 104 114 0 104 114 0 104 114 0 104 114 0
104 114 0 104 114 0 103 114 0 103 114 0 103 114 0 0 114 0 0 114 0 0
113 0 0 113 0 0 113 0 0 113 0 0 113 0 0 113 0 0 113 0 0 113 0 0 113 0
0 113 0 101 113 0 101 113 0 0 113 0 0 113 0 0 113 0 0 113 0 0 113 0 0
112 0
0 101 0 0 101 0 0 101 0 0 101 0 146 101 0 146 101 0 146 101 0 146 102
0 146 102 0 146 102 0 146 102 0 146 102 0 146 102 0 146 102 0 146 102
0 0 102 0 145 103 0 145 103 0 145 103 0 145 103 0 145 103 0 145 103 0
145 103 0 145 103 0 145 104 0 145 104 0 144 104 0 144 104 0 144 104 0
0 104 0 0 104 0 0 104 0 0 104 0 0 105 0 0 105 0 0 105 0 0 105 0 0 105
0 0 105 0 0 105 0 0 105 0 142 105 0 142 106 0 142 106 0 142 106 0 142
106 0 0 106 0 0 106 0 0 106 0 0 106 0 0 107 0 0 107 0 0 107 0 141 107
0 140 107 0 140 107 0 140 107 0 140 107 0 140 107 0 140 107 0 139 108
0 139 108 0 139 108 0 139 108 0 139 108 0 0 108 0 0 108 0 0 108 0 0
108 0 0 109 0 0 109 0 0 109 0 0 109 0 0 109 0 0 109 0 0 109 0 136 109
0 136 109 0 0 109 0 0 110 0 0 110 0 0 110 0 0 110 0 0 110 0 0 110 0 0
110 0 0 110 0 0 110 0 0 110 0 0 110 0 134 111 0 133 111 0 133 111 0
133 111 0 133 111 0 133 111 0 132 111 0 132 111 0 132 111 0 132 111 0
132 111 0 131 112 0 0 112 0 0 112 0 0 112 0 0 112 0 0 112 0 130 112 0
130 112 0 130 112 0 129 112 0 129 112 0 129 112 0 129 112 0 0 113 0 0
113 0 0 113 0 0 113 0 0 113 0 0 113 0 0 113 0 0 113 0 0 113 0 0 113 0
0 113 0 0 113 0 126 113 0 126 113 0 126 114 0 125 114 0 125 114 0 125
114 0 125 114 0 124 114 0 124 114 0 124 114 0 124 114 0 124 114 0 0
114 0 123 114 0 123 114 0 123 114 0 122 114 0 122 114 0 122 114 0 122
114 0 122 115 0 121 115 0 121 115 0 121 115 0 121 115 0 0 115 0 0 115
0 0 115 0 0 115 0 0 115 0 0 115 0 0 115 0 0 115 0 0 115 0 0 115 0 0
115 0 0 115 0 118 115 0 118 115 0 118 115 0 117 115 0 117 115 0 0 115
0 0 115 0 0 115 0 0 115 0 0 115 0 0 115 0 0 115 0 115 115 0 115 115 0
115 115 0 115 115 0 115 116 0 114 116 0 114 116 0 114 116 0 114 116 0
114 116 0 113 116 0 113 116 0 113 116 0 0 116 0 0 116 0 0 116 0 0 116
0 0 116 0 0 116 0 0 116 0 0 116 0 0 116 0 0 116 0 0 116 0 111 116 0 0
116 0 0 116 0 0 116 0 0 116 0 0 115 0 0 115 0 0 115 0 0 115 0 0 115 0
0 115 0 0 115 0 0 115 0 108 115 0 108 115 0 108 115 0 107 115 0 107
115 0 107 115 0 107 115 0 107 115 0 106 115 0 106 115 0 106 115 0 106
115 0 0 115 0 0 115 0 0 115 0 0 115 0 0 115 0 105 115 0 105 115 0 104
115 0 104 115 0 104 115 0 104 115 0 104 115 0 0 115 0 0 114 0 0 114 0
0 114 0 0 114 0 0 114 0 0 114 0 0 114 0 0 114 0 0 114 0 0 114 0 0 114
0 0 114 0 101 114 0 101 114 0 101 114 0 101 114 0 101 114 0 100 114 0
100 113 0
0 101 0 148 102 0 148 102 0 148 102 0 148 102 0 148 102 0 148 102 0
147 102 0 147 102 0 147 103 0 147 103 0 147 103 0 147 103 0 147 103 0
0 103 0 0 103 0 0 103 0 0 103 0 0 104 0 0 104 0 0 104 0 0 104 0 146
104 0 146 104 0 146 104 0 146 104 0 0 105 0 0 105 0 0 105 0 0 105 0 0
105 0 0 105 0 0 105 0 0 105 0 0 105 0 0 106 0 0 106 0 0 106 0 144 106
0 144 106 0 144 106 0 144 106 0 143 106 0 143 106 0 143 107 0 143 107
0 143 107 0 143 107 0 143 107 0 142 107 0 142 107 0 0 107 0 0 107 0
142 108 0 142 108 0 141 108 0 141 108 0 141 108 0 141 108 0 141 108 0
140 108 0 140 108 0 140 109 0 0 109 0 0 109 0 0 109 0 0 109 0 0 109 0
0 109 0 0 109 0 0 109 0 0 110 0 0 110 0 0 110 0 0 110 0 0 110 0 137
110 0 137 110 0 137 110 0 137 110 0 137 110 0 136 111 0 136 111 0 136
111 0 0 111 0 0 111 0 0 111 0 0 111 0 135 111 0 135 111 0 135 111 0
134 111 0 134 112 0 134 112 0 134 112 0 134 112 0 133 112 0 133 112 0
133 112 0 133 112 0 0 112 0 0 112 0 0 112 0 0 113 0 0 113 0 0 113 0 0
113 0 0 113 0 0 113 0 0 113 0 0 113 0 0 113 0 0 113 0 130 113 0 129
113 0 0 113 0 0 114 0 0 114 0 0 114 0 0 114 0 0 114 0 0 114 0 0 114 0
0 114 0 0 114 0 127 114 0 127 114 0 127 114 0 126 114 0 126 114 0 126
114 0 126 115 0 125 115 0 125 115 0 125 115 0 125 115 0 125 115 0 124
115 0 0 115 0 0 115 0 0 115 0 0 115 0 0 115 0 0 115 0 0 115 0 0 115 0
122 115 0 122 115 0 122 115 0 122 116 0 0 116 0 0 116 0 0 116 0 0 116
0 0 116 0 0 116 0 0 116 0 0 116 0 0 116 0 0 116 0 0 116 0 0 116 0 119
116 0 119 116 0 119 116 0 118 116 0 118 116 0 118 116 0 118 116 0 117
116 0 117 116 0 117 116 0 117 116 0 117 116 0 116 116 0 0 116 0 0 116
0 116 116 0 116 116 0 115 116 0 115 116 0 115 116 0 115 116 0 114 116
0 114 116 0 114 116 0 114 116 0 0 116 0 0 116 0 0 116 0 0 116 0 0 116
0 0 116 0 0 116 0 0 116 0 0 116 0 0 116 0 0 116 0 0 116 0 0 116 0 111
116 0 111 116 0 111 116 0 110 116 0 110 116 0 110 116 0 110 116 0 110
116 0 0 116 0 0 116 0 0 116 0 0 116 0 109 116 0 108 116 0 108 116 0
108 116 0 108 116 0 108 116 0 108 116 0 107 116 0 107 116 0 107 116 0
107 116 0 107 116 0 0 116 0 0 116 0 0 116 0 0 116 0 0 116 0 0 116 0 0
116 0 0 116 0 0 116 0 0 116 0 0 116 0 0 115 0 0 115 0 104 115 0 104
115 0 0 115 0 0 115 0 0 115 0 0 115 0 0 115 0 0 115 0 0 115 0 0 115 0
0 115 0 0 115 0 102 115 0 102 115 0 102 115 0 101 115 0 101 115 0 101
114 0 101 114 0
149 102 0 149 102 0 149 102 0 149 103 0 149 103 0 149 103 0 149 103 0
149 103 0 149 103 0 149 103 0 149 103 0 0 103 0 0 104 0 0 104 0 0 104
0 0 104 0 0 104 0 0 104 0 0 104 0 0 104 0 0 105 0 0 105 0 0 105 0 147
105 0 147 105 0 147 105 0 147 105 0 147 105 0 0 106 0 0 106 0 0 106 0
0 106 0 0 106 0 0 106 0 0 106 0 0 106 0 145 106 0 145 107 0 145 107 0
145 107 0 145 107 0 145 107 0 145 107 0 144 107 0 144 107 0 144 107 0
144 108 0 144 108 0 0 108 0 0 108 0 0 108 0 0 108 0 0 108 0 0 108 0 0
108 0 0 109 0 0 109 0 0 109 0 0 109 0 142 109 0 142 109 0 0 109 0 0
109 0 0 109 0 0 110 0 0 110 0 0 110 0 0 110 0 0 110 0 0 110 0 0 110 0
0 110 0 0 110 0 0 111 0 139 111 0 139 111 0 138 111 0 138 111 0 138
111 0 138 111 0 138 111 0 137 111 0 137 111 0 137 111 0 137 112 0 137
112 0 0 112 0 0 112 0 0 112 0 0 112 0 0 112 0 135 112 0 135 112 0 135
112 0 135 113 0 134 113 0 134 113 0 134 113 0 134 113 0 0 113 0 0 113
0 0 113 0 0 113 0 0 113 0 0 113 0 0 113 0 0 114 0 0 114 0 0 114 0 0
114 0 0 114 0 131 114 0 131 114 0 131 114 0 130 114 0 130 114 0 130
114 0 130 114 0 129 115 0 129 115 0 129 115 0 129 115 0 0 115 0 0 115
0 128 115 0 128 115 0 128 115 0 127 115 0 127 115 0 127 115 0 127 115
0 127 115 0 126 115 0 126 116 0 126 116 0 126 116 0 0 116 0 0 116 0 0
116 0 0 116 0 0 116 0 0 116 0 0 116 0 0 116 0 0 116 0 0 116 0 0 116 0
0 116 0 0 116 0 123 116 0 122 116 0 122 116 0 122 116 0 122 117 0 0
117 0 0 117 0 0 117 0 0 117 0 0 117 0 0 117 0 0 117 0 0 117 0 120 117
0 119 117 0 119 117 0 119 117 0 119 117 0 119 117 0 118 117 0 118 117
0 118 117 0 118 117 0 118 117 0 117 117 0 0 117 0 0 117 0 0 117 0 0
117 0 0 117 0 0 117 0 0 117 0 0 117 0 0 117 0 0 117 0 0 117 0 115 117
0 115 117 0 0 117 0 0 117 0 0 117 0 0 117 0 0 117 0 0 117 0 0 117 0 0
117 0 0 117 0 0 117 0 0 117 0 0 117 0 112 117 0 112 117 0 112 117 0
111 117 0 111 117 0 111 117 0 111 117 0 111 117 0 110 117 0 110 117 0
110 117 0 110 117 0 110 117 0 0 117 0 0 117 0 0 117 0 0 117 0 109 117
0 108 117 0 108 117 0 108 117 0 108 117 0 108 117 0 107 117 0 107 117
0 0 117 0 0 117 0 0 117 0 0 117 0 0 117 0 0 117 0 0 117 0 0 117 0 0
117 0 0 116 0 0 116 0 0 116 0 0 116 0 105 116 0 105 116 0 104 116 0
104 116 0 104 116 0 104 116 0 104 116 0 103 116 0 103 116 0 103 116 0
103 116 0 0 116 0 0 116 0 102 116 0 102 116 0 102 116 0 102 115 0 102
115 0 102 115 0
0 103 0 0 103 0 151 103 0 150 103 0 150 103 0 150 103 0 150 104 0 150
104 0 0 104 0 0 104 0 0 104 0 0 104 0 0 104 0 0 104 0 0 105 0 0 105 0
0 105 0 0 105 0 0 105 0 0 105 0 0 105 0 149 105 0 149 106 0 148 106 0
148 106 0 148 106 0 148 106 0 148 106 0 148 106 0 148 106 0 147 106 0
147 107 0 147 107 0 0 107 0 147 107 0 147 107 0 147 107 0 146 107 0
146 107 0 146 108 0 146 108 0 146 108 0 146 108 0 146 108 0 145 108 0
145 108 0 0 108 0 0 108 0 0 109 0 0 109 0 0 109 0 0 109 0 0 109 0 0
109 0 0 109 0 0 109 0 0 109 0 0 110 0 0 110 0 143 110 0 143 110 0 142
110 0 142 110 0 142 110 0 142 110 0 142 110 0 0 111 0 0 111 0 0 111 0
0 111 0 0 111 0 0 111 0 140 111 0 140 111 0 140 111 0 140 111 0 139
112 0 139 112 0 139 112 0 139 112 0 139 112 0 138 112 0 138 112 0 138
112 0 0 112 0 0 112 0 0 113 0 0 113 0 0 113 0 0 113 0 0 113 0 0 113 0
0 113 0 0 113 0 0 113 0 0 113 0 0 113 0 135 114 0 0 114 0 0 114 0 0
114 0 0 114 0 0 114 0 0 114 0 0 114 0 0 114 0 0 114 0 0 114 0 0 115 0
0 115 0 132 115 0 132 115 0 132 115 0 131 115 0 131 115 0 131 115 0
131 115 0 130 115 0 130 115 0 130 115 0 130 115 0 130 116 0 129 116 0
0 116 0 0 116 0 0 116 0 0 116 0 0 116 0 0 116 0 0 116 0 128 116 0 127
116 0 127 116 0 127 116 0 127 116 0 0 116 0 0 117 0 0 117 0 0 117 0 0
117 0 0 117 0 0 117 0 0 117 0 0 117 0 0 117 0 0 117 0 0 117 0 0 117 0
124 117 0 123 117 0 123 117 0 123 117 0 123 117 0 122 117 0 122 117 0
122 117 0 122 117 0 122 118 0 121 118 0 121 118 0 121 118 0 0 118 0
120 118 0 120 118 0 120 118 0 120 118 0 120 118 0 119 118 0 119 118 0
119 118 0 119 118 0 118 118 0 118 118 0 118 118 0 0 118 0 0 118 0 0
118 0 0 118 0 0 118 0 0 118 0 0 118 0 0 118 0 0 118 0 0 118 0 0 118 0
0 118 0 115 118 0 115 118 0 115 118 0 115 118 0 114 118 0 114 118 0
114 118 0 0 118 0 0 118 0 0 118 0 0 118 0 0 118 0 0 118 0 113 118 0
112 118 0 112 118 0 112 118 0 112 118 0 112 118 0 111 118 0 111 118 0
111 118 0 111 118 0 111 118 0 110 118 0 110 118 0 0 118 0 0 118 0 0
118 0 0 118 0 0 118 0 0 118 0 0 118 0 0 118 0 0 118 0 0 118 0 0 118 0
0 118 0 0 118 0 0 118 0 0 118 0 0 118 0 0 118 0 0 118 0 0 118 0 0 117
0 0 117 0 0 117 0 0 117 0 0 117 0 0 117 0 105 117 0 105 117 0 105 117
0 105 117 0 105 117 0 104 117 0 104 117 0 104 117 0 104 117 0 104 117
0 104 117 0 103 117 0 103 117 0 0 117 0 0 116 0 0 116 0 0 116 0 0 116
0 0 116 0
0 104 0 0 104 0 0 104 0 0 104 0 0 104 0 152 104 0 151 104 0 151 104 0
0 105 0 0 105 0 0 105 0 0 105 0 0 105 0 0 105 0 0 105 0 0 105 0 0 106
0 0 106 0 150 106 0 150 106 0 150 106 0 150 106 0 150 106 0 150 106 0
149 107 0 149 107 0 149 107 0 149 107 0 149 107 0 149 107 0 149 107 0
0 107 0 0 107 0 0 108 0 0 108 0 0 108 0 0 108 0 0 108 0 0 108 0 0 108
0 147 108 0 147 109 0 147 109 0 147 109 0 0 109 0 0 109 0 0 109 0 0
109 0 0 109 0 0 109 0 0 110 0 0 110 0 0 110 0 0 110 0 0 110 0 0 110 0
0 110 0 144 110 0 144 110 0 144 111 0 144 111 0 143 111 0 143 111 0
143 111 0 143 111 0 143 111 0 142 111 0 142 111 0 142 112 0 142 112 0
0 112 0 0 112 0 0 112 0 141 112 0 141 112 0 141 112 0 140 112 0 140
112 0 140 113 0 140 113 0 139 113 0 139 113 0 139 113 0 0 113 0 0 113
0 0 113 0 0 113 0 0 113 0 0 114 0 0 114 0 0 114 0 0 114 0 0 114 0 0
114 0 0 114 0 0 114 0 136 114 0 136 114 0 136 114 0 135 115 0 135 115
0 135 115 0 135 115 0 134 115 0 134 115 0 0 115 0 0 115 0 0 115 0 133
115 0 133 115 0 133 115 0 133 116 0 132 116 0 132 116 0 132 116 0 132
116 0 132 116 0 131 116 0 131 116 0 131 116 0 131 116 0 0 116 0 0 116
0 0 116 0 0 117 0 0 117 0 0 117 0 0 117 0 0 117 0 0 117 0 0 117 0 0
117 0 0 117 0 0 117 0 127 117 0 127 117 0 127 117 0 0 117 0 0 117 0 0
117 0 0 118 0 0 118 0 0 118 0 0 118 0 0 118 0 0 118 0 0 118 0 124 118
0 124 118 0 124 118 0 124 118 0 124 118 0 123 118 0 123 118 0 123 118
0 123 118 0 122 118 0 122 118 0 122 118 0 122 118 0 0 118 0 0 119 0 0
119 0 0 119 0 0 119 0 0 119 0 0 119 0 0 119 0 0 119 0 120 119 0 119
119 0 119 119 0 119 119 0 0 119 0 0 119 0 0 119 0 0 119 0 0 119 0 0
119 0 0 119 0 0 119 0 0 119 0 0 119 0 0 119 0 0 119 0 0 119 0 116 119
0 116 119 0 116 119 0 115 119 0 115 119 0 115 119 0 115 119 0 115 119
0 114 119 0 114 119 0 114 119 0 114 119 0 114 119 0 0 119 0 0 119 0 0
119 0 113 119 0 112 119 0 112 119 0 112 119 0 112 119 0 112 119 0 111
119 0 111 119 0 111 119 0 111 119 0 0 119 0 0 119 0 0 119 0 0 119 0 0
119 0 0 119 0 0 119 0 0 119 0 0 119 0 0 119 0 0 119 0 0 119 0 0 119 0
108 119 0 108 119 0 108 119 0 108 118 0 107 118 0 107 118 0 107 118 0
107 118 0 107 118 0 0 118 0 0 118 0 0 118 0 0 118 0 106 118 0 106 118
0 105 118 0 105 118 0 105 118 0 105 118 0 105 118 0 105 118 0 104 118
0 104 118 0 104 118 0 104 118 0 104 117 0 0 117 0 0 117 0 0 117 0 0
117 0 0 117 0
0 104 0 0 104 0 153 105 0 153 105 0 153 105 0 153 105 0 153 105 0 153
105 0 153 105 0 152 105 0 152 106 0 152 106 0 152 106 0 152 106 0 0
106 0 152 106 0 152 106 0 152 106 0 151 106 0 151 107 0 151 107 0 151
107 0 151 107 0 151 107 0 151 107 0 150 107 0 150 107 0 150 108 0 0
108 0 0 108 0 0 108 0 0 108 0 0 108 0 0 108 0 0 108 0 0 109 0 0 109 0
0 109 0 0 109 0 0 109 0 0 109 0 0 109 0 148 109 0 148 109 0 147 110 0
147 110 0 147 110 0 0 110 0 0 110 0 0 110 0 0 110 0 0 110 0 0 110 0 0
111 0 0 111 0 145 111 0 145 111 0 145 111 0 145 111 0 145 111 0 145
111 0 144 111 0 144 112 0 144 112 0 144 112 0 144 112 0 143 112 0 143
112 0 0 112 0 0 112 0 0 112 0 0 113 0 0 113 0 0 113 0 0 113 0 0 113 0
0 113 0 0 113 0 0 113 0 141 113 0 140 114 0 0 114 0 0 114 0 0 114 0 0
114 0 0 114 0 0 114 0 0 114 0 0 114 0 0 114 0 0 114 0 0 115 0 0 115 0
0 115 0 137 115 0 137 115 0 137 115 0 137 115 0 136 115 0 136 115 0
136 115 0 136 115 0 135 116 0 135 116 0 135 116 0 135 116 0 135 116 0
0 116 0 0 116 0 0 116 0 0 116 0 0 116 0 133 116 0 133 117 0 133 117 0
133 117 0 132 117 0 132 117 0 132 117 0 132 117 0 0 117 0 0 117 0 0
117 0 0 117 0 0 117 0 0 117 0 0 117 0 0 118 0 0 118 0 0 118 0 0 118 0
0 118 0 0 118 0 128 118 0 128 118 0 128 118 0 128 118 0 127 118 0 127
118 0 127 118 0 127 118 0 127 118 0 126 118 0 126 119 0 126 119 0 0
119 0 125 119 0 125 119 0 125 119 0 125 119 0 125 119 0 124 119 0 124
119 0 124 119 0 124 119 0 123 119 0 123 119 0 123 119 0 123 119 0 0
119 0 0 119 0 0 119 0 0 119 0 0 119 0 0 119 0 0 119 0 0 120 0 0 120 0
0 120 0 0 120 0 0 120 0 0 120 0 120 120 0 119 120 0 119 120 0 119 120
0 119 120 0 0 120 0 0 120 0 0 120 0 0 120 0 0 120 0 0 120 0 0 120 0 0
120 0 0 120 0 117 120 0 116 120 0 116 120 0 116 120 0 116 120 0 116
120 0 115 120 0 115 120 0 115 120 0 115 120 0 115 120 0 114 120 0 114
120 0 0 120 0 0 120 0 0 120 0 0 120 0 0 120 0 0 120 0 0 120 0 0 120 0
0 120 0 0 120 0 0 120 0 112 120 0 112 120 0 0 120 0 0 120 0 0 120 0 0
120 0 0 120 0 0 120 0 0 120 0 0 120 0 0 120 0 0 120 0 0 120 0 0 120 0
0 120 0 109 119 0 109 119 0 108 119 0 108 119 0 108 119 0 108 119 0
108 119 0 108 119 0 107 119 0 107 119 0 107 119 0 107 119 0 107 119 0
0 119 0 0 119 0 0 119 0 0 119 0 0 119 0 106 119 0 105 119 0 105 119 0
105 119 0 105 119 0 105 118 0 104 118 0 104 118 0 0 118 0 0 118 0 0
118 0 0 118 0 0 118 0
154 105 0 154 105 0 154 105 0 154 105 0 154 105 0 154 106 0 154 106 0
154 106 0 154 106 0 154 106 0 153 106 0 153 106 0 153 106 0 0 107 0 0
107 0 0 107 0 0 107 0 0 107 0 0 107 0 0 107 0 152 107 0 152 108 0 152
108 0 152 108 0 152 108 0 152 108 0 0 108 0 0 108 0 0 108 0 0 109 0 0
109 0 0 109 0 0 109 0 0 109 0 0 109 0 0 109 0 0 109 0 0 109 0 0 110 0
149 110 0 149 110 0 149 110 0 149 110 0 149 110 0 148 110 0 148 110 0
148 111 0 148 111 0 148 111 0 148 111 0 147 111 0 147 111 0 0 111 0
147 111 0 147 111 0 146 112 0 146 112 0 146 112 0 146 112 0 146 112 0
145 112 0 145 112 0 145 112 0 145 112 0 145 113 0 144 113 0 0 113 0 0
113 0 0 113 0 0 113 0 0 113 0 0 113 0 0 113 0 0 114 0 0 114 0 0 114 0
0 114 0 0 114 0 0 114 0 141 114 0 141 114 0 141 114 0 141 114 0 141
115 0 140 115 0 140 115 0 0 115 0 0 115 0 0 115 0 0 115 0 0 115 0 0
115 0 139 115 0 138 116 0 138 116 0 138 116 0 138 116 0 137 116 0 137
116 0 137 116 0 137 116 0 137 116 0 136 116 0 136 116 0 136 117 0 136
117 0 0 117 0 0 117 0 0 117 0 0 117 0 0 117 0 0 117 0 0 117 0 0 117 0
0 117 0 0 117 0 0 118 0 0 118 0 0 118 0 0 118 0 0 118 0 0 118 0 0 118
0 0 118 0 0 118 0 0 118 0 0 118 0 0 118 0 0 118 0 0 118 0 0 119 0 0
119 0 129 119 0 129 119 0 129 119 0 129 119 0 128 119 0 128 119 0 128
119 0 128 119 0 128 119 0 127 119 0 127 119 0 127 119 0 127 119 0 0
119 0 0 119 0 0 120 0 0 120 0 0 120 0 0 120 0 0 120 0 125 120 0 125
120 0 124 120 0 124 120 0 124 120 0 124 120 0 123 120 0 0 120 0 0 120
0 0 120 0 0 120 0 0 120 0 0 120 0 0 120 0 0 120 0 0 120 0 0 120 0 0
120 0 0 120 0 0 120 0 120 121 0 120 121 0 120 121 0 120 121 0 119 121
0 119 121 0 119 121 0 119 121 0 119 121 0 118 121 0 118 121 0 118 121
0 118 121 0 118 121 0 117 121 0 117 121 0 117 121 0 117 121 0 116 121
0 116 121 0 116 121 0 116 121 0 116 121 0 115 121 0 115 121 0 115 121
0 0 121 0 0 121 0 0 121 0 0 121 0 0 121 0 0 121 0 0 121 0 0 121 0 0
121 0 0 121 0 0 121 0 0 121 0 0 121 0 0 121 0 112 121 0 112 121 0 112
121 0 111 121 0 111 121 0 111 121 0 111 121 0 0 121 0 0 121 0 0 120 0
0 120 0 0 120 0 0 120 0 109 120 0 109 120 0 109 120 0 109 120 0 109
120 0 109 120 0 108 120 0 108 120 0 108 120 0 108 120 0 108 120 0 107
120 0 107 120 0 0 120 0 0 120 0 0 120 0 0 120 0 0 120 0 0 120 0 0 120
0 0 120 0 0 119 0 0 119 0 0 119 0 0 119 0 0 119 0 105 119 0 0 119 0 0
119 0 0 119 0 0 119 0
156 106 0 156 106 0 156 106 0 155 106 0 155 106 0 155 106 0 155 106 0
155 107 0 155 107 0 155 107 0 0 107 0 0 107 0 0 107 0 0 107 0 0 107 0
0 108 0 0 108 0 0 108 0 0 108 0 0 108 0 0 108 0 0 108 0 0 108 0 153
109 0 153 109 0 0 109 0 0 109 0 0 109 0 0 109 0 0 109 0 0 109 0 0 109
0 0 110 0 0 110 0 0 110 0 0 110 0 0 110 0 151 110 0 151 110 0 150 110
0 150 111 0 150 111 0 150 111 0 150 111 0 149 111 0 149 111 0 149 111
0 149 111 0 149 111 0 149 112 0 0 112 0 0 112 0 0 112 0 0 112 0 0 112
0 0 112 0 0 112 0 0 113 0 0 113 0 147 113 0 146 113 0 146 113 0 146
113 0 146 113 0 0 113 0 0 113 0 0 114 0 0 114 0 0 114 0 0 114 0 0 114
0 0 114 0 0 114 0 0 114 0 0 114 0 0 114 0 0 115 0 143 115 0 143 115 0
142 115 0 142 115 0 142 115 0 142 115 0 141 115 0 141 115 0 141 115 0
141 116 0 141 116 0 140 116 0 140 116 0 140 116 0 0 116 0 0 116 0 139
116 0 139 116 0 139 116 0 138 117 0 138 117 0 138 117 0 138 117 0 138
117 0 137 117 0 137 117 0 137 117 0 0 117 0 0 117 0 0 117 0 0 118 0 0
118 0 0 118 0 0 118 0 0 118 0 0 118 0 0 118 0 0 118 0 0 118 0 0 118 0
0 118 0 133 118 0 133 119 0 133 119 0 133 119 0 132 119 0 132 119 0
132 119 0 132 119 0 0 119 0 0 119 0 0 119 0 0 119 0 0 119 0 130 119 0
130 119 0 130 120 0 130 120 0 129 120 0 129 120 0 129 120 0 129 120 0
128 120 0 128 120 0 128 120 0 128 120 0 128 120 0 0 120 0 0 120 0 0
120 0 0 120 0 0 120 0 0 120 0 0 120 0 0 121 0 0 121 0 0 121 0 0 121 0
0 121 0 0 121 0 0 121 0 124 121 0 124 121 0 0 121 0 0 121 0 0 121 0 0
121 0 0 121 0 0 121 0 0 121 0 0 121 0 0 121 0 0 121 0 0 121 0 121 121
0 121 121 0 121 121 0 121 121 0 120 121 0 120 121 0 120 121 0 120 121
0 119 121 0 119 121 0 119 122 0 119 122 0 119 122 0 118 122 0 0 122 0
0 122 0 0 122 0 0 122 0 0 122 0 0 122 0 0 122 0 0 122 0 117 122 0 116
122 0 116 122 0 116 122 0 116 122 0 0 122 0 0 122 0 0 122 0 0 122 0 0
122 0 0 122 0 0 122 0 0 122 0 0 122 0 0 122 0 0 122 0 0 122 0 0 122 0
0 122 0 113 122 0 112 122 0 112 121 0 112 121 0 112 121 0 112 121 0
111 121 0 111 121 0 111 121 0 111 121 0 111 121 0 110 121 0 110 121 0
0 121 0 0 121 0 110 121 0 110 121 0 109 121 0 109 121 0 109 121 0 109
121 0 109 121 0 108 121 0 108 121 0 108 121 0 108 121 0 0 121 0 0 121
0 0 121 0 0 121 0 0 121 0 0 121 0 0 120 0 0 120 0 0 120 0 0 120 0 0
120 0 0 120 0 0 120 0 0 120 0 105 120 0 105 120 0 105 120 0 105 120 0
157 106 0 157 107 0 157 107 0 157 107 0 157 107 0 156 107 0 156 107 0
0 107 0 0 107 0 0 107 0 0 108 0 0 108 0 0 108 0 0 108 0 0 108 0 0 108
0 0 108 0 0 108 0 0 109 0 0 109 0 0 109 0 154 109 0 154 109 0 154 109
0 154 109 0 154 109 0 154 110 0 153 110 0 153 110 0 153 110 0 153 110
0 0 110 0 0 110 0 0 110 0 0 111 0 152 111 0 152 111 0 152 111 0 152
111 0 151 111 0 151 111 0 151 111 0 151 112 0 151 112 0 150 112 0 150
112 0 150 112 0 150 112 0 0 112 0 0 112 0 0 112 0 0 113 0 0 113 0 0
113 0 0 113 0 0 113 0 0 113 0 0 113 0 0 113 0 0 113 0 0 114 0 0 114 0
147 114 0 147 114 0 146 114 0 0 114 0 0 114 0 0 114 0 0 114 0 0 115 0
0 115 0 0 115 0 0 115 0 0 115 0 0 115 0 144 115 0 144 115 0 144 115 0
143 116 0 143 116 0 143 116 0 143 116 0 142 116 0 142 116 0 142 116 0
142 116 0 142 116 0 141 116 0 141 117 0 0 117 0 0 117 0 0 117 0 0 117
0 0 117 0 0 117 0 0 117 0 0 117 0 0 117 0 0 117 0 139 118 0 138 118 0
138 118 0 138 118 0 0 118 0 0 118 0 0 118 0 0 118 0 0 118 0 0 118 0 0
118 0 0 119 0 0 119 0 0 119 0 0 119 0 0 119 0 0 119 0 135 119 0 134
119 0 134 119 0 134 119 0 134 119 0 133 119 0 133 120 0 133 120 0 133
120 0 132 120 0 132 120 0 132 120 0 132 120 0 132 120 0 0 120 0 0 120
0 0 120 0 131 120 0 130 120 0 130 120 0 130 120 0 130 121 0 129 121 0
129 121 0 129 121 0 129 121 0 128 121 0 0 121 0 0 121 0 0 121 0 0 121
0 0 121 0 0 121 0 0 121 0 0 121 0 0 121 0 0 121 0 0 121 0 0 121 0 0
122 0 0 122 0 125 122 0 125 122 0 125 122 0 124 122 0 124 122 0 124
122 0 124 122 0 123 122 0 123 122 0 123 122 0 0 122 0 0 122 0 0 122 0
0 122 0 122 122 0 122 122 0 121 122 0 121 122 0 121 122 0 121 122 0
121 122 0 120 122 0 120 122 0 120 122 0 120 122 0 119 122 0 119 122 0
0 122 0 0 122 0 0 122 0 0 122 0 0 122 0 0 122 0 0 122 0 0 122 0 0 122
0 0 122 0 0 122 0 0 122 0 0 122 0 0 122 0 116 122 0 116 122 0 116 122
0 0 122 0 0 122 0 0 122 0 0 122 0 0 122 0 0 122 0 0 122 0 0 122 0 0
122 0 0 122 0 0 122 0 113 122 0 113 122 0 113 122 0 113 122 0 112 122
0 112 122 0 112 122 0 112 122 0 112 122 0 111 122 0 111 122 0 111 122
0 111 122 0 0 122 0 0 122 0 0 122 0 0 122 0 0 122 0 0 122 0 0 122 0 0
122 0 0 122 0 0 122 0 109 122 0 109 122 0 108 122 0 108 122 0 0 122 0
0 122 0 0 121 0 0 121 0 0 121 0 0 121 0 0 121 0 0 121 0 0 121 0 0 121
0 0 121 0 0 121 0 0 121 0 106 121 0 106 121 0 105 121 0 105 121 0
0 107 0 0 107 0 0 107 0 158 107 0 158 108 0 0 108 0 0 108 0 0 108 0 0
108 0 0 108 0 0 108 0 0 108 0 0 109 0 0 109 0 0 109 0 0 109 0 0 109 0
0 109 0 0 109 0 156 109 0 156 110 0 155 110 0 155 110 0 155 110 0 155
110 0 155 110 0 155 110 0 154 110 0 154 111 0 154 111 0 154 111 0 154
111 0 0 111 0 0 111 0 0 111 0 0 111 0 0 111 0 153 112 0 153 112 0 152
112 0 152 112 0 152 112 0 152 112 0 152 112 0 151 112 0 151 113 0 0
113 0 0 113 0 0 113 0 0 113 0 0 113 0 0 113 0 0 113 0 0 113 0 0 114 0
0 114 0 0 114 0 0 114 0 0 114 0 0 114 0 148 114 0 148 114 0 148 115 0
148 115 0 147 115 0 147 115 0 147 115 0 147 115 0 146 115 0 146 115 0
146 115 0 146 115 0 0 116 0 0 116 0 145 116 0 145 116 0 145 116 0 144
116 0 144 116 0 144 116 0 144 116 0 144 117 0 143 117 0 143 117 0 143
117 0 143 117 0 142 117 0 0 117 0 0 117 0 0 117 0 0 117 0 0 118 0 0
118 0 0 118 0 0 118 0 0 118 0 0 118 0 0 118 0 0 118 0 0 118 0 0 118 0
139 119 0 139 119 0 138 119 0 138 119 0 138 119 0 0 119 0 0 119 0 0
119 0 0 119 0 0 119 0 0 119 0 0 119 0 0 120 0 0 120 0 136 120 0 135
120 0 135 120 0 135 120 0 135 120 0 134 120 0 134 120 0 134 120 0 134
120 0 133 120 0 133 120 0 133 121 0 133 121 0 132 121 0 0 121 0 0 121
0 0 121 0 0 121 0 0 121 0 0 121 0 0 121 0 0 121 0 0 121 0 0 121 0 0
121 0 130 121 0 129 122 0 129 122 0 0 122 0 0 122 0 0 122 0 0 122 0 0
122 0 0 122 0 0 122 0 0 122 0 0 122 0 0 122 0 0 122 0 0 122 0 0 122 0
126 122 0 126 122 0 125 122 0 125 122 0 125 123 0 125 123 0 125 123 0
124 123 0 124 123 0 124 123 0 124 123 0 123 123 0 123 123 0 123 123 0
0 123 0 0 123 0 0 123 0 0 123 0 0 123 0 122 123 0 121 123 0 121 123 0
121 123 0 121 123 0 121 123 0 120 123 0 120 123 0 120 123 0 0 123 0 0
123 0 0 123 0 0 123 0 0 123 0 0 123 0 0 123 0 0 123 0 0 123 0 0 123 0
0 123 0 0 123 0 0 123 0 0 123 0 117 123 0 117 123 0 116 123 0 116 123
0 116 123 0 116 123 0 115 123 0 115 123 0 115 123 0 115 123 0 115 123
0 0 123 0 0 123 0 114 123 0 114 123 0 114 123 0 113 123 0 113 123 0
113 123 0 113 123 0 113 123 0 112 123 0 112 123 0 112 123 0 112 123 0
112 123 0 111 123 0 0 123 0 0 123 0 0 123 0 0 123 0 0 123 0 0 123 0 0
123 0 0 123 0 0 123 0 0 123 0 0 123 0 0 123 0 0 123 0 0 122 0 109 122
0 108 122 0 108 122 0 108 122 0 108 122 0 0 122 0 0 122 0 0 122 0 0
122 0 0 122 0 0 122 0 0 122 0 0 122 0 0 122 0 106 122 0 106 122 0 106
122 0
0 108 0 0 108 0 159 108 0 159 108 0 159 108 0 159 108 0 159 108 0 158
109 0 0 109 0 0 109 0 0 109 0 0 109 0 0 109 0 0 109 0 0 109 0 0 110 0
157 110 0 157 110 0 157 110 0 157 110 0 157 110 0 156 110 0 156 110 0
156 111 0 156 111 0 156 111 0 156 111 0 155 111 0 155 111 0 155 111 0
0 111 0 0 112 0 0 112 0 0 112 0 0 112 0 0 112 0 0 112 0 0 112 0 0 112
0 0 113 0 0 113 0 0 113 0 0 113 0 153 113 0 0 113 0 0 113 0 0 113 0 0
113 0 0 114 0 0 114 0 0 114 0 0 114 0 0 114 0 0 114 0 0 114 0 0 114 0
0 115 0 0 115 0 149 115 0 149 115 0 149 115 0 149 115 0 149 115 0 148
115 0 148 115 0 148 116 0 148 116 0 147 116 0 147 116 0 147 116 0 147
116 0 147 116 0 0 116 0 0 116 0 0 117 0 0 117 0 0 117 0 0 117 0 145
117 0 145 117 0 145 117 0 144 117 0 144 117 0 144 117 0 144 118 0 143
118 0 0 118 0 0 118 0 0 118 0 0 118 0 0 118 0 0 118 0 0 118 0 0 118 0
0 119 0 0 119 0 0 119 0 0 119 0 0 119 0 0 119 0 140 119 0 140 119 0
139 119 0 139 119 0 139 120 0 139 120 0 138 120 0 138 120 0 138 120 0
138 120 0 137 120 0 137 120 0 137 120 0 0 120 0 137 120 0 136 120 0
136 121 0 136 121 0 136 121 0 135 121 0 135 121 0 135 121 0 135 121 0
134 121 0 134 121 0 134 121 0 134 121 0 133 121 0 0 121 0 0 122 0 0
122 0 0 122 0 0 122 0 0 122 0 0 122 0 0 122 0 0 122 0 0 122 0 0 122 0
0 122 0 0 122 0 0 122 0 130 122 0 130 122 0 129 122 0 129 123 0 129
123 0 129 123 0 0 123 0 0 123 0 0 123 0 0 123 0 0 123 0 0 123 0 0 123
0 0 123 0 127 123 0 126 123 0 126 123 0 126 123 0 126 123 0 125 123 0
125 123 0 125 123 0 125 123 0 125 123 0 124 124 0 124 124 0 124 124 0
124 124 0 0 124 0 0 124 0 0 124 0 0 124 0 0 124 0 0 124 0 0 124 0 0
124 0 0 124 0 0 124 0 0 124 0 0 124 0 121 124 0 0 124 0 0 124 0 0 124
0 0 124 0 0 124 0 0 124 0 0 124 0 0 124 0 0 124 0 0 124 0 0 124 0 0
124 0 0 124 0 0 124 0 118 124 0 117 124 0 117 124 0 117 124 0 117 124
0 117 124 0 116 124 0 116 124 0 116 124 0 116 124 0 115 124 0 115 124
0 115 124 0 115 124 0 0 124 0 0 124 0 0 124 0 0 124 0 0 124 0 0 124 0
113 124 0 113 124 0 113 124 0 113 124 0 113 124 0 112 124 0 112 124 0
112 124 0 0 124 0 0 124 0 0 124 0 0 124 0 0 124 0 0 124 0 0 124 0 0
124 0 0 124 0 0 123 0 0 123 0 0 123 0 0 123 0 0 123 0 109 123 0 109
123 0 109 123 0 109 123 0 108 123 0 108 123 0 108 123 0 108 123 0 108
123 0 108 123 0 107 123 0 107 123 0 107 123 0 0 123 0 107 123 0 107
123 0 106 123 0
160 108 0 160 109 0 160 109 0 160 109 0 160 109 0 160 109 0 160 109 0
159 109 0 159 109 0 159 110 0 159 110 0 159 110 0 159 110 0 0 110 0
159 110 0 158 110 0 158 110 0 158 111 0 158 111 0 158 111 0 158 111 0
157 111 0 157 111 0 157 111 0 157 111 0 157 112 0 157 112 0 156 112 0
0 112 0 0 112 0 0 112 0 0 112 0 0 112 0 0 112 0 0 113 0 0 113 0 0 113
0 0 113 0 0 113 0 0 113 0 0 113 0 0 113 0 154 114 0 153 114 0 153 114
0 153 114 0 153 114 0 153 114 0 152 114 0 0 114 0 0 115 0 0 115 0 0
115 0 0 115 0 0 115 0 0 115 0 151 115 0 151 115 0 150 115 0 150 116 0
150 116 0 150 116 0 149 116 0 149 116 0 149 116 0 149 116 0 149 116 0
148 116 0 148 117 0 148 117 0 0 117 0 0 117 0 0 117 0 0 117 0 0 117 0
0 117 0 0 117 0 0 118 0 0 118 0 0 118 0 0 118 0 0 118 0 0 118 0 0 118
0 0 118 0 0 118 0 0 118 0 0 119 0 0 119 0 0 119 0 0 119 0 0 119 0 0
119 0 0 119 0 0 119 0 0 119 0 0 119 0 0 120 0 141 120 0 141 120 0 141
120 0 140 120 0 140 120 0 140 120 0 140 120 0 139 120 0 139 120 0 139
121 0 139 121 0 138 121 0 138 121 0 138 121 0 0 121 0 0 121 0 0 121 0
0 121 0 0 121 0 0 121 0 0 121 0 136 122 0 136 122 0 136 122 0 135 122
0 135 122 0 135 122 0 135 122 0 134 122 0 0 122 0 0 122 0 0 122 0 0
122 0 0 122 0 0 122 0 0 123 0 0 123 0 0 123 0 0 123 0 0 123 0 0 123 0
0 123 0 0 123 0 131 123 0 130 123 0 130 123 0 130 123 0 130 123 0 130
123 0 129 123 0 129 123 0 129 124 0 129 124 0 128 124 0 128 124 0 128
124 0 128 124 0 127 124 0 127 124 0 127 124 0 127 124 0 127 124 0 126
124 0 126 124 0 126 124 0 126 124 0 125 124 0 125 124 0 125 124 0 125
124 0 124 124 0 0 124 0 0 124 0 0 124 0 0 124 0 0 125 0 0 125 0 0 125
0 0 125 0 0 125 0 0 125 0 0 125 0 0 125 0 0 125 0 0 125 0 121 125 0
121 125 0 121 125 0 120 125 0 120 125 0 120 125 0 120 125 0 0 125 0 0
125 0 0 125 0 0 125 0 0 125 0 0 125 0 0 125 0 118 125 0 118 125 0 118
125 0 118 125 0 117 125 0 117 125 0 117 125 0 117 125 0 116 125 0 116
125 0 116 125 0 116 125 0 116 125 0 115 125 0 0 125 0 0 125 0 0 125 0
0 125 0 0 125 0 0 125 0 0 125 0 0 125 0 0 125 0 0 125 0 0 125 0 0 125
0 0 125 0 0 125 0 0 125 0 0 125 0 0 125 0 0 125 0 0 124 0 0 124 0 0
124 0 0 124 0 0 124 0 0 124 0 0 124 0 0 124 0 0 124 0 0 124 0 0 124 0
110 124 0 109 124 0 109 124 0 109 124 0 109 124 0 109 124 0 109 124 0
108 124 0 108 124 0 108 124 0 108 124 0 108 124 0 107 124 0 107 123 0
0 123 0 0 123 0
161 109 0 161 109 0 161 109 0 161 109 0 161 110 0 161 110 0 161 110 0
161 110 0 160 110 0 160 110 0 160 110 0 0 110 0 0 111 0 0 111 0 0 111
0 0 111 0 0 111 0 0 111 0 0 111 0 159 111 0 159 112 0 158 112 0 158
112 0 158 112 0 158 112 0 0 112 0 0 112 0 0 112 0 0 113 0 0 113 0 0
113 0 0 113 0 0 113 0 0 113 0 0 113 0 0 113 0 0 114 0 0 114 0 0 114 0
0 114 0 155 114 0 155 114 0 155 114 0 154 114 0 154 115 0 154 115 0
154 115 0 153 115 0 153 115 0 153 115 0 153 115 0 153 115 0 152 115 0
152 116 0 0 116 0 152 116 0 152 116 0 151 116 0 151 116 0 151 116 0
151 116 0 150 116 0 150 117 0 150 117 0 150 117 0 150 117 0 149 117 0
149 117 0 0 117 0 0 117 0 0 118 0 0 118 0 0 118 0 0 118 0 0 118 0 0
118 0 0 118 0 0 118 0 0 118 0 0 118 0 0 119 0 0 119 0 0 119 0 145 119
0 145 119 0 145 119 0 145 119 0 144 119 0 144 119 0 144 120 0 0 120 0
0 120 0 0 120 0 0 120 0 0 120 0 0 120 0 0 120 0 142 120 0 142 120 0
142 120 0 141 121 0 141 121 0 141 121 0 141 121 0 140 121 0 140 121 0
140 121 0 140 121 0 139 121 0 139 121 0 139 121 0 0 122 0 0 122 0 0
122 0 0 122 0 0 122 0 0 122 0 0 122 0 0 122 0 0 122 0 0 122 0 0 122 0
0 122 0 0 123 0 0 123 0 135 123 0 0 123 0 0 123 0 0 123 0 0 123 0 0
123 0 0 123 0 0 123 0 0 123 0 0 123 0 0 123 0 0 123 0 0 124 0 0 124 0
0 124 0 132 124 0 131 124 0 131 124 0 131 124 0 131 124 0 130 124 0
130 124 0 130 124 0 130 124 0 129 124 0 129 124 0 129 124 0 129 124 0
129 124 0 0 125 0 0 125 0 0 125 0 0 125 0 0 125 0 0 125 0 0 125 0 0
125 0 126 125 0 126 125 0 126 125 0 126 125 0 126 125 0 125 125 0 0
125 0 0 125 0 0 125 0 0 125 0 0 125 0 0 125 0 0 125 0 0 125 0 0 125 0
0 125 0 0 125 0 0 125 0 0 125 0 0 126 0 0 126 0 122 126 0 122 126 0
121 126 0 121 126 0 121 126 0 121 126 0 120 126 0 120 126 0 120 126 0
120 126 0 120 126 0 119 126 0 119 126 0 119 126 0 0 126 0 119 126 0
118 126 0 118 126 0 118 126 0 118 126 0 117 126 0 117 126 0 117 126 0
117 126 0 117 126 0 116 126 0 116 126 0 116 126 0 0 126 0 0 126 0 0
126 0 0 126 0 0 126 0 0 126 0 0 126 0 0 126 0 0 126 0 0 126 0 0 126 0
0 126 0 0 125 0 0 125 0 0 125 0 113 125 0 113 125 0 112 125 0 112 125
0 112 125 0 112 125 0 112 125 0 0 125 0 0 125 0 0 125 0 0 125 0 0 125
0 0 125 0 0 125 0 110 125 0 110 125 0 110 125 0 110 125 0 109 125 0
109 125 0 109 125 0 109 125 0 109 125 0 109 125 0 108 124 0 108 124 0
108 124 0 108 124 0 0 124 0 0 124 0
163 110 0 162 110 0 162 110 0 162 110 0 162 110 0 162 110 0 162 110 0
162 111 0 161 111 0 0 111 0 0 111 0 0 111 0 0 111 0 0 111 0 0 111 0 0
112 0 0 112 0 0 112 0 0 112 0 0 112 0 0 112 0 0 112 0 0 112 0 159 113
0 0 113 0 0 113 0 0 113 0 0 113 0 0 113 0 0 113 0 0 113 0 0 114 0 0
114 0 0 114 0 0 114 0 0 114 0 0 114 0 0 114 0 156 114 0 156 115 0 156
115 0 156 115 0 155 115 0 155 115 0 155 115 0 155 115 0 155 115 0 154
116 0 154 116 0 154 116 0 154 116 0 153 116 0 0 116 0 0 116 0 0 116 0
0 116 0 0 117 0 0 117 0 0 117 0 0 117 0 151 117 0 151 117 0 151 117 0
151 117 0 151 118 0 150 118 0 0 118 0 0 118 0 0 118 0 0 118 0 0 118 0
0 118 0 0 118 0 0 119 0 0 119 0 0 119 0 0 119 0 0 119 0 0 119 0 0 119
0 0 119 0 147 119 0 146 119 0 146 120 0 146 120 0 146 120 0 145 120 0
145 120 0 145 120 0 145 120 0 144 120 0 144 120 0 144 121 0 144 121 0
143 121 0 0 121 0 0 121 0 143 121 0 142 121 0 142 121 0 142 121 0 142
121 0 141 121 0 141 122 0 141 122 0 141 122 0 141 122 0 140 122 0 140
122 0 140 122 0 0 122 0 0 122 0 0 122 0 0 122 0 0 123 0 0 123 0 0 123
0 0 123 0 0 123 0 0 123 0 0 123 0 0 123 0 0 123 0 0 123 0 136 123 0
136 123 0 136 124 0 135 124 0 135 124 0 135 124 0 135 124 0 134 124 0
134 124 0 0 124 0 0 124 0 0 124 0 0 124 0 0 124 0 0 124 0 132 124 0
132 124 0 132 125 0 132 125 0 132 125 0 131 125 0 131 125 0 131 125 0
131 125 0 130 125 0 130 125 0 130 125 0 130 125 0 129 125 0 0 125 0 0
125 0 0 125 0 0 125 0 0 125 0 0 125 0 0 126 0 0 126 0 0 126 0 0 126 0
0 126 0 0 126 0 0 126 0 0 126 0 0 126 0 126 126 0 0 126 0 0 126 0 0
126 0 0 126 0 0 126 0 0 126 0 0 126 0 0 126 0 0 126 0 0 126 0 0 126 0
0 126 0 0 126 0 123 126 0 122 126 0 122 126 0 122 126 0 122 126 0 121
126 0 121 126 0 121 126 0 121 126 0 121 126 0 120 126 0 120 126 0 120
126 0 120 126 0 120 127 0 0 127 0 0 127 0 0 127 0 0 127 0 0 127 0 0
127 0 0 127 0 0 127 0 118 127 0 117 127 0 117 127 0 117 127 0 117 127
0 117 126 0 0 126 0 0 126 0 0 126 0 0 126 0 0 126 0 0 126 0 0 126 0 0
126 0 0 126 0 0 126 0 0 126 0 0 126 0 0 126 0 0 126 0 0 126 0 113 126
0 113 126 0 113 126 0 113 126 0 113 126 0 112 126 0 112 126 0 112 126
0 112 126 0 112 126 0 111 126 0 111 126 0 111 126 0 111 126 0 0 126 0
111 126 0 110 126 0 110 126 0 110 126 0 110 126 0 110 126 0 109 125 0
109 125 0 109 125 0 109 125 0 109 125 0 109 125 0 108 125 0 108 125 0
0 125 0
164 110 0 163 110 0 163 111 0 163 111 0 163 111 0 163 111 0 0 111 0 0
111 0 0 111 0 0 111 0 0 112 0 0 112 0 0 112 0 0 112 0 0 112 0 0 112 0
0 112 0 0 113 0 0 113 0 0 113 0 0 113 0 160 113 0 160 113 0 160 113 0
160 113 0 160 114 0 159 114 0 159 114 0 159 114 0 159 114 0 0 114 0 0
114 0 0 114 0 0 115 0 0 115 0 158 115 0 157 115 0 157 115 0 157 115 0
157 115 0 157 115 0 156 115 0 156 116 0 156 116 0 156 116 0 156 116 0
155 116 0 155 116 0 155 116 0 155 116 0 0 117 0 0 117 0 0 117 0 0 117
0 0 117 0 0 117 0 0 117 0 0 117 0 0 118 0 0 118 0 0 118 0 0 118 0 0
118 0 0 118 0 0 118 0 151 118 0 0 118 0 0 119 0 0 119 0 0 119 0 0 119
0 0 119 0 0 119 0 0 119 0 0 119 0 0 119 0 0 120 0 0 120 0 0 120 0 148
120 0 148 120 0 147 120 0 147 120 0 147 120 0 147 120 0 146 120 0 146
121 0 146 121 0 146 121 0 145 121 0 145 121 0 145 121 0 145 121 0 144
121 0 0 121 0 0 121 0 0 122 0 0 122 0 0 122 0 0 122 0 0 122 0 0 122 0
0 122 0 142 122 0 142 122 0 141 122 0 141 123 0 141 123 0 141 123 0 0
123 0 0 123 0 0 123 0 0 123 0 0 123 0 0 123 0 0 123 0 0 123 0 0 124 0
0 124 0 0 124 0 0 124 0 0 124 0 0 124 0 137 124 0 137 124 0 137 124 0
136 124 0 136 124 0 136 124 0 136 124 0 135 125 0 135 125 0 135 125 0
135 125 0 134 125 0 134 125 0 134 125 0 134 125 0 0 125 0 133 125 0
133 125 0 133 125 0 132 125 0 132 125 0 132 125 0 132 126 0 131 126 0
131 126 0 131 126 0 131 126 0 130 126 0 130 126 0 130 126 0 0 126 0 0
126 0 0 126 0 0 126 0 0 126 0 0 126 0 0 126 0 0 126 0 0 126 0 0 126 0
0 126 0 0 126 0 0 127 0 0 127 0 127 127 0 126 127 0 126 127 0 126 127
0 126 127 0 125 127 0 125 127 0 125 127 0 125 127 0 0 127 0 0 127 0 0
127 0 0 127 0 0 127 0 0 127 0 123 127 0 123 127 0 123 127 0 122 127 0
122 127 0 122 127 0 122 127 0 122 127 0 121 127 0 121 127 0 121 127 0
121 127 0 121 127 0 120 127 0 0 127 0 0 127 0 0 127 0 0 127 0 0 127 0
0 127 0 0 127 0 0 127 0 0 127 0 0 127 0 0 127 0 0 127 0 0 127 0 0 127
0 0 127 0 117 127 0 117 127 0 0 127 0 0 127 0 0 127 0 0 127 0 0 127 0
0 127 0 0 127 0 0 127 0 0 127 0 0 127 0 0 127 0 0 127 0 0 127 0 114
127 0 114 127 0 114 127 0 113 127 0 113 127 0 113 127 0 113 127 0 113
127 0 112 127 0 112 127 0 112 127 0 112 127 0 112 127 0 111 127 0 0
127 0 0 127 0 0 127 0 0 126 0 0 126 0 0 126 0 0 126 0 0 126 0 0 126 0
110 126 0 109 126 0 109 126 0 109 126 0 109 126 0 109 126 0 0 126 0
165 111 0 164 111 0 164 111 0 164 111 0 0 112 0 0 112 0 0 112 0 0 112
0 0 112 0 0 112 0 0 112 0 0 112 0 0 113 0 0 113 0 0 113 0 0 113 0 0
113 0 0 113 0 162 113 0 162 113 0 161 114 0 161 114 0 161 114 0 161
114 0 161 114 0 160 114 0 160 114 0 160 114 0 160 115 0 160 115 0 159
115 0 159 115 0 159 115 0 0 115 0 0 115 0 158 115 0 158 116 0 158 116
0 158 116 0 158 116 0 157 116 0 157 116 0 157 116 0 157 116 0 157 117
0 156 117 0 156 117 0 156 117 0 0 117 0 0 117 0 0 117 0 0 117 0 0 117
0 0 118 0 0 118 0 0 118 0 0 118 0 0 118 0 0 118 0 0 118 0 0 118 0 0
119 0 0 119 0 152 119 0 152 119 0 152 119 0 152 119 0 151 119 0 151
119 0 151 119 0 151 120 0 150 120 0 0 120 0 0 120 0 0 120 0 0 120 0 0
120 0 0 120 0 149 120 0 149 121 0 148 121 0 148 121 0 148 121 0 148
121 0 147 121 0 147 121 0 147 121 0 147 121 0 146 121 0 146 122 0 146
122 0 146 122 0 145 122 0 0 122 0 0 122 0 0 122 0 0 122 0 0 122 0 0
122 0 0 123 0 0 123 0 0 123 0 0 123 0 0 123 0 0 123 0 0 123 0 0 123 0
142 123 0 141 123 0 0 124 0 0 124 0 0 124 0 0 124 0 0 124 0 0 124 0 0
124 0 0 124 0 0 124 0 0 124 0 0 124 0 0 124 0 0 125 0 138 125 0 138
125 0 137 125 0 137 125 0 137 125 0 137 125 0 136 125 0 136 125 0 136
125 0 136 125 0 135 125 0 135 125 0 135 126 0 135 126 0 134 126 0 0
126 0 0 126 0 0 126 0 0 126 0 0 126 0 0 126 0 0 126 0 0 126 0 0 126 0
132 126 0 132 126 0 132 126 0 131 126 0 131 127 0 131 127 0 0 127 0 0
127 0 0 127 0 0 127 0 0 127 0 0 127 0 0 127 0 0 127 0 0 127 0 0 127 0
0 127 0 0 127 0 0 127 0 0 127 0 0 127 0 127 127 0 127 127 0 127 127 0
126 127 0 126 127 0 126 128 0 126 128 0 126 128 0 125 128 0 125 128 0
125 128 0 125 128 0 124 128 0 124 128 0 0 128 0 0 128 0 123 128 0 123
128 0 123 128 0 123 128 0 123 128 0 122 128 0 122 128 0 122 128 0 122
128 0 122 128 0 121 128 0 121 128 0 121 128 0 0 128 0 0 128 0 0 128 0
0 128 0 0 128 0 0 128 0 0 128 0 0 128 0 0 128 0 0 128 0 0 128 0 0 128
0 0 128 0 0 128 0 0 128 0 118 128 0 117 128 0 117 128 0 117 128 0 117
128 0 117 128 0 116 128 0 116 128 0 116 128 0 0 128 0 0 128 0 0 128 0
0 128 0 0 128 0 0 128 0 115 128 0 114 128 0 114 128 0 114 128 0 114
128 0 114 128 0 113 128 0 113 128 0 113 128 0 113 128 0 113 128 0 112
128 0 112 127 0 112 127 0 112 127 0 0 127 0 0 127 0 0 127 0 0 127 0 0
127 0 0 127 0 0 127 0 0 127 0 0 127 0 0 127 0 0 127 0 0 127 0 0 127 0
0 127 0 0 127 0
0 112 0 165 112 0 165 112 0 0 112 0 0 112 0 0 112 0 0 112 0 0 113 0 0
113 0 0 113 0 0 113 0 0 113 0 0 113 0 0 113 0 0 113 0 0 114 0 163 114
0 163 114 0 163 114 0 162 114 0 162 114 0 162 114 0 162 114 0 162 115
0 162 115 0 161 115 0 161 115 0 161 115 0 161 115 0 161 115 0 160 115
0 0 116 0 0 116 0 0 116 0 0 116 0 0 116 0 0 116 0 0 116 0 0 116 0 0
117 0 158 117 0 158 117 0 158 117 0 158 117 0 157 117 0 157 117 0 0
117 0 0 118 0 0 118 0 0 118 0 0 118 0 0 118 0 0 118 0 0 118 0 0 118 0
0 118 0 0 119 0 0 119 0 0 119 0 0 119 0 0 119 0 154 119 0 153 119 0
153 119 0 153 120 0 153 120 0 152 120 0 152 120 0 152 120 0 152 120 0
151 120 0 151 120 0 151 120 0 151 121 0 150 121 0 150 121 0 0 121 0 0
121 0 149 121 0 149 121 0 149 121 0 149 121 0 148 122 0 148 122 0 148
122 0 148 122 0 147 122 0 147 122 0 147 122 0 147 122 0 146 122 0 0
122 0 0 123 0 0 123 0 0 123 0 0 123 0 0 123 0 0 123 0 0 123 0 0 123 0
0 123 0 0 123 0 0 124 0 0 124 0 0 124 0 0 124 0 142 124 0 142 124 0
142 124 0 142 124 0 141 124 0 141 124 0 141 124 0 141 125 0 140 125 0
0 125 0 0 125 0 0 125 0 0 125 0 0 125 0 0 125 0 139 125 0 138 125 0
138 125 0 138 125 0 138 126 0 137 126 0 137 126 0 137 126 0 137 126 0
137 126 0 136 126 0 136 126 0 136 126 0 136 126 0 135 126 0 0 126 0 0
126 0 0 127 0 0 127 0 0 127 0 0 127 0 0 127 0 0 127 0 0 127 0 0 127 0
0 127 0 0 127 0 0 127 0 0 127 0 0 127 0 131 127 0 131 127 0 0 127 0 0
127 0 0 128 0 0 128 0 0 128 0 0 128 0 0 128 0 0 128 0 0 128 0 0 128 0
0 128 0 0 128 0 0 128 0 128 128 0 128 128 0 127 128 0 127 128 0 127
128 0 127 128 0 127 128 0 126 128 0 126 128 0 126 128 0 126 128 0 125
128 0 125 128 0 125 128 0 125 129 0 0 129 0 0 129 0 0 129 0 0 129 0 0
129 0 0 129 0 0 129 0 0 129 0 0 129 0 123 129 0 122 129 0 122 129 0
122 129 0 122 129 0 121 129 0 0 129 0 0 129 0 0 129 0 0 129 0 0 129 0
0 129 0 0 129 0 0 129 0 0 129 0 0 129 0 0 129 0 0 129 0 0 129 0 0 129
0 0 129 0 118 129 0 118 129 0 118 129 0 117 129 0 117 129 0 117 129 0
117 129 0 117 129 0 116 129 0 116 129 0 116 129 0 116 129 0 116 129 0
115 129 0 115 129 0 0 129 0 0 129 0 115 129 0 114 129 0 114 129 0 114
128 0 114 128 0 114 128 0 113 128 0 113 128 0 113 128 0 113 128 0 113
128 0 113 128 0 112 128 0 0 128 0 0 128 0 0 128 0 0 128 0 0 128 0 0
128 0 0 128 0 0 128 0 0 128 0 0 128 0 0 128 0 0 128 0 0 128 0 0 128 0
0 128 0
167 112 0 166 112 0 166 113 0 166 113 0 166 113 0 166 113 0 166 113 0
165 113 0 0 113 0 0 113 0 0 114 0 0 114 0 0 114 0 0 114 0 164 114 0
164 114 0 164 114 0 164 114 0 164 115 0 163 115 0 163 115 0 163 115 0
163 115 0 163 115 0 162 115 0 162 115 0 162 116 0 162 116 0 162 116 0
0 116 0 0 116 0 0 116 0 0 116 0 0 116 0 0 117 0 0 117 0 0 117 0 0 117
0 0 117 0 0 117 0 0 117 0 0 117 0 0 118 0 0 118 0 158 118 0 158 118 0
0 118 0 0 118 0 0 118 0 0 118 0 0 119 0 0 119 0 0 119 0 0 119 0 0 119
0 0 119 0 0 119 0 0 119 0 0 119 0 155 120 0 154 120 0 154 120 0 154
120 0 154 120 0 154 120 0 153 120 0 153 120 0 153 121 0 153 121 0 152
121 0 152 121 0 152 121 0 152 121 0 151 121 0 0 121 0 0 121 0 0 122 0
0 122 0 0 122 0 0 122 0 0 122 0 0 122 0 0 122 0 0 122 0 149 122 0 148
123 0 148 123 0 148 123 0 148 123 0 147 123 0 0 123 0 0 123 0 0 123 0
0 123 0 0 123 0 0 124 0 0 124 0 0 124 0 0 124 0 0 124 0 0 124 0 0 124
0 0 124 0 0 124 0 0 124 0 143 125 0 143 125 0 143 125 0 143 125 0 142
125 0 142 125 0 142 125 0 142 125 0 141 125 0 141 125 0 141 125 0 141
125 0 140 126 0 140 126 0 140 126 0 0 126 0 0 126 0 139 126 0 139 126
0 139 126 0 138 126 0 138 126 0 138 126 0 138 126 0 137 127 0 137 127
0 137 127 0 137 127 0 136 127 0 136 127 0 0 127 0 0 127 0 0 127 0 0
127 0 0 127 0 0 127 0 0 127 0 0 127 0 0 128 0 0 128 0 0 128 0 0 128 0
0 128 0 0 128 0 0 128 0 132 128 0 132 128 0 132 128 0 132 128 0 131
128 0 131 128 0 131 128 0 131 128 0 130 128 0 0 128 0 0 128 0 0 129 0
0 129 0 0 129 0 0 129 0 129 129 0 128 129 0 128 129 0 128 129 0 128
129 0 128 129 0 127 129 0 127 129 0 127 129 0 127 129 0 126 129 0 126
129 0 126 129 0 126 129 0 126 129 0 125 129 0 0 129 0 0 129 0 0 129 0
0 129 0 0 129 0 0 129 0 0 129 0 0 129 0 0 129 0 0 129 0 0 129 0 0 130
0 0 130 0 0 130 0 0 130 0 122 130 0 0 130 0 0 130 0 0 130 0 0 130 0 0
130 0 0 130 0 0 130 0 0 130 0 0 130 0 0 130 0 0 130 0 0 130 0 0 130 0
0 130 0 119 130 0 118 130 0 118 130 0 118 130 0 118 130 0 118 130 0
117 130 0 117 130 0 117 130 0 117 130 0 117 129 0 116 129 0 116 129 0
116 129 0 116 129 0 0 129 0 0 129 0 0 129 0 0 129 0 0 129 0 0 129 0 0
129 0 0 129 0 0 129 0 114 129 0 114 129 0 113 129 0 113 129 0 113 129
0 113 129 0 0 129 0 0 129 0 0 129 0 0 129 0 0 129 0 0 129 0 0 129 0 0
129 0 0 129 0 0 129 0 0 129 0 0 128 0 0 128 0 0 128 0 0 128 0
167 113 0 167 113 0 167 113 0 167 113 0 167 113 0 167 114 0 167 114 0
166 114 0 166 114 0 166 114 0 166 114 0 0 114 0 0 114 0 165 115 0 165
115 0 165 115 0 165 115 0 165 115 0 164 115 0 164 115 0 164 115 0 164
116 0 164 116 0 163 116 0 163 116 0 163 116 0 163 116 0 0 116 0 0 116
0 0 117 0 0 117 0 0 117 0 0 117 0 0 117 0 0 117 0 0 117 0 0 117 0 0
118 0 0 118 0 0 118 0 0 118 0 0 118 0 159 118 0 159 118 0 159 118 0
159 119 0 158 119 0 158 119 0 158 119 0 158 119 0 158 119 0 0 119 0 0
119 0 0 120 0 0 120 0 0 120 0 0 120 0 156 120 0 156 120 0 155 120 0
155 120 0 155 120 0 155 121 0 154 121 0 154 121 0 154 121 0 154 121 0
153 121 0 153 121 0 153 121 0 153 122 0 153 122 0 152 122 0 0 122 0 0
122 0 0 122 0 0 122 0 0 122 0 0 122 0 0 123 0 0 123 0 0 123 0 0 123 0
0 123 0 0 123 0 0 123 0 0 123 0 0 123 0 148 123 0 0 124 0 0 124 0 0
124 0 0 124 0 0 124 0 0 124 0 0 124 0 0 124 0 0 124 0 0 125 0 0 125 0
0 125 0 0 125 0 0 125 0 144 125 0 144 125 0 144 125 0 144 125 0 143
125 0 143 125 0 143 126 0 143 126 0 142 126 0 142 126 0 142 126 0 142
126 0 141 126 0 141 126 0 141 126 0 141 126 0 0 126 0 0 127 0 0 127 0
0 127 0 0 127 0 0 127 0 0 127 0 0 127 0 0 127 0 138 127 0 138 127 0
138 127 0 137 127 0 137 127 0 137 128 0 0 128 0 0 128 0 0 128 0 0 128
0 0 128 0 0 128 0 0 128 0 0 128 0 0 128 0 0 128 0 0 128 0 0 128 0 0
128 0 0 128 0 0 129 0 0 129 0 133 129 0 133 129 0 132 129 0 132 129 0
132 129 0 132 129 0 131 129 0 131 129 0 131 129 0 131 129 0 130 129 0
130 129 0 130 129 0 130 129 0 129 129 0 0 129 0 129 129 0 129 130 0
129 130 0 128 130 0 128 130 0 128 130 0 128 130 0 127 130 0 127 130 0
127 130 0 127 130 0 126 130 0 126 130 0 126 130 0 0 130 0 0 130 0 0
130 0 0 130 0 0 130 0 0 130 0 0 130 0 0 130 0 0 130 0 0 130 0 0 130 0
0 130 0 0 130 0 0 130 0 0 130 0 0 130 0 122 130 0 122 130 0 122 130 0
122 130 0 121 130 0 121 130 0 121 130 0 121 130 0 0 130 0 0 130 0 0
130 0 0 130 0 0 130 0 0 130 0 0 130 0 119 130 0 119 130 0 119 130 0
119 130 0 118 130 0 118 130 0 118 130 0 118 130 0 118 130 0 117 130 0
117 130 0 117 130 0 117 130 0 117 130 0 116 130 0 0 130 0 0 130 0 0
130 0 0 130 0 0 130 0 0 130 0 0 130 0 0 130 0 0 130 0 0 130 0 0 130 0
0 130 0 0 130 0 0 130 0 0 130 0 0 130 0 113 130 0 0 130 0 0 130 0 0
130 0 0 130 0 0 130 0 0 129 0 0 129 0 0 129 0 0 129 0 0 129 0 0 129 0
0 129 0 0 129 0
168 113 0 168 114 0 168 114 0 168 114 0 168 114 0 168 114 0 167 114 0
167 114 0 167 115 0 0 115 0 0 115 0 0 115 0 0 115 0 0 115 0 0 115 0 0
115 0 0 116 0 0 116 0 165 116 0 165 116 0 165 116 0 165 116 0 164 116
0 164 116 0 164 117 0 0 117 0 0 117 0 0 117 0 0 117 0 0 117 0 0 117 0
0 117 0 0 118 0 0 118 0 0 118 0 0 118 0 0 118 0 0 118 0 0 118 0 0 118
0 161 119 0 160 119 0 160 119 0 160 119 0 160 119 0 159 119 0 159 119
0 159 119 0 159 120 0 158 120 0 158 120 0 158 120 0 158 120 0 158 120
0 157 120 0 157 120 0 157 121 0 157 121 0 156 121 0 156 121 0 156 121
0 156 121 0 155 121 0 155 121 0 155 121 0 155 122 0 154 122 0 154 122
0 154 122 0 154 122 0 153 122 0 0 122 0 0 122 0 0 123 0 0 123 0 0 123
0 0 123 0 0 123 0 0 123 0 0 123 0 0 123 0 0 123 0 0 123 0 0 124 0 0
124 0 0 124 0 0 124 0 149 124 0 149 124 0 149 124 0 148 124 0 148 124
0 148 125 0 148 125 0 147 125 0 0 125 0 0 125 0 0 125 0 0 125 0 0 125
0 0 125 0 0 125 0 145 126 0 145 126 0 145 126 0 145 126 0 144 126 0
144 126 0 144 126 0 144 126 0 143 126 0 143 126 0 143 126 0 143 127 0
142 127 0 142 127 0 142 127 0 142 127 0 0 127 0 0 127 0 0 127 0 0 127
0 0 127 0 0 127 0 0 128 0 0 128 0 0 128 0 0 128 0 0 128 0 0 128 0 0
128 0 0 128 0 0 128 0 138 128 0 0 128 0 0 128 0 0 128 0 0 129 0 0 129
0 0 129 0 0 129 0 0 129 0 0 129 0 0 129 0 0 129 0 0 129 0 0 129 0 0
129 0 0 129 0 134 129 0 133 129 0 133 129 0 133 129 0 133 130 0 132
130 0 132 130 0 132 130 0 132 130 0 131 130 0 131 130 0 131 130 0 131
130 0 130 130 0 130 130 0 0 130 0 0 130 0 0 130 0 0 130 0 0 130 0 0
130 0 0 130 0 0 130 0 0 130 0 128 130 0 128 130 0 127 131 0 127 131 0
127 131 0 127 131 0 127 131 0 0 131 0 0 131 0 0 131 0 0 131 0 0 131 0
0 131 0 0 131 0 0 131 0 0 131 0 0 131 0 0 131 0 0 131 0 0 131 0 0 131
0 0 131 0 123 131 0 123 131 0 123 131 0 122 131 0 122 131 0 122 131 0
122 131 0 122 131 0 121 131 0 121 131 0 121 131 0 121 131 0 120 131 0
120 131 0 120 131 0 120 131 0 0 131 0 119 131 0 119 131 0 119 131 0
119 131 0 119 131 0 118 131 0 118 131 0 118 131 0 118 131 0 118 131 0
117 131 0 117 131 0 117 131 0 117 131 0 0 131 0 0 131 0 0 131 0 0 131
0 0 131 0 0 131 0 0 131 0 0 131 0 0 131 0 0 131 0 0 131 0 0 131 0 0
131 0 0 131 0 0 131 0 0 131 0 114 130 0 113 130 0 113 130 0 113 130 0
113 130 0 113 130 0 112 130 0 112 130 0 0 130 0 0 130 0 0 130 0 0 130
0 0 130 0 0 130 0
169 114 0 169 114 0 169 114 0 169 114 0 169 115 0 168 115 0 168 115 0
0 115 0 0 115 0 0 115 0 0 115 0 0 116 0 0 116 0 0 116 0 0 116 0 0 116
0 0 116 0 0 116 0 0 116 0 0 117 0 0 117 0 0 117 0 0 117 0 0 117 0 0
117 0 0 117 0 0 117 0 0 118 0 0 118 0 0 118 0 0 118 0 0 118 0 0 118 0
0 118 0 0 118 0 0 119 0 0 119 0 0 119 0 162 119 0 162 119 0 161 119 0
161 119 0 161 119 0 161 120 0 160 120 0 160 120 0 160 120 0 160 120 0
159 120 0 159 120 0 159 120 0 159 121 0 158 121 0 158 121 0 0 121 0 0
121 0 0 121 0 0 121 0 0 121 0 0 122 0 0 122 0 0 122 0 156 122 0 156
122 0 156 122 0 155 122 0 155 122 0 155 122 0 155 123 0 154 123 0 0
123 0 0 123 0 0 123 0 0 123 0 0 123 0 0 123 0 0 123 0 0 124 0 0 124 0
0 124 0 0 124 0 0 124 0 0 124 0 0 124 0 0 124 0 150 124 0 150 125 0
150 125 0 149 125 0 149 125 0 149 125 0 149 125 0 148 125 0 148 125 0
148 125 0 148 126 0 147 126 0 147 126 0 147 126 0 147 126 0 146 126 0
146 126 0 146 126 0 146 126 0 145 126 0 145 126 0 145 127 0 145 127 0
144 127 0 144 127 0 144 127 0 144 127 0 143 127 0 143 127 0 143 127 0
143 127 0 142 128 0 0 128 0 0 128 0 0 128 0 0 128 0 0 128 0 0 128 0 0
128 0 0 128 0 0 128 0 0 128 0 0 128 0 0 129 0 0 129 0 0 129 0 0 129 0
138 129 0 138 129 0 138 129 0 138 129 0 137 129 0 137 129 0 137 129 0
137 129 0 0 129 0 0 129 0 0 130 0 0 130 0 0 130 0 0 130 0 0 130 0 0
130 0 134 130 0 134 130 0 134 130 0 134 130 0 133 130 0 133 130 0 133
130 0 133 130 0 132 130 0 132 130 0 132 130 0 132 131 0 131 131 0 131
131 0 131 131 0 131 131 0 0 131 0 0 131 0 0 131 0 0 131 0 0 131 0 0
131 0 0 131 0 0 131 0 0 131 0 0 131 0 0 131 0 0 131 0 0 131 0 0 131 0
0 131 0 0 131 0 0 131 0 0 131 0 0 131 0 0 131 0 0 132 0 0 132 0 0 132
0 0 132 0 0 132 0 0 132 0 0 132 0 0 132 0 0 132 0 0 132 0 0 132 0 124
132 0 123 132 0 123 132 0 123 132 0 123 132 0 122 132 0 122 132 0 122
132 0 122 132 0 122 132 0 121 132 0 121 132 0 121 132 0 121 132 0 121
132 0 120 132 0 0 132 0 0 132 0 0 132 0 0 132 0 0 132 0 0 132 0 0 132
0 0 132 0 119 132 0 118 132 0 118 132 0 118 132 0 118 132 0 118 132 0
117 132 0 0 132 0 0 132 0 0 132 0 0 132 0 0 132 0 0 132 0 0 132 0 0
132 0 0 131 0 0 131 0 0 131 0 0 131 0 0 131 0 0 131 0 0 131 0 0 131 0
114 131 0 114 131 0 114 131 0 113 131 0 113 131 0 113 131 0 113 131 0
113 131 0 113 131 0 112 131 0 112 131 0 112 131 0 112 131 0 112 131 0
170 115 0 170 115 0 170 115 0 170 115 0 169 115 0 0 115 0 0 115 0 0
116 0 0 116 0 0 116 0 0 116 0 0 116 0 0 116 0 0 116 0 0 117 0 0 117 0
0 117 0 0 117 0 0 117 0 0 117 0 166 117 0 166 117 0 166 118 0 166 118
0 166 118 0 165 118 0 165 118 0 165 118 0 0 118 0 0 118 0 0 119 0 0
119 0 0 119 0 0 119 0 0 119 0 0 119 0 163 119 0 163 119 0 162 120 0
162 120 0 162 120 0 162 120 0 162 120 0 161 120 0 161 120 0 161 120 0
161 121 0 160 121 0 160 121 0 160 121 0 160 121 0 159 121 0 0 121 0 0
121 0 0 122 0 0 122 0 0 122 0 0 122 0 0 122 0 0 122 0 0 122 0 0 122 0
0 122 0 0 123 0 0 123 0 0 123 0 0 123 0 155 123 0 0 123 0 0 123 0 0
123 0 0 124 0 0 124 0 0 124 0 0 124 0 0 124 0 0 124 0 0 124 0 0 124 0
0 124 0 0 125 0 0 125 0 0 125 0 0 125 0 151 125 0 151 125 0 151 125 0
150 125 0 150 125 0 150 126 0 150 126 0 149 126 0 149 126 0 149 126 0
149 126 0 148 126 0 148 126 0 148 126 0 148 126 0 147 127 0 0 127 0 0
127 0 0 127 0 0 127 0 0 127 0 0 127 0 0 127 0 145 127 0 145 127 0 145
128 0 144 128 0 144 128 0 144 128 0 144 128 0 143 128 0 143 128 0 0
128 0 0 128 0 0 128 0 0 128 0 0 129 0 0 129 0 0 129 0 0 129 0 0 129 0
0 129 0 0 129 0 0 129 0 0 129 0 0 129 0 0 129 0 139 129 0 139 129 0
139 130 0 138 130 0 138 130 0 138 130 0 138 130 0 137 130 0 137 130 0
137 130 0 137 130 0 136 130 0 136 130 0 136 130 0 136 130 0 0 130 0
135 131 0 135 131 0 135 131 0 134 131 0 134 131 0 134 131 0 134 131 0
133 131 0 133 131 0 133 131 0 133 131 0 132 131 0 132 131 0 132 131 0
132 131 0 132 131 0 0 131 0 0 131 0 0 132 0 0 132 0 0 132 0 0 132 0 0
132 0 0 132 0 0 132 0 0 132 0 0 132 0 0 132 0 0 132 0 0 132 0 0 132 0
0 132 0 128 132 0 127 132 0 127 132 0 127 132 0 127 132 0 126 132 0
126 132 0 0 132 0 0 132 0 0 132 0 0 132 0 0 132 0 0 132 0 0 132 0 0
132 0 0 132 0 124 132 0 124 132 0 124 132 0 123 133 0 123 133 0 123
133 0 123 133 0 123 133 0 122 133 0 122 133 0 122 133 0 122 133 0 122
133 0 121 133 0 121 133 0 121 133 0 0 133 0 0 133 0 0 133 0 0 133 0 0
133 0 0 133 0 0 133 0 0 133 0 0 133 0 0 133 0 0 133 0 0 132 0 0 132 0
0 132 0 0 132 0 118 132 0 0 132 0 0 132 0 0 132 0 0 132 0 0 132 0 0
132 0 0 132 0 0 132 0 0 132 0 0 132 0 0 132 0 0 132 0 0 132 0 0 132 0
0 132 0 115 132 0 114 132 0 114 132 0 114 132 0 114 132 0 114 132 0
113 132 0 113 132 0 113 132 0 113 132 0 113 132 0 112 132 0 112 132 0
112 131 0
171 115 0 171 115 0 0 116 0 0 116 0 0 116 0 0 116 0 0 116 0 0 116 0 0
116 0 0 116 0 0 117 0 0 117 0 0 117 0 0 117 0 0 117 0 0 117 0 0 117 0
0 118 0 168 118 0 167 118 0 167 118 0 167 118 0 167 118 0 166 118 0
166 118 0 166 119 0 166 119 0 166 119 0 165 119 0 165 119 0 165 119 0
165 119 0 165 119 0 0 120 0 164 120 0 164 120 0 164 120 0 163 120 0
163 120 0 163 120 0 163 120 0 162 121 0 162 121 0 162 121 0 162 121 0
161 121 0 161 121 0 161 121 0 161 121 0 161 122 0 0 122 0 0 122 0 0
122 0 0 122 0 0 122 0 0 122 0 0 122 0 0 123 0 0 123 0 0 123 0 0 123 0
0 123 0 0 123 0 0 123 0 0 123 0 0 123 0 156 124 0 156 124 0 156 124 0
156 124 0 155 124 0 155 124 0 155 124 0 0 124 0 0 125 0 0 125 0 0 125
0 0 125 0 0 125 0 0 125 0 0 125 0 0 125 0 152 125 0 152 126 0 152 126
0 151 126 0 151 126 0 151 126 0 151 126 0 150 126 0 150 126 0 150 126
0 150 126 0 149 127 0 149 127 0 149 127 0 149 127 0 148 127 0 0 127 0
0 127 0 0 127 0 0 127 0 0 127 0 0 128 0 0 128 0 0 128 0 0 128 0 0 128
0 0 128 0 0 128 0 0 128 0 0 128 0 0 128 0 144 129 0 0 129 0 0 129 0 0
129 0 0 129 0 0 129 0 0 129 0 0 129 0 0 129 0 0 129 0 0 129 0 0 129 0
0 130 0 0 130 0 0 130 0 0 130 0 0 130 0 140 130 0 140 130 0 139 130 0
139 130 0 139 130 0 139 130 0 138 130 0 138 131 0 138 131 0 138 131 0
137 131 0 137 131 0 137 131 0 137 131 0 136 131 0 136 131 0 0 131 0 0
131 0 0 131 0 0 131 0 0 131 0 0 131 0 0 132 0 134 132 0 134 132 0 134
132 0 133 132 0 133 132 0 133 132 0 133 132 0 133 132 0 132 132 0 132
132 0 0 132 0 0 132 0 0 132 0 0 132 0 0 132 0 0 132 0 0 132 0 0 132 0
0 132 0 0 133 0 0 133 0 0 133 0 0 133 0 0 133 0 0 133 0 0 133 0 128
133 0 128 133 0 128 133 0 127 133 0 127 133 0 127 133 0 127 133 0 127
133 0 126 133 0 126 133 0 126 133 0 126 133 0 125 133 0 125 133 0 0
133 0 0 133 0 125 133 0 124 133 0 124 133 0 124 133 0 124 133 0 123
133 0 123 133 0 123 133 0 123 133 0 123 133 0 122 133 0 122 133 0 122
133 0 122 133 0 122 133 0 121 133 0 0 133 0 0 133 0 0 133 0 0 133 0 0
133 0 0 133 0 0 133 0 0 133 0 0 133 0 0 133 0 0 133 0 0 133 0 0 133 0
0 133 0 0 133 0 0 133 0 118 133 0 118 133 0 118 133 0 117 133 0 117
133 0 117 133 0 0 133 0 0 133 0 0 133 0 0 133 0 0 133 0 0 133 0 0 133
0 0 133 0 0 133 0 0 133 0 115 133 0 115 133 0 114 133 0 114 133 0 114
133 0 114 133 0 114 133 0 114 132 0 113 132 0 113 132 0 113 132 0 113
132 0 113 132 0
0 116 0 0 116 0 0 116 0 0 116 0 0 116 0 0 117 0 0 117 0 0 117 0 0 117
0 0 117 0 0 117 0 0 117 0 0 117 0 0 118 0 0 118 0 0 118 0 169 118 0
168 118 0 168 118 0 168 118 0 168 118 0 168 119 0 167 119 0 167 119 0
167 119 0 167 119 0 167 119 0 166 119 0 166 120 0 166 120 0 166 120 0
165 120 0 0 120 0 0 120 0 0 120 0 0 120 0 0 121 0 164 121 0 164 121 0
164 121 0 163 121 0 163 121 0 163 121 0 163 121 0 162 122 0 162 122 0
162 122 0 162 122 0 161 122 0 0 122 0 0 122 0 0 122 0 0 123 0 0 123 0
0 123 0 0 123 0 0 123 0 0 123 0 0 123 0 0 123 0 0 123 0 0 124 0 0 124
0 0 124 0 0 124 0 157 124 0 157 124 0 157 124 0 156 124 0 156 125 0
156 125 0 156 125 0 155 125 0 155 125 0 155 125 0 155 125 0 154 125 0
154 125 0 0 126 0 0 126 0 0 126 0 153 126 0 153 126 0 153 126 0 152
126 0 152 126 0 152 126 0 151 127 0 151 127 0 151 127 0 151 127 0 150
127 0 150 127 0 150 127 0 150 127 0 149 127 0 149 128 0 0 128 0 0 128
0 0 128 0 0 128 0 0 128 0 0 128 0 0 128 0 0 128 0 0 128 0 0 129 0 0
129 0 0 129 0 0 129 0 0 129 0 0 129 0 0 129 0 145 129 0 144 129 0 144
129 0 144 129 0 144 130 0 0 130 0 0 130 0 0 130 0 0 130 0 0 130 0 0
130 0 0 130 0 0 130 0 0 130 0 0 130 0 0 130 0 0 131 0 140 131 0 140
131 0 140 131 0 140 131 0 139 131 0 139 131 0 139 131 0 139 131 0 138
131 0 138 131 0 138 131 0 138 131 0 137 132 0 137 132 0 137 132 0 137
132 0 0 132 0 0 132 0 0 132 0 0 132 0 0 132 0 0 132 0 0 132 0 0 132 0
0 132 0 0 132 0 0 132 0 0 132 0 0 133 0 133 133 0 133 133 0 133 133 0
0 133 0 0 133 0 0 133 0 0 133 0 0 133 0 0 133 0 0 133 0 0 133 0 0 133
0 0 133 0 0 133 0 0 133 0 0 133 0 0 133 0 0 133 0 0 133 0 129 133 0
129 133 0 128 133 0 128 134 0 128 134 0 128 134 0 127 134 0 127 134 0
127 134 0 127 134 0 127 134 0 126 134 0 126 134 0 126 134 0 126 134 0
125 134 0 0 134 0 0 134 0 0 134 0 0 134 0 0 134 0 124 134 0 124 134 0
124 134 0 124 134 0 123 134 0 123 134 0 123 134 0 123 134 0 122 134 0
122 134 0 122 134 0 122 134 0 0 134 0 0 134 0 0 134 0 0 134 0 0 134 0
0 134 0 0 134 0 0 134 0 0 134 0 0 134 0 0 134 0 0 134 0 0 134 0 0 134
0 0 134 0 0 134 0 118 134 0 118 134 0 118 134 0 118 134 0 118 134 0
117 134 0 117 134 0 117 134 0 117 134 0 117 134 0 116 134 0 116 134 0
116 134 0 0 134 0 0 134 0 0 134 0 115 133 0 115 133 0 115 133 0 115
133 0 115 133 0 114 133 0 114 133 0 114 133 0 114 133 0 114 133 0 113
133 0 113 133 0 113 133 0
173 116 0 0 117 0 0 117 0 0 117 0 0 117 0 0 117 0 0 117 0 0 117 0 0
118 0 0 118 0 0 118 0 0 118 0 0 118 0 0 118 0 170 118 0 170 118 0 169
119 0 169 119 0 169 119 0 169 119 0 169 119 0 168 119 0 168 119 0 168
119 0 168 120 0 167 120 0 167 120 0 167 120 0 167 120 0 167 120 0 0
120 0 0 121 0 0 121 0 0 121 0 0 121 0 0 121 0 0 121 0 0 121 0 0 121 0
0 122 0 0 122 0 0 122 0 163 122 0 163 122 0 163 122 0 163 122 0 163
122 0 0 123 0 0 123 0 0 123 0 0 123 0 0 123 0 0 123 0 0 123 0 0 123 0
0 123 0 0 124 0 0 124 0 0 124 0 0 124 0 0 124 0 0 124 0 0 124 0 158
124 0 158 125 0 158 125 0 157 125 0 157 125 0 157 125 0 157 125 0 156
125 0 156 125 0 156 126 0 156 126 0 155 126 0 155 126 0 155 126 0 155
126 0 154 126 0 0 126 0 0 126 0 0 127 0 0 127 0 153 127 0 153 127 0
153 127 0 152 127 0 152 127 0 152 127 0 152 127 0 151 128 0 151 128 0
151 128 0 150 128 0 150 128 0 150 128 0 0 128 0 0 128 0 0 128 0 0 128
0 0 129 0 0 129 0 0 129 0 0 129 0 0 129 0 0 129 0 0 129 0 0 129 0 0
129 0 0 129 0 0 130 0 0 130 0 146 130 0 145 130 0 145 130 0 145 130 0
144 130 0 144 130 0 144 130 0 144 130 0 143 130 0 143 131 0 143 131 0
143 131 0 0 131 0 0 131 0 0 131 0 0 131 0 0 131 0 141 131 0 141 131 0
141 131 0 140 131 0 140 132 0 140 132 0 140 132 0 139 132 0 139 132 0
139 132 0 139 132 0 138 132 0 138 132 0 138 132 0 138 132 0 137 132 0
0 132 0 0 132 0 0 133 0 0 133 0 0 133 0 0 133 0 0 133 0 0 133 0 0 133
0 0 133 0 0 133 0 0 133 0 0 133 0 0 133 0 0 133 0 0 133 0 133 133 0
133 133 0 133 133 0 133 133 0 0 134 0 0 134 0 0 134 0 0 134 0 0 134 0
0 134 0 0 134 0 0 134 0 0 134 0 0 134 0 0 134 0 0 134 0 0 134 0 129
134 0 129 134 0 129 134 0 129 134 0 128 134 0 128 134 0 128 134 0 128
134 0 128 134 0 127 134 0 127 134 0 127 134 0 127 134 0 126 134 0 126
134 0 126 135 0 0 135 0 0 135 0 0 135 0 0 135 0 0 135 0 0 135 0 0 135
0 0 135 0 0 135 0 0 135 0 0 135 0 0 135 0 123 135 0 123 135 0 123 135
0 123 135 0 0 135 0 0 135 0 0 135 0 0 135 0 0 135 0 0 135 0 0 135 0 0
135 0 0 135 0 0 135 0 0 135 0 0 135 0 0 135 0 0 135 0 0 135 0 0 135 0
0 135 0 119 135 0 119 135 0 118 135 0 118 135 0 118 135 0 118 135 0
118 134 0 117 134 0 117 134 0 117 134 0 117 134 0 117 134 0 117 134 0
116 134 0 116 134 0 116 134 0 0 134 0 0 134 0 0 134 0 0 134 0 115 134
0 115 134 0 115 134 0 114 134 0 114 134 0 114 134 0 114 134 0 114 134
0 114 134 0
173 117 0 173 117 0 173 117 0 173 117 0 173 118 0 172 118 0 0 118 0 0
118 0 0 118 0 0 118 0 0 118 0 0 119 0 171 119 0 171 119 0 171 119 0
170 119 0 170 119 0 170 119 0 170 119 0 169 120 0 169 120 0 169 120 0
169 120 0 169 120 0 168 120 0 168 120 0 168 120 0 168 121 0 0 121 0 0
121 0 0 121 0 0 121 0 0 121 0 0 121 0 0 121 0 0 122 0 0 122 0 0 122 0
0 122 0 0 122 0 0 122 0 0 122 0 0 122 0 0 123 0 0 123 0 163 123 0 163
123 0 0 123 0 0 123 0 0 123 0 0 123 0 0 124 0 0 124 0 0 124 0 0 124 0
0 124 0 0 124 0 0 124 0 0 124 0 0 125 0 0 125 0 159 125 0 159 125 0
159 125 0 159 125 0 158 125 0 158 125 0 158 126 0 158 126 0 157 126 0
157 126 0 157 126 0 156 126 0 156 126 0 156 126 0 156 126 0 155 127 0
155 127 0 0 127 0 0 127 0 0 127 0 0 127 0 0 127 0 0 127 0 0 127 0 0
128 0 0 128 0 0 128 0 0 128 0 152 128 0 152 128 0 152 128 0 151 128 0
151 128 0 151 129 0 0 129 0 0 129 0 0 129 0 0 129 0 0 129 0 0 129 0 0
129 0 0 129 0 0 129 0 0 130 0 0 130 0 0 130 0 0 130 0 0 130 0 0 130 0
0 130 0 146 130 0 146 130 0 146 130 0 146 131 0 145 131 0 145 131 0
145 131 0 144 131 0 144 131 0 144 131 0 144 131 0 143 131 0 143 131 0
143 131 0 143 131 0 142 132 0 142 132 0 0 132 0 0 132 0 141 132 0 141
132 0 141 132 0 141 132 0 140 132 0 140 132 0 140 132 0 140 132 0 139
133 0 139 133 0 139 133 0 139 133 0 138 133 0 138 133 0 0 133 0 0 133
0 0 133 0 0 133 0 0 133 0 0 133 0 0 133 0 0 133 0 0 133 0 0 134 0 0
134 0 0 134 0 0 134 0 0 134 0 0 134 0 0 134 0 0 134 0 134 134 0 134
134 0 133 134 0 133 134 0 133 134 0 133 134 0 132 134 0 132 134 0 132
134 0 132 134 0 0 134 0 0 135 0 0 135 0 0 135 0 0 135 0 0 135 0 130
135 0 130 135 0 130 135 0 129 135 0 129 135 0 129 135 0 129 135 0 128
135 0 128 135 0 128 135 0 128 135 0 128 135 0 127 135 0 127 135 0 127
135 0 127 135 0 126 135 0 0 135 0 0 135 0 0 135 0 0 135 0 0 135 0 0
135 0 0 135 0 0 135 0 0 135 0 0 135 0 0 135 0 0 135 0 0 135 0 0 135 0
0 135 0 0 135 0 123 135 0 123 135 0 122 135 0 0 135 0 0 135 0 0 135 0
0 135 0 0 135 0 0 135 0 0 135 0 0 135 0 0 135 0 0 135 0 0 135 0 0 135
0 0 135 0 0 135 0 119 135 0 119 135 0 119 135 0 119 135 0 119 135 0
118 135 0 118 135 0 118 135 0 118 135 0 118 135 0 117 135 0 117 135 0
117 135 0 117 135 0 117 135 0 116 135 0 116 135 0 0 135 0 0 135 0 0
135 0 0 135 0 0 135 0 0 135 0 0 135 0 0 135 0 0 135 0 0 135 0 114 135
0 114 134 0
174 118 0 174 118 0 174 118 0 174 118 0 173 118 0 173 118 0 173 118 0
173 119 0 173 119 0 172 119 0 0 119 0 172 119 0 172 119 0 171 119 0
171 119 0 171 120 0 171 120 0 171 120 0 170 120 0 170 120 0 170 120 0
170 120 0 169 121 0 169 121 0 169 121 0 169 121 0 0 121 0 0 121 0 0
121 0 0 121 0 0 122 0 0 122 0 0 122 0 0 122 0 0 122 0 0 122 0 0 122 0
0 122 0 0 123 0 0 123 0 0 123 0 0 123 0 0 123 0 164 123 0 164 123 0
164 123 0 164 124 0 163 124 0 163 124 0 163 124 0 163 124 0 162 124 0
0 124 0 0 124 0 0 125 0 0 125 0 0 125 0 0 125 0 0 125 0 0 125 0 160
125 0 160 125 0 160 126 0 159 126 0 159 126 0 159 126 0 159 126 0 158
126 0 158 126 0 158 126 0 158 126 0 157 127 0 157 127 0 157 127 0 157
127 0 156 127 0 156 127 0 0 127 0 0 127 0 0 128 0 0 128 0 0 128 0 0
128 0 0 128 0 0 128 0 0 128 0 0 128 0 0 128 0 0 129 0 0 129 0 0 129 0
0 129 0 0 129 0 152 129 0 0 129 0 0 129 0 0 129 0 0 129 0 0 130 0 0
130 0 0 130 0 0 130 0 0 130 0 0 130 0 0 130 0 0 130 0 0 130 0 0 130 0
0 131 0 0 131 0 147 131 0 147 131 0 147 131 0 146 131 0 146 131 0 146
131 0 145 131 0 145 131 0 145 132 0 145 132 0 144 132 0 144 132 0 144
132 0 144 132 0 143 132 0 143 132 0 143 132 0 0 132 0 0 132 0 0 132 0
0 133 0 0 133 0 0 133 0 0 133 0 0 133 0 0 133 0 140 133 0 140 133 0
140 133 0 140 133 0 139 133 0 139 133 0 139 133 0 0 134 0 0 134 0 0
134 0 0 134 0 0 134 0 0 134 0 0 134 0 0 134 0 0 134 0 0 134 0 0 134 0
0 134 0 0 134 0 0 134 0 0 134 0 0 134 0 0 135 0 134 135 0 134 135 0
134 135 0 134 135 0 134 135 0 133 135 0 133 135 0 133 135 0 133 135 0
132 135 0 132 135 0 132 135 0 132 135 0 131 135 0 131 135 0 131 135 0
131 135 0 0 135 0 130 135 0 130 135 0 130 135 0 130 136 0 129 136 0
129 136 0 129 136 0 129 136 0 128 136 0 128 136 0 128 136 0 128 136 0
128 136 0 127 136 0 127 136 0 127 136 0 0 136 0 0 136 0 0 136 0 0 136
0 0 136 0 0 136 0 0 136 0 0 136 0 0 136 0 0 136 0 0 136 0 0 136 0 0
136 0 0 136 0 0 136 0 0 136 0 123 136 0 123 136 0 123 136 0 123 136 0
122 136 0 122 136 0 122 136 0 122 136 0 122 136 0 121 136 0 0 136 0 0
136 0 0 136 0 0 136 0 0 136 0 0 136 0 0 136 0 120 136 0 120 136 0 119
136 0 119 136 0 119 136 0 119 136 0 119 136 0 118 136 0 118 136 0 118
136 0 118 136 0 118 136 0 117 136 0 117 136 0 117 136 0 117 136 0 117
136 0 0 136 0 0 136 0 0 136 0 0 136 0 0 135 0 0 135 0 0 135 0 0 135 0
0 135 0 0 135 0 0 135 0 0 135 0
175 118 0 175 118 0 174 118 0 174 119 0 174 119 0 174 119 0 174 119 0
173 119 0 0 119 0 0 119 0 0 120 0 0 120 0 0 120 0 0 120 0 0 120 0 172
120 0 171 120 0 171 120 0 171 121 0 171 121 0 171 121 0 170 121 0 170
121 0 170 121 0 0 121 0 0 121 0 0 122 0 0 122 0 0 122 0 0 122 0 0 122
0 0 122 0 0 122 0 0 123 0 0 123 0 0 123 0 0 123 0 0 123 0 0 123 0 0
123 0 0 123 0 166 124 0 165 124 0 165 124 0 165 124 0 165 124 0 164
124 0 164 124 0 164 124 0 164 125 0 163 125 0 163 125 0 163 125 0 163
125 0 162 125 0 162 125 0 162 125 0 0 126 0 161 126 0 161 126 0 161
126 0 160 126 0 160 126 0 160 126 0 160 126 0 159 126 0 159 127 0 159
127 0 159 127 0 158 127 0 158 127 0 158 127 0 158 127 0 157 127 0 157
128 0 0 128 0 0 128 0 0 128 0 0 128 0 0 128 0 0 128 0 0 128 0 0 128 0
0 129 0 0 129 0 0 129 0 0 129 0 0 129 0 0 129 0 0 129 0 0 129 0 0 129
0 152 130 0 152 130 0 152 130 0 151 130 0 151 130 0 151 130 0 151 130
0 150 130 0 0 130 0 0 130 0 0 131 0 0 131 0 0 131 0 0 131 0 0 131 0 0
131 0 0 131 0 148 131 0 148 131 0 147 131 0 147 132 0 147 132 0 146
132 0 146 132 0 146 132 0 146 132 0 145 132 0 145 132 0 145 132 0 145
132 0 144 132 0 144 133 0 144 133 0 144 133 0 0 133 0 0 133 0 0 133 0
0 133 0 0 133 0 0 133 0 0 133 0 0 133 0 0 133 0 0 134 0 0 134 0 0 134
0 0 134 0 0 134 0 0 134 0 0 134 0 139 134 0 0 134 0 0 134 0 0 134 0 0
134 0 0 134 0 0 134 0 0 135 0 0 135 0 0 135 0 0 135 0 0 135 0 0 135 0
0 135 0 0 135 0 0 135 0 0 135 0 0 135 0 135 135 0 135 135 0 134 135 0
134 135 0 134 135 0 134 135 0 134 136 0 133 136 0 133 136 0 133 136 0
133 136 0 132 136 0 132 136 0 132 136 0 132 136 0 131 136 0 0 136 0 0
136 0 0 136 0 0 136 0 0 136 0 0 136 0 0 136 0 0 136 0 129 136 0 129
136 0 129 136 0 129 136 0 128 136 0 128 136 0 128 136 0 128 136 0 128
137 0 0 137 0 0 137 0 0 137 0 0 137 0 0 137 0 0 137 0 0 137 0 0 137 0
0 137 0 0 137 0 0 137 0 0 137 0 0 137 0 0 137 0 0 137 0 0 137 0 0 137
0 124 137 0 124 137 0 123 137 0 123 137 0 123 137 0 123 137 0 122 137
0 122 137 0 122 137 0 122 137 0 122 137 0 121 137 0 121 137 0 121 137
0 121 137 0 121 137 0 0 137 0 120 137 0 120 137 0 120 137 0 120 137 0
119 137 0 119 137 0 119 137 0 119 137 0 119 137 0 118 137 0 118 137 0
118 137 0 118 136 0 118 136 0 118 136 0 117 136 0 117 136 0 0 136 0 0
136 0 0 136 0 0 136 0 0 136 0 0 136 0 0 136 0 0 136 0 0 136 0 0 136 0
0 136 0 0 136 0
176 119 0 175 119 0 175 119 0 175 119 0 175 119 0 0 119 0 0 120 0 0
120 0 0 120 0 0 120 0 0 120 0 0 120 0 0 120 0 0 120 0 0 121 0 0 121 0
0 121 0 0 121 0 0 121 0 0 121 0 171 121 0 171 122 0 0 122 0 0 122 0 0
122 0 0 122 0 0 122 0 0 122 0 0 122 0 0 123 0 0 123 0 0 123 0 0 123 0
0 123 0 0 123 0 0 123 0 0 123 0 0 124 0 0 124 0 0 124 0 166 124 0 166
124 0 166 124 0 166 124 0 165 124 0 165 125 0 165 125 0 165 125 0 164
125 0 164 125 0 164 125 0 164 125 0 163 125 0 163 126 0 163 126 0 163
126 0 162 126 0 0 126 0 0 126 0 0 126 0 0 126 0 0 127 0 161 127 0 160
127 0 160 127 0 160 127 0 160 127 0 159 127 0 159 127 0 159 128 0 159
128 0 158 128 0 158 128 0 158 128 0 0 128 0 0 128 0 0 128 0 0 128 0 0
129 0 0 129 0 0 129 0 0 129 0 0 129 0 0 129 0 0 129 0 0 129 0 0 129 0
0 130 0 0 130 0 0 130 0 0 130 0 153 130 0 153 130 0 152 130 0 152 130
0 152 130 0 152 131 0 151 131 0 151 131 0 151 131 0 151 131 0 150 131
0 150 131 0 150 131 0 150 131 0 0 131 0 0 132 0 0 132 0 149 132 0 148
132 0 148 132 0 148 132 0 147 132 0 147 132 0 147 132 0 147 132 0 146
133 0 146 133 0 146 133 0 146 133 0 145 133 0 145 133 0 145 133 0 145
133 0 144 133 0 0 133 0 0 133 0 0 134 0 0 134 0 0 134 0 0 134 0 0 134
0 0 134 0 0 134 0 0 134 0 0 134 0 0 134 0 0 134 0 0 134 0 0 134 0 0
135 0 0 135 0 140 135 0 140 135 0 139 135 0 139 135 0 139 135 0 139
135 0 0 135 0 0 135 0 0 135 0 0 135 0 0 135 0 0 135 0 0 136 0 0 136 0
0 136 0 0 136 0 0 136 0 136 136 0 135 136 0 135 136 0 135 136 0 135
136 0 134 136 0 134 136 0 134 136 0 134 136 0 134 136 0 133 136 0 133
136 0 133 136 0 133 136 0 132 137 0 132 137 0 132 137 0 0 137 0 0 137
0 0 137 0 0 137 0 0 137 0 0 137 0 0 137 0 0 137 0 0 137 0 0 137 0 0
137 0 0 137 0 0 137 0 0 137 0 128 137 0 128 137 0 128 137 0 0 137 0 0
137 0 0 137 0 0 137 0 0 137 0 0 137 0 0 137 0 0 137 0 0 137 0 0 137 0
0 137 0 0 137 0 0 137 0 0 137 0 0 137 0 0 137 0 0 137 0 124 137 0 124
137 0 124 137 0 124 137 0 123 137 0 123 137 0 123 137 0 123 137 0 123
137 0 122 137 0 122 137 0 122 137 0 122 137 0 122 137 0 121 137 0 121
137 0 121 137 0 0 137 0 0 137 0 0 137 0 0 137 0 0 137 0 0 137 0 120
137 0 119 137 0 119 137 0 119 137 0 119 137 0 119 137 0 118 137 0 118
137 0 118 137 0 118 137 0 118 137 0 0 137 0 0 137 0 0 137 0 0 137 0 0
137 0 0 137 0 0 137 0 0 137 0 0 137 0 0 137 0 0 137 0 0 137 0
176 119 0 176 119 0 176 120 0 0 120 0 0 120 0 0 120 0 0 120 0 0 120 0
0 120 0 0 121 0 0 121 0 0 121 0 0 121 0 0 121 0 0 121 0 0 121 0 0 121
0 0 122 0 0 122 0 0 122 0 0 122 0 172 122 0 171 122 0 171 122 0 0 122
0 0 123 0 0 123 0 0 123 0 0 123 0 0 123 0 0 123 0 0 123 0 0 124 0 0
124 0 0 124 0 0 124 0 0 124 0 0 124 0 167 124 0 167 124 0 167 125 0
167 125 0 166 125 0 166 125 0 166 125 0 166 125 0 165 125 0 165 125 0
165 126 0 165 126 0 164 126 0 164 126 0 164 126 0 164 126 0 163 126 0
0 126 0 0 127 0 0 127 0 0 127 0 0 127 0 0 127 0 0 127 0 0 127 0 0 127
0 0 128 0 0 128 0 0 128 0 160 128 0 160 128 0 159 128 0 159 128 0 159
128 0 0 128 0 0 129 0 0 129 0 0 129 0 0 129 0 0 129 0 0 129 0 0 129 0
0 129 0 0 130 0 0 130 0 0 130 0 0 130 0 0 130 0 0 130 0 0 130 0 0 130
0 154 130 0 154 131 0 154 131 0 153 131 0 153 131 0 153 131 0 152 131
0 152 131 0 152 131 0 152 131 0 151 131 0 151 132 0 151 132 0 151 132
0 150 132 0 150 132 0 150 132 0 150 132 0 0 132 0 0 132 0 0 132 0 148
133 0 148 133 0 148 133 0 148 133 0 147 133 0 147 133 0 147 133 0 147
133 0 146 133 0 146 133 0 146 134 0 146 134 0 145 134 0 145 134 0 0
134 0 0 134 0 0 134 0 0 134 0 0 134 0 0 134 0 0 134 0 0 134 0 0 135 0
0 135 0 0 135 0 0 135 0 0 135 0 0 135 0 0 135 0 0 135 0 0 135 0 141
135 0 140 135 0 140 135 0 140 135 0 140 136 0 139 136 0 139 136 0 139
136 0 139 136 0 138 136 0 138 136 0 138 136 0 0 136 0 0 136 0 0 136 0
0 136 0 0 136 0 136 136 0 136 136 0 136 136 0 136 137 0 135 137 0 135
137 0 135 137 0 135 137 0 134 137 0 134 137 0 134 137 0 134 137 0 133
137 0 133 137 0 133 137 0 133 137 0 133 137 0 132 137 0 0 137 0 0 137
0 0 137 0 0 137 0 0 137 0 0 137 0 0 138 0 0 138 0 0 138 0 0 138 0 0
138 0 0 138 0 0 138 0 0 138 0 0 138 0 0 138 0 0 138 0 128 138 0 128
138 0 128 138 0 0 138 0 0 138 0 0 138 0 0 138 0 0 138 0 0 138 0 0 138
0 0 138 0 0 138 0 0 138 0 0 138 0 0 138 0 0 138 0 0 138 0 125 138 0
124 138 0 124 138 0 124 138 0 124 138 0 124 138 0 123 138 0 123 138 0
123 138 0 123 138 0 123 138 0 122 138 0 122 138 0 122 138 0 122 138 0
122 138 0 121 138 0 0 138 0 0 138 0 0 138 0 0 138 0 0 138 0 0 138 0 0
138 0 0 138 0 0 138 0 0 138 0 0 138 0 0 138 0 0 138 0 119 138 0 118
138 0 118 138 0 118 138 0 118 138 0 0 138 0 0 138 0 0 138 0 0 138 0 0
138 0 0 138 0 0 138 0 0 137 0 0 137 0 0 137 0 0 137 0
177 120 0 0 120 0 0 120 0 0 120 0 0 120 0 0 121 0 0 121 0 0 121 0 0
121 0 0 121 0 0 121 0 0 121 0 0 121 0 0 122 0 0 122 0 0 122 0 0 122 0
0 122 0 0 122 0 173 122 0 172 123 0 172 123 0 172 123 0 172 123 0 171
123 0 171 123 0 171 123 0 171 123 0 170 124 0 0 124 0 0 124 0 0 124 0
0 124 0 0 124 0 0 124 0 0 124 0 168 125 0 168 125 0 168 125 0 168 125
0 167 125 0 167 125 0 167 125 0 167 125 0 166 126 0 166 126 0 166 126
0 166 126 0 165 126 0 165 126 0 165 126 0 165 126 0 164 127 0 0 127 0
0 127 0 0 127 0 0 127 0 0 127 0 0 127 0 0 127 0 0 128 0 0 128 0 0 128
0 0 128 0 0 128 0 0 128 0 0 128 0 0 128 0 0 129 0 0 129 0 0 129 0 159
129 0 0 129 0 0 129 0 0 129 0 0 129 0 0 130 0 0 130 0 0 130 0 0 130 0
0 130 0 0 130 0 0 130 0 0 130 0 0 130 0 0 131 0 0 131 0 0 131 0 155
131 0 155 131 0 154 131 0 154 131 0 154 131 0 153 131 0 153 132 0 153
132 0 153 132 0 152 132 0 152 132 0 152 132 0 152 132 0 151 132 0 151
132 0 151 132 0 151 133 0 150 133 0 0 133 0 0 133 0 0 133 0 0 133 0 0
133 0 0 133 0 0 133 0 0 133 0 0 134 0 0 134 0 147 134 0 147 134 0 147
134 0 147 134 0 146 134 0 146 134 0 146 134 0 0 134 0 0 134 0 0 135 0
0 135 0 0 135 0 0 135 0 0 135 0 0 135 0 0 135 0 0 135 0 0 135 0 0 135
0 0 135 0 0 135 0 0 136 0 0 136 0 0 136 0 141 136 0 141 136 0 141 136
0 140 136 0 140 136 0 140 136 0 140 136 0 139 136 0 139 136 0 139 136
0 139 136 0 138 137 0 138 137 0 138 137 0 138 137 0 138 137 0 137 137
0 137 137 0 0 137 0 137 137 0 136 137 0 136 137 0 136 137 0 136 137 0
135 137 0 135 137 0 135 137 0 135 137 0 134 138 0 134 138 0 134 138 0
134 138 0 133 138 0 133 138 0 133 138 0 0 138 0 0 138 0 0 138 0 0 138
0 0 138 0 0 138 0 0 138 0 0 138 0 0 138 0 0 138 0 0 138 0 0 138 0 0
138 0 0 138 0 0 138 0 0 138 0 0 138 0 0 138 0 129 138 0 128 139 0 128
139 0 128 139 0 128 139 0 128 139 0 127 139 0 127 139 0 127 139 0 127
139 0 0 139 0 0 139 0 0 139 0 0 139 0 0 139 0 0 139 0 0 139 0 125 139
0 125 139 0 125 139 0 124 139 0 124 139 0 124 139 0 124 139 0 124 139
0 123 139 0 123 139 0 123 139 0 123 139 0 123 139 0 122 139 0 122 139
0 122 139 0 122 139 0 0 139 0 0 139 0 0 139 0 0 139 0 0 139 0 0 139 0
0 139 0 0 139 0 0 139 0 0 139 0 0 139 0 0 139 0 0 139 0 0 139 0 0 139
0 0 139 0 0 138 0 0 138 0 118 138 0 0 138 0 0 138 0 0 138 0 0 138 0 0
138 0 0 138 0 0 138 0 0 138 0 0 138 0 0 138 0
0 120 0 0 121 0 0 121 0 0 121 0 0 121 0 0 121 0 0 121 0 0 121 0 0 121
0 0 122 0 0 122 0 0 122 0 0 122 0 0 122 0 0 122 0 0 122 0 0 123 0 174
123 0 173 123 0 173 123 0 173 123 0 173 123 0 173 123 0 172 123 0 172
124 0 172 124 0 172 124 0 171 124 0 171 124 0 171 124 0 171 124 0 170
125 0 170 125 0 0 125 0 170 125 0 169 125 0 169 125 0 169 125 0 169
125 0 168 126 0 168 126 0 168 126 0 167 126 0 167 126 0 167 126 0 167
126 0 166 126 0 166 127 0 166 127 0 166 127 0 165 127 0 165 127 0 0
127 0 0 127 0 0 127 0 0 128 0 0 128 0 0 128 0 0 128 0 0 128 0 0 128 0
0 128 0 0 128 0 0 129 0 0 129 0 0 129 0 0 129 0 0 129 0 0 129 0 160
129 0 160 129 0 160 129 0 160 130 0 159 130 0 159 130 0 159 130 0 158
130 0 0 130 0 0 130 0 0 130 0 0 131 0 0 131 0 0 131 0 0 131 0 0 131 0
0 131 0 0 131 0 156 131 0 155 131 0 155 132 0 155 132 0 154 132 0 154
132 0 154 132 0 154 132 0 153 132 0 153 132 0 153 132 0 153 133 0 152
133 0 152 133 0 152 133 0 151 133 0 151 133 0 0 133 0 0 133 0 0 133 0
0 133 0 0 134 0 0 134 0 0 134 0 0 134 0 0 134 0 0 134 0 0 134 0 0 134
0 0 134 0 0 134 0 0 134 0 0 135 0 0 135 0 146 135 0 0 135 0 0 135 0 0
135 0 0 135 0 0 135 0 0 135 0 0 135 0 0 135 0 0 136 0 0 136 0 0 136 0
0 136 0 0 136 0 0 136 0 0 136 0 0 136 0 0 136 0 0 136 0 142 136 0 141
136 0 141 137 0 141 137 0 141 137 0 140 137 0 140 137 0 140 137 0 140
137 0 139 137 0 139 137 0 139 137 0 139 137 0 138 137 0 138 137 0 138
137 0 138 137 0 0 138 0 0 138 0 0 138 0 0 138 0 0 138 0 0 138 0 0 138
0 0 138 0 136 138 0 135 138 0 135 138 0 135 138 0 135 138 0 134 138 0
134 138 0 134 138 0 134 138 0 133 138 0 0 138 0 0 139 0 0 139 0 0 139
0 0 139 0 0 139 0 0 139 0 0 139 0 0 139 0 0 139 0 0 139 0 0 139 0 0
139 0 0 139 0 0 139 0 0 139 0 0 139 0 129 139 0 129 139 0 129 139 0
129 139 0 128 139 0 128 139 0 128 139 0 128 139 0 128 139 0 127 139 0
127 139 0 127 139 0 127 139 0 127 139 0 126 139 0 126 139 0 126 139 0
0 139 0 125 139 0 125 139 0 125 139 0 125 139 0 125 139 0 124 139 0
124 139 0 124 139 0 124 139 0 124 139 0 123 139 0 123 139 0 123 139 0
123 139 0 123 139 0 122 139 0 122 139 0 122 139 0 0 139 0 0 139 0 0
139 0 0 139 0 0 139 0 0 139 0 0 139 0 0 139 0 0 139 0 0 139 0 0 139 0
0 139 0 0 139 0 0 139 0 0 139 0 0 139 0 0 139 0 119 139 0 118 139 0
118 139 0 118 139 0 118 139 0 118 139 0 117 139 0 117 139 0 0 139 0 0
139 0 0 139 0
0 121 0 0 121 0 0 121 0 0 121 0 0 122 0 0 122 0 0 122 0 0 122 0 0 122
0 0 122 0 0 122 0 0 122 0 0 123 0 0 123 0 0 123 0 175 123 0 174 123 0
174 123 0 174 123 0 174 123 0 174 124 0 173 124 0 173 124 0 173 124 0
173 124 0 172 124 0 172 124 0 172 125 0 172 125 0 171 125 0 171 125 0
171 125 0 0 125 0 0 125 0 0 125 0 0 126 0 0 126 0 0 126 0 169 126 0
169 126 0 169 126 0 168 126 0 168 126 0 168 127 0 167 127 0 167 127 0
167 127 0 167 127 0 166 127 0 166 127 0 0 127 0 0 128 0 0 128 0 0 128
0 0 128 0 0 128 0 0 128 0 0 128 0 0 128 0 0 129 0 0 129 0 0 129 0 0
129 0 0 129 0 0 129 0 0 129 0 0 129 0 0 130 0 161 130 0 161 130 0 161
130 0 160 130 0 160 130 0 160 130 0 159 130 0 159 131 0 159 131 0 159
131 0 158 131 0 158 131 0 158 131 0 158 131 0 0 131 0 0 131 0 0 132 0
0 132 0 156 132 0 156 132 0 156 132 0 155 132 0 155 132 0 155 132 0
155 132 0 154 133 0 154 133 0 154 133 0 154 133 0 153 133 0 153 133 0
153 133 0 152 133 0 152 133 0 152 134 0 0 134 0 0 134 0 0 134 0 0 134
0 0 134 0 0 134 0 0 134 0 0 134 0 0 134 0 0 135 0 0 135 0 0 135 0 0
135 0 0 135 0 0 135 0 0 135 0 0 135 0 0 135 0 147 135 0 147 135 0 146
136 0 146 136 0 146 136 0 0 136 0 0 136 0 0 136 0 0 136 0 0 136 0 0
136 0 0 136 0 0 136 0 0 136 0 0 137 0 0 137 0 0 137 0 0 137 0 142 137
0 142 137 0 142 137 0 142 137 0 141 137 0 141 137 0 141 137 0 141 137
0 140 137 0 140 138 0 140 138 0 140 138 0 139 138 0 139 138 0 139 138
0 139 138 0 138 138 0 138 138 0 0 138 0 0 138 0 0 138 0 0 138 0 0 138
0 0 138 0 0 138 0 0 139 0 0 139 0 0 139 0 0 139 0 0 139 0 0 139 0 0
139 0 135 139 0 134 139 0 134 139 0 0 139 0 0 139 0 0 139 0 0 139 0 0
139 0 0 139 0 0 139 0 0 139 0 0 139 0 0 139 0 0 139 0 0 140 0 0 140 0
0 140 0 0 140 0 0 140 0 0 140 0 0 140 0 130 140 0 130 140 0 129 140 0
129 140 0 129 140 0 129 140 0 128 140 0 128 140 0 128 140 0 128 140 0
128 140 0 127 140 0 127 140 0 127 140 0 127 140 0 127 140 0 126 140 0
126 140 0 0 140 0 0 140 0 0 140 0 0 140 0 0 140 0 125 140 0 125 140 0
124 140 0 124 140 0 124 140 0 124 140 0 124 140 0 123 140 0 123 140 0
123 140 0 123 140 0 123 140 0 122 140 0 0 140 0 0 140 0 0 140 0 0 140
0 0 140 0 0 140 0 0 140 0 0 140 0 0 140 0 0 140 0 0 140 0 0 140 0 0
140 0 0 140 0 0 140 0 0 140 0 0 140 0 119 140 0 119 140 0 119 140 0
118 140 0 118 140 0 118 140 0 118 140 0 118 140 0 117 140 0 117 140 0
117 139 0
0 122 0 0 122 0 0 122 0 0 122 0 0 122 0 0 122 0 0 122 0 0 122 0 0 123
0 0 123 0 0 123 0 0 123 0 0 123 0 176 123 0 176 123 0 175 124 0 175
124 0 175 124 0 175 124 0 174 124 0 174 124 0 174 124 0 174 124 0 173
125 0 173 125 0 173 125 0 173 125 0 172 125 0 172 125 0 172 125 0 172
125 0 0 126 0 0 126 0 0 126 0 0 126 0 0 126 0 0 126 0 0 126 0 0 127 0
0 127 0 0 127 0 0 127 0 168 127 0 168 127 0 168 127 0 168 127 0 167
128 0 167 128 0 0 128 0 0 128 0 0 128 0 0 128 0 0 128 0 0 128 0 0 129
0 0 129 0 0 129 0 0 129 0 0 129 0 0 129 0 0 129 0 0 129 0 0 130 0 0
130 0 0 130 0 0 130 0 162 130 0 162 130 0 162 130 0 161 130 0 161 130
0 161 131 0 160 131 0 160 131 0 160 131 0 160 131 0 159 131 0 159 131
0 159 131 0 159 132 0 158 132 0 158 132 0 158 132 0 157 132 0 0 132 0
0 132 0 0 132 0 156 132 0 156 133 0 156 133 0 156 133 0 155 133 0 155
133 0 155 133 0 155 133 0 154 133 0 154 133 0 154 134 0 153 134 0 153
134 0 153 134 0 153 134 0 0 134 0 0 134 0 0 134 0 0 134 0 0 134 0 0
135 0 0 135 0 0 135 0 0 135 0 0 135 0 0 135 0 0 135 0 0 135 0 0 135 0
0 135 0 0 136 0 0 136 0 0 136 0 148 136 0 147 136 0 147 136 0 147 136
0 147 136 0 146 136 0 146 136 0 146 136 0 146 137 0 145 137 0 145 137
0 145 137 0 0 137 0 0 137 0 0 137 0 0 137 0 0 137 0 0 137 0 143 137 0
143 137 0 142 138 0 142 138 0 142 138 0 142 138 0 141 138 0 141 138 0
141 138 0 141 138 0 140 138 0 140 138 0 140 138 0 140 138 0 140 138 0
139 138 0 139 139 0 139 139 0 0 139 0 0 139 0 0 139 0 0 139 0 0 139 0
0 139 0 0 139 0 0 139 0 0 139 0 0 139 0 0 139 0 0 139 0 0 139 0 0 139
0 0 139 0 0 140 0 0 140 0 0 140 0 134 140 0 134 140 0 134 140 0 0 140
0 0 140 0 0 140 0 0 140 0 0 140 0 0 140 0 0 140 0 0 140 0 0 140 0 0
140 0 0 140 0 0 140 0 0 140 0 0 140 0 0 140 0 130 140 0 130 140 0 130
140 0 130 140 0 129 140 0 129 140 0 129 141 0 129 141 0 128 141 0 128
141 0 128 141 0 128 141 0 128 141 0 127 141 0 127 141 0 127 141 0 127
141 0 127 141 0 0 141 0 0 141 0 0 141 0 0 141 0 0 141 0 0 141 0 0 141
0 0 141 0 0 141 0 0 141 0 0 141 0 124 141 0 124 141 0 124 141 0 123
141 0 123 141 0 123 141 0 123 141 0 0 141 0 0 141 0 0 141 0 0 141 0 0
141 0 0 141 0 0 141 0 0 141 0 0 141 0 0 141 0 0 141 0 0 141 0 0 141 0
0 141 0 0 141 0 0 141 0 0 140 0 0 140 0 119 140 0 119 140 0 119 140 0
119 140 0 118 140 0 118 140 0 118 140 0 118 140 0 118 140 0 117 140 0
179 122 0 0 122 0 0 122 0 0 122 0 0 123 0 0 123 0 0 123 0 0 123 0 0
123 0 0 123 0 0 123 0 177 124 0 177 124 0 176 124 0 176 124 0 176 124
0 176 124 0 175 124 0 175 124 0 175 125 0 175 125 0 174 125 0 174 125
0 174 125 0 174 125 0 173 125 0 173 125 0 173 126 0 173 126 0 0 126 0
0 126 0 0 126 0 0 126 0 0 126 0 0 127 0 0 127 0 0 127 0 0 127 0 0 127
0 0 127 0 0 127 0 0 127 0 0 128 0 0 128 0 0 128 0 0 128 0 0 128 0 0
128 0 0 128 0 0 128 0 0 129 0 0 129 0 0 129 0 0 129 0 0 129 0 0 129 0
0 129 0 0 129 0 0 130 0 0 130 0 0 130 0 0 130 0 0 130 0 0 130 0 0 130
0 163 130 0 163 131 0 162 131 0 162 131 0 162 131 0 161 131 0 161 131
0 161 131 0 161 131 0 160 132 0 160 132 0 160 132 0 160 132 0 159 132
0 159 132 0 159 132 0 158 132 0 158 132 0 0 133 0 0 133 0 0 133 0 0
133 0 0 133 0 0 133 0 0 133 0 0 133 0 0 133 0 155 134 0 155 134 0 155
134 0 155 134 0 154 134 0 154 134 0 154 134 0 154 134 0 153 134 0 0
135 0 0 135 0 0 135 0 0 135 0 0 135 0 0 135 0 0 135 0 0 135 0 0 135 0
0 135 0 0 136 0 0 136 0 0 136 0 0 136 0 0 136 0 0 136 0 0 136 0 0 136
0 148 136 0 148 136 0 148 136 0 147 137 0 147 137 0 147 137 0 147 137
0 146 137 0 146 137 0 146 137 0 146 137 0 145 137 0 145 137 0 145 137
0 145 138 0 144 138 0 144 138 0 144 138 0 144 138 0 143 138 0 143 138
0 143 138 0 143 138 0 142 138 0 142 138 0 142 138 0 142 138 0 141 139
0 141 139 0 141 139 0 141 139 0 140 139 0 140 139 0 140 139 0 140 139
0 139 139 0 0 139 0 0 139 0 0 139 0 0 139 0 0 139 0 0 140 0 0 140 0 0
140 0 0 140 0 0 140 0 0 140 0 0 140 0 0 140 0 0 140 0 0 140 0 0 140 0
0 140 0 0 140 0 0 140 0 135 140 0 134 140 0 134 140 0 134 140 0 134
140 0 134 140 0 133 141 0 133 141 0 0 141 0 0 141 0 0 141 0 0 141 0 0
141 0 0 141 0 0 141 0 0 141 0 0 141 0 0 141 0 131 141 0 130 141 0 130
141 0 130 141 0 130 141 0 130 141 0 129 141 0 129 141 0 129 141 0 129
141 0 128 141 0 128 141 0 128 141 0 128 141 0 128 141 0 127 141 0 127
141 0 127 141 0 0 141 0 0 141 0 0 141 0 0 141 0 0 141 0 0 141 0 0 141
0 0 141 0 0 141 0 0 141 0 0 141 0 0 141 0 0 141 0 0 141 0 0 141 0 0
141 0 0 141 0 0 141 0 0 141 0 0 141 0 0 141 0 0 141 0 0 141 0 0 141 0
0 141 0 0 141 0 0 141 0 0 141 0 0 141 0 0 141 0 0 141 0 0 141 0 0 141
0 0 141 0 0 141 0 0 141 0 120 141 0 119 141 0 119 141 0 119 141 0 119
141 0 119 141 0 118 141 0 118 141 0 118 141 0 118 141 0
180 123 0 180 123 0 179 123 0 179 123 0 179 123 0 0 123 0 0 123 0 0
124 0 0 124 0 178 124 0 178 124 0 177 124 0 177 124 0 177 124 0 177
124 0 176 125 0 176 125 0 176 125 0 176 125 0 175 125 0 175 125 0 175
125 0 175 125 0 174 126 0 174 126 0 174 126 0 174 126 0 0 126 0 0 126
0 0 126 0 0 127 0 0 127 0 0 127 0 0 127 0 0 127 0 0 127 0 0 127 0 0
127 0 0 128 0 0 128 0 0 128 0 0 128 0 0 128 0 0 128 0 0 128 0 169 128
0 168 129 0 168 129 0 168 129 0 168 129 0 167 129 0 0 129 0 0 129 0 0
129 0 0 130 0 0 130 0 0 130 0 0 130 0 0 130 0 0 130 0 0 130 0 0 130 0
0 131 0 0 131 0 163 131 0 163 131 0 163 131 0 163 131 0 162 131 0 162
131 0 162 132 0 162 132 0 161 132 0 161 132 0 161 132 0 160 132 0 160
132 0 160 132 0 160 133 0 159 133 0 159 133 0 159 133 0 0 133 0 0 133
0 0 133 0 0 133 0 0 133 0 0 134 0 0 134 0 0 134 0 0 134 0 0 134 0 0
134 0 0 134 0 0 134 0 0 134 0 0 135 0 155 135 0 154 135 0 154 135 0 0
135 0 0 135 0 0 135 0 0 135 0 0 135 0 0 135 0 0 136 0 0 136 0 0 136 0
0 136 0 0 136 0 0 136 0 0 136 0 0 136 0 0 136 0 0 136 0 0 137 0 0 137
0 149 137 0 149 137 0 148 137 0 148 137 0 148 137 0 148 137 0 147 137
0 147 137 0 147 138 0 147 138 0 146 138 0 146 138 0 146 138 0 146 138
0 145 138 0 145 138 0 145 138 0 145 138 0 144 138 0 0 138 0 0 139 0 0
139 0 0 139 0 0 139 0 0 139 0 143 139 0 142 139 0 142 139 0 142 139 0
142 139 0 141 139 0 141 139 0 141 139 0 141 139 0 140 140 0 140 140 0
140 140 0 0 140 0 0 140 0 0 140 0 0 140 0 0 140 0 0 140 0 0 140 0 0
140 0 0 140 0 0 140 0 0 140 0 0 140 0 0 140 0 0 141 0 0 141 0 0 141 0
0 141 0 0 141 0 135 141 0 135 141 0 135 141 0 135 141 0 134 141 0 134
141 0 134 141 0 134 141 0 133 141 0 133 141 0 133 141 0 133 141 0 133
141 0 132 141 0 132 141 0 0 141 0 0 141 0 0 142 0 131 142 0 131 142 0
131 142 0 131 142 0 130 142 0 130 142 0 130 142 0 130 142 0 129 142 0
129 142 0 129 142 0 129 142 0 129 142 0 128 142 0 128 142 0 128 142 0
128 142 0 128 142 0 127 142 0 0 142 0 0 142 0 0 142 0 0 142 0 0 142 0
0 142 0 0 142 0 0 142 0 0 142 0 0 142 0 0 142 0 0 142 0 0 142 0 0 142
0 0 142 0 0 142 0 0 142 0 0 142 0 123 142 0 123 142 0 123 142 0 123
142 0 123 142 0 122 142 0 0 142 0 0 142 0 0 142 0 0 142 0 0 142 0 0
142 0 0 142 0 0 142 0 0 142 0 0 142 0 0 142 0 0 142 0 120 142 0 120
142 0 120 142 0 119 142 0 119 142 0 119 142 0 119 142 0 119 142 0 118
142 0 118 141 0
180 123 0 180 123 0 180 123 0 180 123 0 179 124 0 179 124 0 179 124 0
0 124 0 0 124 0 0 124 0 178 124 0 178 125 0 178 125 0 177 125 0 177
125 0 177 125 0 177 125 0 176 125 0 176 125 0 176 126 0 176 126 0 175
126 0 175 126 0 175 126 0 175 126 0 0 126 0 0 127 0 0 127 0 0 127 0 0
127 0 0 127 0 0 127 0 0 127 0 0 127 0 0 128 0 0 128 0 0 128 0 0 128 0
0 128 0 0 128 0 0 128 0 0 129 0 0 129 0 0 129 0 169 129 0 169 129 0
169 129 0 169 129 0 168 129 0 168 130 0 168 130 0 167 130 0 167 130 0
167 130 0 167 130 0 166 130 0 0 130 0 0 131 0 0 131 0 0 131 0 0 131 0
0 131 0 164 131 0 164 131 0 164 131 0 164 132 0 163 132 0 163 132 0
163 132 0 163 132 0 162 132 0 162 132 0 162 132 0 161 132 0 161 133 0
161 133 0 161 133 0 160 133 0 160 133 0 160 133 0 160 133 0 0 133 0 0
134 0 0 134 0 0 134 0 0 134 0 0 134 0 0 134 0 0 134 0 0 134 0 0 134 0
0 135 0 0 135 0 0 135 0 0 135 0 0 135 0 0 135 0 0 135 0 0 135 0 154
135 0 154 136 0 154 136 0 0 136 0 0 136 0 0 136 0 0 136 0 0 136 0 0
136 0 0 136 0 0 136 0 0 137 0 0 137 0 0 137 0 0 137 0 0 137 0 0 137 0
0 137 0 150 137 0 149 137 0 149 137 0 149 138 0 149 138 0 148 138 0
148 138 0 148 138 0 148 138 0 147 138 0 147 138 0 147 138 0 146 138 0
146 138 0 146 139 0 146 139 0 145 139 0 145 139 0 145 139 0 0 139 0 0
139 0 0 139 0 0 139 0 0 139 0 0 139 0 0 139 0 0 139 0 0 140 0 0 140 0
0 140 0 0 140 0 142 140 0 141 140 0 141 140 0 141 140 0 141 140 0 140
140 0 0 140 0 0 140 0 0 140 0 0 140 0 0 141 0 0 141 0 0 141 0 0 141 0
0 141 0 0 141 0 0 141 0 0 141 0 0 141 0 0 141 0 0 141 0 0 141 0 0 141
0 0 141 0 0 141 0 136 141 0 135 141 0 135 141 0 135 142 0 135 142 0
135 142 0 134 142 0 134 142 0 134 142 0 134 142 0 133 142 0 133 142 0
133 142 0 133 142 0 133 142 0 132 142 0 132 142 0 132 142 0 0 142 0 0
142 0 0 142 0 131 142 0 131 142 0 131 142 0 130 142 0 130 142 0 130
142 0 130 142 0 129 142 0 129 142 0 129 142 0 129 142 0 129 143 0 128
143 0 128 143 0 128 143 0 128 143 0 0 143 0 0 143 0 0 143 0 0 143 0 0
143 0 0 143 0 0 143 0 0 143 0 0 143 0 0 143 0 0 143 0 0 143 0 0 143 0
0 143 0 0 143 0 0 143 0 0 143 0 0 143 0 124 143 0 124 143 0 123 143 0
123 143 0 123 143 0 123 143 0 123 143 0 122 143 0 122 143 0 122 143 0
122 143 0 122 143 0 0 143 0 0 143 0 0 142 0 0 142 0 0 142 0 0 142 0 0
142 0 120 142 0 120 142 0 120 142 0 120 142 0 119 142 0 119 142 0 119
142 0 119 142 0 119 142 0
181 124 0 181 124 0 180 124 0 180 124 0 180 124 0 0 124 0 0 124 0 0
125 0 0 125 0 0 125 0 0 125 0 0 125 0 0 125 0 0 125 0 178 125 0 177
126 0 177 126 0 177 126 0 177 126 0 176 126 0 176 126 0 176 126 0 176
127 0 0 127 0 0 127 0 0 127 0 0 127 0 0 127 0 0 127 0 0 127 0 0 128 0
0 128 0 0 128 0 0 128 0 0 128 0 0 128 0 0 128 0 0 129 0 0 129 0 0 129
0 0 129 0 0 129 0 170 129 0 170 129 0 170 129 0 169 130 0 169 130 0
169 130 0 169 130 0 168 130 0 168 130 0 168 130 0 168 130 0 167 131 0
167 131 0 167 131 0 166 131 0 166 131 0 166 131 0 166 131 0 0 131 0
165 132 0 165 132 0 165 132 0 164 132 0 164 132 0 164 132 0 163 132 0
163 132 0 163 133 0 163 133 0 162 133 0 162 133 0 162 133 0 162 133 0
161 133 0 161 133 0 161 133 0 160 134 0 0 134 0 0 134 0 0 134 0 0 134
0 0 134 0 0 134 0 0 134 0 0 135 0 0 135 0 0 135 0 0 135 0 0 135 0 0
135 0 0 135 0 0 135 0 0 135 0 0 136 0 0 136 0 0 136 0 155 136 0 155
136 0 154 136 0 154 136 0 154 136 0 154 136 0 153 136 0 153 137 0 153
137 0 0 137 0 0 137 0 0 137 0 0 137 0 0 137 0 0 137 0 0 137 0 0 137 0
0 138 0 150 138 0 150 138 0 150 138 0 149 138 0 149 138 0 149 138 0
149 138 0 148 138 0 148 138 0 148 139 0 148 139 0 147 139 0 147 139 0
147 139 0 147 139 0 146 139 0 146 139 0 146 139 0 146 139 0 0 139 0 0
139 0 0 140 0 0 140 0 0 140 0 0 140 0 0 140 0 0 140 0 0 140 0 0 140 0
0 140 0 0 140 0 0 140 0 0 140 0 0 140 0 0 141 0 0 141 0 0 141 0 141
141 0 0 141 0 0 141 0 0 141 0 0 141 0 0 141 0 0 141 0 0 141 0 0 141 0
0 141 0 0 141 0 0 141 0 0 142 0 0 142 0 0 142 0 0 142 0 0 142 0 0 142
0 0 142 0 136 142 0 136 142 0 136 142 0 136 142 0 135 142 0 135 142 0
135 142 0 135 142 0 134 142 0 134 142 0 134 142 0 134 142 0 134 142 0
133 143 0 133 143 0 133 143 0 133 143 0 132 143 0 132 143 0 0 143 0 0
143 0 0 143 0 0 143 0 0 143 0 0 143 0 0 143 0 0 143 0 0 143 0 130 143
0 130 143 0 130 143 0 129 143 0 129 143 0 129 143 0 129 143 0 129 143
0 128 143 0 128 143 0 0 143 0 0 143 0 0 143 0 0 143 0 0 143 0 0 143 0
0 143 0 0 143 0 0 143 0 0 143 0 0 143 0 0 143 0 0 143 0 0 143 0 0 143
0 0 143 0 0 143 0 0 143 0 124 143 0 124 143 0 124 143 0 124 143 0 123
143 0 123 143 0 123 143 0 123 143 0 123 143 0 122 143 0 122 143 0 122
143 0 122 143 0 122 143 0 122 143 0 121 143 0 121 143 0 121 143 0 0
143 0 121 143 0 120 143 0 120 143 0 120 143 0 120 143 0 120 143 0 119
143 0 119 143 0 119 143 0
181 124 0 181 124 0 181 124 0 0 125 0 0 125 0 0 125 0 0 125 0 0 125 0
0 125 0 0 125 0 0 125 0 0 126 0 0 126 0 0 126 0 0 126 0 0 126 0 0 126
0 0 126 0 177 127 0 177 127 0 177 127 0 176 127 0 0 127 0 0 127 0 0
127 0 0 127 0 0 128 0 0 128 0 0 128 0 0 128 0 0 128 0 0 128 0 0 128 0
0 129 0 0 129 0 0 129 0 0 129 0 0 129 0 0 129 0 0 129 0 171 129 0 171
130 0 171 130 0 170 130 0 170 130 0 170 130 0 170 130 0 169 130 0 169
130 0 169 131 0 169 131 0 168 131 0 168 131 0 168 131 0 167 131 0 167
131 0 167 131 0 167 132 0 166 132 0 0 132 0 0 132 0 0 132 0 0 132 0 0
132 0 0 132 0 164 133 0 164 133 0 164 133 0 164 133 0 163 133 0 163
133 0 163 133 0 163 133 0 162 134 0 162 134 0 162 134 0 161 134 0 161
134 0 0 134 0 0 134 0 0 134 0 0 134 0 0 135 0 0 135 0 0 135 0 0 135 0
0 135 0 0 135 0 0 135 0 0 135 0 0 136 0 0 136 0 0 136 0 0 136 0 0 136
0 0 136 0 0 136 0 156 136 0 155 136 0 155 136 0 155 137 0 155 137 0
154 137 0 154 137 0 154 137 0 154 137 0 153 137 0 153 137 0 153 137 0
152 138 0 152 138 0 152 138 0 0 138 0 0 138 0 0 138 0 0 138 0 151 138
0 150 138 0 150 138 0 150 139 0 150 139 0 149 139 0 149 139 0 149 139
0 149 139 0 148 139 0 148 139 0 148 139 0 147 139 0 147 139 0 147 140
0 147 140 0 146 140 0 146 140 0 0 140 0 0 140 0 0 140 0 0 140 0 0 140
0 0 140 0 0 140 0 0 140 0 0 141 0 0 141 0 0 141 0 0 141 0 0 141 0 0
141 0 0 141 0 0 141 0 0 141 0 0 141 0 0 141 0 141 141 0 141 141 0 141
141 0 140 142 0 140 142 0 140 142 0 0 142 0 0 142 0 0 142 0 0 142 0 0
142 0 0 142 0 0 142 0 0 142 0 0 142 0 0 142 0 0 142 0 0 142 0 0 142 0
137 142 0 136 143 0 136 143 0 136 143 0 136 143 0 136 143 0 135 143 0
135 143 0 135 143 0 135 143 0 134 143 0 134 143 0 134 143 0 134 143 0
134 143 0 133 143 0 133 143 0 133 143 0 133 143 0 0 143 0 0 143 0 0
143 0 0 143 0 0 143 0 0 143 0 0 144 0 0 144 0 0 144 0 0 144 0 0 144 0
0 144 0 0 144 0 0 144 0 0 144 0 129 144 0 129 144 0 129 144 0 129 144
0 0 144 0 0 144 0 0 144 0 0 144 0 0 144 0 0 144 0 0 144 0 0 144 0 0
144 0 0 144 0 0 144 0 0 144 0 0 144 0 0 144 0 0 144 0 0 144 0 0 144 0
0 144 0 125 144 0 124 144 0 124 144 0 124 144 0 124 144 0 124 144 0
123 144 0 123 144 0 123 144 0 123 144 0 123 144 0 122 144 0 122 144 0
122 144 0 122 144 0 122 144 0 122 144 0 121 144 0 121 144 0 0 144 0 0
144 0 0 144 0 0 144 0 0 144 0 0 144 0 120 143 0 120 143 0 119 143 0
182 125 0 0 125 0 0 125 0 0 125 0 0 125 0 0 125 0 0 125 0 0 126 0 0
126 0 0 126 0 0 126 0 0 126 0 0 126 0 0 126 0 0 127 0 0 127 0 0 127 0
0 127 0 0 127 0 0 127 0 177 127 0 177 127 0 0 128 0 0 128 0 0 128 0 0
128 0 0 128 0 0 128 0 0 128 0 0 129 0 0 129 0 0 129 0 0 129 0 0 129 0
0 129 0 0 129 0 0 129 0 0 130 0 0 130 0 172 130 0 172 130 0 171 130 0
171 130 0 171 130 0 171 130 0 170 131 0 170 131 0 170 131 0 169 131 0
169 131 0 169 131 0 169 131 0 168 131 0 168 132 0 168 132 0 168 132 0
167 132 0 167 132 0 0 132 0 0 132 0 0 132 0 0 133 0 0 133 0 0 133 0 0
133 0 0 133 0 0 133 0 0 133 0 0 133 0 164 134 0 163 134 0 163 134 0
163 134 0 163 134 0 162 134 0 162 134 0 162 134 0 0 135 0 0 135 0 0
135 0 0 135 0 0 135 0 0 135 0 0 135 0 0 135 0 0 135 0 0 136 0 0 136 0
0 136 0 0 136 0 0 136 0 0 136 0 0 136 0 0 136 0 0 136 0 0 137 0 156
137 0 156 137 0 156 137 0 156 137 0 155 137 0 155 137 0 155 137 0 154
137 0 154 138 0 154 138 0 154 138 0 153 138 0 153 138 0 153 138 0 153
138 0 152 138 0 152 138 0 152 138 0 152 139 0 0 139 0 0 139 0 151 139
0 150 139 0 150 139 0 150 139 0 150 139 0 149 139 0 149 139 0 149 140
0 149 140 0 148 140 0 148 140 0 148 140 0 148 140 0 147 140 0 147 140
0 147 140 0 147 140 0 0 140 0 0 140 0 0 141 0 0 141 0 0 141 0 0 141 0
0 141 0 0 141 0 0 141 0 0 141 0 0 141 0 0 141 0 0 141 0 0 141 0 0 142
0 0 142 0 0 142 0 0 142 0 0 142 0 142 142 0 141 142 0 141 142 0 141
142 0 141 142 0 140 142 0 140 142 0 140 142 0 140 142 0 139 142 0 139
143 0 0 143 0 0 143 0 0 143 0 0 143 0 0 143 0 0 143 0 0 143 0 0 143 0
137 143 0 137 143 0 137 143 0 136 143 0 136 143 0 136 143 0 136 143 0
135 143 0 135 143 0 135 144 0 135 144 0 135 144 0 134 144 0 134 144 0
134 144 0 134 144 0 133 144 0 133 144 0 133 144 0 0 144 0 0 144 0 0
144 0 0 144 0 0 144 0 0 144 0 0 144 0 0 144 0 0 144 0 0 144 0 0 144 0
0 144 0 0 144 0 0 144 0 0 144 0 0 144 0 0 144 0 0 144 0 129 144 0 129
144 0 128 144 0 0 144 0 0 144 0 0 144 0 0 144 0 0 144 0 0 144 0 0 144
0 0 144 0 0 145 0 0 145 0 0 145 0 0 145 0 0 145 0 0 145 0 0 145 0 0
145 0 125 145 0 125 145 0 125 145 0 124 145 0 124 144 0 124 144 0 124
144 0 124 144 0 123 144 0 123 144 0 123 144 0 123 144 0 123 144 0 122
144 0 122 144 0 122 144 0 122 144 0 122 144 0 122 144 0 0 144 0 0 144
0 0 144 0 0 144 0 0 144 0 0 144 0 0 144 0 0 144 0 0 144 0
0 125 0 0 125 0 0 125 0 0 126 0 0 126 0 0 126 0 0 126 0 0 126 0 0 126
0 0 126 0 0 126 0 0 127 0 0 127 0 0 127 0 0 127 0 0 127 0 0 127 0 0
127 0 178 128 0 178 128 0 177 128 0 177 128 0 177 128 0 177 128 0 176
128 0 176 128 0 0 129 0 0 129 0 0 129 0 0 129 0 0 129 0 0 129 0 0 129
0 0 130 0 0 130 0 0 130 0 0 130 0 173 130 0 173 130 0 172 130 0 172
130 0 172 131 0 172 131 0 171 131 0 171 131 0 171 131 0 170 131 0 170
131 0 170 131 0 170 132 0 169 132 0 169 132 0 169 132 0 168 132 0 168
132 0 168 132 0 0 132 0 0 133 0 0 133 0 0 133 0 0 133 0 0 133 0 0 133
0 0 133 0 0 133 0 0 134 0 0 134 0 0 134 0 0 134 0 0 134 0 0 134 0 0
134 0 0 134 0 0 135 0 163 135 0 0 135 0 0 135 0 0 135 0 0 135 0 0 135
0 0 135 0 0 136 0 0 136 0 0 136 0 0 136 0 0 136 0 0 136 0 0 136 0 0
136 0 0 136 0 0 137 0 0 137 0 0 137 0 0 137 0 0 137 0 157 137 0 157
137 0 156 137 0 156 137 0 156 138 0 156 138 0 155 138 0 155 138 0 155
138 0 155 138 0 154 138 0 154 138 0 154 138 0 153 138 0 153 139 0 153
139 0 153 139 0 152 139 0 152 139 0 0 139 0 0 139 0 0 139 0 0 139 0 0
139 0 0 140 0 0 140 0 0 140 0 150 140 0 150 140 0 149 140 0 149 140 0
149 140 0 148 140 0 148 140 0 148 141 0 148 141 0 147 141 0 147 141 0
0 141 0 0 141 0 0 141 0 0 141 0 0 141 0 0 141 0 0 141 0 0 141 0 0 142
0 0 142 0 0 142 0 0 142 0 0 142 0 0 142 0 0 142 0 0 142 0 0 142 0 0
142 0 0 142 0 142 142 0 142 142 0 142 143 0 141 143 0 141 143 0 141
143 0 141 143 0 141 143 0 140 143 0 140 143 0 140 143 0 140 143 0 139
143 0 139 143 0 139 143 0 139 143 0 138 143 0 0 143 0 0 144 0 138 144
0 137 144 0 137 144 0 137 144 0 137 144 0 137 144 0 136 144 0 136 144
0 136 144 0 136 144 0 135 144 0 135 144 0 135 144 0 135 144 0 134 144
0 134 144 0 134 144 0 134 144 0 134 144 0 0 144 0 0 144 0 0 145 0 0
145 0 0 145 0 0 145 0 0 145 0 0 145 0 0 145 0 0 145 0 0 145 0 0 145 0
0 145 0 0 145 0 0 145 0 0 145 0 0 145 0 0 145 0 0 145 0 129 145 0 129
145 0 129 145 0 129 145 0 128 145 0 128 145 0 128 145 0 128 145 0 0
145 0 0 145 0 0 145 0 0 145 0 0 145 0 0 145 0 0 145 0 0 145 0 0 145 0
0 145 0 0 145 0 0 145 0 125 145 0 125 145 0 125 145 0 125 145 0 124
145 0 124 145 0 124 145 0 124 145 0 124 145 0 123 145 0 123 145 0 123
145 0 123 145 0 123 145 0 122 145 0 122 145 0 122 145 0 122 145 0 122
145 0 0 145 0 0 145 0 0 145 0 0 145 0 0 145 0 0 145 0 0 145 0 0 145 0
0 126 0 0 126 0 0 126 0 0 126 0 0 126 0 0 126 0 0 126 0 0 127 0 0 127
0 0 127 0 0 127 0 0 127 0 0 127 0 0 127 0 0 128 0 0 128 0 179 128 0
179 128 0 178 128 0 178 128 0 178 128 0 178 128 0 177 129 0 177 129 0
177 129 0 176 129 0 176 129 0 176 129 0 176 129 0 175 130 0 0 130 0 0
130 0 0 130 0 0 130 0 0 130 0 0 130 0 174 130 0 173 131 0 173 131 0
173 131 0 172 131 0 172 131 0 172 131 0 172 131 0 171 131 0 171 132 0
171 132 0 171 132 0 170 132 0 170 132 0 170 132 0 169 132 0 169 132 0
169 133 0 169 133 0 0 133 0 0 133 0 0 133 0 0 133 0 0 133 0 0 133 0 0
134 0 0 134 0 0 134 0 0 134 0 0 134 0 0 134 0 0 134 0 0 134 0 0 135 0
0 135 0 0 135 0 0 135 0 0 135 0 163 135 0 163 135 0 163 135 0 162 136
0 0 136 0 0 136 0 0 136 0 0 136 0 0 136 0 0 136 0 0 136 0 0 136 0 0
137 0 0 137 0 0 137 0 0 137 0 0 137 0 0 137 0 0 137 0 158 137 0 158
138 0 157 138 0 157 138 0 157 138 0 156 138 0 156 138 0 156 138 0 156
138 0 155 138 0 155 138 0 155 139 0 155 139 0 154 139 0 154 139 0 154
139 0 154 139 0 153 139 0 153 139 0 153 139 0 0 140 0 0 140 0 0 140 0
0 140 0 0 140 0 0 140 0 0 140 0 0 140 0 0 140 0 0 140 0 0 140 0 0 141
0 0 141 0 0 141 0 149 141 0 149 141 0 148 141 0 148 141 0 148 141 0 0
141 0 0 141 0 0 141 0 0 142 0 0 142 0 0 142 0 0 142 0 0 142 0 0 142 0
0 142 0 0 142 0 0 142 0 0 142 0 0 142 0 0 142 0 0 143 0 0 143 0 0 143
0 0 143 0 143 143 0 143 143 0 142 143 0 142 143 0 142 143 0 142 143 0
141 143 0 141 143 0 141 143 0 141 143 0 140 144 0 140 144 0 140 144 0
140 144 0 139 144 0 139 144 0 139 144 0 139 144 0 138 144 0 138 144 0
0 144 0 0 144 0 0 144 0 0 144 0 137 144 0 137 144 0 137 144 0 136 144
0 136 145 0 136 145 0 136 145 0 136 145 0 135 145 0 135 145 0 135 145
0 135 145 0 134 145 0 134 145 0 134 145 0 0 145 0 0 145 0 0 145 0 0
145 0 0 145 0 0 145 0 0 145 0 0 145 0 0 145 0 0 145 0 0 145 0 0 145 0
0 145 0 0 145 0 0 145 0 0 145 0 0 145 0 0 146 0 0 146 0 130 146 0 129
146 0 129 146 0 129 146 0 129 146 0 129 146 0 128 146 0 128 146 0 128
146 0 128 146 0 128 146 0 127 146 0 127 146 0 127 146 0 0 146 0 0 146
0 0 146 0 0 146 0 0 146 0 0 146 0 126 146 0 125 146 0 125 146 0 125
146 0 125 146 0 125 146 0 124 146 0 124 146 0 124 146 0 124 146 0 124
146 0 123 146 0 123 146 0 123 146 0 123 146 0 123 146 0 122 146 0 122
146 0 122 146 0 0 145 0 0 145 0 0 145 0 0 145 0 0 145 0 0 145 0 0 145
0 0 145 0
0 126 0 0 126 0 0 126 0 0 127 0 0 127 0 0 127 0 0 127 0 0 127 0 0 127
0 0 127 0 0 127 0 0 128 0 0 128 0 0 128 0 180 128 0 179 128 0 179 128
0 179 128 0 179 129 0 178 129 0 178 129 0 178 129 0 178 129 0 177 129
0 177 129 0 177 129 0 177 130 0 176 130 0 176 130 0 176 130 0 176 130
0 175 130 0 175 130 0 175 131 0 174 131 0 174 131 0 174 131 0 174 131
0 173 131 0 173 131 0 173 131 0 173 132 0 172 132 0 172 132 0 172 132
0 171 132 0 171 132 0 171 132 0 171 132 0 170 133 0 170 133 0 170 133
0 169 133 0 0 133 0 0 133 0 0 133 0 0 133 0 0 134 0 0 134 0 0 134 0 0
134 0 0 134 0 0 134 0 0 134 0 0 134 0 0 135 0 0 135 0 0 135 0 0 135 0
0 135 0 0 135 0 0 135 0 0 135 0 164 136 0 163 136 0 163 136 0 163 136
0 163 136 0 162 136 0 162 136 0 162 136 0 161 137 0 161 137 0 0 137 0
0 137 0 0 137 0 0 137 0 0 137 0 0 137 0 0 137 0 0 138 0 0 138 0 158
138 0 158 138 0 158 138 0 158 138 0 157 138 0 157 138 0 157 138 0 157
139 0 156 139 0 156 139 0 156 139 0 155 139 0 155 139 0 155 139 0 155
139 0 154 139 0 154 140 0 154 140 0 154 140 0 153 140 0 0 140 0 0 140
0 0 140 0 0 140 0 0 140 0 0 140 0 0 141 0 0 141 0 0 141 0 0 141 0 0
141 0 0 141 0 0 141 0 0 141 0 0 141 0 0 141 0 0 141 0 0 142 0 0 142 0
148 142 0 0 142 0 0 142 0 0 142 0 0 142 0 0 142 0 0 142 0 0 142 0 0
142 0 0 143 0 0 143 0 0 143 0 0 143 0 0 143 0 0 143 0 0 143 0 0 143 0
0 143 0 0 143 0 0 143 0 143 143 0 143 143 0 143 144 0 142 144 0 142
144 0 142 144 0 142 144 0 141 144 0 141 144 0 141 144 0 141 144 0 140
144 0 140 144 0 140 144 0 140 144 0 140 144 0 139 144 0 139 144 0 139
145 0 0 145 0 0 145 0 0 145 0 0 145 0 0 145 0 0 145 0 0 145 0 0 145 0
0 145 0 0 145 0 136 145 0 136 145 0 136 145 0 136 145 0 135 145 0 135
145 0 135 145 0 135 145 0 135 145 0 134 146 0 0 146 0 0 146 0 0 146 0
0 146 0 0 146 0 0 146 0 0 146 0 0 146 0 0 146 0 0 146 0 0 146 0 0 146
0 0 146 0 0 146 0 0 146 0 0 146 0 0 146 0 0 146 0 0 146 0 130 146 0
130 146 0 130 146 0 129 146 0 129 146 0 129 146 0 129 146 0 129 146 0
128 146 0 128 146 0 128 146 0 128 146 0 128 146 0 127 146 0 127 146 0
127 146 0 127 146 0 127 146 0 126 146 0 126 146 0 126 146 0 126 146 0
126 146 0 125 146 0 125 146 0 125 146 0 125 146 0 125 146 0 124 146 0
124 146 0 124 146 0 124 146 0 124 146 0 123 146 0 123 146 0 123 146 0
123 146 0 123 146 0 122 146 0 0 146 0 0 146 0 0 146 0 0 146 0 0 146 0
0 146 0 0 146 0 0 146 0
0 127 0 0 127 0 0 127 0 0 127 0 0 127 0 0 127 0 0 127 0 0 128 0 0 128
0 0 128 0 0 128 0 0 128 0 0 128 0 180 128 0 180 129 0 180 129 0 180
129 0 179 129 0 179 129 0 179 129 0 179 129 0 178 129 0 178 130 0 178
130 0 178 130 0 177 130 0 177 130 0 177 130 0 176 130 0 176 131 0 176
131 0 176 131 0 0 131 0 0 131 0 0 131 0 0 131 0 0 131 0 0 132 0 174
132 0 173 132 0 173 132 0 173 132 0 173 132 0 172 132 0 172 132 0 172
133 0 172 133 0 171 133 0 171 133 0 171 133 0 170 133 0 170 133 0 0
133 0 0 134 0 0 134 0 0 134 0 0 134 0 0 134 0 0 134 0 0 134 0 0 134 0
0 135 0 0 135 0 0 135 0 0 135 0 0 135 0 0 135 0 0 135 0 0 135 0 0 136
0 0 136 0 0 136 0 164 136 0 164 136 0 164 136 0 163 136 0 163 136 0
163 137 0 163 137 0 162 137 0 162 137 0 162 137 0 162 137 0 161 137 0
161 137 0 161 138 0 160 138 0 0 138 0 0 138 0 0 138 0 0 138 0 159 138
0 159 138 0 159 138 0 158 139 0 158 139 0 158 139 0 157 139 0 157 139
0 157 139 0 157 139 0 156 139 0 156 139 0 156 140 0 156 140 0 155 140
0 155 140 0 155 140 0 154 140 0 154 140 0 154 140 0 0 140 0 0 140 0 0
141 0 0 141 0 0 141 0 0 141 0 0 141 0 0 141 0 0 141 0 0 141 0 0 141 0
0 141 0 0 142 0 0 142 0 0 142 0 0 142 0 0 142 0 0 142 0 0 142 0 0 142
0 148 142 0 148 142 0 148 142 0 148 143 0 147 143 0 0 143 0 0 143 0 0
143 0 0 143 0 0 143 0 0 143 0 0 143 0 0 143 0 0 143 0 0 143 0 0 144 0
0 144 0 0 144 0 0 144 0 144 144 0 143 144 0 143 144 0 143 144 0 143
144 0 143 144 0 142 144 0 142 144 0 142 144 0 142 144 0 141 145 0 141
145 0 141 145 0 141 145 0 140 145 0 140 145 0 140 145 0 140 145 0 139
145 0 139 145 0 0 145 0 0 145 0 0 145 0 0 145 0 0 145 0 0 145 0 0 145
0 0 146 0 0 146 0 0 146 0 0 146 0 0 146 0 0 146 0 0 146 0 0 146 0 0
146 0 135 146 0 135 146 0 135 146 0 135 146 0 0 146 0 0 146 0 0 146 0
0 146 0 0 146 0 0 146 0 0 146 0 0 146 0 0 146 0 0 146 0 0 146 0 0 146
0 0 147 0 0 147 0 0 147 0 0 147 0 0 147 0 0 147 0 0 147 0 130 147 0
130 147 0 130 147 0 130 147 0 130 147 0 129 147 0 129 147 0 129 147 0
129 147 0 128 147 0 128 147 0 128 147 0 128 147 0 128 147 0 127 147 0
127 147 0 127 147 0 127 147 0 127 147 0 126 147 0 0 147 0 0 147 0 0
147 0 0 147 0 0 147 0 0 147 0 125 147 0 125 147 0 125 147 0 125 147 0
124 147 0 124 147 0 124 147 0 124 147 0 124 147 0 123 147 0 123 147 0
123 147 0 123 147 0 123 147 0 0 147 0 0 147 0 0 147 0 0 147 0 0 147 0
0 147 0 0 147 0
0 127 0 0 127 0 0 127 0 0 128 0 0 128 0 0 128 0 0 128 0 0 128 0 0 128
0 0 128 0 0 128 0 181 129 0 181 129 0 181 129 0 181 129 0 180 129 0
180 129 0 180 129 0 179 130 0 179 130 0 179 130 0 179 130 0 178 130 0
178 130 0 178 130 0 178 130 0 177 131 0 177 131 0 177 131 0 177 131 0
176 131 0 0 131 0 0 131 0 0 132 0 0 132 0 0 132 0 0 132 0 0 132 0 0
132 0 0 132 0 0 132 0 0 133 0 173 133 0 173 133 0 172 133 0 172 133 0
172 133 0 172 133 0 171 133 0 171 134 0 0 134 0 0 134 0 0 134 0 0 134
0 0 134 0 0 134 0 0 134 0 0 135 0 0 135 0 0 135 0 0 135 0 0 135 0 0
135 0 0 135 0 0 135 0 0 136 0 0 136 0 0 136 0 0 136 0 0 136 0 165 136
0 165 136 0 165 136 0 164 137 0 164 137 0 164 137 0 164 137 0 163 137
0 163 137 0 163 137 0 162 137 0 162 138 0 162 138 0 162 138 0 161 138
0 161 138 0 161 138 0 160 138 0 160 138 0 160 138 0 0 139 0 0 139 0
159 139 0 159 139 0 159 139 0 158 139 0 158 139 0 158 139 0 157 139 0
157 140 0 157 140 0 157 140 0 156 140 0 156 140 0 156 140 0 156 140 0
155 140 0 155 140 0 155 141 0 155 141 0 0 141 0 0 141 0 0 141 0 0 141
0 0 141 0 0 141 0 0 141 0 0 141 0 0 142 0 0 142 0 0 142 0 0 142 0 0
142 0 0 142 0 0 142 0 0 142 0 0 142 0 0 142 0 0 142 0 0 143 0 149 143
0 149 143 0 149 143 0 148 143 0 148 143 0 148 143 0 148 143 0 147 143
0 147 143 0 147 143 0 147 144 0 0 144 0 0 144 0 0 144 0 0 144 0 0 144
0 0 144 0 0 144 0 0 144 0 0 144 0 144 144 0 144 144 0 144 144 0 143
145 0 143 145 0 143 145 0 143 145 0 142 145 0 142 145 0 142 145 0 142
145 0 141 145 0 141 145 0 141 145 0 141 145 0 140 145 0 140 145 0 140
145 0 140 146 0 0 146 0 0 146 0 0 146 0 0 146 0 0 146 0 0 146 0 0 146
0 0 146 0 0 146 0 0 146 0 0 146 0 0 146 0 0 146 0 0 146 0 0 146 0 0
146 0 0 146 0 0 146 0 0 147 0 0 147 0 135 147 0 135 147 0 0 147 0 0
147 0 0 147 0 0 147 0 0 147 0 0 147 0 0 147 0 0 147 0 0 147 0 0 147 0
0 147 0 0 147 0 0 147 0 0 147 0 0 147 0 0 147 0 0 147 0 0 147 0 131
147 0 130 147 0 130 147 0 130 147 0 130 147 0 130 147 0 129 147 0 129
147 0 129 147 0 129 147 0 129 147 0 128 147 0 128 147 0 128 147 0 128
147 0 128 147 0 127 147 0 127 147 0 127 147 0 127 147 0 0 147 0 0 147
0 0 147 0 0 147 0 0 147 0 0 147 0 0 147 0 0 147 0 0 147 0 0 147 0 0
147 0 0 147 0 124 147 0 124 147 0 124 147 0 124 147 0 124 147 0 123
147 0 123 147 0 123 147 0 0 147 0 0 147 0 0 147 0 0 147 0 0 147 0 0
147 0 0 147 0
0 128 0 0 128 0 0 128 0 0 128 0 0 128 0 0 128 0 0 128 0 0 129 0 0 129
0 182 129 0 182 129 0 182 129 0 181 129 0 181 129 0 181 129 0 181 130
0 180 130 0 180 130 0 180 130 0 180 130 0 179 130 0 179 130 0 179 131
0 178 131 0 178 131 0 178 131 0 178 131 0 177 131 0 177 131 0 0 131 0
0 132 0 0 132 0 0 132 0 0 132 0 0 132 0 0 132 0 0 132 0 0 133 0 0 133
0 0 133 0 0 133 0 0 133 0 0 133 0 0 133 0 0 133 0 0 134 0 172 134 0
172 134 0 172 134 0 0 134 0 0 134 0 0 134 0 0 134 0 0 135 0 0 135 0 0
135 0 0 135 0 0 135 0 0 135 0 0 135 0 0 135 0 0 136 0 0 136 0 0 136 0
0 136 0 0 136 0 0 136 0 0 136 0 0 136 0 166 137 0 165 137 0 165 137 0
165 137 0 165 137 0 164 137 0 164 137 0 164 137 0 164 138 0 163 138 0
163 138 0 163 138 0 162 138 0 162 138 0 162 138 0 162 138 0 161 138 0
161 139 0 161 139 0 161 139 0 0 139 0 0 139 0 0 139 0 0 139 0 0 139 0
0 140 0 0 140 0 158 140 0 158 140 0 158 140 0 158 140 0 157 140 0 157
140 0 157 140 0 156 141 0 156 141 0 156 141 0 156 141 0 155 141 0 155
141 0 0 141 0 0 141 0 0 141 0 0 141 0 0 142 0 0 142 0 0 142 0 0 142 0
0 142 0 0 142 0 0 142 0 0 142 0 0 142 0 0 142 0 0 143 0 0 143 0 0 143
0 0 143 0 0 143 0 0 143 0 150 143 0 149 143 0 149 143 0 149 143 0 149
143 0 148 144 0 148 144 0 148 144 0 148 144 0 147 144 0 147 144 0 147
144 0 147 144 0 146 144 0 146 144 0 146 144 0 146 144 0 0 145 0 0 145
0 0 145 0 145 145 0 144 145 0 144 145 0 144 145 0 144 145 0 143 145 0
143 145 0 143 145 0 143 145 0 142 145 0 142 146 0 142 146 0 142 146 0
142 146 0 141 146 0 141 146 0 141 146 0 141 146 0 140 146 0 140 146 0
0 146 0 0 146 0 0 146 0 0 146 0 0 146 0 0 146 0 0 146 0 0 147 0 0 147
0 0 147 0 0 147 0 0 147 0 0 147 0 0 147 0 0 147 0 0 147 0 0 147 0 0
147 0 0 147 0 0 147 0 135 147 0 135 147 0 135 147 0 135 147 0 134 147
0 134 147 0 134 147 0 0 147 0 0 147 0 0 147 0 0 148 0 0 148 0 0 148 0
0 148 0 0 148 0 0 148 0 0 148 0 0 148 0 0 148 0 0 148 0 131 148 0 131
148 0 131 148 0 130 148 0 130 148 0 130 148 0 130 148 0 130 148 0 129
148 0 129 148 0 129 148 0 129 148 0 129 148 0 128 148 0 128 148 0 128
148 0 128 148 0 128 148 0 127 148 0 127 148 0 0 148 0 0 148 0 0 148 0
0 148 0 0 148 0 0 148 0 0 148 0 0 148 0 0 148 0 0 148 0 0 148 0 0 148
0 0 148 0 0 148 0 0 148 0 0 148 0 0 148 0 124 148 0 124 148 0 123 148
0 0 148 0 0 148 0 0 148 0 0 148 0 0 148 0 0 148 0 0 148 0
0 128 0 0 128 0 0 128 0 0 128 0 0 129 0 0 129 0 0 129 0 183 129 0 183
129 0 183 129 0 182 129 0 182 130 0 182 130 0 182 130 0 181 130 0 181
130 0 181 130 0 180 130 0 180 130 0 180 131 0 180 131 0 179 131 0 179
131 0 179 131 0 179 131 0 178 131 0 178 132 0 0 132 0 0 132 0 0 132 0
0 132 0 0 132 0 0 132 0 0 132 0 0 133 0 0 133 0 0 133 0 0 133 0 0 133
0 0 133 0 0 133 0 0 134 0 0 134 0 0 134 0 0 134 0 0 134 0 0 134 0 0
134 0 172 134 0 172 135 0 0 135 0 0 135 0 0 135 0 0 135 0 0 135 0 0
135 0 0 135 0 0 136 0 0 136 0 0 136 0 0 136 0 0 136 0 0 136 0 0 136 0
0 136 0 0 137 0 0 137 0 0 137 0 166 137 0 166 137 0 166 137 0 166 137
0 165 137 0 165 138 0 165 138 0 164 138 0 164 138 0 164 138 0 164 138
0 163 138 0 163 138 0 163 139 0 162 139 0 162 139 0 162 139 0 162 139
0 161 139 0 161 139 0 0 139 0 0 139 0 0 140 0 0 140 0 0 140 0 0 140 0
0 140 0 0 140 0 0 140 0 0 140 0 0 140 0 0 141 0 0 141 0 157 141 0 157
141 0 157 141 0 157 141 0 156 141 0 156 141 0 156 141 0 0 142 0 0 142
0 0 142 0 0 142 0 0 142 0 0 142 0 0 142 0 0 142 0 0 142 0 0 142 0 0
143 0 0 143 0 0 143 0 0 143 0 0 143 0 0 143 0 0 143 0 0 143 0 0 143 0
0 143 0 150 144 0 150 144 0 150 144 0 149 144 0 149 144 0 149 144 0
149 144 0 148 144 0 148 144 0 148 144 0 148 144 0 147 144 0 147 145 0
147 145 0 147 145 0 146 145 0 146 145 0 146 145 0 146 145 0 145 145 0
0 145 0 0 145 0 0 145 0 144 145 0 144 146 0 144 146 0 144 146 0 144
146 0 143 146 0 143 146 0 143 146 0 143 146 0 142 146 0 142 146 0 142
146 0 142 146 0 141 146 0 141 146 0 141 146 0 141 147 0 140 147 0 0
147 0 0 147 0 0 147 0 0 147 0 0 147 0 0 147 0 0 147 0 0 147 0 0 147 0
0 147 0 0 147 0 0 147 0 0 147 0 0 147 0 0 147 0 0 147 0 0 148 0 0 148
0 0 148 0 0 148 0 136 148 0 135 148 0 135 148 0 135 148 0 135 148 0
135 148 0 134 148 0 134 148 0 134 148 0 134 148 0 133 148 0 133 148 0
133 148 0 0 148 0 0 148 0 0 148 0 0 148 0 0 148 0 0 148 0 0 148 0 131
148 0 131 148 0 131 148 0 131 148 0 131 148 0 130 148 0 130 148 0 130
148 0 130 149 0 130 149 0 129 149 0 129 149 0 129 149 0 129 149 0 129
149 0 128 149 0 128 149 0 128 149 0 128 149 0 128 149 0 0 149 0 0 149
0 0 149 0 0 149 0 0 149 0 0 149 0 0 149 0 0 149 0 0 149 0 0 149 0 0
149 0 0 149 0 0 149 0 0 149 0 0 149 0 0 149 0 0 149 0 0 149 0 0 148 0
0 148 0 123 148 0 123 148 0 123 148 0 0 148 0 0 148 0 0 148 0 0 148 0
185 129 0 185 129 0 185 129 0 184 129 0 0 129 0 184 129 0 184 129 0
183 129 0 183 130 0 183 130 0 183 130 0 182 130 0 182 130 0 182 130 0
182 130 0 181 131 0 181 131 0 181 131 0 181 131 0 180 131 0 180 131 0
180 131 0 179 132 0 179 132 0 179 132 0 179 132 0 0 132 0 0 132 0 0
132 0 0 132 0 0 133 0 0 133 0 0 133 0 0 133 0 0 133 0 0 133 0 0 133 0
0 133 0 0 134 0 0 134 0 0 134 0 0 134 0 0 134 0 0 134 0 0 134 0 0 135
0 173 135 0 173 135 0 172 135 0 172 135 0 172 135 0 171 135 0 171 135
0 171 136 0 0 136 0 0 136 0 0 136 0 0 136 0 0 136 0 0 136 0 0 136 0 0
137 0 0 137 0 0 137 0 0 137 0 0 137 0 167 137 0 167 137 0 167 137 0
166 138 0 166 138 0 166 138 0 166 138 0 165 138 0 165 138 0 165 138 0
164 138 0 164 139 0 164 139 0 164 139 0 163 139 0 163 139 0 163 139 0
163 139 0 162 139 0 162 139 0 162 140 0 0 140 0 0 140 0 0 140 0 0 140
0 0 140 0 0 140 0 0 140 0 0 140 0 0 141 0 0 141 0 0 141 0 0 141 0 0
141 0 0 141 0 0 141 0 0 141 0 0 141 0 0 142 0 157 142 0 156 142 0 0
142 0 0 142 0 0 142 0 0 142 0 0 142 0 0 142 0 0 143 0 0 143 0 0 143 0
0 143 0 0 143 0 0 143 0 0 143 0 0 143 0 0 143 0 0 143 0 0 144 0 0 144
0 0 144 0 0 144 0 0 144 0 151 144 0 150 144 0 150 144 0 150 144 0 150
144 0 149 144 0 149 145 0 149 145 0 148 145 0 148 145 0 148 145 0 148
145 0 147 145 0 147 145 0 147 145 0 147 145 0 147 145 0 146 145 0 146
146 0 146 146 0 0 146 0 0 146 0 0 146 0 0 146 0 0 146 0 0 146 0 0 146
0 0 146 0 144 146 0 143 146 0 143 146 0 143 147 0 143 147 0 142 147 0
142 147 0 142 147 0 142 147 0 141 147 0 141 147 0 141 147 0 0 147 0 0
147 0 0 147 0 0 147 0 0 147 0 0 147 0 0 147 0 0 148 0 0 148 0 0 148 0
0 148 0 0 148 0 0 148 0 0 148 0 0 148 0 0 148 0 0 148 0 0 148 0 0 148
0 0 148 0 0 148 0 136 148 0 136 148 0 136 148 0 135 148 0 135 148 0
135 148 0 135 148 0 134 149 0 134 149 0 134 149 0 134 149 0 134 149 0
133 149 0 133 149 0 133 149 0 133 149 0 133 149 0 132 149 0 0 149 0 0
149 0 132 149 0 131 149 0 131 149 0 131 149 0 131 149 0 131 149 0 130
149 0 130 149 0 130 149 0 130 149 0 130 149 0 129 149 0 129 149 0 129
149 0 129 149 0 129 149 0 128 149 0 128 149 0 128 149 0 128 149 0 0
149 0 0 149 0 0 149 0 0 149 0 0 149 0 0 149 0 0 149 0 0 149 0 0 149 0
0 149 0 0 149 0 0 149 0 0 149 0 0 149 0 0 149 0 0 149 0 0 149 0 0 149
0 0 149 0 0 149 0 0 149 0 124 149 0 123 149 0 123 149 0 123 149 0 123
149 0 123 149 0
186 129 0 185 129 0 185 129 0 185 129 0 0 130 0 0 130 0 0 130 0 184
130 0 184 130 0 183 130 0 183 130 0 183 130 0 182 131 0 182 131 0 182
131 0 182 131 0 181 131 0 181 131 0 181 131 0 181 132 0 180 132 0 180
132 0 180 132 0 179 132 0 0 132 0 0 132 0 0 133 0 0 133 0 0 133 0 0
133 0 0 133 0 0 133 0 0 133 0 0 133 0 0 134 0 0 134 0 0 134 0 0 134 0
0 134 0 0 134 0 0 134 0 0 134 0 0 135 0 0 135 0 0 135 0 173 135 0 173
135 0 173 135 0 173 135 0 172 136 0 172 136 0 172 136 0 171 136 0 171
136 0 171 136 0 171 136 0 170 136 0 170 137 0 170 137 0 0 137 0 0 137
0 0 137 0 0 137 0 0 137 0 0 137 0 168 138 0 168 138 0 167 138 0 167
138 0 167 138 0 166 138 0 166 138 0 166 138 0 166 139 0 165 139 0 165
139 0 165 139 0 164 139 0 164 139 0 164 139 0 164 139 0 163 139 0 163
140 0 163 140 0 163 140 0 162 140 0 0 140 0 0 140 0 0 140 0 0 140 0 0
141 0 0 141 0 0 141 0 0 141 0 0 141 0 0 141 0 0 141 0 0 141 0 0 141 0
0 142 0 0 142 0 0 142 0 0 142 0 0 142 0 0 142 0 0 142 0 157 142 0 156
142 0 156 143 0 156 143 0 0 143 0 0 143 0 0 143 0 0 143 0 0 143 0 0
143 0 0 143 0 0 143 0 0 144 0 0 144 0 0 144 0 0 144 0 0 144 0 0 144 0
0 144 0 0 144 0 0 144 0 151 144 0 151 144 0 151 145 0 150 145 0 150
145 0 150 145 0 150 145 0 149 145 0 149 145 0 149 145 0 149 145 0 148
145 0 148 145 0 148 146 0 148 146 0 147 146 0 147 146 0 147 146 0 147
146 0 146 146 0 0 146 0 0 146 0 0 146 0 0 146 0 0 146 0 0 147 0 0 147
0 0 147 0 0 147 0 0 147 0 0 147 0 0 147 0 0 147 0 0 147 0 143 147 0
142 147 0 142 147 0 142 147 0 142 147 0 142 147 0 141 148 0 0 148 0 0
148 0 0 148 0 0 148 0 0 148 0 0 148 0 0 148 0 0 148 0 0 148 0 0 148 0
0 148 0 0 148 0 0 148 0 0 148 0 0 148 0 0 148 0 0 149 0 0 149 0 0 149
0 0 149 0 137 149 0 136 149 0 136 149 0 136 149 0 136 149 0 135 149 0
135 149 0 135 149 0 135 149 0 135 149 0 134 149 0 134 149 0 134 149 0
134 149 0 133 149 0 133 149 0 133 149 0 133 149 0 133 149 0 132 149 0
132 149 0 0 149 0 0 149 0 0 149 0 0 149 0 131 150 0 131 150 0 131 150
0 131 150 0 130 150 0 130 150 0 130 150 0 130 150 0 130 150 0 129 150
0 129 150 0 129 150 0 129 150 0 129 150 0 128 150 0 128 150 0 0 150 0
0 150 0 0 150 0 0 150 0 0 150 0 0 150 0 0 150 0 0 150 0 0 150 0 0 150
0 0 150 0 0 150 0 0 150 0 0 150 0 0 150 0 0 150 0 0 150 0 0 150 0 0
150 0 0 150 0 0 150 0 124 150 0 124 150 0 124 150 0 123 150 0 123 150
0 123 150 0
186 129 0 186 130 0 0 130 0 0 130 0 0 130 0 0 130 0 0 130 0 0 130 0 0
131 0 0 131 0 0 131 0 183 131 0 183 131 0 182 131 0 182 131 0 182 131
0 182 132 0 181 132 0 181 132 0 181 132 0 181 132 0 180 132 0 180 132
0 0 133 0 0 133 0 0 133 0 0 133 0 0 133 0 0 133 0 0 133 0 0 133 0 0
134 0 0 134 0 0 134 0 0 134 0 0 134 0 0 134 0 0 134 0 0 135 0 0 135 0
0 135 0 0 135 0 0 135 0 174 135 0 174 135 0 174 135 0 173 136 0 173
136 0 173 136 0 173 136 0 172 136 0 172 136 0 172 136 0 171 136 0 171
137 0 171 137 0 171 137 0 170 137 0 170 137 0 170 137 0 169 137 0 169
138 0 169 138 0 0 138 0 168 138 0 168 138 0 168 138 0 168 138 0 167
138 0 167 139 0 167 139 0 166 139 0 166 139 0 166 139 0 166 139 0 165
139 0 165 139 0 165 139 0 164 140 0 164 140 0 164 140 0 164 140 0 163
140 0 163 140 0 163 140 0 0 140 0 0 141 0 0 141 0 0 141 0 0 141 0 0
141 0 0 141 0 0 141 0 0 141 0 0 141 0 0 142 0 0 142 0 0 142 0 0 142 0
0 142 0 0 142 0 0 142 0 0 142 0 0 142 0 0 143 0 157 143 0 157 143 0
157 143 0 156 143 0 156 143 0 156 143 0 156 143 0 155 143 0 155 143 0
0 144 0 0 144 0 0 144 0 0 144 0 0 144 0 0 144 0 0 144 0 0 144 0 0 144
0 0 144 0 0 145 0 0 145 0 152 145 0 151 145 0 151 145 0 151 145 0 151
145 0 150 145 0 150 145 0 150 145 0 150 146 0 149 146 0 149 146 0 149
146 0 149 146 0 148 146 0 148 146 0 148 146 0 148 146 0 147 146 0 147
146 0 147 146 0 147 147 0 0 147 0 0 147 0 0 147 0 0 147 0 0 147 0 0
147 0 0 147 0 0 147 0 0 147 0 0 147 0 0 147 0 0 147 0 0 148 0 0 148 0
0 148 0 0 148 0 0 148 0 0 148 0 0 148 0 142 148 0 0 148 0 0 148 0 0
148 0 0 148 0 0 148 0 0 148 0 0 148 0 0 148 0 0 149 0 0 149 0 0 149 0
0 149 0 0 149 0 0 149 0 0 149 0 0 149 0 0 149 0 0 149 0 0 149 0 0 149
0 0 149 0 137 149 0 137 149 0 136 149 0 136 149 0 136 149 0 136 149 0
136 149 0 135 150 0 135 150 0 135 150 0 135 150 0 134 150 0 134 150 0
134 150 0 134 150 0 134 150 0 133 150 0 133 150 0 133 150 0 133 150 0
133 150 0 0 150 0 0 150 0 0 150 0 0 150 0 0 150 0 0 150 0 0 150 0 0
150 0 0 150 0 131 150 0 130 150 0 130 150 0 130 150 0 130 150 0 129
150 0 129 150 0 129 150 0 129 150 0 129 150 0 129 150 0 128 150 0 0
150 0 0 150 0 0 150 0 0 150 0 0 150 0 0 150 0 0 150 0 0 150 0 0 150 0
0 150 0 0 150 0 0 150 0 0 150 0 0 150 0 0 150 0 0 150 0 0 150 0 0 150
0 0 150 0 0 150 0 124 150 0 124 150 0 124 150 0 124 150 0 124 150 0
123 150 0
0 130 0 0 130 0 0 130 0 0 130 0 0 130 0 0 131 0 0 131 0 0 131 0 0 131
0 0 131 0 0 131 0 0 131 0 0 132 0 0 132 0 0 132 0 182 132 0 182 132 0
182 132 0 181 132 0 181 132 0 181 133 0 0 133 0 0 133 0 0 133 0 0 133
0 0 133 0 0 133 0 0 134 0 0 134 0 0 134 0 0 134 0 0 134 0 0 134 0 0
134 0 0 134 0 0 135 0 0 135 0 0 135 0 0 135 0 0 135 0 0 135 0 0 135 0
175 136 0 175 136 0 174 136 0 174 136 0 174 136 0 173 136 0 173 136 0
173 136 0 173 137 0 172 137 0 172 137 0 172 137 0 171 137 0 171 137 0
171 137 0 171 137 0 170 138 0 170 138 0 170 138 0 169 138 0 169 138 0
0 138 0 0 138 0 0 138 0 0 139 0 168 139 0 168 139 0 167 139 0 167 139
0 167 139 0 166 139 0 166 139 0 166 140 0 166 140 0 165 140 0 165 140
0 165 140 0 164 140 0 164 140 0 164 140 0 164 141 0 163 141 0 0 141 0
0 141 0 0 141 0 0 141 0 0 141 0 0 141 0 0 141 0 0 142 0 0 142 0 0 142
0 0 142 0 0 142 0 0 142 0 0 142 0 0 142 0 0 142 0 0 143 0 0 143 0 0
143 0 0 143 0 158 143 0 157 143 0 157 143 0 157 143 0 157 143 0 156
144 0 156 144 0 156 144 0 156 144 0 155 144 0 155 144 0 155 144 0 155
144 0 154 144 0 154 144 0 0 145 0 0 145 0 0 145 0 0 145 0 0 145 0 0
145 0 152 145 0 152 145 0 152 145 0 151 145 0 151 146 0 151 146 0 151
146 0 150 146 0 150 146 0 150 146 0 150 146 0 149 146 0 149 146 0 149
146 0 149 146 0 148 147 0 148 147 0 148 147 0 148 147 0 147 147 0 147
147 0 0 147 0 0 147 0 0 147 0 0 147 0 0 147 0 0 147 0 0 148 0 0 148 0
0 148 0 0 148 0 0 148 0 0 148 0 0 148 0 0 148 0 0 148 0 0 148 0 0 148
0 0 148 0 0 148 0 0 148 0 0 148 0 142 149 0 142 149 0 141 149 0 141
149 0 0 149 0 0 149 0 0 149 0 0 149 0 0 149 0 0 149 0 0 149 0 0 149 0
0 149 0 0 149 0 0 149 0 0 149 0 0 149 0 0 150 0 0 150 0 0 150 0 0 150
0 137 150 0 137 150 0 137 150 0 136 150 0 136 150 0 136 150 0 136 150
0 136 150 0 135 150 0 135 150 0 135 150 0 135 150 0 135 150 0 134 150
0 134 150 0 134 150 0 134 150 0 134 150 0 133 150 0 133 150 0 133 150
0 0 150 0 0 151 0 0 151 0 0 151 0 0 151 0 0 151 0 0 151 0 0 151 0 0
151 0 0 151 0 0 151 0 0 151 0 0 151 0 0 151 0 130 151 0 130 151 0 129
151 0 129 151 0 129 151 0 129 151 0 129 151 0 0 151 0 0 151 0 0 151 0
0 151 0 0 151 0 0 151 0 0 151 0 0 151 0 0 151 0 0 151 0 0 151 0 0 151
0 0 151 0 0 151 0 0 151 0 0 151 0 0 151 0 0 151 0 0 151 0 0 151 0 0
151 0 124 151 0 124 151 0 124 151 0 124 151 0 124 151 0
0 130 0 0 131 0 0 131 0 0 131 0 0 131 0 0 131 0 0 131 0 0 131 0 0 131
0 0 132 0 0 132 0 0 132 0 0 132 0 0 132 0 0 132 0 0 132 0 0 133 0 0
133 0 182 133 0 0 133 0 0 133 0 0 133 0 0 133 0 0 133 0 0 134 0 0 134
0 0 134 0 0 134 0 0 134 0 0 134 0 0 134 0 0 135 0 0 135 0 0 135 0 0
135 0 0 135 0 0 135 0 0 135 0 0 135 0 0 136 0 176 136 0 175 136 0 175
136 0 175 136 0 174 136 0 174 136 0 174 137 0 174 137 0 173 137 0 173
137 0 173 137 0 173 137 0 172 137 0 172 137 0 172 138 0 171 138 0 171
138 0 171 138 0 171 138 0 170 138 0 170 138 0 0 138 0 0 139 0 0 139 0
0 139 0 0 139 0 0 139 0 0 139 0 0 139 0 0 139 0 0 140 0 167 140 0 167
140 0 166 140 0 166 140 0 166 140 0 166 140 0 165 140 0 165 141 0 165
141 0 164 141 0 164 141 0 0 141 0 0 141 0 0 141 0 0 141 0 0 141 0 0
142 0 0 142 0 0 142 0 0 142 0 0 142 0 0 142 0 0 142 0 0 142 0 0 142 0
0 143 0 0 143 0 0 143 0 0 143 0 0 143 0 0 143 0 0 143 0 158 143 0 158
143 0 158 144 0 157 144 0 157 144 0 157 144 0 157 144 0 156 144 0 156
144 0 156 144 0 156 144 0 155 145 0 155 145 0 155 145 0 155 145 0 154
145 0 154 145 0 154 145 0 153 145 0 153 145 0 0 145 0 0 146 0 152 146
0 152 146 0 152 146 0 152 146 0 151 146 0 151 146 0 151 146 0 151 146
0 150 146 0 150 146 0 150 147 0 150 147 0 149 147 0 149 147 0 149 147
0 149 147 0 148 147 0 148 147 0 148 147 0 148 147 0 147 147 0 0 148 0
0 148 0 0 148 0 0 148 0 0 148 0 0 148 0 0 148 0 0 148 0 0 148 0 0 148
0 0 148 0 0 148 0 0 148 0 0 149 0 0 149 0 0 149 0 0 149 0 0 149 0 0
149 0 0 149 0 0 149 0 142 149 0 142 149 0 142 149 0 142 149 0 141 149
0 141 149 0 141 149 0 141 149 0 140 150 0 0 150 0 0 150 0 0 150 0 0
150 0 0 150 0 0 150 0 0 150 0 0 150 0 0 150 0 0 150 0 0 150 0 0 150 0
137 150 0 137 150 0 137 150 0 137 150 0 137 150 0 136 150 0 136 150 0
136 151 0 136 151 0 136 151 0 135 151 0 135 151 0 135 151 0 135 151 0
134 151 0 134 151 0 134 151 0 134 151 0 134 151 0 133 151 0 133 151 0
0 151 0 0 151 0 0 151 0 0 151 0 0 151 0 0 151 0 0 151 0 0 151 0 0 151
0 0 151 0 0 151 0 0 151 0 0 151 0 0 151 0 0 151 0 0 151 0 0 151 0 0
151 0 0 151 0 0 151 0 129 151 0 0 151 0 0 151 0 0 151 0 0 151 0 0 151
0 0 151 0 0 151 0 0 151 0 0 151 0 0 151 0 0 151 0 0 151 0 0 151 0 0
151 0 0 151 0 0 151 0 0 151 0 0 151 0 0 151 0 0 151 0 0 151 0 125 151
0 125 151 0 124 151 0 124 151 0 124 151 0
0 131 0 0 131 0 0 131 0 0 131 0 0 131 0 0 132 0 0 132 0 0 132 0 0 132
0 0 132 0 0 132 0 0 132 0 0 132 0 0 133 0 0 133 0 0 133 0 0 133 0 0
133 0 182 133 0 182 133 0 181 134 0 181 134 0 0 134 0 0 134 0 0 134 0
0 134 0 0 134 0 0 134 0 0 135 0 0 135 0 0 135 0 0 135 0 0 135 0 0 135
0 0 135 0 0 136 0 0 136 0 0 136 0 0 136 0 176 136 0 176 136 0 176 136
0 175 136 0 175 137 0 175 137 0 174 137 0 174 137 0 174 137 0 174 137
0 173 137 0 173 137 0 173 138 0 173 138 0 172 138 0 172 138 0 172 138
0 171 138 0 171 138 0 171 139 0 171 139 0 0 139 0 0 139 0 0 139 0 0
139 0 0 139 0 0 139 0 0 140 0 0 140 0 0 140 0 0 140 0 0 140 0 0 140 0
0 140 0 0 140 0 0 140 0 166 141 0 166 141 0 166 141 0 165 141 0 165
141 0 165 141 0 0 141 0 0 141 0 0 142 0 0 142 0 0 142 0 0 142 0 0 142
0 0 142 0 0 142 0 0 142 0 0 143 0 0 143 0 0 143 0 0 143 0 0 143 0 0
143 0 0 143 0 0 143 0 0 143 0 0 144 0 0 144 0 0 144 0 158 144 0 158
144 0 158 144 0 158 144 0 157 144 0 157 144 0 157 144 0 157 145 0 156
145 0 156 145 0 156 145 0 156 145 0 155 145 0 155 145 0 155 145 0 155
145 0 154 146 0 154 146 0 154 146 0 153 146 0 153 146 0 0 146 0 0 146
0 0 146 0 0 146 0 152 146 0 152 146 0 151 147 0 151 147 0 151 147 0
151 147 0 150 147 0 150 147 0 150 147 0 150 147 0 149 147 0 149 147 0
149 147 0 149 148 0 148 148 0 148 148 0 148 148 0 0 148 0 0 148 0 0
148 0 0 148 0 0 148 0 0 148 0 0 148 0 0 148 0 0 149 0 0 149 0 0 149 0
0 149 0 0 149 0 0 149 0 0 149 0 0 149 0 0 149 0 0 149 0 0 149 0 0 149
0 0 149 0 143 149 0 142 150 0 142 150 0 142 150 0 142 150 0 142 150 0
141 150 0 141 150 0 141 150 0 141 150 0 140 150 0 140 150 0 140 150 0
140 150 0 140 150 0 0 150 0 0 150 0 0 150 0 0 151 0 0 151 0 0 151 0
138 151 0 138 151 0 138 151 0 137 151 0 137 151 0 137 151 0 137 151 0
136 151 0 136 151 0 136 151 0 136 151 0 136 151 0 135 151 0 135 151 0
135 151 0 135 151 0 135 151 0 134 151 0 134 151 0 134 151 0 134 151 0
133 151 0 0 152 0 0 152 0 0 152 0 0 152 0 0 152 0 0 152 0 0 152 0 0
152 0 0 152 0 0 152 0 0 152 0 0 152 0 0 152 0 0 152 0 0 152 0 0 152 0
0 152 0 0 152 0 0 152 0 0 152 0 0 152 0 129 152 0 129 152 0 129 152 0
128 152 0 0 152 0 0 152 0 0 152 0 0 152 0 0 152 0 0 152 0 0 152 0 0
152 0 0 152 0 0 152 0 0 152 0 0 152 0 0 152 0 0 152 0 0 152 0 0 152 0
0 152 0 125 152 0 125 152 0 125 152 0 125 152 0 124 152 0
0 131 0 0 131 0 0 132 0 0 132 0 0 132 0 0 132 0 0 132 0 0 132 0 0 132
0 0 133 0 0 133 0 0 133 0 0 133 0 0 133 0 0 133 0 0 133 0 183 133 0
183 134 0 182 134 0 182 134 0 182 134 0 181 134 0 181 134 0 181 134 0
181 135 0 180 135 0 0 135 0 0 135 0 0 135 0 0 135 0 0 135 0 0 135 0 0
136 0 0 136 0 0 136 0 0 136 0 0 136 0 177 136 0 177 136 0 176 137 0
176 137 0 176 137 0 176 137 0 175 137 0 175 137 0 175 137 0 174 137 0
174 138 0 174 138 0 174 138 0 173 138 0 173 138 0 173 138 0 172 138 0
172 138 0 172 139 0 172 139 0 171 139 0 171 139 0 0 139 0 0 139 0 0
139 0 0 139 0 0 140 0 0 140 0 0 140 0 0 140 0 0 140 0 0 140 0 0 140 0
0 140 0 0 141 0 0 141 0 0 141 0 0 141 0 0 141 0 0 141 0 0 141 0 0 141
0 165 142 0 0 142 0 0 142 0 0 142 0 0 142 0 0 142 0 0 142 0 0 142 0 0
142 0 0 143 0 0 143 0 0 143 0 0 143 0 0 143 0 0 143 0 0 143 0 0 143 0
0 144 0 0 144 0 0 144 0 0 144 0 0 144 0 0 144 0 159 144 0 159 144 0
158 144 0 158 145 0 158 145 0 158 145 0 157 145 0 157 145 0 157 145 0
157 145 0 156 145 0 156 145 0 156 145 0 156 146 0 155 146 0 155 146 0
155 146 0 155 146 0 154 146 0 154 146 0 154 146 0 0 146 0 0 146 0 0
147 0 0 147 0 0 147 0 0 147 0 0 147 0 0 147 0 0 147 0 151 147 0 151
147 0 151 147 0 150 148 0 150 148 0 150 148 0 150 148 0 149 148 0 149
148 0 149 148 0 149 148 0 148 148 0 0 148 0 0 148 0 0 148 0 0 149 0 0
149 0 0 149 0 0 149 0 0 149 0 0 149 0 0 149 0 0 149 0 0 149 0 0 149 0
0 149 0 0 149 0 0 149 0 0 150 0 0 150 0 0 150 0 0 150 0 0 150 0 0 150
0 143 150 0 143 150 0 143 150 0 142 150 0 142 150 0 142 150 0 142 150
0 141 150 0 141 150 0 141 151 0 141 151 0 140 151 0 140 151 0 140 151
0 140 151 0 140 151 0 139 151 0 139 151 0 139 151 0 139 151 0 0 151 0
138 151 0 138 151 0 138 151 0 138 151 0 137 151 0 137 151 0 137 151 0
137 151 0 137 152 0 136 152 0 136 152 0 136 152 0 136 152 0 135 152 0
135 152 0 135 152 0 135 152 0 135 152 0 134 152 0 134 152 0 134 152 0
134 152 0 0 152 0 0 152 0 0 152 0 0 152 0 0 152 0 0 152 0 0 152 0 0
152 0 0 152 0 0 152 0 0 152 0 0 152 0 0 152 0 0 152 0 0 152 0 0 152 0
0 152 0 0 152 0 0 152 0 0 152 0 0 152 0 129 152 0 129 152 0 129 152 0
129 152 0 129 152 0 128 152 0 128 152 0 128 152 0 128 152 0 0 152 0 0
152 0 0 152 0 0 152 0 0 152 0 0 152 0 0 152 0 0 152 0 0 152 0 0 152 0
0 152 0 0 152 0 125 152 0 125 152 0 125 152 0 125 152 0 125 152 0
0 132 0 0 132 0 0 132 0 0 132 0 0 132 0 0 132 0 0 133 0 0 133 0 0 133
0 0 133 0 0 133 0 0 133 0 0 133 0 0 133 0 184 134 0 183 134 0 183 134
0 183 134 0 183 134 0 182 134 0 182 134 0 182 135 0 181 135 0 181 135
0 181 135 0 181 135 0 180 135 0 180 135 0 180 135 0 0 136 0 0 136 0 0
136 0 0 136 0 0 136 0 0 136 0 0 136 0 177 137 0 177 137 0 177 137 0
177 137 0 176 137 0 176 137 0 176 137 0 176 137 0 175 138 0 175 138 0
175 138 0 174 138 0 174 138 0 174 138 0 174 138 0 173 139 0 173 139 0
173 139 0 172 139 0 172 139 0 172 139 0 172 139 0 0 139 0 0 140 0 0
140 0 0 140 0 0 140 0 0 140 0 0 140 0 0 140 0 0 140 0 0 141 0 0 141 0
0 141 0 0 141 0 0 141 0 0 141 0 0 141 0 0 141 0 0 142 0 0 142 0 0 142
0 0 142 0 165 142 0 165 142 0 165 142 0 165 142 0 0 142 0 0 143 0 0
143 0 0 143 0 0 143 0 0 143 0 0 143 0 0 143 0 0 143 0 0 144 0 0 144 0
0 144 0 0 144 0 0 144 0 0 144 0 0 144 0 0 144 0 0 144 0 160 145 0 159
145 0 159 145 0 159 145 0 158 145 0 158 145 0 158 145 0 158 145 0 157
145 0 157 146 0 157 146 0 157 146 0 156 146 0 156 146 0 156 146 0 156
146 0 155 146 0 155 146 0 155 146 0 155 147 0 154 147 0 0 147 0 0 147
0 0 147 0 0 147 0 0 147 0 0 147 0 0 147 0 0 147 0 0 148 0 0 148 0 0
148 0 0 148 0 0 148 0 0 148 0 0 148 0 150 148 0 150 148 0 150 148 0
150 148 0 149 148 0 149 149 0 149 149 0 0 149 0 0 149 0 0 149 0 0 149
0 0 149 0 0 149 0 0 149 0 0 149 0 0 149 0 0 149 0 0 150 0 0 150 0 0
150 0 0 150 0 0 150 0 0 150 0 0 150 0 0 150 0 0 150 0 0 150 0 0 150 0
144 150 0 143 150 0 143 150 0 143 151 0 143 151 0 142 151 0 142 151 0
142 151 0 142 151 0 141 151 0 141 151 0 141 151 0 141 151 0 141 151 0
140 151 0 140 151 0 140 151 0 140 151 0 139 151 0 139 152 0 139 152 0
139 152 0 0 152 0 0 152 0 0 152 0 0 152 0 138 152 0 137 152 0 137 152
0 137 152 0 137 152 0 137 152 0 136 152 0 136 152 0 136 152 0 136 152
0 136 152 0 135 152 0 135 152 0 135 152 0 135 152 0 135 152 0 134 152
0 134 152 0 0 153 0 0 153 0 0 153 0 0 153 0 0 153 0 0 153 0 0 153 0 0
153 0 0 153 0 0 153 0 0 153 0 0 153 0 0 153 0 0 153 0 0 153 0 0 153 0
0 153 0 0 153 0 0 153 0 0 153 0 0 153 0 130 153 0 129 153 0 129 153 0
129 153 0 129 153 0 129 153 0 129 153 0 128 153 0 128 153 0 128 153 0
128 153 0 128 153 0 127 153 0 127 153 0 127 153 0 0 153 0 0 153 0 0
153 0 0 153 0 0 153 0 0 153 0 0 153 0 126 153 0 125 153 0 125 153 0
125 153 0
0 132 0 0 132 0 0 132 0 0 133 0 0 133 0 0 133 0 0 133 0 0 133 0 0 133
0 0 133 0 0 134 0 0 134 0 0 134 0 184 134 0 184 134 0 184 134 0 183
134 0 183 134 0 183 135 0 182 135 0 182 135 0 182 135 0 182 135 0 181
135 0 181 135 0 181 136 0 181 136 0 180 136 0 180 136 0 180 136 0 179
136 0 179 136 0 179 136 0 0 137 0 0 137 0 178 137 0 178 137 0 177 137
0 177 137 0 177 137 0 177 138 0 176 138 0 176 138 0 176 138 0 175 138
0 175 138 0 175 138 0 175 138 0 174 139 0 174 139 0 174 139 0 174 139
0 173 139 0 173 139 0 173 139 0 172 139 0 0 140 0 0 140 0 0 140 0 0
140 0 0 140 0 0 140 0 0 140 0 0 140 0 0 141 0 0 141 0 0 141 0 0 141 0
0 141 0 0 141 0 0 141 0 0 141 0 0 142 0 0 142 0 0 142 0 0 142 0 0 142
0 0 142 0 166 142 0 166 142 0 165 143 0 165 143 0 165 143 0 165 143 0
164 143 0 164 143 0 164 143 0 0 143 0 0 144 0 0 144 0 0 144 0 0 144 0
0 144 0 0 144 0 0 144 0 0 144 0 0 144 0 0 145 0 0 145 0 0 145 0 160
145 0 160 145 0 160 145 0 159 145 0 159 145 0 159 145 0 158 146 0 158
146 0 158 146 0 158 146 0 157 146 0 157 146 0 157 146 0 157 146 0 156
146 0 156 146 0 156 147 0 156 147 0 155 147 0 155 147 0 155 147 0 0
147 0 0 147 0 0 147 0 0 147 0 0 147 0 0 148 0 0 148 0 0 148 0 0 148 0
0 148 0 0 148 0 0 148 0 0 148 0 0 148 0 0 148 0 0 149 0 0 149 0 0 149
0 0 149 0 0 149 0 0 149 0 149 149 0 0 149 0 0 149 0 0 149 0 0 149 0 0
149 0 0 150 0 0 150 0 0 150 0 0 150 0 0 150 0 0 150 0 0 150 0 0 150 0
0 150 0 0 150 0 0 150 0 0 150 0 0 150 0 0 151 0 0 151 0 0 151 0 0 151
0 144 151 0 144 151 0 143 151 0 143 151 0 143 151 0 143 151 0 142 151
0 142 151 0 142 151 0 142 151 0 142 151 0 141 152 0 141 152 0 141 152
0 141 152 0 140 152 0 140 152 0 140 152 0 140 152 0 140 152 0 139 152
0 139 152 0 0 152 0 0 152 0 0 152 0 0 152 0 0 152 0 0 152 0 0 152 0 0
152 0 0 153 0 137 153 0 137 153 0 136 153 0 136 153 0 136 153 0 136
153 0 136 153 0 135 153 0 135 153 0 135 153 0 135 153 0 135 153 0 0
153 0 0 153 0 0 153 0 0 153 0 0 153 0 0 153 0 0 153 0 0 153 0 0 153 0
0 153 0 0 153 0 0 153 0 0 153 0 0 153 0 0 153 0 0 153 0 0 153 0 0 153
0 0 153 0 0 153 0 0 153 0 0 153 0 130 153 0 130 153 0 130 153 0 129
153 0 129 153 0 129 153 0 129 153 0 129 153 0 128 153 0 128 153 0 128
153 0 128 153 0 128 153 0 128 153 0 127 153 0 127 153 0 127 153 0 127
153 0 127 153 0 126 153 0 0 153 0 0 153 0 126 153 0 126 153 0 125 153
0 125 153 0
0 133 0 0 133 0 0 133 0 0 133 0 0 133 0 0 133 0 0 133 0 0 134 0 0 134
0 0 134 0 0 134 0 185 134 0 185 134 0 184 134 0 184 134 0 184 135 0
184 135 0 183 135 0 183 135 0 183 135 0 182 135 0 182 135 0 182 136 0
182 136 0 181 136 0 181 136 0 181 136 0 180 136 0 180 136 0 180 137 0
180 137 0 179 137 0 179 137 0 0 137 0 0 137 0 0 137 0 178 137 0 178
138 0 177 138 0 177 138 0 177 138 0 177 138 0 176 138 0 176 138 0 176
138 0 175 139 0 175 139 0 175 139 0 175 139 0 174 139 0 174 139 0 174
139 0 173 140 0 173 140 0 173 140 0 0 140 0 0 140 0 0 140 0 0 140 0 0
140 0 0 141 0 0 141 0 0 141 0 0 141 0 0 141 0 0 141 0 0 141 0 0 141 0
0 142 0 0 142 0 0 142 0 0 142 0 0 142 0 0 142 0 0 142 0 0 142 0 0 143
0 167 143 0 166 143 0 166 143 0 166 143 0 165 143 0 165 143 0 165 143
0 165 143 0 164 144 0 164 144 0 164 144 0 163 144 0 163 144 0 163 144
0 0 144 0 0 144 0 0 145 0 0 145 0 0 145 0 0 145 0 0 145 0 0 145 0 161
145 0 160 145 0 160 145 0 160 146 0 159 146 0 159 146 0 159 146 0 159
146 0 158 146 0 158 146 0 158 146 0 158 146 0 157 147 0 157 147 0 157
147 0 157 147 0 156 147 0 156 147 0 156 147 0 156 147 0 155 147 0 155
147 0 0 148 0 0 148 0 0 148 0 0 148 0 0 148 0 0 148 0 0 148 0 0 148 0
0 148 0 0 148 0 0 149 0 0 149 0 0 149 0 0 149 0 0 149 0 0 149 0 0 149
0 0 149 0 0 149 0 0 149 0 0 149 0 0 149 0 149 150 0 149 150 0 149 150
0 0 150 0 0 150 0 0 150 0 0 150 0 0 150 0 0 150 0 0 150 0 0 150 0 0
150 0 0 151 0 0 151 0 0 151 0 0 151 0 0 151 0 0 151 0 0 151 0 0 151 0
0 151 0 0 151 0 144 151 0 144 151 0 144 151 0 143 151 0 143 152 0 143
152 0 143 152 0 142 152 0 142 152 0 142 152 0 142 152 0 142 152 0 141
152 0 141 152 0 141 152 0 141 152 0 140 152 0 140 152 0 140 152 0 140
152 0 140 153 0 0 153 0 0 153 0 0 153 0 0 153 0 0 153 0 0 153 0 0 153
0 0 153 0 0 153 0 0 153 0 0 153 0 0 153 0 0 153 0 0 153 0 0 153 0 136
153 0 136 153 0 136 153 0 136 153 0 135 153 0 135 153 0 135 153 0 0
153 0 0 154 0 0 154 0 0 154 0 0 154 0 0 154 0 0 154 0 0 154 0 0 154 0
0 154 0 0 154 0 0 154 0 0 154 0 0 154 0 0 154 0 0 154 0 0 154 0 0 154
0 0 154 0 0 154 0 0 154 0 0 154 0 130 154 0 130 154 0 130 154 0 130
154 0 130 154 0 129 154 0 129 154 0 129 154 0 129 154 0 129 154 0 128
154 0 128 154 0 128 154 0 128 154 0 128 154 0 127 154 0 127 154 0 127
154 0 127 154 0 127 154 0 127 154 0 126 154 0 0 154 0 0 154 0 0 154 0
0 154 0
0 133 0 0 133 0 0 133 0 0 133 0 0 134 0 0 134 0 0 134 0 0 134 0 0 134
0 0 134 0 185 134 0 185 135 0 185 135 0 185 135 0 184 135 0 184 135 0
184 135 0 184 135 0 183 135 0 183 136 0 183 136 0 182 136 0 182 136 0
182 136 0 182 136 0 181 136 0 181 137 0 181 137 0 180 137 0 180 137 0
180 137 0 180 137 0 0 137 0 0 137 0 0 138 0 0 138 0 0 138 0 0 138 0 0
138 0 0 138 0 177 138 0 177 139 0 176 139 0 176 139 0 176 139 0 176
139 0 175 139 0 175 139 0 175 139 0 175 140 0 174 140 0 174 140 0 174
140 0 173 140 0 0 140 0 0 140 0 0 140 0 0 141 0 0 141 0 0 141 0 0 141
0 0 141 0 0 141 0 0 141 0 0 141 0 0 142 0 0 142 0 0 142 0 0 142 0 0
142 0 0 142 0 0 142 0 0 142 0 0 143 0 0 143 0 0 143 0 167 143 0 167
143 0 166 143 0 166 143 0 166 143 0 166 144 0 165 144 0 165 144 0 165
144 0 165 144 0 164 144 0 164 144 0 164 144 0 163 144 0 163 145 0 163
145 0 163 145 0 162 145 0 162 145 0 0 145 0 0 145 0 0 145 0 161 146 0
161 146 0 161 146 0 160 146 0 160 146 0 160 146 0 159 146 0 159 146 0
159 146 0 159 147 0 158 147 0 158 147 0 158 147 0 158 147 0 157 147 0
157 147 0 157 147 0 157 147 0 156 147 0 156 148 0 156 148 0 156 148 0
0 148 0 0 148 0 0 148 0 0 148 0 0 148 0 0 148 0 0 148 0 0 149 0 0 149
0 0 149 0 0 149 0 0 149 0 0 149 0 0 149 0 0 149 0 0 149 0 0 149 0 0
149 0 0 150 0 0 150 0 0 150 0 0 150 0 150 150 0 150 150 0 149 150 0
149 150 0 149 150 0 149 150 0 148 150 0 148 151 0 148 151 0 0 151 0 0
151 0 0 151 0 0 151 0 0 151 0 0 151 0 0 151 0 0 151 0 0 151 0 0 151 0
0 151 0 0 152 0 0 152 0 145 152 0 144 152 0 144 152 0 144 152 0 144
152 0 143 152 0 143 152 0 143 152 0 143 152 0 143 152 0 142 152 0 142
152 0 142 152 0 142 153 0 141 153 0 141 153 0 141 153 0 141 153 0 141
153 0 140 153 0 140 153 0 140 153 0 0 153 0 0 153 0 0 153 0 0 153 0 0
153 0 0 153 0 0 153 0 0 153 0 0 153 0 0 153 0 0 154 0 0 154 0 0 154 0
0 154 0 0 154 0 0 154 0 0 154 0 0 154 0 0 154 0 0 154 0 135 154 0 135
154 0 0 154 0 0 154 0 0 154 0 0 154 0 0 154 0 0 154 0 0 154 0 0 154 0
0 154 0 0 154 0 0 154 0 0 154 0 0 154 0 0 154 0 0 154 0 0 154 0 0 154
0 0 154 0 0 154 0 0 154 0 0 154 0 0 154 0 131 154 0 130 154 0 130 154
0 130 154 0 130 154 0 130 154 0 129 154 0 129 154 0 129 155 0 129 155
0 129 155 0 128 155 0 128 155 0 128 155 0 128 155 0 128 155 0 128 154
0 127 154 0 127 154 0 127 154 0 127 154 0 127 154 0 0 154 0 0 154 0 0
154 0 0 154 0
0 133 0 0 134 0 0 134 0 0 134 0 0 134 0 0 134 0 0 134 0 0 134 0 186
135 0 186 135 0 186 135 0 185 135 0 185 135 0 185 135 0 185 135 0 184
135 0 184 136 0 184 136 0 183 136 0 183 136 0 183 136 0 183 136 0 182
136 0 182 137 0 182 137 0 181 137 0 181 137 0 181 137 0 181 137 0 180
137 0 0 138 0 0 138 0 0 138 0 0 138 0 0 138 0 0 138 0 0 138 0 0 138 0
0 139 0 0 139 0 0 139 0 0 139 0 0 139 0 0 139 0 176 139 0 176 139 0
176 140 0 175 140 0 175 140 0 175 140 0 174 140 0 174 140 0 0 140 0 0
141 0 0 141 0 0 141 0 0 141 0 0 141 0 0 141 0 0 141 0 0 141 0 0 142 0
0 142 0 0 142 0 0 142 0 0 142 0 0 142 0 0 142 0 0 142 0 0 143 0 0 143
0 0 143 0 0 143 0 0 143 0 0 143 0 167 143 0 167 143 0 167 144 0 167
144 0 166 144 0 166 144 0 166 144 0 166 144 0 165 144 0 165 144 0 165
144 0 164 145 0 164 145 0 164 145 0 164 145 0 163 145 0 163 145 0 163
145 0 163 145 0 162 146 0 162 146 0 162 146 0 0 146 0 0 146 0 161 146
0 161 146 0 160 146 0 160 146 0 160 147 0 160 147 0 159 147 0 159 147
0 159 147 0 159 147 0 158 147 0 158 147 0 158 147 0 158 147 0 157 148
0 157 148 0 157 148 0 157 148 0 156 148 0 156 148 0 0 148 0 0 148 0 0
148 0 0 149 0 0 149 0 0 149 0 0 149 0 0 149 0 0 149 0 0 149 0 0 149 0
0 149 0 0 149 0 0 149 0 0 150 0 0 150 0 0 150 0 0 150 0 0 150 0 0 150
0 0 150 0 0 150 0 150 150 0 150 150 0 150 150 0 150 151 0 149 151 0
149 151 0 149 151 0 149 151 0 148 151 0 148 151 0 148 151 0 148 151 0
147 151 0 147 151 0 0 151 0 0 152 0 0 152 0 0 152 0 0 152 0 0 152 0 0
152 0 0 152 0 0 152 0 145 152 0 145 152 0 144 152 0 144 152 0 144 152
0 144 152 0 143 153 0 143 153 0 143 153 0 143 153 0 143 153 0 142 153
0 142 153 0 142 153 0 142 153 0 141 153 0 141 153 0 141 153 0 141 153
0 141 153 0 140 153 0 140 153 0 0 153 0 0 154 0 0 154 0 0 154 0 0 154
0 0 154 0 0 154 0 0 154 0 0 154 0 0 154 0 0 154 0 0 154 0 0 154 0 0
154 0 0 154 0 0 154 0 0 154 0 0 154 0 0 154 0 0 154 0 0 154 0 0 154 0
135 154 0 135 154 0 135 155 0 0 155 0 0 155 0 0 155 0 0 155 0 0 155 0
0 155 0 0 155 0 0 155 0 0 155 0 0 155 0 0 155 0 0 155 0 0 155 0 0 155
0 0 155 0 0 155 0 0 155 0 0 155 0 0 155 0 131 155 0 131 155 0 130 155
0 130 155 0 130 155 0 130 155 0 130 155 0 130 155 0 129 155 0 129 155
0 129 155 0 129 155 0 129 155 0 128 155 0 128 155 0 128 155 0 128 155
0 128 155 0 127 155 0 127 155 0 127 155 0 127 155 0 127 155 0 0 155 0
0 155 0 0 155 0
0 134 0 0 134 0 0 134 0 0 134 0 0 134 0 0 135 0 187 135 0 187 135 0
186 135 0 186 135 0 186 135 0 186 135 0 185 136 0 185 136 0 185 136 0
184 136 0 184 136 0 184 136 0 184 136 0 183 136 0 183 137 0 183 137 0
183 137 0 182 137 0 182 137 0 182 137 0 181 137 0 181 138 0 181 138 0
0 138 0 0 138 0 0 138 0 0 138 0 0 138 0 0 138 0 0 139 0 0 139 0 0 139
0 0 139 0 0 139 0 0 139 0 0 139 0 0 140 0 0 140 0 0 140 0 0 140 0 0
140 0 176 140 0 175 140 0 175 140 0 175 141 0 0 141 0 0 141 0 0 141 0
0 141 0 0 141 0 0 141 0 0 141 0 0 142 0 0 142 0 0 142 0 0 142 0 0 142
0 0 142 0 0 142 0 0 142 0 0 143 0 0 143 0 0 143 0 0 143 0 0 143 0 0
143 0 0 143 0 0 143 0 168 144 0 168 144 0 167 144 0 167 144 0 167 144
0 167 144 0 166 144 0 166 144 0 166 145 0 166 145 0 165 145 0 165 145
0 165 145 0 164 145 0 164 145 0 164 145 0 164 145 0 163 146 0 163 146
0 163 146 0 163 146 0 162 146 0 0 146 0 0 146 0 0 146 0 0 146 0 0 147
0 0 147 0 0 147 0 0 147 0 160 147 0 160 147 0 159 147 0 159 147 0 159
147 0 159 148 0 158 148 0 158 148 0 158 148 0 158 148 0 157 148 0 157
148 0 157 148 0 157 148 0 0 149 0 0 149 0 0 149 0 0 149 0 0 149 0 0
149 0 0 149 0 0 149 0 0 149 0 0 149 0 0 150 0 0 150 0 0 150 0 0 150 0
0 150 0 0 150 0 0 150 0 0 150 0 0 150 0 0 150 0 0 150 0 0 151 0 0 151
0 151 151 0 150 151 0 150 151 0 150 151 0 150 151 0 149 151 0 149 151
0 149 151 0 149 151 0 148 152 0 148 152 0 148 152 0 148 152 0 147 152
0 147 152 0 147 152 0 147 152 0 146 152 0 146 152 0 0 152 0 0 152 0 0
152 0 145 153 0 145 153 0 145 153 0 145 153 0 144 153 0 144 153 0 144
153 0 144 153 0 143 153 0 143 153 0 143 153 0 143 153 0 143 153 0 142
153 0 142 153 0 142 153 0 142 154 0 141 154 0 141 154 0 141 154 0 141
154 0 141 154 0 140 154 0 0 154 0 0 154 0 0 154 0 0 154 0 0 154 0 0
154 0 0 154 0 0 154 0 0 154 0 0 154 0 0 154 0 0 154 0 0 155 0 0 155 0
0 155 0 0 155 0 0 155 0 0 155 0 0 155 0 0 155 0 0 155 0 0 155 0 136
155 0 135 155 0 135 155 0 135 155 0 135 155 0 135 155 0 134 155 0 134
155 0 0 155 0 0 155 0 0 155 0 0 155 0 0 155 0 0 155 0 0 155 0 0 155 0
0 155 0 0 155 0 0 155 0 0 155 0 0 155 0 0 155 0 0 155 0 131 155 0 131
155 0 131 155 0 130 155 0 130 155 0 130 155 0 130 155 0 130 155 0 129
156 0 129 156 0 129 156 0 129 156 0 129 156 0 129 156 0 128 156 0 128
156 0 128 156 0 128 156 0 128 155 0 127 155 0 127 155 0 127 155 0 0
155 0 0 155 0 0 155 0
0 134 0 0 134 0 0 135 0 0 135 0 0 135 0 187 135 0 187 135 0 187 135 0
187 135 0 186 136 0 186 136 0 186 136 0 186 136 0 185 136 0 185 136 0
185 136 0 184 136 0 184 137 0 184 137 0 184 137 0 183 137 0 183 137 0
183 137 0 182 137 0 182 138 0 182 138 0 182 138 0 0 138 0 0 138 0 0
138 0 0 138 0 0 138 0 0 139 0 0 139 0 0 139 0 0 139 0 0 139 0 0 139 0
0 139 0 0 140 0 0 140 0 0 140 0 0 140 0 0 140 0 0 140 0 0 140 0 0 140
0 0 141 0 0 141 0 0 141 0 175 141 0 0 141 0 0 141 0 0 141 0 0 141 0 0
142 0 0 142 0 0 142 0 0 142 0 0 142 0 0 142 0 0 142 0 0 142 0 0 143 0
0 143 0 0 143 0 0 143 0 0 143 0 0 143 0 0 143 0 0 143 0 0 144 0 0 144
0 168 144 0 168 144 0 168 144 0 168 144 0 167 144 0 167 144 0 167 145
0 167 145 0 166 145 0 166 145 0 166 145 0 165 145 0 165 145 0 165 145
0 165 146 0 164 146 0 164 146 0 164 146 0 164 146 0 163 146 0 163 146
0 163 146 0 0 146 0 0 147 0 0 147 0 0 147 0 0 147 0 0 147 0 0 147 0 0
147 0 0 147 0 0 147 0 0 148 0 0 148 0 0 148 0 159 148 0 159 148 0 159
148 0 158 148 0 158 148 0 158 148 0 158 149 0 157 149 0 157 149 0 157
149 0 0 149 0 0 149 0 0 149 0 0 149 0 0 149 0 0 149 0 0 150 0 0 150 0
0 150 0 0 150 0 0 150 0 0 150 0 0 150 0 0 150 0 0 150 0 0 150 0 0 151
0 0 151 0 0 151 0 0 151 0 0 151 0 0 151 0 151 151 0 151 151 0 151 151
0 150 151 0 150 151 0 150 152 0 150 152 0 149 152 0 149 152 0 149 152
0 149 152 0 148 152 0 148 152 0 148 152 0 148 152 0 147 152 0 147 152
0 147 152 0 147 153 0 146 153 0 146 153 0 146 153 0 146 153 0 0 153 0
145 153 0 145 153 0 145 153 0 145 153 0 144 153 0 144 153 0 144 153 0
144 154 0 144 154 0 143 154 0 143 154 0 143 154 0 143 154 0 142 154 0
142 154 0 142 154 0 142 154 0 142 154 0 141 154 0 141 154 0 141 154 0
141 154 0 0 154 0 0 154 0 0 155 0 0 155 0 0 155 0 0 155 0 0 155 0 0
155 0 0 155 0 0 155 0 0 155 0 0 155 0 0 155 0 0 155 0 0 155 0 0 155 0
0 155 0 0 155 0 0 155 0 0 155 0 0 155 0 0 155 0 136 155 0 136 155 0
135 155 0 135 155 0 135 156 0 135 156 0 135 156 0 134 156 0 134 156 0
134 156 0 134 156 0 134 156 0 133 156 0 0 156 0 0 156 0 0 156 0 0 156
0 0 156 0 0 156 0 0 156 0 0 156 0 0 156 0 0 156 0 131 156 0 131 156 0
131 156 0 131 156 0 130 156 0 130 156 0 130 156 0 130 156 0 130 156 0
130 156 0 129 156 0 129 156 0 129 156 0 129 156 0 129 156 0 128 156 0
128 156 0 128 156 0 128 156 0 128 156 0 128 156 0 127 156 0 0 156 0 0
156 0 0 156 0
0 135 0 0 135 0 0 135 0 188 135 0 188 135 0 188 135 0 187 136 0 187
136 0 187 136 0 187 136 0 186 136 0 186 136 0 186 136 0 185 136 0 185
137 0 185 137 0 185 137 0 184 137 0 184 137 0 184 137 0 183 137 0 183
138 0 183 138 0 183 138 0 182 138 0 182 138 0 0 138 0 0 138 0 0 138 0
0 139 0 0 139 0 0 139 0 0 139 0 0 139 0 0 139 0 0 139 0 0 140 0 0 140
0 0 140 0 0 140 0 0 140 0 0 140 0 0 140 0 0 140 0 0 141 0 0 141 0 0
141 0 0 141 0 0 141 0 175 141 0 175 141 0 175 142 0 174 142 0 174 142
0 174 142 0 0 142 0 0 142 0 0 142 0 0 142 0 0 143 0 0 143 0 0 143 0 0
143 0 0 143 0 0 143 0 0 143 0 0 143 0 0 144 0 0 144 0 0 144 0 0 144 0
169 144 0 169 144 0 169 144 0 168 144 0 168 145 0 168 145 0 168 145 0
167 145 0 167 145 0 167 145 0 166 145 0 166 145 0 166 145 0 166 146 0
165 146 0 165 146 0 165 146 0 165 146 0 164 146 0 164 146 0 164 146 0
164 147 0 163 147 0 0 147 0 0 147 0 0 147 0 0 147 0 0 147 0 0 147 0 0
147 0 0 148 0 0 148 0 0 148 0 0 148 0 0 148 0 0 148 0 0 148 0 0 148 0
0 148 0 0 149 0 0 149 0 158 149 0 158 149 0 158 149 0 157 149 0 157
149 0 0 149 0 0 149 0 0 149 0 0 150 0 0 150 0 0 150 0 0 150 0 0 150 0
0 150 0 0 150 0 0 150 0 0 150 0 0 150 0 0 151 0 0 151 0 0 151 0 0 151
0 0 151 0 0 151 0 0 151 0 0 151 0 0 151 0 0 151 0 151 152 0 151 152 0
151 152 0 151 152 0 150 152 0 150 152 0 150 152 0 150 152 0 149 152 0
149 152 0 149 152 0 149 152 0 148 153 0 148 153 0 148 153 0 148 153 0
147 153 0 147 153 0 147 153 0 147 153 0 147 153 0 146 153 0 0 153 0 0
153 0 0 153 0 0 154 0 0 154 0 0 154 0 0 154 0 144 154 0 144 154 0 144
154 0 144 154 0 144 154 0 143 154 0 143 154 0 143 154 0 143 154 0 142
154 0 142 154 0 142 155 0 142 155 0 142 155 0 141 155 0 141 155 0 0
155 0 0 155 0 0 155 0 0 155 0 0 155 0 0 155 0 0 155 0 0 155 0 0 155 0
0 155 0 0 155 0 0 155 0 0 155 0 0 155 0 0 155 0 0 156 0 0 156 0 0 156
0 0 156 0 0 156 0 0 156 0 0 156 0 0 156 0 136 156 0 136 156 0 136 156
0 135 156 0 135 156 0 135 156 0 135 156 0 135 156 0 134 156 0 134 156
0 134 156 0 134 156 0 134 156 0 133 156 0 133 156 0 133 156 0 133 156
0 133 156 0 0 156 0 0 156 0 0 156 0 0 156 0 0 156 0 132 156 0 131 156
0 131 156 0 131 156 0 131 156 0 131 156 0 130 156 0 130 156 0 130 156
0 130 156 0 130 156 0 129 156 0 129 156 0 129 156 0 129 157 0 129 156
0 129 156 0 128 156 0 128 156 0 128 156 0 128 156 0 128 156 0 127 156
0 0 156 0 0 156 0
189 135 0 189 135 0 189 135 0 188 136 0 188 136 0 188 136 0 188 136 0
187 136 0 187 136 0 187 136 0 186 136 0 186 137 0 186 137 0 186 137 0
185 137 0 185 137 0 185 137 0 185 137 0 184 138 0 184 138 0 184 138 0
183 138 0 183 138 0 183 138 0 0 138 0 0 139 0 0 139 0 0 139 0 0 139 0
0 139 0 0 139 0 0 139 0 0 139 0 0 140 0 0 140 0 0 140 0 0 140 0 0 140
0 0 140 0 0 140 0 0 140 0 0 141 0 0 141 0 0 141 0 0 141 0 0 141 0 0
141 0 176 141 0 176 142 0 176 142 0 175 142 0 175 142 0 175 142 0 174
142 0 174 142 0 174 142 0 174 143 0 173 143 0 0 143 0 0 143 0 0 143 0
0 143 0 0 143 0 0 143 0 0 144 0 0 144 0 0 144 0 0 144 0 0 144 0 0 144
0 170 144 0 169 144 0 169 145 0 169 145 0 169 145 0 168 145 0 168 145
0 168 145 0 167 145 0 167 145 0 167 146 0 167 146 0 166 146 0 166 146
0 166 146 0 166 146 0 165 146 0 165 146 0 165 146 0 165 147 0 164 147
0 164 147 0 164 147 0 0 147 0 0 147 0 0 147 0 0 147 0 0 148 0 0 148 0
0 148 0 0 148 0 0 148 0 0 148 0 0 148 0 0 148 0 0 148 0 0 149 0 0 149
0 0 149 0 0 149 0 0 149 0 0 149 0 0 149 0 0 149 0 0 149 0 0 149 0 0
150 0 0 150 0 0 150 0 0 150 0 0 150 0 0 150 0 0 150 0 0 150 0 0 150 0
0 151 0 0 151 0 0 151 0 0 151 0 0 151 0 0 151 0 0 151 0 0 151 0 0 151
0 0 151 0 0 151 0 0 152 0 0 152 0 0 152 0 152 152 0 151 152 0 151 152
0 151 152 0 151 152 0 151 152 0 150 152 0 150 152 0 150 153 0 150 153
0 149 153 0 149 153 0 149 153 0 149 153 0 148 153 0 148 153 0 148 153
0 148 153 0 147 153 0 147 153 0 147 154 0 147 154 0 147 154 0 0 154 0
0 154 0 0 154 0 0 154 0 0 154 0 0 154 0 0 154 0 0 154 0 0 154 0 0 154
0 0 154 0 144 155 0 144 155 0 143 155 0 143 155 0 143 155 0 143 155 0
142 155 0 142 155 0 142 155 0 142 155 0 142 155 0 141 155 0 0 155 0 0
155 0 0 155 0 0 155 0 0 155 0 0 156 0 0 156 0 0 156 0 0 156 0 0 156 0
0 156 0 0 156 0 0 156 0 0 156 0 0 156 0 0 156 0 0 156 0 0 156 0 0 156
0 0 156 0 0 156 0 0 156 0 0 156 0 136 156 0 136 156 0 136 156 0 136
156 0 136 156 0 135 156 0 135 156 0 135 157 0 135 157 0 135 157 0 134
157 0 134 157 0 134 157 0 134 157 0 134 157 0 133 157 0 133 157 0 133
157 0 133 157 0 133 157 0 132 157 0 132 157 0 0 157 0 132 157 0 132
157 0 131 157 0 131 157 0 131 157 0 131 157 0 131 157 0 130 157 0 130
157 0 130 157 0 130 157 0 130 157 0 130 157 0 129 157 0 129 157 0 129
157 0 129 157 0 129 157 0 128 157 0 128 157 0 128 157 0 128 157 0 128
157 0 0 157 0 0 157 0
0 136 0 0 136 0 0 136 0 0 136 0 188 136 0 188 136 0 188 136 0 187 136
0 187 137 0 187 137 0 187 137 0 186 137 0 186 137 0 186 137 0 186 137
0 185 138 0 185 138 0 185 138 0 184 138 0 184 138 0 184 138 0 184 138
0 183 139 0 0 139 0 0 139 0 0 139 0 0 139 0 0 139 0 0 139 0 0 139 0 0
140 0 0 140 0 0 140 0 0 140 0 0 140 0 0 140 0 0 140 0 0 141 0 0 141 0
0 141 0 0 141 0 0 141 0 0 141 0 0 141 0 0 141 0 0 142 0 177 142 0 176
142 0 176 142 0 176 142 0 175 142 0 175 142 0 175 142 0 175 143 0 174
143 0 174 143 0 174 143 0 173 143 0 173 143 0 173 143 0 173 143 0 172
144 0 0 144 0 0 144 0 0 144 0 0 144 0 0 144 0 0 144 0 0 144 0 170 145
0 170 145 0 170 145 0 169 145 0 169 145 0 169 145 0 168 145 0 168 145
0 168 146 0 168 146 0 167 146 0 167 146 0 167 146 0 167 146 0 166 146
0 166 146 0 166 147 0 166 147 0 165 147 0 165 147 0 165 147 0 164 147
0 164 147 0 0 147 0 0 147 0 0 148 0 0 148 0 0 148 0 0 148 0 0 148 0 0
148 0 0 148 0 0 148 0 0 149 0 0 149 0 0 149 0 0 149 0 0 149 0 0 149 0
0 149 0 0 149 0 0 149 0 0 149 0 0 150 0 0 150 0 0 150 0 158 150 0 158
150 0 157 150 0 157 150 0 157 150 0 0 150 0 0 151 0 0 151 0 0 151 0 0
151 0 0 151 0 0 151 0 0 151 0 0 151 0 0 151 0 0 151 0 0 152 0 0 152 0
0 152 0 0 152 0 0 152 0 0 152 0 0 152 0 0 152 0 152 152 0 152 152 0
151 152 0 151 153 0 151 153 0 151 153 0 151 153 0 150 153 0 150 153 0
150 153 0 150 153 0 149 153 0 149 153 0 149 153 0 149 153 0 148 154 0
148 154 0 148 154 0 148 154 0 147 154 0 147 154 0 147 154 0 147 154 0
0 154 0 0 154 0 0 154 0 0 154 0 0 154 0 0 155 0 0 155 0 0 155 0 0 155
0 0 155 0 0 155 0 0 155 0 0 155 0 0 155 0 0 155 0 0 155 0 143 155 0
143 155 0 142 155 0 142 155 0 142 156 0 142 156 0 142 156 0 0 156 0 0
156 0 0 156 0 0 156 0 0 156 0 0 156 0 0 156 0 0 156 0 0 156 0 0 156 0
0 156 0 0 156 0 0 156 0 0 156 0 0 156 0 0 156 0 0 156 0 0 157 0 0 157
0 0 157 0 0 157 0 0 157 0 0 157 0 137 157 0 136 157 0 136 157 0 136
157 0 136 157 0 136 157 0 135 157 0 135 157 0 135 157 0 135 157 0 135
157 0 134 157 0 134 157 0 134 157 0 134 157 0 134 157 0 133 157 0 133
157 0 133 157 0 133 157 0 133 157 0 132 157 0 132 157 0 0 157 0 0 157
0 0 157 0 0 157 0 131 157 0 131 157 0 131 157 0 131 157 0 131 157 0
130 157 0 130 157 0 130 157 0 130 157 0 130 157 0 129 157 0 129 157 0
129 157 0 129 157 0 129 157 0 129 157 0 128 157 0 128 157 0 128 157 0
0 157 0 0 157 0
0 136 0 0 136 0 0 136 0 0 136 0 0 136 0 0 137 0 0 137 0 188 137 0 187
137 0 187 137 0 187 137 0 187 137 0 186 138 0 186 138 0 186 138 0 185
138 0 185 138 0 185 138 0 185 138 0 184 139 0 184 139 0 184 139 0 0
139 0 0 139 0 0 139 0 0 139 0 0 139 0 0 140 0 0 140 0 0 140 0 0 140 0
0 140 0 0 140 0 0 140 0 0 141 0 0 141 0 0 141 0 0 141 0 0 141 0 0 141
0 0 141 0 0 141 0 0 142 0 0 142 0 0 142 0 177 142 0 177 142 0 176 142
0 176 142 0 176 142 0 176 143 0 175 143 0 175 143 0 175 143 0 174 143
0 174 143 0 174 143 0 174 144 0 173 144 0 173 144 0 173 144 0 173 144
0 172 144 0 172 144 0 172 144 0 171 145 0 0 145 0 0 145 0 171 145 0
170 145 0 170 145 0 170 145 0 169 145 0 169 146 0 169 146 0 169 146 0
168 146 0 168 146 0 168 146 0 168 146 0 167 146 0 167 146 0 167 147 0
167 147 0 166 147 0 166 147 0 166 147 0 165 147 0 165 147 0 165 147 0
165 148 0 0 148 0 0 148 0 0 148 0 0 148 0 0 148 0 0 148 0 0 148 0 0
148 0 0 149 0 0 149 0 0 149 0 0 149 0 0 149 0 0 149 0 0 149 0 0 149 0
0 149 0 0 150 0 0 150 0 0 150 0 0 150 0 0 150 0 0 150 0 0 150 0 158
150 0 158 150 0 158 151 0 157 151 0 157 151 0 157 151 0 157 151 0 156
151 0 156 151 0 0 151 0 0 151 0 0 151 0 0 152 0 0 152 0 0 152 0 0 152
0 0 152 0 0 152 0 0 152 0 0 152 0 0 152 0 0 152 0 0 152 0 152 153 0
152 153 0 152 153 0 152 153 0 151 153 0 151 153 0 151 153 0 151 153 0
150 153 0 150 153 0 150 153 0 150 154 0 150 154 0 149 154 0 149 154 0
149 154 0 149 154 0 148 154 0 148 154 0 148 154 0 148 154 0 147 154 0
147 154 0 0 155 0 0 155 0 0 155 0 0 155 0 0 155 0 0 155 0 0 155 0 0
155 0 0 155 0 0 155 0 0 155 0 0 155 0 0 155 0 0 155 0 0 156 0 0 156 0
0 156 0 0 156 0 0 156 0 0 156 0 0 156 0 142 156 0 142 156 0 142 156 0
0 156 0 0 156 0 0 156 0 0 156 0 0 156 0 0 156 0 0 156 0 0 156 0 0 157
0 0 157 0 0 157 0 0 157 0 0 157 0 0 157 0 0 157 0 0 157 0 0 157 0 0
157 0 0 157 0 0 157 0 0 157 0 0 157 0 0 157 0 137 157 0 137 157 0 136
157 0 136 157 0 136 157 0 136 157 0 136 157 0 135 157 0 135 157 0 135
157 0 135 158 0 135 158 0 134 158 0 134 158 0 134 158 0 134 158 0 134
158 0 133 158 0 133 158 0 133 158 0 133 158 0 133 158 0 133 158 0 0
158 0 0 158 0 0 158 0 0 158 0 0 158 0 0 158 0 0 158 0 0 158 0 0 158 0
131 158 0 130 158 0 130 158 0 130 158 0 130 158 0 130 158 0 130 158 0
129 158 0 129 158 0 129 158 0 129 158 0 129 158 0 128 158 0 128 158 0
0 158 0 0 158 0
0 136 0 0 136 0 0 137 0 0 137 0 0 137 0 0 137 0 0 137 0 0 137 0 0 137
0 0 138 0 0 138 0 187 138 0 186 138 0 186 138 0 186 138 0 186 138 0
185 139 0 185 139 0 185 139 0 184 139 0 0 139 0 0 139 0 0 139 0 0 139
0 0 140 0 0 140 0 0 140 0 0 140 0 0 140 0 0 140 0 0 140 0 0 141 0 0
141 0 0 141 0 0 141 0 0 141 0 0 141 0 0 141 0 0 141 0 0 142 0 0 142 0
0 142 0 0 142 0 0 142 0 177 142 0 177 142 0 177 142 0 177 143 0 176
143 0 176 143 0 176 143 0 175 143 0 175 143 0 175 143 0 175 144 0 174
144 0 174 144 0 174 144 0 174 144 0 173 144 0 173 144 0 173 144 0 172
145 0 172 145 0 172 145 0 172 145 0 171 145 0 0 145 0 0 145 0 170 145
0 170 146 0 170 146 0 170 146 0 169 146 0 169 146 0 169 146 0 169 146
0 168 146 0 168 147 0 168 147 0 167 147 0 167 147 0 167 147 0 167 147
0 166 147 0 166 147 0 166 147 0 166 148 0 165 148 0 165 148 0 0 148 0
0 148 0 0 148 0 0 148 0 0 148 0 0 149 0 0 149 0 0 149 0 0 149 0 0 149
0 0 149 0 0 149 0 0 149 0 0 149 0 0 150 0 0 150 0 0 150 0 0 150 0 0
150 0 0 150 0 0 150 0 0 150 0 0 150 0 0 151 0 159 151 0 158 151 0 158
151 0 158 151 0 158 151 0 157 151 0 157 151 0 157 151 0 157 151 0 156
152 0 156 152 0 156 152 0 156 152 0 155 152 0 0 152 0 0 152 0 0 152 0
0 152 0 0 152 0 0 153 0 0 153 0 0 153 0 0 153 0 153 153 0 153 153 0
152 153 0 152 153 0 152 153 0 152 153 0 151 153 0 151 154 0 151 154 0
151 154 0 150 154 0 150 154 0 150 154 0 150 154 0 150 154 0 149 154 0
149 154 0 149 154 0 149 154 0 148 155 0 148 155 0 148 155 0 148 155 0
147 155 0 0 155 0 0 155 0 0 155 0 0 155 0 0 155 0 0 155 0 0 155 0 0
155 0 0 156 0 0 156 0 0 156 0 0 156 0 0 156 0 0 156 0 0 156 0 0 156 0
0 156 0 0 156 0 0 156 0 0 156 0 0 156 0 0 156 0 0 156 0 142 156 0 142
157 0 142 157 0 0 157 0 0 157 0 0 157 0 0 157 0 0 157 0 0 157 0 0 157
0 0 157 0 0 157 0 0 157 0 0 157 0 0 157 0 0 157 0 0 157 0 0 157 0 0
157 0 0 157 0 0 157 0 0 158 0 0 158 0 0 158 0 137 158 0 137 158 0 137
158 0 137 158 0 136 158 0 136 158 0 136 158 0 136 158 0 136 158 0 135
158 0 135 158 0 135 158 0 135 158 0 135 158 0 134 158 0 134 158 0 134
158 0 134 158 0 134 158 0 133 158 0 133 158 0 133 158 0 133 158 0 0
158 0 0 158 0 0 158 0 0 158 0 0 158 0 0 158 0 0 158 0 0 158 0 0 158 0
0 158 0 0 158 0 0 158 0 0 158 0 0 158 0 130 158 0 130 158 0 130 158 0
129 158 0 129 158 0 129 158 0 129 158 0 129 158 0 129 158 0 128 158 0
0 158 0
0 137 0 0 137 0 0 137 0 0 137 0 0 137 0 0 137 0 0 138 0 0 138 0 0 138
0 0 138 0 0 138 0 0 138 0 0 138 0 0 139 0 186 139 0 186 139 0 185 139
0 185 139 0 185 139 0 0 139 0 0 139 0 0 140 0 0 140 0 0 140 0 0 140 0
0 140 0 0 140 0 0 140 0 0 141 0 0 141 0 0 141 0 0 141 0 0 141 0 0 141
0 0 141 0 0 141 0 0 142 0 0 142 0 0 142 0 0 142 0 0 142 0 0 142 0 178
142 0 178 142 0 178 143 0 177 143 0 177 143 0 177 143 0 176 143 0 176
143 0 176 143 0 176 144 0 175 144 0 175 144 0 175 144 0 175 144 0 174
144 0 174 144 0 174 144 0 173 145 0 173 145 0 173 145 0 173 145 0 172
145 0 172 145 0 172 145 0 0 145 0 0 146 0 0 146 0 0 146 0 0 146 0 0
146 0 0 146 0 170 146 0 169 146 0 169 147 0 169 147 0 168 147 0 168
147 0 168 147 0 168 147 0 167 147 0 167 147 0 167 148 0 167 148 0 166
148 0 166 148 0 166 148 0 166 148 0 165 148 0 0 148 0 0 148 0 0 149 0
0 149 0 0 149 0 0 149 0 0 149 0 0 149 0 0 149 0 0 149 0 0 149 0 0 150
0 0 150 0 0 150 0 0 150 0 0 150 0 0 150 0 0 150 0 0 150 0 0 150 0 0
151 0 0 151 0 0 151 0 159 151 0 159 151 0 159 151 0 158 151 0 158 151
0 158 151 0 158 152 0 157 152 0 157 152 0 157 152 0 157 152 0 156 152
0 156 152 0 156 152 0 156 152 0 155 152 0 155 153 0 155 153 0 155 153
0 0 153 0 0 153 0 0 153 0 0 153 0 0 153 0 153 153 0 153 153 0 153 153
0 152 154 0 152 154 0 152 154 0 152 154 0 151 154 0 151 154 0 151 154
0 151 154 0 150 154 0 150 154 0 150 154 0 150 155 0 150 155 0 149 155
0 149 155 0 149 155 0 149 155 0 148 155 0 148 155 0 148 155 0 0 155 0
0 155 0 0 155 0 0 155 0 0 156 0 0 156 0 0 156 0 0 156 0 0 156 0 0 156
0 0 156 0 0 156 0 0 156 0 0 156 0 0 156 0 0 156 0 0 156 0 0 156 0 0
157 0 0 157 0 0 157 0 0 157 0 0 157 0 0 157 0 142 157 0 142 157 0 142
157 0 142 157 0 141 157 0 141 157 0 141 157 0 0 157 0 0 157 0 0 157 0
0 157 0 0 158 0 0 158 0 0 158 0 0 158 0 0 158 0 0 158 0 0 158 0 0 158
0 0 158 0 0 158 0 0 158 0 0 158 0 0 158 0 137 158 0 137 158 0 137 158
0 137 158 0 137 158 0 136 158 0 136 158 0 136 158 0 136 158 0 136 158
0 135 158 0 135 158 0 135 158 0 135 159 0 135 159 0 134 159 0 134 159
0 134 159 0 134 159 0 134 159 0 133 159 0 133 159 0 133 159 0 0 159 0
0 159 0 0 159 0 0 159 0 0 159 0 0 159 0 0 159 0 0 159 0 0 159 0 0 159
0 0 159 0 0 159 0 0 159 0 0 159 0 0 159 0 0 159 0 0 159 0 0 159 0 0
159 0 129 159 0 129 159 0 129 159 0 129 159 0 129 159 0 0 159 0
0 137 0 0 137 0 0 137 0 0 138 0 0 138 0 0 138 0 0 138 0 0 138 0 0 138
0 0 138 0 0 139 0 0 139 0 0 139 0 0 139 0 0 139 0 0 139 0 0 139 0 0
139 0 0 140 0 0 140 0 0 140 0 0 140 0 0 140 0 0 140 0 0 140 0 0 141 0
0 141 0 0 141 0 0 141 0 0 141 0 0 141 0 0 141 0 0 141 0 0 142 0 0 142
0 0 142 0 0 142 0 0 142 0 0 142 0 0 142 0 0 142 0 179 143 0 178 143 0
178 143 0 178 143 0 177 143 0 177 143 0 177 143 0 177 144 0 176 144 0
176 144 0 176 144 0 175 144 0 175 144 0 175 144 0 175 144 0 174 145 0
174 145 0 174 145 0 174 145 0 173 145 0 173 145 0 173 145 0 172 145 0
172 146 0 0 146 0 0 146 0 0 146 0 0 146 0 0 146 0 0 146 0 0 146 0 0
147 0 0 147 0 0 147 0 0 147 0 0 147 0 169 147 0 168 147 0 168 147 0
168 148 0 168 148 0 167 148 0 167 148 0 167 148 0 166 148 0 166 148 0
166 148 0 166 149 0 0 149 0 0 149 0 0 149 0 0 149 0 0 149 0 0 149 0 0
149 0 0 149 0 0 150 0 0 150 0 0 150 0 0 150 0 0 150 0 0 150 0 0 150 0
0 150 0 0 150 0 0 151 0 0 151 0 0 151 0 0 151 0 0 151 0 0 151 0 159
151 0 159 151 0 159 151 0 159 152 0 158 152 0 158 152 0 158 152 0 158
152 0 157 152 0 157 152 0 157 152 0 157 152 0 156 152 0 156 153 0 156
153 0 156 153 0 155 153 0 155 153 0 155 153 0 155 153 0 154 153 0 154
153 0 154 153 0 154 154 0 154 154 0 153 154 0 153 154 0 153 154 0 153
154 0 152 154 0 152 154 0 152 154 0 152 154 0 151 154 0 151 155 0 151
155 0 151 155 0 150 155 0 150 155 0 150 155 0 150 155 0 150 155 0 149
155 0 149 155 0 149 155 0 149 155 0 148 156 0 148 156 0 0 156 0 0 156
0 0 156 0 0 156 0 0 156 0 0 156 0 0 156 0 0 156 0 0 156 0 0 156 0 0
156 0 0 156 0 0 157 0 0 157 0 0 157 0 0 157 0 0 157 0 0 157 0 0 157 0
0 157 0 0 157 0 0 157 0 0 157 0 0 157 0 143 157 0 142 157 0 142 157 0
142 158 0 142 158 0 142 158 0 141 158 0 141 158 0 141 158 0 141 158 0
140 158 0 140 158 0 0 158 0 0 158 0 0 158 0 0 158 0 0 158 0 0 158 0 0
158 0 0 158 0 0 158 0 0 158 0 0 158 0 0 158 0 138 159 0 137 159 0 137
159 0 137 159 0 137 159 0 137 159 0 136 159 0 136 159 0 136 159 0 136
159 0 136 159 0 135 159 0 135 159 0 135 159 0 135 159 0 135 159 0 134
159 0 134 159 0 134 159 0 134 159 0 134 159 0 133 159 0 133 159 0 0
159 0 0 159 0 0 159 0 0 159 0 0 159 0 0 159 0 0 159 0 0 159 0 0 159 0
0 159 0 0 159 0 0 159 0 0 159 0 0 159 0 0 159 0 0 159 0 0 159 0 0 159
0 0 159 0 0 159 0 0 159 0 0 159 0 0 159 0 0 159 0 0 159 0
0 138 0 0 138 0 0 138 0 0 138 0 0 138 0 0 138 0 0 138 0 0 138 0 0 139
0 0 139 0 0 139 0 0 139 0 0 139 0 0 139 0 0 139 0 0 140 0 186 140 0
185 140 0 185 140 0 185 140 0 0 140 0 0 140 0 0 141 0 0 141 0 0 141 0
0 141 0 0 141 0 0 141 0 0 141 0 0 141 0 0 142 0 0 142 0 0 142 0 0 142
0 0 142 0 0 142 0 0 142 0 0 142 0 0 143 0 0 143 0 179 143 0 179 143 0
178 143 0 178 143 0 178 143 0 178 144 0 177 144 0 177 144 0 177 144 0
176 144 0 176 144 0 176 144 0 176 144 0 175 145 0 175 145 0 175 145 0
175 145 0 174 145 0 174 145 0 174 145 0 173 145 0 173 146 0 173 146 0
173 146 0 0 146 0 0 146 0 0 146 0 0 146 0 0 146 0 0 147 0 0 147 0 0
147 0 0 147 0 0 147 0 0 147 0 0 147 0 0 147 0 0 148 0 0 148 0 0 148 0
168 148 0 168 148 0 167 148 0 167 148 0 167 148 0 167 149 0 166 149 0
166 149 0 0 149 0 0 149 0 0 149 0 0 149 0 0 149 0 0 149 0 0 150 0 0
150 0 0 150 0 0 150 0 0 150 0 0 150 0 0 150 0 0 150 0 0 151 0 0 151 0
0 151 0 0 151 0 0 151 0 0 151 0 0 151 0 0 151 0 0 151 0 0 151 0 160
152 0 159 152 0 159 152 0 159 152 0 159 152 0 158 152 0 158 152 0 158
152 0 158 152 0 157 153 0 157 153 0 157 153 0 157 153 0 156 153 0 156
153 0 156 153 0 156 153 0 155 153 0 155 153 0 155 154 0 155 154 0 154
154 0 154 154 0 154 154 0 0 154 0 0 154 0 0 154 0 0 154 0 153 154 0
153 154 0 152 155 0 152 155 0 152 155 0 152 155 0 151 155 0 151 155 0
151 155 0 151 155 0 150 155 0 150 155 0 150 155 0 150 156 0 149 156 0
149 156 0 149 156 0 149 156 0 149 156 0 148 156 0 0 156 0 0 156 0 0
156 0 0 156 0 0 156 0 0 156 0 0 157 0 0 157 0 0 157 0 0 157 0 0 157 0
0 157 0 0 157 0 0 157 0 0 157 0 0 157 0 0 157 0 0 157 0 0 157 0 0 157
0 0 157 0 0 158 0 0 158 0 0 158 0 143 158 0 143 158 0 142 158 0 142
158 0 142 158 0 142 158 0 142 158 0 141 158 0 141 158 0 141 158 0 141
158 0 140 158 0 140 158 0 140 158 0 140 158 0 140 159 0 0 159 0 0 159
0 0 159 0 0 159 0 0 159 0 0 159 0 0 159 0 0 159 0 138 159 0 138 159 0
137 159 0 137 159 0 137 159 0 137 159 0 137 159 0 136 159 0 136 159 0
136 159 0 136 159 0 136 159 0 135 159 0 135 159 0 135 159 0 135 159 0
135 159 0 135 159 0 134 160 0 134 160 0 134 160 0 134 160 0 134 160 0
133 160 0 0 160 0 0 160 0 0 160 0 0 160 0 0 160 0 0 160 0 0 160 0 0
160 0 0 160 0 0 160 0 0 160 0 0 160 0 0 160 0 0 160 0 0 160 0 0 160 0
0 160 0 0 160 0 0 160 0 0 160 0 0 160 0 0 160 0 0 160 0 0 160 0
0 138 0 0 138 0 0 138 0 0 138 0 0 138 0 0 139 0 0 139 0 0 139 0 0 139
0 0 139 0 0 139 0 0 139 0 0 140 0 0 140 0 186 140 0 186 140 0 186 140
0 186 140 0 185 140 0 185 140 0 185 141 0 184 141 0 184 141 0 184 141
0 0 141 0 0 141 0 0 141 0 0 142 0 0 142 0 0 142 0 0 142 0 0 142 0 0
142 0 0 142 0 0 142 0 0 143 0 0 143 0 0 143 0 180 143 0 179 143 0 179
143 0 179 143 0 179 144 0 178 144 0 178 144 0 178 144 0 177 144 0 177
144 0 177 144 0 177 144 0 176 145 0 176 145 0 176 145 0 176 145 0 175
145 0 175 145 0 175 145 0 174 145 0 174 146 0 174 146 0 174 146 0 173
146 0 173 146 0 0 146 0 0 146 0 0 146 0 0 147 0 0 147 0 0 147 0 0 147
0 0 147 0 0 147 0 0 147 0 0 147 0 0 148 0 0 148 0 0 148 0 0 148 0 0
148 0 0 148 0 0 148 0 0 148 0 0 149 0 0 149 0 167 149 0 167 149 0 167
149 0 0 149 0 0 149 0 0 149 0 0 150 0 0 150 0 0 150 0 0 150 0 0 150 0
0 150 0 0 150 0 0 150 0 0 150 0 0 151 0 0 151 0 0 151 0 0 151 0 0 151
0 0 151 0 0 151 0 0 151 0 0 151 0 0 152 0 0 152 0 0 152 0 160 152 0
160 152 0 160 152 0 159 152 0 159 152 0 159 152 0 159 153 0 158 153 0
158 153 0 158 153 0 158 153 0 157 153 0 157 153 0 157 153 0 157 153 0
156 153 0 156 154 0 156 154 0 156 154 0 155 154 0 155 154 0 155 154 0
155 154 0 154 154 0 0 154 0 0 154 0 0 155 0 0 155 0 0 155 0 0 155 0 0
155 0 0 155 0 0 155 0 152 155 0 152 155 0 152 155 0 151 155 0 151 155
0 151 156 0 151 156 0 150 156 0 150 156 0 150 156 0 150 156 0 149 156
0 149 156 0 149 156 0 149 156 0 0 156 0 0 156 0 0 157 0 0 157 0 0 157
0 0 157 0 0 157 0 0 157 0 0 157 0 0 157 0 0 157 0 0 157 0 0 157 0 0
157 0 0 157 0 0 158 0 0 158 0 0 158 0 0 158 0 0 158 0 0 158 0 0 158 0
0 158 0 0 158 0 143 158 0 143 158 0 143 158 0 143 158 0 142 158 0 142
158 0 142 158 0 142 159 0 142 159 0 141 159 0 141 159 0 141 159 0 141
159 0 141 159 0 140 159 0 140 159 0 140 159 0 140 159 0 139 159 0 139
159 0 139 159 0 139 159 0 0 159 0 0 159 0 0 159 0 138 159 0 138 159 0
138 159 0 137 159 0 137 160 0 137 160 0 137 160 0 137 160 0 136 160 0
136 160 0 136 160 0 136 160 0 136 160 0 136 160 0 135 160 0 135 160 0
135 160 0 135 160 0 135 160 0 134 160 0 134 160 0 134 160 0 134 160 0
134 160 0 0 160 0 0 160 0 0 160 0 0 160 0 0 160 0 0 160 0 0 160 0 0
160 0 0 160 0 0 160 0 0 160 0 0 160 0 0 160 0 0 160 0 0 160 0 0 160 0
0 160 0 0 160 0 0 160 0 0 160 0 0 160 0 0 160 0 0 160 0 0 160 0
0 138 0 0 138 0 0 139 0 0 139 0 0 139 0 0 139 0 0 139 0 0 139 0 0 139
0 0 140 0 0 140 0 0 140 0 0 140 0 187 140 0 187 140 0 186 140 0 186
140 0 186 141 0 185 141 0 185 141 0 185 141 0 185 141 0 184 141 0 184
141 0 184 142 0 183 142 0 183 142 0 0 142 0 0 142 0 0 142 0 0 142 0 0
142 0 0 143 0 0 143 0 0 143 0 0 143 0 0 143 0 180 143 0 180 143 0 180
144 0 179 144 0 179 144 0 179 144 0 178 144 0 178 144 0 178 144 0 178
144 0 177 145 0 177 145 0 177 145 0 176 145 0 176 145 0 176 145 0 176
145 0 175 145 0 175 146 0 175 146 0 175 146 0 174 146 0 174 146 0 174
146 0 0 146 0 0 146 0 0 147 0 0 147 0 0 147 0 0 147 0 0 147 0 0 147 0
0 147 0 0 147 0 0 148 0 0 148 0 0 148 0 0 148 0 0 148 0 0 148 0 0 148
0 0 148 0 0 149 0 0 149 0 0 149 0 0 149 0 0 149 0 0 149 0 0 149 0 167
149 0 166 150 0 0 150 0 0 150 0 0 150 0 0 150 0 0 150 0 0 150 0 0 150
0 0 150 0 0 151 0 0 151 0 0 151 0 0 151 0 0 151 0 0 151 0 0 151 0 0
151 0 0 151 0 0 152 0 0 152 0 0 152 0 0 152 0 0 152 0 161 152 0 160
152 0 160 152 0 160 152 0 160 153 0 159 153 0 159 153 0 159 153 0 159
153 0 158 153 0 158 153 0 158 153 0 158 153 0 157 154 0 157 154 0 157
154 0 157 154 0 156 154 0 156 154 0 156 154 0 156 154 0 155 154 0 155
154 0 155 155 0 0 155 0 0 155 0 0 155 0 0 155 0 0 155 0 0 155 0 0 155
0 0 155 0 0 155 0 0 155 0 0 156 0 0 156 0 0 156 0 0 156 0 151 156 0
151 156 0 151 156 0 151 156 0 150 156 0 150 156 0 150 156 0 150 156 0
149 157 0 149 157 0 149 157 0 0 157 0 0 157 0 0 157 0 0 157 0 0 157 0
0 157 0 0 157 0 0 157 0 0 157 0 0 157 0 0 158 0 0 158 0 0 158 0 0 158
0 0 158 0 0 158 0 0 158 0 0 158 0 0 158 0 0 158 0 0 158 0 0 158 0 0
158 0 0 158 0 143 158 0 143 159 0 143 159 0 143 159 0 143 159 0 142
159 0 142 159 0 142 159 0 142 159 0 142 159 0 141 159 0 141 159 0 141
159 0 141 159 0 141 159 0 140 159 0 140 159 0 140 159 0 140 159 0 140
160 0 139 160 0 139 160 0 139 160 0 139 160 0 0 160 0 0 160 0 138 160
0 138 160 0 138 160 0 138 160 0 137 160 0 137 160 0 137 160 0 137 160
0 137 160 0 136 160 0 136 160 0 136 160 0 136 160 0 136 160 0 135 160
0 135 160 0 135 160 0 135 160 0 135 160 0 134 160 0 134 160 0 134 160
0 134 160 0 0 161 0 0 161 0 0 161 0 0 161 0 0 161 0 0 161 0 0 161 0 0
161 0 0 161 0 0 161 0 0 161 0 0 161 0 0 161 0 0 161 0 0 161 0 0 161 0
0 161 0 0 161 0 0 161 0 0 161 0 0 161 0 0 161 0 0 161 0 0 161 0
0 139 0 0 139 0 0 139 0 0 139 0 0 139 0 0 139 0 0 140 0 0 140 0 0 140
0 0 140 0 0 140 0 187 140 0 187 140 0 187 140 0 187 141 0 186 141 0
186 141 0 186 141 0 186 141 0 185 141 0 185 141 0 185 142 0 184 142 0
184 142 0 184 142 0 184 142 0 183 142 0 183 142 0 183 142 0 182 143 0
0 143 0 0 143 0 0 143 0 0 143 0 0 143 0 0 143 0 180 144 0 180 144 0
180 144 0 180 144 0 179 144 0 179 144 0 179 144 0 179 144 0 178 145 0
178 145 0 178 145 0 177 145 0 177 145 0 177 145 0 177 145 0 176 145 0
176 146 0 176 146 0 176 146 0 175 146 0 175 146 0 175 146 0 174 146 0
174 146 0 0 147 0 0 147 0 0 147 0 0 147 0 0 147 0 0 147 0 0 147 0 0
147 0 0 148 0 0 148 0 0 148 0 0 148 0 0 148 0 0 148 0 0 148 0 0 148 0
0 149 0 0 149 0 0 149 0 0 149 0 0 149 0 0 149 0 0 149 0 0 149 0 0 150
0 167 150 0 167 150 0 167 150 0 166 150 0 166 150 0 166 150 0 0 150 0
0 151 0 0 151 0 0 151 0 0 151 0 0 151 0 0 151 0 0 151 0 0 151 0 0 151
0 0 152 0 0 152 0 0 152 0 0 152 0 0 152 0 0 152 0 0 152 0 0 152 0 161
152 0 161 153 0 160 153 0 160 153 0 160 153 0 160 153 0 159 153 0 159
153 0 159 153 0 159 153 0 158 153 0 158 154 0 158 154 0 158 154 0 157
154 0 157 154 0 157 154 0 157 154 0 156 154 0 156 154 0 156 155 0 156
155 0 156 155 0 155 155 0 155 155 0 0 155 0 0 155 0 0 155 0 0 155 0 0
155 0 0 155 0 0 156 0 0 156 0 0 156 0 0 156 0 0 156 0 0 156 0 0 156 0
0 156 0 0 156 0 0 156 0 0 156 0 0 157 0 0 157 0 150 157 0 150 157 0
150 157 0 150 157 0 149 157 0 0 157 0 0 157 0 0 157 0 0 157 0 0 157 0
0 158 0 0 158 0 0 158 0 0 158 0 0 158 0 0 158 0 0 158 0 0 158 0 0 158
0 0 158 0 0 158 0 0 158 0 0 158 0 0 158 0 0 159 0 0 159 0 0 159 0 0
159 0 0 159 0 0 159 0 144 159 0 143 159 0 143 159 0 143 159 0 143 159
0 143 159 0 142 159 0 142 159 0 142 159 0 142 159 0 142 159 0 141 160
0 141 160 0 141 160 0 141 160 0 141 160 0 140 160 0 140 160 0 140 160
0 140 160 0 140 160 0 139 160 0 139 160 0 139 160 0 0 160 0 0 160 0 0
160 0 0 160 0 0 160 0 0 160 0 0 160 0 137 160 0 137 160 0 137 160 0
137 161 0 137 161 0 136 161 0 136 161 0 136 161 0 136 161 0 136 161 0
135 161 0 135 161 0 135 161 0 135 161 0 135 161 0 134 161 0 134 161 0
134 161 0 0 161 0 0 161 0 0 161 0 0 161 0 0 161 0 0 161 0 0 161 0 0
161 0 0 161 0 0 161 0 0 161 0 0 161 0 0 161 0 0 161 0 0 161 0 0 161 0
0 161 0 0 161 0 0 161 0 0 161 0 0 161 0 0 161 0 0 161 0 0 161 0
0 139 0 0 139 0 0 139 0 0 139 0 0 140 0 0 140 0 0 140 0 0 140 0 0 140
0 0 140 0 188 140 0 188 141 0 187 141 0 187 141 0 187 141 0 186 141 0
186 141 0 186 141 0 186 141 0 185 142 0 185 142 0 185 142 0 185 142 0
184 142 0 184 142 0 184 142 0 183 143 0 183 143 0 183 143 0 183 143 0
182 143 0 182 143 0 182 143 0 0 143 0 0 144 0 181 144 0 181 144 0 180
144 0 180 144 0 180 144 0 180 144 0 179 145 0 179 145 0 179 145 0 178
145 0 178 145 0 178 145 0 178 145 0 177 145 0 177 146 0 177 146 0 176
146 0 176 146 0 176 146 0 176 146 0 175 146 0 175 146 0 175 147 0 175
147 0 0 147 0 0 147 0 0 147 0 0 147 0 0 147 0 0 147 0 0 148 0 0 148 0
0 148 0 0 148 0 0 148 0 0 148 0 0 148 0 0 148 0 0 149 0 0 149 0 0 149
0 0 149 0 0 149 0 0 149 0 0 149 0 0 149 0 0 150 0 0 150 0 0 150 0 168
150 0 167 150 0 167 150 0 167 150 0 167 150 0 166 151 0 166 151 0 166
151 0 165 151 0 165 151 0 165 151 0 0 151 0 0 151 0 0 151 0 0 152 0 0
152 0 0 152 0 0 152 0 0 152 0 0 152 0 0 152 0 0 152 0 0 152 0 0 153 0
0 153 0 161 153 0 161 153 0 161 153 0 160 153 0 160 153 0 160 153 0
160 153 0 159 154 0 159 154 0 159 154 0 159 154 0 158 154 0 158 154 0
158 154 0 158 154 0 157 154 0 157 154 0 157 155 0 157 155 0 156 155 0
156 155 0 156 155 0 156 155 0 155 155 0 0 155 0 0 155 0 0 155 0 0 156
0 0 156 0 0 156 0 0 156 0 0 156 0 0 156 0 0 156 0 0 156 0 0 156 0 0
156 0 0 156 0 0 157 0 0 157 0 0 157 0 0 157 0 0 157 0 0 157 0 0 157 0
0 157 0 0 157 0 0 157 0 150 157 0 0 157 0 0 158 0 0 158 0 0 158 0 0
158 0 0 158 0 0 158 0 0 158 0 0 158 0 0 158 0 0 158 0 0 158 0 0 158 0
0 158 0 0 159 0 0 159 0 0 159 0 0 159 0 0 159 0 0 159 0 0 159 0 0 159
0 0 159 0 0 159 0 0 159 0 144 159 0 144 159 0 143 159 0 143 159 0 143
160 0 143 160 0 143 160 0 142 160 0 142 160 0 142 160 0 142 160 0 142
160 0 141 160 0 141 160 0 141 160 0 141 160 0 141 160 0 140 160 0 140
160 0 140 160 0 140 160 0 140 160 0 139 160 0 139 161 0 0 161 0 0 161
0 0 161 0 0 161 0 0 161 0 0 161 0 0 161 0 0 161 0 0 161 0 0 161 0 0
161 0 137 161 0 137 161 0 136 161 0 136 161 0 136 161 0 136 161 0 136
161 0 135 161 0 135 161 0 135 161 0 135 161 0 135 161 0 135 161 0 134
161 0 0 161 0 0 161 0 0 161 0 0 161 0 0 161 0 0 161 0 0 161 0 0 161 0
0 162 0 0 162 0 0 162 0 0 162 0 0 162 0 0 162 0 0 162 0 0 162 0 0 162
0 0 162 0 0 162 0 0 162 0 0 162 0 0 162 0 0 162 0 0 162 0
0 139 0 0 140 0 0 140 0 0 140 0 0 140 0 0 140 0 0 140 0 0 140 0 189
141 0 188 141 0 188 141 0 188 141 0 187 141 0 187 141 0 187 141 0 187
141 0 186 142 0 186 142 0 186 142 0 185 142 0 185 142 0 185 142 0 185
142 0 184 143 0 184 143 0 184 143 0 184 143 0 183 143 0 183 143 0 183
143 0 182 143 0 182 144 0 182 144 0 0 144 0 0 144 0 0 144 0 181 144 0
180 144 0 180 145 0 180 145 0 180 145 0 179 145 0 179 145 0 179 145 0
179 145 0 178 145 0 178 146 0 178 146 0 177 146 0 177 146 0 177 146 0
177 146 0 176 146 0 176 146 0 176 147 0 175 147 0 175 147 0 175 147 0
0 147 0 0 147 0 0 147 0 0 147 0 0 148 0 0 148 0 0 148 0 0 148 0 0 148
0 0 148 0 0 148 0 0 148 0 0 149 0 0 149 0 0 149 0 0 149 0 0 149 0 0
149 0 0 149 0 0 149 0 0 150 0 0 150 0 0 150 0 0 150 0 0 150 0 168 150
0 168 150 0 167 150 0 167 151 0 167 151 0 167 151 0 166 151 0 166 151
0 166 151 0 166 151 0 165 151 0 165 151 0 165 152 0 165 152 0 164 152
0 164 152 0 0 152 0 0 152 0 0 152 0 0 152 0 0 153 0 0 153 0 0 153 0 0
153 0 0 153 0 162 153 0 161 153 0 161 153 0 161 153 0 161 154 0 160
154 0 160 154 0 160 154 0 160 154 0 159 154 0 159 154 0 159 154 0 159
154 0 158 154 0 158 155 0 158 155 0 158 155 0 157 155 0 157 155 0 157
155 0 157 155 0 156 155 0 156 155 0 156 155 0 156 156 0 0 156 0 0 156
0 0 156 0 0 156 0 0 156 0 0 156 0 0 156 0 0 156 0 0 156 0 0 156 0 0
157 0 0 157 0 0 157 0 0 157 0 0 157 0 0 157 0 0 157 0 0 157 0 0 157 0
0 157 0 0 157 0 0 158 0 0 158 0 0 158 0 0 158 0 150 158 0 149 158 0
149 158 0 0 158 0 0 158 0 0 158 0 0 158 0 0 158 0 0 159 0 0 159 0 0
159 0 0 159 0 0 159 0 0 159 0 0 159 0 0 159 0 0 159 0 0 159 0 0 159 0
0 159 0 0 159 0 0 159 0 0 159 0 0 160 0 144 160 0 144 160 0 144 160 0
144 160 0 143 160 0 143 160 0 143 160 0 143 160 0 143 160 0 142 160 0
142 160 0 142 160 0 142 160 0 142 160 0 141 160 0 141 160 0 141 161 0
141 161 0 141 161 0 140 161 0 140 161 0 140 161 0 140 161 0 140 161 0
139 161 0 0 161 0 0 161 0 0 161 0 0 161 0 0 161 0 0 161 0 0 161 0 0
161 0 0 161 0 0 161 0 0 161 0 0 161 0 0 161 0 0 161 0 0 161 0 0 162 0
136 162 0 136 162 0 136 162 0 136 162 0 135 162 0 135 162 0 135 162 0
135 162 0 135 162 0 0 162 0 0 162 0 0 162 0 0 162 0 0 162 0 0 162 0 0
162 0 0 162 0 0 162 0 0 162 0 0 162 0 0 162 0 0 162 0 0 162 0 0 162 0
0 162 0 0 162 0 0 162 0 0 162 0 0 162 0 0 162 0 0 162 0 0 162 0 0 162
0
0 140 0 0 140 0 0 140 0 0 140 0 0 140 0 0 140 0 0 141 0 189 141 0 189
141 0 188 141 0 188 141 0 188 141 0 188 141 0 187 142 0 187 142 0 187
142 0 186 142 0 186 142 0 186 142 0 186 142 0 185 143 0 185 143 0 185
143 0 184 143 0 184 143 0 184 143 0 184 143 0 183 143 0 183 144 0 183
144 0 183 144 0 182 144 0 0 144 0 0 144 0 0 144 0 0 144 0 0 145 0 0
145 0 0 145 0 0 145 0 180 145 0 179 145 0 179 145 0 179 146 0 179 146
0 178 146 0 178 146 0 178 146 0 178 146 0 177 146 0 177 146 0 177 147
0 176 147 0 176 147 0 176 147 0 176 147 0 175 147 0 0 147 0 0 147 0 0
148 0 0 148 0 0 148 0 0 148 0 0 148 0 0 148 0 0 148 0 0 148 0 0 149 0
0 149 0 0 149 0 0 149 0 0 149 0 0 149 0 0 149 0 0 149 0 0 150 0 0 150
0 0 150 0 0 150 0 0 150 0 0 150 0 0 150 0 168 150 0 168 151 0 168 151
0 168 151 0 167 151 0 167 151 0 167 151 0 167 151 0 166 151 0 166 152
0 166 152 0 165 152 0 165 152 0 165 152 0 165 152 0 164 152 0 164 152
0 164 152 0 164 153 0 163 153 0 0 153 0 0 153 0 0 153 0 0 153 0 0 153
0 162 153 0 162 153 0 161 154 0 161 154 0 161 154 0 161 154 0 160 154
0 160 154 0 160 154 0 160 154 0 159 154 0 159 155 0 159 155 0 159 155
0 158 155 0 158 155 0 158 155 0 158 155 0 157 155 0 157 155 0 157 155
0 157 156 0 157 156 0 156 156 0 156 156 0 0 156 0 0 156 0 0 156 0 0
156 0 0 156 0 0 156 0 0 157 0 0 157 0 0 157 0 0 157 0 0 157 0 0 157 0
0 157 0 0 157 0 0 157 0 0 157 0 0 157 0 0 158 0 0 158 0 0 158 0 0 158
0 0 158 0 0 158 0 0 158 0 0 158 0 150 158 0 150 158 0 150 158 0 149
158 0 149 159 0 149 159 0 149 159 0 148 159 0 0 159 0 0 159 0 0 159 0
0 159 0 0 159 0 0 159 0 0 159 0 0 159 0 0 159 0 0 159 0 0 160 0 0 160
0 0 160 0 0 160 0 0 160 0 0 160 0 0 160 0 145 160 0 144 160 0 144 160
0 144 160 0 144 160 0 143 160 0 143 160 0 143 160 0 143 160 0 143 161
0 142 161 0 142 161 0 142 161 0 142 161 0 142 161 0 141 161 0 141 161
0 141 161 0 141 161 0 141 161 0 140 161 0 140 161 0 140 161 0 140 161
0 140 161 0 0 161 0 0 161 0 0 161 0 0 161 0 0 162 0 0 162 0 0 162 0 0
162 0 0 162 0 0 162 0 0 162 0 0 162 0 0 162 0 0 162 0 0 162 0 0 162 0
0 162 0 0 162 0 0 162 0 0 162 0 136 162 0 135 162 0 135 162 0 135 162
0 135 162 0 0 162 0 0 162 0 0 162 0 0 162 0 0 162 0 0 162 0 0 162 0 0
162 0 0 162 0 0 162 0 0 162 0 0 162 0 0 162 0 0 162 0 0 162 0 0 162 0
0 162 0 0 162 0 0 162 0 0 162 0 0 162 0 0 162 0 0 162 0 0 162 0
0 140 0 0 140 0 0 140 0 0 141 0 0 141 0 0 141 0 189 141 0 189 141 0
189 141 0 188 141 0 188 142 0 188 142 0 188 142 0 187 142 0 187 142 0
187 142 0 187 142 0 186 142 0 186 143 0 186 143 0 185 143 0 185 143 0
185 143 0 185 143 0 184 143 0 184 144 0 184 144 0 183 144 0 183 144 0
183 144 0 183 144 0 0 144 0 0 144 0 0 145 0 0 145 0 0 145 0 0 145 0 0
145 0 0 145 0 0 145 0 0 146 0 0 146 0 0 146 0 179 146 0 179 146 0 178
146 0 178 146 0 178 146 0 178 147 0 177 147 0 177 147 0 177 147 0 177
147 0 176 147 0 176 147 0 176 147 0 0 148 0 0 148 0 0 148 0 0 148 0 0
148 0 0 148 0 0 148 0 0 148 0 0 149 0 0 149 0 0 149 0 0 149 0 0 149 0
0 149 0 0 149 0 0 149 0 0 150 0 0 150 0 0 150 0 0 150 0 0 150 0 0 150
0 0 150 0 0 150 0 0 151 0 169 151 0 168 151 0 168 151 0 168 151 0 168
151 0 167 151 0 167 151 0 167 152 0 167 152 0 166 152 0 166 152 0 166
152 0 166 152 0 165 152 0 165 152 0 165 152 0 165 153 0 164 153 0 164
153 0 164 153 0 164 153 0 163 153 0 163 153 0 163 153 0 163 153 0 162
154 0 162 154 0 162 154 0 162 154 0 161 154 0 161 154 0 161 154 0 161
154 0 160 154 0 160 155 0 160 155 0 160 155 0 159 155 0 159 155 0 159
155 0 159 155 0 158 155 0 158 155 0 158 155 0 158 156 0 157 156 0 157
156 0 157 156 0 157 156 0 156 156 0 156 156 0 0 156 0 0 156 0 0 156 0
0 157 0 0 157 0 0 157 0 0 157 0 0 157 0 0 157 0 0 157 0 0 157 0 0 157
0 0 157 0 0 158 0 0 158 0 0 158 0 0 158 0 0 158 0 0 158 0 0 158 0 0
158 0 0 158 0 0 158 0 0 158 0 0 158 0 150 159 0 150 159 0 150 159 0
150 159 0 149 159 0 149 159 0 149 159 0 149 159 0 148 159 0 148 159 0
148 159 0 148 159 0 0 159 0 0 160 0 0 160 0 0 160 0 0 160 0 0 160 0 0
160 0 0 160 0 0 160 0 0 160 0 0 160 0 0 160 0 0 160 0 145 160 0 145
160 0 144 161 0 144 161 0 144 161 0 144 161 0 143 161 0 143 161 0 143
161 0 143 161 0 143 161 0 142 161 0 142 161 0 142 161 0 142 161 0 142
161 0 141 161 0 141 161 0 141 161 0 141 161 0 141 162 0 140 162 0 140
162 0 140 162 0 140 162 0 0 162 0 0 162 0 0 162 0 0 162 0 0 162 0 0
162 0 0 162 0 0 162 0 0 162 0 0 162 0 0 162 0 0 162 0 0 162 0 0 162 0
0 162 0 0 162 0 0 162 0 0 162 0 0 162 0 0 162 0 0 162 0 0 163 0 0 163
0 0 163 0 0 163 0 0 163 0 0 163 0 0 163 0 0 163 0 0 163 0 0 163 0 0
163 0 0 163 0 0 163 0 0 163 0 0 163 0 0 163 0 0 163 0 0 163 0 0 163 0
0 163 0 0 163 0 0 163 0 0 163 0 0 163 0 0 163 0 0 163 0 0 163 0 0 163
0
0 141 0 0 141 0 0 141 0 0 141 0 190 141 0 190 141 0 189 141 0 189 141
0 189 142 0 189 142 0 188 142 0 188 142 0 188 142 0 187 142 0 187 142
0 187 143 0 187 143 0 186 143 0 186 143 0 186 143 0 185 143 0 185 143
0 185 144 0 185 144 0 184 144 0 184 144 0 184 144 0 184 144 0 183 144
0 0 144 0 0 145 0 0 145 0 0 145 0 0 145 0 0 145 0 0 145 0 0 145 0 0
145 0 0 146 0 0 146 0 0 146 0 0 146 0 0 146 0 0 146 0 0 146 0 0 147 0
178 147 0 178 147 0 178 147 0 177 147 0 177 147 0 177 147 0 177 147 0
176 148 0 176 148 0 0 148 0 0 148 0 0 148 0 0 148 0 0 148 0 0 148 0 0
149 0 0 149 0 0 149 0 0 149 0 0 149 0 0 149 0 0 149 0 0 149 0 0 150 0
0 150 0 0 150 0 0 150 0 0 150 0 0 150 0 0 150 0 0 150 0 0 151 0 0 151
0 0 151 0 169 151 0 169 151 0 169 151 0 168 151 0 168 151 0 168 152 0
168 152 0 167 152 0 167 152 0 167 152 0 167 152 0 166 152 0 166 152 0
166 152 0 166 153 0 165 153 0 165 153 0 165 153 0 165 153 0 164 153 0
164 153 0 164 153 0 163 153 0 163 154 0 163 154 0 163 154 0 0 154 0 0
154 0 0 154 0 0 154 0 161 154 0 161 154 0 161 155 0 161 155 0 160 155
0 160 155 0 160 155 0 160 155 0 160 155 0 159 155 0 159 155 0 159 156
0 159 156 0 158 156 0 158 156 0 158 156 0 158 156 0 157 156 0 157 156
0 157 156 0 157 156 0 0 157 0 0 157 0 0 157 0 0 157 0 0 157 0 0 157 0
0 157 0 0 157 0 0 157 0 0 157 0 0 158 0 0 158 0 0 158 0 0 158 0 0 158
0 0 158 0 0 158 0 0 158 0 0 158 0 0 158 0 0 158 0 0 159 0 0 159 0 0
159 0 0 159 0 151 159 0 150 159 0 150 159 0 150 159 0 150 159 0 149
159 0 149 159 0 149 159 0 149 159 0 149 160 0 148 160 0 148 160 0 148
160 0 148 160 0 148 160 0 147 160 0 147 160 0 0 160 0 0 160 0 0 160 0
0 160 0 0 160 0 0 161 0 0 161 0 0 161 0 0 161 0 145 161 0 145 161 0
145 161 0 144 161 0 144 161 0 144 161 0 144 161 0 143 161 0 143 161 0
143 161 0 143 161 0 143 161 0 142 161 0 142 162 0 142 162 0 142 162 0
142 162 0 141 162 0 141 162 0 141 162 0 141 162 0 141 162 0 140 162 0
140 162 0 140 162 0 0 162 0 0 162 0 0 162 0 0 162 0 0 162 0 0 162 0 0
162 0 0 162 0 0 162 0 0 163 0 0 163 0 0 163 0 0 163 0 0 163 0 0 163 0
0 163 0 0 163 0 0 163 0 0 163 0 0 163 0 0 163 0 0 163 0 0 163 0 0 163
0 0 163 0 135 163 0 135 163 0 135 163 0 135 163 0 0 163 0 0 163 0 0
163 0 0 163 0 0 163 0 0 163 0 0 163 0 0 163 0 0 163 0 0 163 0 0 163 0
0 163 0 0 163 0 0 163 0 0 163 0 0 163 0 0 163 0 0 163 0 0 163 0 0 163
0
0 141 0 0 141 0 0 141 0 190 141 0 190 141 0 190 142 0 189 142 0 189
142 0 189 142 0 189 142 0 188 142 0 188 142 0 188 143 0 188 143 0 187
143 0 187 143 0 187 143 0 186 143 0 186 143 0 186 143 0 186 144 0 185
144 0 185 144 0 185 144 0 184 144 0 184 144 0 184 144 0 184 145 0 0
145 0 0 145 0 0 145 0 0 145 0 0 145 0 0 145 0 0 145 0 0 146 0 0 146 0
0 146 0 0 146 0 0 146 0 0 146 0 0 146 0 0 147 0 0 147 0 0 147 0 0 147
0 0 147 0 0 147 0 0 147 0 178 147 0 177 148 0 177 148 0 177 148 0 176
148 0 0 148 0 0 148 0 0 148 0 0 148 0 0 149 0 0 149 0 0 149 0 0 149 0
0 149 0 0 149 0 0 149 0 0 149 0 0 150 0 0 150 0 0 150 0 0 150 0 0 150
0 0 150 0 0 150 0 0 150 0 0 151 0 0 151 0 0 151 0 0 151 0 0 151 0 170
151 0 169 151 0 169 151 0 169 152 0 168 152 0 168 152 0 168 152 0 168
152 0 167 152 0 167 152 0 167 152 0 167 152 0 166 153 0 166 153 0 166
153 0 166 153 0 165 153 0 165 153 0 165 153 0 165 153 0 164 154 0 164
154 0 164 154 0 164 154 0 163 154 0 163 154 0 0 154 0 0 154 0 0 154 0
0 155 0 0 155 0 0 155 0 0 155 0 0 155 0 161 155 0 161 155 0 160 155 0
160 155 0 160 155 0 160 156 0 159 156 0 159 156 0 159 156 0 159 156 0
158 156 0 158 156 0 158 156 0 158 156 0 157 157 0 157 157 0 157 157 0
0 157 0 0 157 0 0 157 0 0 157 0 0 157 0 0 157 0 0 157 0 0 158 0 0 158
0 0 158 0 0 158 0 0 158 0 0 158 0 0 158 0 0 158 0 0 158 0 0 158 0 0
158 0 0 159 0 0 159 0 0 159 0 0 159 0 0 159 0 0 159 0 0 159 0 0 159 0
151 159 0 151 159 0 150 159 0 150 159 0 150 160 0 150 160 0 149 160 0
149 160 0 149 160 0 149 160 0 149 160 0 148 160 0 148 160 0 148 160 0
148 160 0 147 160 0 147 160 0 147 161 0 147 161 0 147 161 0 146 161 0
0 161 0 0 161 0 0 161 0 0 161 0 145 161 0 145 161 0 145 161 0 145 161
0 145 161 0 144 161 0 144 161 0 144 162 0 144 162 0 143 162 0 143 162
0 143 162 0 143 162 0 143 162 0 142 162 0 142 162 0 142 162 0 142 162
0 142 162 0 141 162 0 141 162 0 141 162 0 141 162 0 141 162 0 140 162
0 140 162 0 0 163 0 0 163 0 0 163 0 0 163 0 0 163 0 0 163 0 0 163 0 0
163 0 0 163 0 0 163 0 0 163 0 0 163 0 0 163 0 0 163 0 0 163 0 0 163 0
0 163 0 0 163 0 0 163 0 0 163 0 0 163 0 0 163 0 0 163 0 0 163 0 0 163
0 0 163 0 135 163 0 135 163 0 135 163 0 135 164 0 134 164 0 134 164 0
134 164 0 134 164 0 0 164 0 0 164 0 0 164 0 0 164 0 0 164 0 0 164 0 0
164 0 0 164 0 0 164 0 0 164 0 0 164 0 0 164 0 0 164 0 0 164 0 0 164 0
0 141 0 191 141 0 191 142 0 190 142 0 190 142 0 190 142 0 190 142 0
189 142 0 189 142 0 189 142 0 188 143 0 188 143 0 188 143 0 188 143 0
187 143 0 187 143 0 187 143 0 186 144 0 186 144 0 186 144 0 186 144 0
185 144 0 185 144 0 185 144 0 185 144 0 184 145 0 184 145 0 0 145 0 0
145 0 0 145 0 0 145 0 0 145 0 0 146 0 0 146 0 0 146 0 0 146 0 0 146 0
0 146 0 0 146 0 0 146 0 0 147 0 0 147 0 0 147 0 0 147 0 0 147 0 0 147
0 0 147 0 0 148 0 0 148 0 0 148 0 0 148 0 0 148 0 0 148 0 0 148 0 0
148 0 0 149 0 0 149 0 0 149 0 0 149 0 0 149 0 0 149 0 0 149 0 0 149 0
0 150 0 0 150 0 0 150 0 0 150 0 0 150 0 0 150 0 0 150 0 0 150 0 0 151
0 0 151 0 0 151 0 0 151 0 0 151 0 0 151 0 0 151 0 170 151 0 170 152 0
169 152 0 169 152 0 169 152 0 169 152 0 168 152 0 168 152 0 168 152 0
168 152 0 167 153 0 167 153 0 167 153 0 167 153 0 166 153 0 166 153 0
166 153 0 166 153 0 165 154 0 165 154 0 165 154 0 165 154 0 164 154 0
164 154 0 164 154 0 164 154 0 0 154 0 0 155 0 0 155 0 0 155 0 0 155 0
0 155 0 0 155 0 0 155 0 0 155 0 0 155 0 0 156 0 0 156 0 0 156 0 160
156 0 160 156 0 160 156 0 159 156 0 159 156 0 159 156 0 159 156 0 158
157 0 158 157 0 158 157 0 158 157 0 157 157 0 157 157 0 0 157 0 0 157
0 0 157 0 0 157 0 0 158 0 0 158 0 0 158 0 0 158 0 0 158 0 0 158 0 0
158 0 0 158 0 0 158 0 0 158 0 0 159 0 0 159 0 0 159 0 0 159 0 0 159 0
0 159 0 0 159 0 0 159 0 0 159 0 0 159 0 0 159 0 0 159 0 151 160 0 151
160 0 151 160 0 150 160 0 150 160 0 150 160 0 150 160 0 149 160 0 149
160 0 149 160 0 149 160 0 149 160 0 148 161 0 148 161 0 148 161 0 148
161 0 147 161 0 147 161 0 147 161 0 147 161 0 147 161 0 146 161 0 146
161 0 146 161 0 146 161 0 146 161 0 145 162 0 145 162 0 145 162 0 145
162 0 145 162 0 144 162 0 144 162 0 144 162 0 144 162 0 143 162 0 143
162 0 143 162 0 143 162 0 143 162 0 142 162 0 142 162 0 142 162 0 142
163 0 142 163 0 141 163 0 141 163 0 141 163 0 141 163 0 141 163 0 140
163 0 0 163 0 0 163 0 0 163 0 0 163 0 0 163 0 0 163 0 0 163 0 0 163 0
0 163 0 0 163 0 0 163 0 0 163 0 0 163 0 0 163 0 0 163 0 0 164 0 0 164
0 0 164 0 0 164 0 0 164 0 0 164 0 0 164 0 0 164 0 0 164 0 0 164 0 0
164 0 135 164 0 135 164 0 135 164 0 135 164 0 135 164 0 134 164 0 134
164 0 134 164 0 134 164 0 134 164 0 134 164 0 133 164 0 0 164 0 0 164
0 0 164 0 0 164 0 0 164 0 0 164 0 0 164 0 0 164 0 0 164 0 0 164 0 0
164 0
191 142 0 191 142 0 191 142 0 190 142 0 190 142 0 190 142 0 190 142 0
189 143 0 189 143 0 189 143 0 189 143 0 188 143 0 188 143 0 188 143 0
187 144 0 187 144 0 187 144 0 187 144 0 186 144 0 186 144 0 186 144 0
185 144 0 185 145 0 185 145 0 185 145 0 184 145 0 0 145 0 0 145 0 0
145 0 0 146 0 0 146 0 0 146 0 0 146 0 0 146 0 0 146 0 0 146 0 0 146 0
0 147 0 0 147 0 0 147 0 0 147 0 0 147 0 0 147 0 0 147 0 0 147 0 0 148
0 0 148 0 0 148 0 0 148 0 0 148 0 0 148 0 0 148 0 177 149 0 177 149 0
176 149 0 176 149 0 0 149 0 0 149 0 0 149 0 0 149 0 0 150 0 0 150 0 0
150 0 0 150 0 0 150 0 0 150 0 0 150 0 0 150 0 0 151 0 0 151 0 0 151 0
0 151 0 0 151 0 0 151 0 0 151 0 0 151 0 0 152 0 170 152 0 170 152 0
170 152 0 170 152 0 169 152 0 169 152 0 169 152 0 168 152 0 168 153 0
168 153 0 168 153 0 167 153 0 167 153 0 167 153 0 167 153 0 166 153 0
166 154 0 166 154 0 166 154 0 165 154 0 165 154 0 165 154 0 165 154 0
164 154 0 164 154 0 164 155 0 0 155 0 0 155 0 0 155 0 0 155 0 0 155 0
0 155 0 0 155 0 0 155 0 0 156 0 0 156 0 0 156 0 0 156 0 0 156 0 0 156
0 0 156 0 0 156 0 0 156 0 159 157 0 159 157 0 159 157 0 159 157 0 159
157 0 158 157 0 158 157 0 158 157 0 158 157 0 0 157 0 0 158 0 0 158 0
0 158 0 0 158 0 0 158 0 0 158 0 0 158 0 0 158 0 0 158 0 0 158 0 0 159
0 0 159 0 0 159 0 0 159 0 0 159 0 0 159 0 0 159 0 0 159 0 0 159 0 0
159 0 0 159 0 0 159 0 0 160 0 0 160 0 0 160 0 151 160 0 151 160 0 151
160 0 151 160 0 150 160 0 150 160 0 150 160 0 150 160 0 150 161 0 149
161 0 149 161 0 149 161 0 149 161 0 149 161 0 148 161 0 148 161 0 148
161 0 148 161 0 147 161 0 147 161 0 147 161 0 147 161 0 147 162 0 146
162 0 146 162 0 146 162 0 0 162 0 0 162 0 0 162 0 0 162 0 145 162 0
145 162 0 145 162 0 144 162 0 144 162 0 144 162 0 144 162 0 143 163 0
143 163 0 143 163 0 143 163 0 143 163 0 142 163 0 142 163 0 142 163 0
142 163 0 142 163 0 141 163 0 141 163 0 141 163 0 141 163 0 141 163 0
0 163 0 0 163 0 0 163 0 0 163 0 0 163 0 0 164 0 0 164 0 0 164 0 0 164
0 0 164 0 0 164 0 0 164 0 0 164 0 0 164 0 0 164 0 0 164 0 0 164 0 0
164 0 0 164 0 0 164 0 0 164 0 0 164 0 0 164 0 0 164 0 0 164 0 0 164 0
136 164 0 135 164 0 135 164 0 135 164 0 135 164 0 135 164 0 134 164 0
134 164 0 134 164 0 134 164 0 134 164 0 134 164 0 133 164 0 133 164 0
133 165 0 133 165 0 133 165 0 0 165 0 0 165 0 0 165 0 0 165 0 0 165 0
0 165 0
191 142 0 191 142 0 191 142 0 191 142 0 190 143 0 190 143 0 190 143 0
189 143 0 189 143 0 189 143 0 189 143 0 188 143 0 188 144 0 188 144 0
187 144 0 187 144 0 187 144 0 187 144 0 186 144 0 186 145 0 186 145 0
186 145 0 185 145 0 185 145 0 0 145 0 0 145 0 0 145 0 0 146 0 0 146 0
0 146 0 0 146 0 0 146 0 0 146 0 0 146 0 0 147 0 0 147 0 0 147 0 0 147
0 0 147 0 0 147 0 0 147 0 0 147 0 0 148 0 0 148 0 0 148 0 0 148 0 0
148 0 0 148 0 0 148 0 0 148 0 178 149 0 177 149 0 177 149 0 177 149 0
177 149 0 176 149 0 176 149 0 176 149 0 175 150 0 0 150 0 0 150 0 0
150 0 0 150 0 0 150 0 0 150 0 0 150 0 0 151 0 0 151 0 0 151 0 0 151 0
0 151 0 0 151 0 0 151 0 0 151 0 0 152 0 0 152 0 0 152 0 170 152 0 170
152 0 170 152 0 170 152 0 169 152 0 169 153 0 169 153 0 169 153 0 168
153 0 168 153 0 168 153 0 168 153 0 167 153 0 167 154 0 167 154 0 167
154 0 166 154 0 166 154 0 166 154 0 166 154 0 165 154 0 165 154 0 165
155 0 165 155 0 164 155 0 164 155 0 0 155 0 0 155 0 0 155 0 0 155 0 0
155 0 0 156 0 0 156 0 0 156 0 0 156 0 0 156 0 0 156 0 0 156 0 0 156 0
0 156 0 0 157 0 0 157 0 0 157 0 0 157 0 0 157 0 0 157 0 0 157 0 159
157 0 158 157 0 158 157 0 158 158 0 158 158 0 0 158 0 0 158 0 0 158 0
0 158 0 0 158 0 0 158 0 0 158 0 0 158 0 0 159 0 0 159 0 0 159 0 0 159
0 0 159 0 0 159 0 0 159 0 0 159 0 0 159 0 0 159 0 0 159 0 0 160 0 0
160 0 0 160 0 0 160 0 0 160 0 0 160 0 0 160 0 152 160 0 151 160 0 151
160 0 151 160 0 151 161 0 150 161 0 150 161 0 150 161 0 150 161 0 150
161 0 149 161 0 149 161 0 149 161 0 149 161 0 148 161 0 148 161 0 148
161 0 148 162 0 148 162 0 147 162 0 147 162 0 147 162 0 147 162 0 147
162 0 146 162 0 146 162 0 0 162 0 0 162 0 0 162 0 0 162 0 0 162 0 0
163 0 0 163 0 0 163 0 144 163 0 144 163 0 144 163 0 144 163 0 143 163
0 143 163 0 143 163 0 143 163 0 143 163 0 142 163 0 142 163 0 142 163
0 142 163 0 142 163 0 141 163 0 141 164 0 141 164 0 141 164 0 0 164 0
0 164 0 0 164 0 0 164 0 0 164 0 0 164 0 0 164 0 0 164 0 0 164 0 0 164
0 0 164 0 0 164 0 0 164 0 0 164 0 0 164 0 0 164 0 0 164 0 0 164 0 0
164 0 0 164 0 0 164 0 0 164 0 0 165 0 0 165 0 0 165 0 0 165 0 136 165
0 136 165 0 135 165 0 135 165 0 135 165 0 135 165 0 135 165 0 135 165
0 134 165 0 134 165 0 134 165 0 134 165 0 134 165 0 133 165 0 133 165
0 133 165 0 133 165 0 133 165 0 133 165 0 132 165 0 132 165 0 0 165 0
0 165 0
191 142 0 191 142 0 191 143 0 191 143 0 190 143 0 190 143 0 190 143 0
189 143 0 189 143 0 189 144 0 189 144 0 188 144 0 188 144 0 188 144 0
188 144 0 187 144 0 187 144 0 187 145 0 186 145 0 186 145 0 186 145 0
186 145 0 185 145 0 0 145 0 0 146 0 0 146 0 0 146 0 0 146 0 0 146 0 0
146 0 0 146 0 0 146 0 0 147 0 0 147 0 0 147 0 0 147 0 0 147 0 0 147 0
0 147 0 0 148 0 0 148 0 0 148 0 0 148 0 0 148 0 0 148 0 0 148 0 0 148
0 0 149 0 0 149 0 178 149 0 178 149 0 177 149 0 177 149 0 177 149 0
177 149 0 176 150 0 176 150 0 176 150 0 176 150 0 175 150 0 175 150 0
175 150 0 0 150 0 0 151 0 0 151 0 0 151 0 0 151 0 0 151 0 0 151 0 0
151 0 0 151 0 0 152 0 0 152 0 0 152 0 0 152 0 0 152 0 171 152 0 171
152 0 170 152 0 170 153 0 170 153 0 169 153 0 169 153 0 169 153 0 169
153 0 168 153 0 168 153 0 168 154 0 168 154 0 167 154 0 167 154 0 167
154 0 167 154 0 166 154 0 166 154 0 166 154 0 166 155 0 165 155 0 165
155 0 165 155 0 165 155 0 164 155 0 0 155 0 0 155 0 0 155 0 0 156 0 0
156 0 0 156 0 0 156 0 0 156 0 0 156 0 0 156 0 0 156 0 0 156 0 0 157 0
0 157 0 0 157 0 0 157 0 0 157 0 0 157 0 0 157 0 0 157 0 0 157 0 0 158
0 0 158 0 0 158 0 0 158 0 0 158 0 0 158 0 0 158 0 0 158 0 0 158 0 0
158 0 0 159 0 0 159 0 0 159 0 0 159 0 0 159 0 0 159 0 0 159 0 0 159 0
0 159 0 0 159 0 0 159 0 0 160 0 0 160 0 0 160 0 0 160 0 0 160 0 0 160
0 0 160 0 0 160 0 0 160 0 0 160 0 152 160 0 152 161 0 151 161 0 151
161 0 151 161 0 151 161 0 151 161 0 150 161 0 150 161 0 150 161 0 150
161 0 150 161 0 149 161 0 149 162 0 149 162 0 149 162 0 148 162 0 148
162 0 148 162 0 148 162 0 148 162 0 147 162 0 147 162 0 147 162 0 147
162 0 147 162 0 0 162 0 0 163 0 0 163 0 0 163 0 0 163 0 0 163 0 0 163
0 0 163 0 0 163 0 0 163 0 0 163 0 0 163 0 0 163 0 144 163 0 143 163 0
143 163 0 143 163 0 143 164 0 143 164 0 142 164 0 142 164 0 142 164 0
142 164 0 142 164 0 141 164 0 141 164 0 141 164 0 0 164 0 0 164 0 0
164 0 0 164 0 0 164 0 0 164 0 0 164 0 0 164 0 0 164 0 0 164 0 0 164 0
0 165 0 0 165 0 0 165 0 0 165 0 0 165 0 0 165 0 0 165 0 0 165 0 0 165
0 0 165 0 0 165 0 0 165 0 0 165 0 0 165 0 0 165 0 136 165 0 136 165 0
136 165 0 135 165 0 135 165 0 135 165 0 135 165 0 135 165 0 135 165 0
134 165 0 134 165 0 134 165 0 134 165 0 134 165 0 133 165 0 133 165 0
133 165 0 133 165 0 133 165 0 133 165 0 132 165 0 132 165 0 132 165 0
191 143 0 191 143 0 191 143 0 191 143 0 190 143 0 190 143 0 190 143 0
190 144 0 189 144 0 189 144 0 189 144 0 188 144 0 188 144 0 188 144 0
188 145 0 187 145 0 187 145 0 187 145 0 186 145 0 186 145 0 186 145 0
186 145 0 0 146 0 0 146 0 0 146 0 0 146 0 0 146 0 0 146 0 0 146 0 0
147 0 0 147 0 0 147 0 0 147 0 0 147 0 0 147 0 0 147 0 0 147 0 0 148 0
0 148 0 0 148 0 0 148 0 0 148 0 0 148 0 0 148 0 0 149 0 0 149 0 0 149
0 0 149 0 178 149 0 178 149 0 178 149 0 177 149 0 177 150 0 177 150 0
177 150 0 176 150 0 176 150 0 176 150 0 176 150 0 175 150 0 175 151 0
175 151 0 175 151 0 174 151 0 174 151 0 0 151 0 0 151 0 0 151 0 0 152
0 0 152 0 0 152 0 0 152 0 0 152 0 0 152 0 0 152 0 171 152 0 171 153 0
171 153 0 170 153 0 170 153 0 170 153 0 170 153 0 169 153 0 169 153 0
169 154 0 169 154 0 168 154 0 168 154 0 168 154 0 168 154 0 167 154 0
167 154 0 167 154 0 167 155 0 166 155 0 166 155 0 166 155 0 166 155 0
165 155 0 165 155 0 165 155 0 0 155 0 0 156 0 0 156 0 0 156 0 0 156 0
0 156 0 0 156 0 0 156 0 0 156 0 0 156 0 0 157 0 0 157 0 0 157 0 0 157
0 0 157 0 0 157 0 0 157 0 0 157 0 0 157 0 0 158 0 0 158 0 0 158 0 0
158 0 0 158 0 0 158 0 0 158 0 158 158 0 158 158 0 158 158 0 158 159 0
0 159 0 0 159 0 0 159 0 0 159 0 0 159 0 0 159 0 0 159 0 0 159 0 0 159
0 0 160 0 0 160 0 0 160 0 0 160 0 0 160 0 0 160 0 0 160 0 0 160 0 0
160 0 0 160 0 0 160 0 0 161 0 0 161 0 0 161 0 152 161 0 152 161 0 152
161 0 151 161 0 151 161 0 151 161 0 151 161 0 151 161 0 150 161 0 150
162 0 150 162 0 150 162 0 149 162 0 149 162 0 149 162 0 149 162 0 149
162 0 148 162 0 148 162 0 148 162 0 148 162 0 148 162 0 147 163 0 147
163 0 147 163 0 147 163 0 0 163 0 0 163 0 0 163 0 0 163 0 0 163 0 0
163 0 0 163 0 0 163 0 0 163 0 0 163 0 0 163 0 0 164 0 0 164 0 0 164 0
0 164 0 0 164 0 0 164 0 143 164 0 143 164 0 143 164 0 142 164 0 142
164 0 142 164 0 142 164 0 142 164 0 141 164 0 141 164 0 0 164 0 0 164
0 0 165 0 0 165 0 0 165 0 0 165 0 0 165 0 0 165 0 0 165 0 0 165 0 0
165 0 0 165 0 0 165 0 0 165 0 0 165 0 0 165 0 0 165 0 0 165 0 0 165 0
0 165 0 0 165 0 0 165 0 0 165 0 0 165 0 0 165 0 0 165 0 136 165 0 136
165 0 136 165 0 136 165 0 135 165 0 135 166 0 135 166 0 135 166 0 135
166 0 135 166 0 134 166 0 134 166 0 134 166 0 134 166 0 134 166 0 134
166 0 133 166 0 133 166 0 133 166 0 133 166 0 133 166 0 132 166 0 132
166 0
0 143 0 0 143 0 191 143 0 191 143 0 190 144 0 190 144 0 190 144 0 190
144 0 189 144 0 189 144 0 189 144 0 188 145 0 188 145 0 188 145 0 188
145 0 187 145 0 187 145 0 187 145 0 187 145 0 186 146 0 186 146 0 0
146 0 0 146 0 0 146 0 0 146 0 0 146 0 0 146 0 0 147 0 0 147 0 0 147 0
0 147 0 0 147 0 0 147 0 0 147 0 0 148 0 0 148 0 0 148 0 0 148 0 0 148
0 0 148 0 0 148 0 0 148 0 0 149 0 0 149 0 0 149 0 0 149 0 0 149 0 179
149 0 178 149 0 178 149 0 178 150 0 178 150 0 177 150 0 177 150 0 177
150 0 177 150 0 176 150 0 176 151 0 176 151 0 175 151 0 175 151 0 175
151 0 175 151 0 174 151 0 174 151 0 174 152 0 174 152 0 173 152 0 173
152 0 0 152 0 0 152 0 0 152 0 0 152 0 0 153 0 172 153 0 171 153 0 171
153 0 171 153 0 170 153 0 170 153 0 170 153 0 170 153 0 169 154 0 169
154 0 169 154 0 169 154 0 168 154 0 168 154 0 168 154 0 168 154 0 167
155 0 167 155 0 167 155 0 167 155 0 166 155 0 166 155 0 166 155 0 166
155 0 165 155 0 165 156 0 0 156 0 0 156 0 0 156 0 0 156 0 0 156 0 0
156 0 0 156 0 0 156 0 0 157 0 0 157 0 0 157 0 0 157 0 0 157 0 0 157 0
0 157 0 0 157 0 0 157 0 0 158 0 0 158 0 0 158 0 0 158 0 0 158 0 0 158
0 0 158 0 0 158 0 0 158 0 0 159 0 158 159 0 158 159 0 158 159 0 158
159 0 157 159 0 157 159 0 157 159 0 157 159 0 0 159 0 0 160 0 0 160 0
0 160 0 0 160 0 0 160 0 0 160 0 0 160 0 0 160 0 0 160 0 0 160 0 0 160
0 0 161 0 0 161 0 0 161 0 0 161 0 0 161 0 0 161 0 152 161 0 152 161 0
152 161 0 152 161 0 152 161 0 151 161 0 151 162 0 151 162 0 151 162 0
151 162 0 150 162 0 150 162 0 150 162 0 150 162 0 149 162 0 149 162 0
149 162 0 149 162 0 149 163 0 148 163 0 148 163 0 148 163 0 148 163 0
148 163 0 147 163 0 147 163 0 147 163 0 0 163 0 0 163 0 0 163 0 0 163
0 0 163 0 0 164 0 0 164 0 0 164 0 0 164 0 0 164 0 0 164 0 0 164 0 0
164 0 0 164 0 0 164 0 0 164 0 0 164 0 0 164 0 0 164 0 0 164 0 0 164 0
0 164 0 142 165 0 142 165 0 142 165 0 142 165 0 141 165 0 0 165 0 0
165 0 0 165 0 0 165 0 0 165 0 0 165 0 0 165 0 0 165 0 0 165 0 0 165 0
0 165 0 0 165 0 0 165 0 0 165 0 0 165 0 0 165 0 0 165 0 0 165 0 0 166
0 0 166 0 0 166 0 0 166 0 0 166 0 0 166 0 0 166 0 0 166 0 136 166 0
136 166 0 136 166 0 136 166 0 136 166 0 136 166 0 135 166 0 135 166 0
135 166 0 135 166 0 135 166 0 134 166 0 134 166 0 134 166 0 134 166 0
134 166 0 134 166 0 133 166 0 133 166 0 133 166 0 133 166 0 133 166 0
133 166 0
0 143 0 0 144 0 0 144 0 0 144 0 0 144 0 190 144 0 190 144 0 190 144 0
189 144 0 189 145 0 189 145 0 189 145 0 188 145 0 188 145 0 188 145 0
187 145 0 187 146 0 187 146 0 187 146 0 0 146 0 0 146 0 0 146 0 0 146
0 0 146 0 0 147 0 0 147 0 0 147 0 0 147 0 0 147 0 0 147 0 0 147 0 0
147 0 0 148 0 0 148 0 0 148 0 0 148 0 0 148 0 0 148 0 0 148 0 0 149 0
0 149 0 0 149 0 0 149 0 0 149 0 0 149 0 0 149 0 179 149 0 179 150 0
178 150 0 178 150 0 178 150 0 178 150 0 177 150 0 177 150 0 177 150 0
177 151 0 176 151 0 176 151 0 176 151 0 176 151 0 175 151 0 175 151 0
175 151 0 174 152 0 174 152 0 174 152 0 174 152 0 173 152 0 173 152 0
173 152 0 173 152 0 172 153 0 0 153 0 172 153 0 172 153 0 171 153 0
171 153 0 171 153 0 171 153 0 170 154 0 170 154 0 170 154 0 170 154 0
169 154 0 169 154 0 169 154 0 169 154 0 168 155 0 168 155 0 168 155 0
168 155 0 167 155 0 167 155 0 167 155 0 167 155 0 166 155 0 166 156 0
166 156 0 166 156 0 165 156 0 0 156 0 0 156 0 0 156 0 0 156 0 0 156 0
0 157 0 0 157 0 0 157 0 0 157 0 0 157 0 0 157 0 0 157 0 0 157 0 0 157
0 0 158 0 0 158 0 0 158 0 0 158 0 0 158 0 0 158 0 0 158 0 0 158 0 0
158 0 0 159 0 0 159 0 0 159 0 159 159 0 159 159 0 158 159 0 158 159 0
158 159 0 158 159 0 157 159 0 157 160 0 157 160 0 157 160 0 156 160 0
156 160 0 156 160 0 0 160 0 0 160 0 0 160 0 0 160 0 0 161 0 0 161 0 0
161 0 0 161 0 0 161 0 0 161 0 0 161 0 0 161 0 0 161 0 0 161 0 153 161
0 152 161 0 152 162 0 152 162 0 152 162 0 152 162 0 151 162 0 151 162
0 151 162 0 151 162 0 150 162 0 150 162 0 150 162 0 150 162 0 150 163
0 149 163 0 149 163 0 149 163 0 149 163 0 149 163 0 148 163 0 148 163
0 148 163 0 148 163 0 147 163 0 147 163 0 147 163 0 0 164 0 0 164 0 0
164 0 0 164 0 0 164 0 0 164 0 0 164 0 0 164 0 0 164 0 0 164 0 0 164 0
0 164 0 0 164 0 0 164 0 0 164 0 0 164 0 0 165 0 0 165 0 0 165 0 0 165
0 0 165 0 0 165 0 0 165 0 0 165 0 0 165 0 0 165 0 142 165 0 0 165 0 0
165 0 0 165 0 0 165 0 0 165 0 0 165 0 0 165 0 0 165 0 0 166 0 0 166 0
0 166 0 0 166 0 0 166 0 0 166 0 0 166 0 0 166 0 0 166 0 0 166 0 0 166
0 0 166 0 0 166 0 0 166 0 0 166 0 0 166 0 0 166 0 0 166 0 137 166 0
136 166 0 136 166 0 136 166 0 136 166 0 136 166 0 136 166 0 135 166 0
135 166 0 135 166 0 135 166 0 135 166 0 134 166 0 134 166 0 134 166 0
134 166 0 134 166 0 134 167 0 133 167 0 133 167 0 133 167 0 133 167 0
133 167 0
0 144 0 0 144 0 0 144 0 0 144 0 0 144 0 0 144 0 0 145 0 0 145 0 189
145 0 189 145 0 189 145 0 189 145 0 188 145 0 188 145 0 188 146 0 187
146 0 187 146 0 187 146 0 0 146 0 0 146 0 0 146 0 0 147 0 0 147 0 0
147 0 0 147 0 0 147 0 0 147 0 0 147 0 0 147 0 0 148 0 0 148 0 0 148 0
0 148 0 0 148 0 0 148 0 0 148 0 0 148 0 0 149 0 0 149 0 0 149 0 0 149
0 0 149 0 0 149 0 0 149 0 0 150 0 179 150 0 179 150 0 179 150 0 179
150 0 178 150 0 178 150 0 178 150 0 177 151 0 177 151 0 177 151 0 177
151 0 176 151 0 176 151 0 176 151 0 176 151 0 175 152 0 175 152 0 175
152 0 175 152 0 174 152 0 174 152 0 174 152 0 174 152 0 173 153 0 173
153 0 173 153 0 172 153 0 0 153 0 0 153 0 0 153 0 171 153 0 171 154 0
171 154 0 171 154 0 170 154 0 170 154 0 170 154 0 170 154 0 169 154 0
169 155 0 169 155 0 169 155 0 168 155 0 168 155 0 168 155 0 168 155 0
167 155 0 167 155 0 167 156 0 167 156 0 166 156 0 166 156 0 166 156 0
166 156 0 0 156 0 0 156 0 0 156 0 0 157 0 0 157 0 0 157 0 0 157 0 0
157 0 0 157 0 0 157 0 0 157 0 0 157 0 0 158 0 0 158 0 0 158 0 0 158 0
0 158 0 0 158 0 0 158 0 0 158 0 0 158 0 0 159 0 0 159 0 0 159 0 0 159
0 0 159 0 0 159 0 159 159 0 159 159 0 158 159 0 158 159 0 158 160 0
158 160 0 158 160 0 157 160 0 157 160 0 157 160 0 157 160 0 156 160 0
156 160 0 156 160 0 156 161 0 155 161 0 0 161 0 0 161 0 0 161 0 0 161
0 0 161 0 0 161 0 0 161 0 0 161 0 0 161 0 0 162 0 0 162 0 153 162 0
153 162 0 152 162 0 152 162 0 152 162 0 152 162 0 151 162 0 151 162 0
151 162 0 151 163 0 151 163 0 150 163 0 150 163 0 150 163 0 150 163 0
150 163 0 149 163 0 149 163 0 149 163 0 149 163 0 149 163 0 148 163 0
148 164 0 148 164 0 148 164 0 147 164 0 147 164 0 0 164 0 0 164 0 0
164 0 0 164 0 0 164 0 0 164 0 0 164 0 0 164 0 0 164 0 0 164 0 0 165 0
0 165 0 0 165 0 0 165 0 0 165 0 0 165 0 0 165 0 0 165 0 0 165 0 0 165
0 0 165 0 0 165 0 0 165 0 0 165 0 0 165 0 0 165 0 142 165 0 142 165 0
141 166 0 141 166 0 0 166 0 0 166 0 0 166 0 0 166 0 0 166 0 0 166 0 0
166 0 0 166 0 0 166 0 0 166 0 0 166 0 0 166 0 0 166 0 0 166 0 0 166 0
0 166 0 0 166 0 0 166 0 0 166 0 0 166 0 0 166 0 0 166 0 0 166 0 137
167 0 137 167 0 136 167 0 136 167 0 136 167 0 136 167 0 136 167 0 136
167 0 135 167 0 135 167 0 135 167 0 135 167 0 135 167 0 135 167 0 134
167 0 134 167 0 134 167 0 134 167 0 134 167 0 133 167 0 133 167 0 133
167 0 133 167 0
0 144 0 0 144 0 0 144 0 0 144 0 0 145 0 0 145 0 0 145 0 0 145 0 0 145
0 0 145 0 0 145 0 189 146 0 188 146 0 188 146 0 188 146 0 188 146 0
187 146 0 0 146 0 0 146 0 0 147 0 0 147 0 0 147 0 0 147 0 0 147 0 0
147 0 0 147 0 0 148 0 0 148 0 0 148 0 0 148 0 0 148 0 0 148 0 0 148 0
0 148 0 0 149 0 0 149 0 0 149 0 0 149 0 0 149 0 0 149 0 0 149 0 0 149
0 0 150 0 0 150 0 180 150 0 179 150 0 179 150 0 179 150 0 179 150 0
178 150 0 178 151 0 178 151 0 178 151 0 177 151 0 177 151 0 177 151 0
176 151 0 176 152 0 176 152 0 176 152 0 175 152 0 175 152 0 175 152 0
175 152 0 174 152 0 174 153 0 174 153 0 174 153 0 173 153 0 173 153 0
173 153 0 0 153 0 0 153 0 0 154 0 0 154 0 0 154 0 0 154 0 0 154 0 171
154 0 171 154 0 170 154 0 170 154 0 170 155 0 169 155 0 169 155 0 169
155 0 169 155 0 168 155 0 168 155 0 168 155 0 168 156 0 167 156 0 167
156 0 167 156 0 167 156 0 166 156 0 166 156 0 166 156 0 0 156 0 0 157
0 0 157 0 0 157 0 0 157 0 0 157 0 0 157 0 0 157 0 0 157 0 0 157 0 0
158 0 0 158 0 0 158 0 0 158 0 0 158 0 0 158 0 0 158 0 0 158 0 0 158 0
0 159 0 0 159 0 0 159 0 0 159 0 0 159 0 0 159 0 0 159 0 0 159 0 159
159 0 159 160 0 159 160 0 159 160 0 158 160 0 158 160 0 158 160 0 158
160 0 157 160 0 157 160 0 157 160 0 157 161 0 157 161 0 156 161 0 156
161 0 156 161 0 156 161 0 155 161 0 155 161 0 155 161 0 155 161 0 0
161 0 0 162 0 0 162 0 0 162 0 0 162 0 0 162 0 153 162 0 153 162 0 153
162 0 153 162 0 152 162 0 152 162 0 152 163 0 152 163 0 151 163 0 151
163 0 151 163 0 151 163 0 151 163 0 150 163 0 150 163 0 150 163 0 150
163 0 150 163 0 149 163 0 149 164 0 149 164 0 149 164 0 148 164 0 148
164 0 148 164 0 148 164 0 148 164 0 0 164 0 0 164 0 0 164 0 0 164 0 0
164 0 0 164 0 0 165 0 0 165 0 0 165 0 0 165 0 0 165 0 0 165 0 0 165 0
0 165 0 0 165 0 0 165 0 0 165 0 0 165 0 0 165 0 0 165 0 0 165 0 0 165
0 0 166 0 0 166 0 0 166 0 0 166 0 0 166 0 142 166 0 142 166 0 142 166
0 141 166 0 141 166 0 141 166 0 141 166 0 141 166 0 0 166 0 0 166 0 0
166 0 0 166 0 0 166 0 0 166 0 0 166 0 0 166 0 0 167 0 0 167 0 0 167 0
0 167 0 0 167 0 0 167 0 0 167 0 0 167 0 0 167 0 0 167 0 0 167 0 137
167 0 137 167 0 137 167 0 136 167 0 136 167 0 136 167 0 136 167 0 136
167 0 136 167 0 135 167 0 135 167 0 135 167 0 135 167 0 135 167 0 135
167 0 134 167 0 134 167 0 134 167 0 134 167 0 134 167 0 134 167 0 133
167 0 133 167 0
0 144 0 0 145 0 0 145 0 0 145 0 0 145 0 0 145 0 0 145 0 0 145 0 0 145
0 0 146 0 0 146 0 0 146 0 0 146 0 188 146 0 188 146 0 0 146 0 0 147 0
0 147 0 0 147 0 0 147 0 0 147 0 0 147 0 0 147 0 0 147 0 0 148 0 0 148
0 0 148 0 0 148 0 0 148 0 0 148 0 0 148 0 0 148 0 0 149 0 0 149 0 0
149 0 0 149 0 0 149 0 0 149 0 0 149 0 0 150 0 0 150 0 0 150 0 0 150 0
180 150 0 180 150 0 179 150 0 179 150 0 179 151 0 179 151 0 178 151 0
178 151 0 178 151 0 178 151 0 177 151 0 177 151 0 177 152 0 177 152 0
176 152 0 176 152 0 176 152 0 175 152 0 175 152 0 175 152 0 175 153 0
174 153 0 174 153 0 174 153 0 174 153 0 173 153 0 173 153 0 0 153 0 0
154 0 0 154 0 0 154 0 0 154 0 0 154 0 0 154 0 0 154 0 0 154 0 0 155 0
0 155 0 0 155 0 170 155 0 170 155 0 169 155 0 169 155 0 169 155 0 169
156 0 168 156 0 168 156 0 168 156 0 168 156 0 167 156 0 167 156 0 167
156 0 167 156 0 166 157 0 0 157 0 0 157 0 0 157 0 0 157 0 0 157 0 0
157 0 0 157 0 0 157 0 0 158 0 0 158 0 0 158 0 0 158 0 0 158 0 0 158 0
0 158 0 0 158 0 0 158 0 0 159 0 0 159 0 0 159 0 0 159 0 0 159 0 0 159
0 0 159 0 0 159 0 0 159 0 0 160 0 0 160 0 159 160 0 159 160 0 159 160
0 159 160 0 158 160 0 158 160 0 158 160 0 158 160 0 158 161 0 157 161
0 157 161 0 157 161 0 157 161 0 156 161 0 156 161 0 156 161 0 156 161
0 156 161 0 155 162 0 155 162 0 155 162 0 155 162 0 154 162 0 154 162
0 154 162 0 0 162 0 0 162 0 153 162 0 153 162 0 153 162 0 153 163 0
152 163 0 152 163 0 152 163 0 152 163 0 152 163 0 151 163 0 151 163 0
151 163 0 151 163 0 151 163 0 150 163 0 150 164 0 150 164 0 150 164 0
149 164 0 149 164 0 149 164 0 149 164 0 149 164 0 148 164 0 148 164 0
148 164 0 148 164 0 0 164 0 0 165 0 0 165 0 0 165 0 0 165 0 0 165 0 0
165 0 0 165 0 0 165 0 0 165 0 0 165 0 0 165 0 0 165 0 0 165 0 0 165 0
0 165 0 0 166 0 0 166 0 0 166 0 0 166 0 0 166 0 0 166 0 0 166 0 0 166
0 0 166 0 0 166 0 0 166 0 142 166 0 142 166 0 142 166 0 142 166 0 141
166 0 141 166 0 141 166 0 141 166 0 141 167 0 141 167 0 140 167 0 140
167 0 0 167 0 0 167 0 0 167 0 0 167 0 0 167 0 0 167 0 0 167 0 0 167 0
0 167 0 0 167 0 0 167 0 0 167 0 0 167 0 0 167 0 0 167 0 0 167 0 137
167 0 137 167 0 137 167 0 137 167 0 136 167 0 136 167 0 136 167 0 136
167 0 136 167 0 135 168 0 135 168 0 135 168 0 135 168 0 135 168 0 135
168 0 134 168 0 134 168 0 134 168 0 134 168 0 134 168 0 134 168 0 133
168 0
0 145 0 0 145 0 0 145 0 0 145 0 0 145 0 0 145 0 0 146 0 0 146 0 0 146
0 0 146 0 0 146 0 0 146 0 0 146 0 0 146 0 188 147 0 188 147 0 0 147 0
0 147 0 0 147 0 0 147 0 0 147 0 0 148 0 0 148 0 0 148 0 0 148 0 0 148
0 0 148 0 0 148 0 0 148 0 0 149 0 0 149 0 0 149 0 0 149 0 0 149 0 0
149 0 0 149 0 0 149 0 0 150 0 0 150 0 0 150 0 0 150 0 0 150 0 180 150
0 180 150 0 180 151 0 180 151 0 179 151 0 179 151 0 179 151 0 178 151
0 178 151 0 178 151 0 178 152 0 177 152 0 177 152 0 177 152 0 177 152
0 176 152 0 176 152 0 176 152 0 176 153 0 175 153 0 175 153 0 175 153
0 175 153 0 174 153 0 174 153 0 174 153 0 173 154 0 0 154 0 0 154 0 0
154 0 0 154 0 0 154 0 0 154 0 0 154 0 0 155 0 0 155 0 0 155 0 0 155 0
0 155 0 0 155 0 0 155 0 0 155 0 0 155 0 169 156 0 169 156 0 169 156 0
168 156 0 168 156 0 168 156 0 168 156 0 167 156 0 167 157 0 167 157 0
167 157 0 166 157 0 0 157 0 0 157 0 0 157 0 0 157 0 0 157 0 0 158 0 0
158 0 0 158 0 0 158 0 0 158 0 0 158 0 0 158 0 0 158 0 0 158 0 0 159 0
0 159 0 0 159 0 0 159 0 0 159 0 0 159 0 0 159 0 0 159 0 0 159 0 0 160
0 0 160 0 0 160 0 0 160 0 160 160 0 160 160 0 159 160 0 159 160 0 159
160 0 159 160 0 158 161 0 158 161 0 158 161 0 158 161 0 157 161 0 157
161 0 157 161 0 157 161 0 157 161 0 156 161 0 156 162 0 156 162 0 156
162 0 155 162 0 155 162 0 155 162 0 155 162 0 155 162 0 154 162 0 154
162 0 154 162 0 0 163 0 0 163 0 153 163 0 153 163 0 153 163 0 153 163
0 152 163 0 152 163 0 152 163 0 152 163 0 152 163 0 151 164 0 151 164
0 151 164 0 151 164 0 150 164 0 150 164 0 150 164 0 150 164 0 150 164
0 149 164 0 149 164 0 149 164 0 149 164 0 149 165 0 148 165 0 148 165
0 148 165 0 0 165 0 0 165 0 0 165 0 0 165 0 0 165 0 0 165 0 0 165 0 0
165 0 0 165 0 0 165 0 0 165 0 0 166 0 0 166 0 0 166 0 0 166 0 0 166 0
0 166 0 0 166 0 0 166 0 0 166 0 0 166 0 0 166 0 0 166 0 0 166 0 0 166
0 0 166 0 0 166 0 142 166 0 142 167 0 142 167 0 142 167 0 142 167 0
141 167 0 141 167 0 141 167 0 141 167 0 141 167 0 141 167 0 140 167 0
140 167 0 140 167 0 140 167 0 140 167 0 0 167 0 0 167 0 0 167 0 0 167
0 0 167 0 0 167 0 0 167 0 0 167 0 0 168 0 0 168 0 0 168 0 0 168 0 137
168 0 137 168 0 137 168 0 137 168 0 137 168 0 136 168 0 136 168 0 136
168 0 136 168 0 136 168 0 135 168 0 135 168 0 135 168 0 135 168 0 135
168 0 135 168 0 134 168 0 134 168 0 134 168 0 134 168 0 134 168 0 134
168 0
0 145 0 0 145 0 0 145 0 0 145 0 0 146 0 0 146 0 0 146 0 0 146 0 0 146
0 0 146 0 0 146 0 0 147 0 0 147 0 188 147 0 188 147 0 188 147 0 187
147 0 187 147 0 187 147 0 0 148 0 0 148 0 0 148 0 0 148 0 0 148 0 0
148 0 0 148 0 0 148 0 0 149 0 0 149 0 0 149 0 0 149 0 0 149 0 0 149 0
0 149 0 0 150 0 0 150 0 0 150 0 0 150 0 0 150 0 0 150 0 0 150 0 181
150 0 180 151 0 180 151 0 180 151 0 180 151 0 179 151 0 179 151 0 179
151 0 179 151 0 178 152 0 178 152 0 178 152 0 177 152 0 177 152 0 177
152 0 177 152 0 176 152 0 176 153 0 176 153 0 176 153 0 175 153 0 175
153 0 175 153 0 175 153 0 174 153 0 174 154 0 174 154 0 0 154 0 0 154
0 0 154 0 0 154 0 0 154 0 0 154 0 0 155 0 0 155 0 0 155 0 0 155 0 0
155 0 0 155 0 0 155 0 0 155 0 0 156 0 0 156 0 0 156 0 0 156 0 0 156 0
0 156 0 169 156 0 168 156 0 168 157 0 168 157 0 168 157 0 167 157 0
167 157 0 167 157 0 0 157 0 0 157 0 0 157 0 0 158 0 0 158 0 0 158 0 0
158 0 0 158 0 0 158 0 0 158 0 0 158 0 0 158 0 0 159 0 0 159 0 0 159 0
0 159 0 0 159 0 0 159 0 0 159 0 0 159 0 0 159 0 0 160 0 0 160 0 0 160
0 0 160 0 0 160 0 0 160 0 160 160 0 160 160 0 160 160 0 159 160 0 159
161 0 159 161 0 159 161 0 159 161 0 158 161 0 158 161 0 158 161 0 158
161 0 157 161 0 157 161 0 157 162 0 157 162 0 156 162 0 156 162 0 156
162 0 156 162 0 156 162 0 155 162 0 155 162 0 155 162 0 155 163 0 154
163 0 154 163 0 154 163 0 0 163 0 0 163 0 0 163 0 0 163 0 0 163 0 0
163 0 153 163 0 152 163 0 152 164 0 152 164 0 152 164 0 151 164 0 151
164 0 151 164 0 151 164 0 151 164 0 150 164 0 150 164 0 150 164 0 150
164 0 150 165 0 149 165 0 149 165 0 149 165 0 149 165 0 149 165 0 148
165 0 148 165 0 0 165 0 0 165 0 0 165 0 0 165 0 0 165 0 0 165 0 0 166
0 0 166 0 0 166 0 0 166 0 0 166 0 0 166 0 0 166 0 0 166 0 0 166 0 0
166 0 0 166 0 0 166 0 0 166 0 0 166 0 0 166 0 0 166 0 0 167 0 0 167 0
0 167 0 0 167 0 0 167 0 143 167 0 142 167 0 142 167 0 142 167 0 142
167 0 142 167 0 141 167 0 141 167 0 141 167 0 141 167 0 141 167 0 141
167 0 140 167 0 140 167 0 140 167 0 140 168 0 140 168 0 139 168 0 139
168 0 139 168 0 0 168 0 0 168 0 0 168 0 0 168 0 0 168 0 0 168 0 0 168
0 0 168 0 137 168 0 137 168 0 137 168 0 137 168 0 137 168 0 137 168 0
136 168 0 136 168 0 136 168 0 136 168 0 136 168 0 135 168 0 135 168 0
135 168 0 135 168 0 135 168 0 135 168 0 134 168 0 134 168 0 134 168 0
134 168 0 134 168 0
0 145 0 0 146 0 0 146 0 0 146 0 0 146 0 0 146 0 0 146 0 0 146 0 0 146
0 0 147 0 0 147 0 0 147 0 188 147 0 188 147 0 188 147 0 188 147 0 187
147 0 187 148 0 187 148 0 187 148 0 186 148 0 186 148 0 0 148 0 0 148
0 0 149 0 0 149 0 0 149 0 0 149 0 0 149 0 0 149 0 0 149 0 0 149 0 0
150 0 0 150 0 0 150 0 0 150 0 0 150 0 0 150 0 0 150 0 181 151 0 181
151 0 181 151 0 180 151 0 180 151 0 180 151 0 180 151 0 179 151 0 179
152 0 179 152 0 179 152 0 178 152 0 178 152 0 178 152 0 178 152 0 177
152 0 177 153 0 177 153 0 176 153 0 176 153 0 176 153 0 176 153 0 175
153 0 175 153 0 175 154 0 175 154 0 174 154 0 174 154 0 0 154 0 0 154
0 0 154 0 0 154 0 0 155 0 0 155 0 0 155 0 0 155 0 0 155 0 0 155 0 0
155 0 0 155 0 0 156 0 0 156 0 0 156 0 0 156 0 0 156 0 0 156 0 0 156 0
0 156 0 0 156 0 0 157 0 0 157 0 0 157 0 168 157 0 168 157 0 167 157 0
167 157 0 0 157 0 0 158 0 0 158 0 0 158 0 0 158 0 0 158 0 0 158 0 0
158 0 0 158 0 0 158 0 0 159 0 0 159 0 0 159 0 0 159 0 0 159 0 0 159 0
0 159 0 0 159 0 0 159 0 0 160 0 0 160 0 0 160 0 0 160 0 0 160 0 0 160
0 0 160 0 0 160 0 0 160 0 160 160 0 160 161 0 160 161 0 160 161 0 159
161 0 159 161 0 159 161 0 159 161 0 158 161 0 158 161 0 158 161 0 158
162 0 158 162 0 157 162 0 157 162 0 157 162 0 157 162 0 156 162 0 156
162 0 156 162 0 156 162 0 156 163 0 155 163 0 155 163 0 155 163 0 155
163 0 154 163 0 154 163 0 0 163 0 0 163 0 0 163 0 0 163 0 0 164 0 0
164 0 0 164 0 0 164 0 0 164 0 0 164 0 152 164 0 152 164 0 151 164 0
151 164 0 151 164 0 151 164 0 151 165 0 150 165 0 150 165 0 150 165 0
150 165 0 150 165 0 149 165 0 149 165 0 149 165 0 149 165 0 148 165 0
0 165 0 0 165 0 0 166 0 0 166 0 0 166 0 0 166 0 0 166 0 0 166 0 0 166
0 0 166 0 0 166 0 0 166 0 0 166 0 0 166 0 0 166 0 0 166 0 0 166 0 0
167 0 0 167 0 0 167 0 0 167 0 0 167 0 0 167 0 0 167 0 0 167 0 0 167 0
0 167 0 0 167 0 143 167 0 143 167 0 142 167 0 142 167 0 142 167 0 142
167 0 142 167 0 141 168 0 141 168 0 141 168 0 141 168 0 141 168 0 141
168 0 140 168 0 140 168 0 140 168 0 140 168 0 140 168 0 139 168 0 139
168 0 139 168 0 139 168 0 139 168 0 139 168 0 0 168 0 0 168 0 0 168 0
0 168 0 138 168 0 137 168 0 137 168 0 137 168 0 137 168 0 137 168 0
137 169 0 136 169 0 136 169 0 136 169 0 136 169 0 136 169 0 136 169 0
135 169 0 135 169 0 135 169 0 135 169 0 135 169 0 134 169 0 134 169 0
134 169 0 134 169 0
0 146 0 0 146 0 0 146 0 0 146 0 0 146 0 0 146 0 0 146 0 0 147 0 0 147
0 0 147 0 189 147 0 189 147 0 189 147 0 188 147 0 188 148 0 188 148 0
187 148 0 187 148 0 187 148 0 187 148 0 186 148 0 186 148 0 186 149 0
186 149 0 0 149 0 0 149 0 0 149 0 0 149 0 0 149 0 0 150 0 0 150 0 0
150 0 0 150 0 0 150 0 0 150 0 0 150 0 0 150 0 0 151 0 182 151 0 181
151 0 181 151 0 181 151 0 180 151 0 180 151 0 180 151 0 180 152 0 179
152 0 179 152 0 179 152 0 179 152 0 178 152 0 178 152 0 178 152 0 178
153 0 177 153 0 177 153 0 177 153 0 177 153 0 176 153 0 176 153 0 176
153 0 176 154 0 175 154 0 175 154 0 175 154 0 174 154 0 0 154 0 0 154
0 0 154 0 0 155 0 0 155 0 0 155 0 0 155 0 0 155 0 0 155 0 0 155 0 0
155 0 0 156 0 0 156 0 0 156 0 0 156 0 0 156 0 0 156 0 0 156 0 0 156 0
0 157 0 0 157 0 0 157 0 0 157 0 0 157 0 0 157 0 0 157 0 0 157 0 0 157
0 0 158 0 0 158 0 0 158 0 0 158 0 0 158 0 0 158 0 0 158 0 0 158 0 0
159 0 0 159 0 0 159 0 0 159 0 0 159 0 0 159 0 0 159 0 0 159 0 0 159 0
0 160 0 0 160 0 0 160 0 0 160 0 0 160 0 0 160 0 0 160 0 0 160 0 0 160
0 0 160 0 0 161 0 161 161 0 160 161 0 160 161 0 160 161 0 160 161 0
159 161 0 159 161 0 159 161 0 159 162 0 159 162 0 158 162 0 158 162 0
158 162 0 158 162 0 157 162 0 157 162 0 157 162 0 157 162 0 157 162 0
156 163 0 156 163 0 156 163 0 156 163 0 155 163 0 155 163 0 155 163 0
155 163 0 155 163 0 0 163 0 0 164 0 0 164 0 0 164 0 0 164 0 0 164 0 0
164 0 0 164 0 0 164 0 0 164 0 0 164 0 0 164 0 0 164 0 0 165 0 151 165
0 151 165 0 151 165 0 151 165 0 151 165 0 150 165 0 150 165 0 150 165
0 150 165 0 149 165 0 149 165 0 149 165 0 149 166 0 149 166 0 0 166 0
0 166 0 0 166 0 0 166 0 0 166 0 0 166 0 0 166 0 0 166 0 0 166 0 0 166
0 0 166 0 0 166 0 0 167 0 0 167 0 0 167 0 0 167 0 0 167 0 0 167 0 0
167 0 0 167 0 0 167 0 0 167 0 0 167 0 0 167 0 0 167 0 0 167 0 0 167 0
0 167 0 143 167 0 143 168 0 143 168 0 142 168 0 142 168 0 142 168 0
142 168 0 142 168 0 141 168 0 141 168 0 141 168 0 141 168 0 141 168 0
141 168 0 140 168 0 140 168 0 140 168 0 140 168 0 140 168 0 139 168 0
139 168 0 139 168 0 139 168 0 139 169 0 139 169 0 138 169 0 138 169 0
138 169 0 138 169 0 138 169 0 137 169 0 137 169 0 137 169 0 137 169 0
137 169 0 137 169 0 136 169 0 136 169 0 136 169 0 136 169 0 136 169 0
136 169 0 135 169 0 135 169 0 135 169 0 135 169 0 135 169 0 135 169 0
134 169 0 134 169 0
0 146 0 0 146 0 0 146 0 0 146 0 0 147 0 0 147 0 0 147 0 0 147 0 0 147
0 189 147 0 189 147 0 189 147 0 189 148 0 188 148 0 188 148 0 188 148
0 187 148 0 187 148 0 187 148 0 187 149 0 186 149 0 186 149 0 186 149
0 186 149 0 185 149 0 185 149 0 185 149 0 0 150 0 0 150 0 0 150 0 0
150 0 0 150 0 0 150 0 0 150 0 0 150 0 0 151 0 0 151 0 182 151 0 182
151 0 181 151 0 181 151 0 181 151 0 181 152 0 180 152 0 180 152 0 180
152 0 179 152 0 179 152 0 179 152 0 179 152 0 178 153 0 178 153 0 178
153 0 178 153 0 177 153 0 177 153 0 177 153 0 177 153 0 176 154 0 176
154 0 176 154 0 176 154 0 175 154 0 175 154 0 175 154 0 0 154 0 0 155
0 0 155 0 0 155 0 0 155 0 0 155 0 0 155 0 0 155 0 0 155 0 0 156 0 0
156 0 0 156 0 0 156 0 0 156 0 0 156 0 0 156 0 0 156 0 0 157 0 0 157 0
0 157 0 0 157 0 0 157 0 0 157 0 0 157 0 0 157 0 0 157 0 0 158 0 0 158
0 168 158 0 167 158 0 167 158 0 167 158 0 167 158 0 0 158 0 0 158 0 0
159 0 0 159 0 0 159 0 0 159 0 0 159 0 0 159 0 0 159 0 0 159 0 0 159 0
0 160 0 0 160 0 0 160 0 0 160 0 0 160 0 0 160 0 0 160 0 0 160 0 0 160
0 0 161 0 0 161 0 0 161 0 0 161 0 161 161 0 160 161 0 160 161 0 160
161 0 160 161 0 160 162 0 159 162 0 159 162 0 159 162 0 159 162 0 158
162 0 158 162 0 158 162 0 158 162 0 158 162 0 157 163 0 157 163 0 157
163 0 157 163 0 156 163 0 156 163 0 156 163 0 156 163 0 156 163 0 155
163 0 155 163 0 155 164 0 155 164 0 0 164 0 0 164 0 0 164 0 0 164 0 0
164 0 0 164 0 0 164 0 0 164 0 0 164 0 0 165 0 0 165 0 0 165 0 0 165 0
0 165 0 0 165 0 0 165 0 0 165 0 0 165 0 151 165 0 150 165 0 150 165 0
150 166 0 150 166 0 150 166 0 149 166 0 149 166 0 149 166 0 149 166 0
0 166 0 0 166 0 0 166 0 0 166 0 0 166 0 0 166 0 0 166 0 0 167 0 0 167
0 0 167 0 0 167 0 0 167 0 0 167 0 0 167 0 0 167 0 0 167 0 0 167 0 0
167 0 0 167 0 0 167 0 0 167 0 0 167 0 0 167 0 0 168 0 0 168 0 0 168 0
0 168 0 0 168 0 143 168 0 143 168 0 143 168 0 143 168 0 142 168 0 142
168 0 142 168 0 142 168 0 142 168 0 141 168 0 141 168 0 141 168 0 141
168 0 141 168 0 141 169 0 140 169 0 140 169 0 140 169 0 140 169 0 140
169 0 139 169 0 139 169 0 139 169 0 139 169 0 139 169 0 139 169 0 138
169 0 138 169 0 0 169 0 0 169 0 0 169 0 0 169 0 137 169 0 137 169 0
137 169 0 137 169 0 137 169 0 136 169 0 136 169 0 136 169 0 136 169 0
136 169 0 136 169 0 135 169 0 135 169 0 135 169 0 135 169 0 135 169 0
135 170 0 134 170 0
0 146 0 0 146 0 0 147 0 0 147 0 0 147 0 0 147 0 0 147 0 0 147 0 190
147 0 189 148 0 189 148 0 189 148 0 189 148 0 188 148 0 188 148 0 188
148 0 187 148 0 187 149 0 187 149 0 187 149 0 186 149 0 186 149 0 186
149 0 186 149 0 185 149 0 185 150 0 185 150 0 185 150 0 184 150 0 184
150 0 0 150 0 0 150 0 0 151 0 0 151 0 0 151 0 0 151 0 182 151 0 182
151 0 182 151 0 181 151 0 181 152 0 181 152 0 181 152 0 180 152 0 180
152 0 180 152 0 180 152 0 179 152 0 179 153 0 179 153 0 178 153 0 178
153 0 178 153 0 178 153 0 177 153 0 177 153 0 177 154 0 177 154 0 176
154 0 176 154 0 176 154 0 176 154 0 175 154 0 175 154 0 0 155 0 0 155
0 0 155 0 0 155 0 0 155 0 0 155 0 0 155 0 0 155 0 0 156 0 0 156 0 0
156 0 0 156 0 0 156 0 0 156 0 0 156 0 0 156 0 0 157 0 0 157 0 0 157 0
0 157 0 0 157 0 0 157 0 0 157 0 0 157 0 0 158 0 0 158 0 0 158 0 0 158
0 0 158 0 168 158 0 167 158 0 167 158 0 167 158 0 167 159 0 166 159 0
166 159 0 166 159 0 0 159 0 0 159 0 0 159 0 0 159 0 0 159 0 0 160 0 0
160 0 0 160 0 0 160 0 0 160 0 0 160 0 0 160 0 0 160 0 0 160 0 0 161 0
0 161 0 0 161 0 0 161 0 0 161 0 0 161 0 161 161 0 161 161 0 161 161 0
160 162 0 160 162 0 160 162 0 160 162 0 159 162 0 159 162 0 159 162 0
159 162 0 159 162 0 158 162 0 158 163 0 158 163 0 158 163 0 157 163 0
157 163 0 157 163 0 157 163 0 157 163 0 156 163 0 156 163 0 156 163 0
156 164 0 155 164 0 155 164 0 155 164 0 0 164 0 0 164 0 0 164 0 0 164
0 0 164 0 0 164 0 0 164 0 0 165 0 0 165 0 0 165 0 0 165 0 0 165 0 0
165 0 0 165 0 0 165 0 0 165 0 0 165 0 0 165 0 0 166 0 0 166 0 0 166 0
0 166 0 0 166 0 150 166 0 150 166 0 150 166 0 149 166 0 149 166 0 149
166 0 0 166 0 0 166 0 0 167 0 0 167 0 0 167 0 0 167 0 0 167 0 0 167 0
0 167 0 0 167 0 0 167 0 0 167 0 0 167 0 0 167 0 0 167 0 0 167 0 0 167
0 0 168 0 0 168 0 0 168 0 0 168 0 0 168 0 0 168 0 0 168 0 0 168 0 0
168 0 0 168 0 0 168 0 143 168 0 143 168 0 143 168 0 143 168 0 143 168
0 142 168 0 142 168 0 142 169 0 142 169 0 142 169 0 141 169 0 141 169
0 141 169 0 141 169 0 141 169 0 141 169 0 140 169 0 140 169 0 140 169
0 140 169 0 140 169 0 139 169 0 139 169 0 139 169 0 139 169 0 139 169
0 139 169 0 138 169 0 0 169 0 0 169 0 0 169 0 0 169 0 0 169 0 0 170 0
0 170 0 0 170 0 137 170 0 137 170 0 136 170 0 136 170 0 136 170 0 136
170 0 136 170 0 136 170 0 135 170 0 135 170 0 135 170 0 135 170 0 135
170 0 135 170 0
0 147 0 0 147 0 0 147 0 0 147 0 0 147 0 0 147 0 0 147 0 190 148 0 190
148 0 189 148 0 189 148 0 189 148 0 189 148 0 188 148 0 188 148 0 188
149 0 187 149 0 187 149 0 187 149 0 187 149 0 186 149 0 186 149 0 186
150 0 186 150 0 185 150 0 185 150 0 185 150 0 185 150 0 184 150 0 184
150 0 184 151 0 183 151 0 183 151 0 0 151 0 0 151 0 182 151 0 182 151
0 182 151 0 182 152 0 181 152 0 181 152 0 181 152 0 181 152 0 180 152
0 180 152 0 180 153 0 180 153 0 179 153 0 179 153 0 179 153 0 179 153
0 178 153 0 178 153 0 178 154 0 177 154 0 177 154 0 177 154 0 177 154
0 176 154 0 176 154 0 176 154 0 176 155 0 175 155 0 0 155 0 0 155 0 0
155 0 0 155 0 0 155 0 0 155 0 0 156 0 0 156 0 0 156 0 0 156 0 0 156 0
0 156 0 0 156 0 0 156 0 0 157 0 0 157 0 0 157 0 0 157 0 0 157 0 0 157
0 0 157 0 0 157 0 0 157 0 0 158 0 0 158 0 0 158 0 0 158 0 0 158 0 0
158 0 168 158 0 168 158 0 167 159 0 167 159 0 167 159 0 167 159 0 167
159 0 166 159 0 166 159 0 166 159 0 166 159 0 165 160 0 0 160 0 0 160
0 0 160 0 0 160 0 0 160 0 0 160 0 0 160 0 0 160 0 0 161 0 0 161 0 0
161 0 0 161 0 0 161 0 0 161 0 0 161 0 0 161 0 161 161 0 161 162 0 161
162 0 161 162 0 160 162 0 160 162 0 160 162 0 160 162 0 160 162 0 159
162 0 159 162 0 159 163 0 159 163 0 158 163 0 158 163 0 158 163 0 158
163 0 158 163 0 157 163 0 157 163 0 157 163 0 157 164 0 156 164 0 156
164 0 156 164 0 156 164 0 156 164 0 155 164 0 155 164 0 0 164 0 0 164
0 0 164 0 0 165 0 0 165 0 0 165 0 0 165 0 0 165 0 0 165 0 0 165 0 0
165 0 0 165 0 0 165 0 0 165 0 0 165 0 0 166 0 0 166 0 0 166 0 0 166 0
0 166 0 0 166 0 0 166 0 0 166 0 0 166 0 0 166 0 0 166 0 150 166 0 149
167 0 0 167 0 0 167 0 0 167 0 0 167 0 0 167 0 0 167 0 0 167 0 0 167 0
0 167 0 0 167 0 0 167 0 0 167 0 0 167 0 0 168 0 0 168 0 0 168 0 0 168
0 0 168 0 0 168 0 0 168 0 0 168 0 0 168 0 0 168 0 0 168 0 0 168 0 0
168 0 0 168 0 0 168 0 0 168 0 143 168 0 143 169 0 143 169 0 143 169 0
143 169 0 143 169 0 142 169 0 142 169 0 142 169 0 142 169 0 142 169 0
141 169 0 141 169 0 141 169 0 141 169 0 141 169 0 141 169 0 140 169 0
140 169 0 140 169 0 140 169 0 140 169 0 139 169 0 139 170 0 139 170 0
139 170 0 139 170 0 139 170 0 0 170 0 0 170 0 0 170 0 0 170 0 0 170 0
0 170 0 0 170 0 0 170 0 0 170 0 0 170 0 0 170 0 0 170 0 136 170 0 136
170 0 136 170 0 136 170 0 136 170 0 135 170 0 135 170 0 135 170 0 135
170 0 135 170 0
0 147 0 0 147 0 0 147 0 0 147 0 0 147 0 190 148 0 190 148 0 190 148 0
190 148 0 189 148 0 189 148 0 189 148 0 189 149 0 188 149 0 188 149 0
188 149 0 188 149 0 187 149 0 187 149 0 187 149 0 186 150 0 186 150 0
186 150 0 186 150 0 185 150 0 185 150 0 185 150 0 185 151 0 184 151 0
184 151 0 184 151 0 184 151 0 183 151 0 183 151 0 0 151 0 0 152 0 182
152 0 182 152 0 182 152 0 181 152 0 181 152 0 181 152 0 181 152 0 180
153 0 180 153 0 180 153 0 180 153 0 179 153 0 179 153 0 179 153 0 179
153 0 178 154 0 178 154 0 178 154 0 178 154 0 177 154 0 177 154 0 177
154 0 177 154 0 176 155 0 176 155 0 176 155 0 175 155 0 0 155 0 0 155
0 0 155 0 0 155 0 0 156 0 0 156 0 0 156 0 0 156 0 0 156 0 0 156 0 0
156 0 0 156 0 0 157 0 0 157 0 0 157 0 0 157 0 0 157 0 0 157 0 0 157 0
0 157 0 0 158 0 0 158 0 0 158 0 0 158 0 0 158 0 0 158 0 0 158 0 0 158
0 168 158 0 168 159 0 168 159 0 168 159 0 167 159 0 167 159 0 167 159
0 167 159 0 166 159 0 166 160 0 166 160 0 166 160 0 165 160 0 165 160
0 165 160 0 165 160 0 0 160 0 0 160 0 0 161 0 0 161 0 0 161 0 0 161 0
0 161 0 0 161 0 0 161 0 0 161 0 0 161 0 0 161 0 0 162 0 161 162 0 161
162 0 161 162 0 161 162 0 161 162 0 160 162 0 160 162 0 160 162 0 160
163 0 159 163 0 159 163 0 159 163 0 159 163 0 159 163 0 158 163 0 158
163 0 158 163 0 158 163 0 157 164 0 157 164 0 157 164 0 157 164 0 157
164 0 156 164 0 156 164 0 156 164 0 156 164 0 156 164 0 155 164 0 0
165 0 0 165 0 0 165 0 0 165 0 0 165 0 0 165 0 0 165 0 0 165 0 0 165 0
0 165 0 0 165 0 0 166 0 0 166 0 0 166 0 0 166 0 0 166 0 0 166 0 0 166
0 0 166 0 0 166 0 0 166 0 0 166 0 0 166 0 0 167 0 0 167 0 0 167 0 0
167 0 0 167 0 149 167 0 149 167 0 0 167 0 0 167 0 0 167 0 0 167 0 0
167 0 0 167 0 0 167 0 0 168 0 0 168 0 0 168 0 0 168 0 0 168 0 0 168 0
0 168 0 0 168 0 0 168 0 0 168 0 0 168 0 0 168 0 0 168 0 0 168 0 0 168
0 0 169 0 0 169 0 0 169 0 0 169 0 0 169 0 144 169 0 143 169 0 143 169
0 143 169 0 143 169 0 143 169 0 143 169 0 142 169 0 142 169 0 142 169
0 142 169 0 142 169 0 141 169 0 141 169 0 141 169 0 141 170 0 141 170
0 140 170 0 140 170 0 140 170 0 140 170 0 140 170 0 140 170 0 139 170
0 139 170 0 139 170 0 139 170 0 139 170 0 0 170 0 0 170 0 0 170 0 0
170 0 0 170 0 0 170 0 0 170 0 0 170 0 0 170 0 0 170 0 0 170 0 0 170 0
0 170 0 0 170 0 0 170 0 0 170 0 0 170 0 136 170 0 135 171 0 135 171 0
135 171 0 135 171 0
0 147 0 0 147 0 0 148 0 0 148 0 191 148 0 190 148 0 190 148 0 190 148
0 190 148 0 189 148 0 189 149 0 189 149 0 189 149 0 188 149 0 188 149
0 188 149 0 188 149 0 187 150 0 187 150 0 187 150 0 186 150 0 186 150
0 186 150 0 186 150 0 185 150 0 185 151 0 185 151 0 185 151 0 184 151
0 184 151 0 184 151 0 184 151 0 183 151 0 0 152 0 0 152 0 0 152 0 0
152 0 0 152 0 182 152 0 181 152 0 181 152 0 181 153 0 181 153 0 180
153 0 180 153 0 180 153 0 180 153 0 179 153 0 179 154 0 179 154 0 179
154 0 178 154 0 178 154 0 178 154 0 178 154 0 177 154 0 177 155 0 177
155 0 177 155 0 176 155 0 176 155 0 176 155 0 0 155 0 0 155 0 0 156 0
0 156 0 0 156 0 0 156 0 0 156 0 0 156 0 0 156 0 0 156 0 0 157 0 0 157
0 0 157 0 0 157 0 0 157 0 0 157 0 0 157 0 0 157 0 0 157 0 0 158 0 0
158 0 0 158 0 0 158 0 0 158 0 0 158 0 0 158 0 0 158 0 0 159 0 169 159
0 168 159 0 168 159 0 168 159 0 168 159 0 167 159 0 167 159 0 167 159
0 167 160 0 166 160 0 166 160 0 166 160 0 166 160 0 166 160 0 165 160
0 165 160 0 165 160 0 165 161 0 164 161 0 164 161 0 164 161 0 0 161 0
0 161 0 0 161 0 0 161 0 0 161 0 0 162 0 0 162 0 0 162 0 162 162 0 162
162 0 161 162 0 161 162 0 161 162 0 161 162 0 160 163 0 160 163 0 160
163 0 160 163 0 160 163 0 159 163 0 159 163 0 159 163 0 159 163 0 158
163 0 158 164 0 158 164 0 158 164 0 158 164 0 157 164 0 157 164 0 157
164 0 157 164 0 156 164 0 156 164 0 156 164 0 156 165 0 156 165 0 0
165 0 0 165 0 0 165 0 0 165 0 0 165 0 0 165 0 0 165 0 0 165 0 0 165 0
0 166 0 0 166 0 0 166 0 0 166 0 0 166 0 0 166 0 0 166 0 0 166 0 0 166
0 0 166 0 0 166 0 0 167 0 0 167 0 0 167 0 0 167 0 0 167 0 0 167 0 0
167 0 0 167 0 0 167 0 149 167 0 149 167 0 149 167 0 149 167 0 149 168
0 148 168 0 0 168 0 0 168 0 0 168 0 0 168 0 0 168 0 0 168 0 0 168 0 0
168 0 0 168 0 0 168 0 0 168 0 0 168 0 0 168 0 0 169 0 0 169 0 0 169 0
0 169 0 0 169 0 0 169 0 0 169 0 0 169 0 0 169 0 0 169 0 144 169 0 144
169 0 143 169 0 143 169 0 143 169 0 143 169 0 143 169 0 142 169 0 142
170 0 142 170 0 142 170 0 142 170 0 142 170 0 141 170 0 141 170 0 141
170 0 141 170 0 141 170 0 140 170 0 140 170 0 140 170 0 140 170 0 140
170 0 140 170 0 139 170 0 139 170 0 139 170 0 139 170 0 139 170 0 0
170 0 0 170 0 0 170 0 0 171 0 0 171 0 0 171 0 0 171 0 0 171 0 0 171 0
0 171 0 0 171 0 0 171 0 0 171 0 0 171 0 0 171 0 0 171 0 0 171 0 0 171
0 0 171 0 0 171 0 135 171 0
0 148 0 0 148 0 0 148 0 191 148 0 191 148 0 190 148 0 190 148 0 190
148 0 190 149 0 189 149 0 189 149 0 189 149 0 189 149 0 188 149 0 188
149 0 188 150 0 188 150 0 187 150 0 187 150 0 187 150 0 186 150 0 186
150 0 186 150 0 186 151 0 185 151 0 185 151 0 185 151 0 185 151 0 184
151 0 184 151 0 184 152 0 184 152 0 0 152 0 0 152 0 0 152 0 0 152 0 0
152 0 0 152 0 0 153 0 0 153 0 0 153 0 181 153 0 181 153 0 180 153 0
180 153 0 180 153 0 180 154 0 179 154 0 179 154 0 179 154 0 179 154 0
178 154 0 178 154 0 178 154 0 178 155 0 177 155 0 177 155 0 177 155 0
177 155 0 176 155 0 176 155 0 0 155 0 0 156 0 0 156 0 0 156 0 0 156 0
0 156 0 0 156 0 0 156 0 0 156 0 0 157 0 0 157 0 0 157 0 0 157 0 0 157
0 0 157 0 0 157 0 0 157 0 0 158 0 0 158 0 0 158 0 0 158 0 0 158 0 0
158 0 0 158 0 0 158 0 0 158 0 0 159 0 0 159 0 0 159 0 169 159 0 168
159 0 168 159 0 168 159 0 168 159 0 168 160 0 167 160 0 167 160 0 167
160 0 167 160 0 166 160 0 166 160 0 166 160 0 166 160 0 165 161 0 165
161 0 165 161 0 165 161 0 164 161 0 164 161 0 164 161 0 164 161 0 164
161 0 163 162 0 0 162 0 0 162 0 0 162 0 0 162 0 0 162 0 162 162 0 162
162 0 161 162 0 161 163 0 161 163 0 161 163 0 161 163 0 160 163 0 160
163 0 160 163 0 160 163 0 159 163 0 159 163 0 159 164 0 159 164 0 159
164 0 158 164 0 158 164 0 158 164 0 158 164 0 157 164 0 157 164 0 157
164 0 157 165 0 157 165 0 156 165 0 156 165 0 156 165 0 156 165 0 0
165 0 0 165 0 0 165 0 0 165 0 0 165 0 0 166 0 0 166 0 0 166 0 0 166 0
0 166 0 0 166 0 0 166 0 0 166 0 0 166 0 0 166 0 0 166 0 0 166 0 0 167
0 0 167 0 0 167 0 0 167 0 0 167 0 0 167 0 0 167 0 0 167 0 0 167 0 0
167 0 0 167 0 0 167 0 150 168 0 149 168 0 149 168 0 149 168 0 149 168
0 149 168 0 148 168 0 148 168 0 148 168 0 0 168 0 0 168 0 0 168 0 0
168 0 0 168 0 0 169 0 0 169 0 0 169 0 0 169 0 0 169 0 0 169 0 0 169 0
0 169 0 0 169 0 0 169 0 0 169 0 0 169 0 0 169 0 0 169 0 0 169 0 144
169 0 144 169 0 144 170 0 143 170 0 143 170 0 143 170 0 143 170 0 143
170 0 142 170 0 142 170 0 142 170 0 142 170 0 142 170 0 142 170 0 141
170 0 141 170 0 141 170 0 141 170 0 141 170 0 140 170 0 140 170 0 140
170 0 140 170 0 140 171 0 140 171 0 139 171 0 139 171 0 139 171 0 139
171 0 0 171 0 0 171 0 0 171 0 0 171 0 0 171 0 0 171 0 0 171 0 0 171 0
0 171 0 0 171 0 0 171 0 0 171 0 0 171 0 0 171 0 0 171 0 0 171 0 0 171
0 0 171 0 0 171 0 0 171 0 0 171 0
0 148 0 192 148 0 191 148 0 191 148 0 191 148 0 190 149 0 190 149 0
190 149 0 190 149 0 189 149 0 189 149 0 189 149 0 189 149 0 188 150 0
188 150 0 188 150 0 188 150 0 187 150 0 187 150 0 187 150 0 186 151 0
186 151 0 186 151 0 186 151 0 185 151 0 185 151 0 185 151 0 185 151 0
184 152 0 184 152 0 184 152 0 0 152 0 0 152 0 0 152 0 0 152 0 0 152 0
0 153 0 0 153 0 0 153 0 0 153 0 0 153 0 0 153 0 0 153 0 0 153 0 180
154 0 180 154 0 180 154 0 179 154 0 179 154 0 179 154 0 179 154 0 178
154 0 178 155 0 178 155 0 178 155 0 177 155 0 177 155 0 177 155 0 177
155 0 176 156 0 0 156 0 0 156 0 0 156 0 0 156 0 0 156 0 0 156 0 0 156
0 0 156 0 0 157 0 0 157 0 0 157 0 0 157 0 0 157 0 0 157 0 0 157 0 0
157 0 0 158 0 0 158 0 0 158 0 0 158 0 0 158 0 0 158 0 0 158 0 0 158 0
0 159 0 0 159 0 0 159 0 0 159 0 0 159 0 169 159 0 169 159 0 169 159 0
168 159 0 168 160 0 168 160 0 168 160 0 167 160 0 167 160 0 167 160 0
167 160 0 166 160 0 166 161 0 166 161 0 166 161 0 165 161 0 165 161 0
165 161 0 165 161 0 165 161 0 164 161 0 164 162 0 164 162 0 164 162 0
163 162 0 163 162 0 163 162 0 163 162 0 0 162 0 162 162 0 162 162 0
162 163 0 162 163 0 161 163 0 161 163 0 161 163 0 161 163 0 160 163 0
160 163 0 160 163 0 160 164 0 160 164 0 159 164 0 159 164 0 159 164 0
159 164 0 158 164 0 158 164 0 158 164 0 158 164 0 158 165 0 157 165 0
157 165 0 157 165 0 157 165 0 157 165 0 156 165 0 156 165 0 0 165 0 0
165 0 0 165 0 0 166 0 0 166 0 0 166 0 0 166 0 0 166 0 0 166 0 0 166 0
0 166 0 0 166 0 0 166 0 0 166 0 0 167 0 0 167 0 0 167 0 0 167 0 0 167
0 0 167 0 0 167 0 0 167 0 0 167 0 0 167 0 0 167 0 0 167 0 0 168 0 0
168 0 0 168 0 150 168 0 150 168 0 149 168 0 149 168 0 149 168 0 149
168 0 149 168 0 149 168 0 148 168 0 148 168 0 148 168 0 148 169 0 148
169 0 147 169 0 0 169 0 0 169 0 0 169 0 0 169 0 0 169 0 0 169 0 0 169
0 0 169 0 0 169 0 0 169 0 0 169 0 0 169 0 0 170 0 0 170 0 0 170 0 0
170 0 144 170 0 144 170 0 144 170 0 144 170 0 143 170 0 143 170 0 143
170 0 143 170 0 143 170 0 142 170 0 142 170 0 142 170 0 142 170 0 142
170 0 142 170 0 141 170 0 141 171 0 141 171 0 141 171 0 141 171 0 140
171 0 140 171 0 140 171 0 140 171 0 140 171 0 140 171 0 139 171 0 139
171 0 139 171 0 0 171 0 0 171 0 0 171 0 0 171 0 0 171 0 0 171 0 0 171
0 0 171 0 0 171 0 0 171 0 0 171 0 0 171 0 0 171 0 0 171 0 0 171 0 0
171 0 0 172 0 0 172 0 0 172 0 0 172 0 0 172 0
192 148 0 192 148 0 191 148 0 191 149 0 191 149 0 190 149 0 190 149 0
190 149 0 190 149 0 189 149 0 189 149 0 189 150 0 189 150 0 188 150 0
188 150 0 188 150 0 188 150 0 187 150 0 187 151 0 187 151 0 186 151 0
186 151 0 186 151 0 186 151 0 185 151 0 185 151 0 185 152 0 185 152 0
184 152 0 0 152 0 0 152 0 0 152 0 0 152 0 0 152 0 0 153 0 0 153 0 0
153 0 0 153 0 0 153 0 0 153 0 0 153 0 0 154 0 0 154 0 0 154 0 0 154 0
0 154 0 0 154 0 179 154 0 179 154 0 179 155 0 179 155 0 178 155 0 178
155 0 178 155 0 178 155 0 177 155 0 177 155 0 177 156 0 177 156 0 0
156 0 0 156 0 0 156 0 0 156 0 0 156 0 0 156 0 0 157 0 0 157 0 0 157 0
0 157 0 0 157 0 0 157 0 0 157 0 0 157 0 0 158 0 0 158 0 0 158 0 0 158
0 0 158 0 0 158 0 0 158 0 0 158 0 0 158 0 0 159 0 0 159 0 0 159 0 0
159 0 0 159 0 0 159 0 169 159 0 169 159 0 169 160 0 169 160 0 168 160
0 168 160 0 168 160 0 168 160 0 167 160 0 167 160 0 167 160 0 167 161
0 166 161 0 166 161 0 166 161 0 166 161 0 166 161 0 165 161 0 165 161
0 165 161 0 165 162 0 164 162 0 164 162 0 164 162 0 164 162 0 163 162
0 163 162 0 163 162 0 163 162 0 163 163 0 0 163 0 0 163 0 162 163 0
162 163 0 161 163 0 161 163 0 161 163 0 161 163 0 161 164 0 160 164 0
160 164 0 160 164 0 160 164 0 159 164 0 159 164 0 159 164 0 159 164 0
159 164 0 158 165 0 158 165 0 158 165 0 158 165 0 157 165 0 157 165 0
157 165 0 157 165 0 157 165 0 156 165 0 156 165 0 0 166 0 0 166 0 0
166 0 0 166 0 0 166 0 0 166 0 0 166 0 0 166 0 0 166 0 0 166 0 0 166 0
0 167 0 0 167 0 0 167 0 0 167 0 0 167 0 0 167 0 0 167 0 0 167 0 0 167
0 0 167 0 0 167 0 0 167 0 0 168 0 0 168 0 0 168 0 0 168 0 0 168 0 0
168 0 150 168 0 150 168 0 150 168 0 149 168 0 149 168 0 149 168 0 149
168 0 149 169 0 148 169 0 148 169 0 148 169 0 148 169 0 148 169 0 147
169 0 147 169 0 147 169 0 147 169 0 147 169 0 0 169 0 0 169 0 0 169 0
0 170 0 0 170 0 0 170 0 0 170 0 0 170 0 0 170 0 0 170 0 0 170 0 0 170
0 144 170 0 144 170 0 144 170 0 144 170 0 144 170 0 143 170 0 143 170
0 143 170 0 143 170 0 143 171 0 142 171 0 142 171 0 142 171 0 142 171
0 142 171 0 142 171 0 141 171 0 141 171 0 141 171 0 141 171 0 141 171
0 140 171 0 140 171 0 140 171 0 140 171 0 140 171 0 140 171 0 139 171
0 139 171 0 0 171 0 0 171 0 0 171 0 0 171 0 0 172 0 0 172 0 0 172 0 0
172 0 0 172 0 0 172 0 0 172 0 0 172 0 0 172 0 0 172 0 0 172 0 0 172 0
0 172 0 0 172 0 0 172 0 0 172 0 0 172 0
192 148 0 192 149 0 191 149 0 191 149 0 191 149 0 190 149 0 190 149 0
190 149 0 190 150 0 189 150 0 189 150 0 189 150 0 189 150 0 188 150 0
188 150 0 188 150 0 188 151 0 187 151 0 187 151 0 187 151 0 187 151 0
186 151 0 186 151 0 186 151 0 185 152 0 185 152 0 185 152 0 185 152 0
0 152 0 0 152 0 0 152 0 0 153 0 0 153 0 0 153 0 0 153 0 0 153 0 0 153
0 0 153 0 0 153 0 0 154 0 0 154 0 0 154 0 0 154 0 0 154 0 0 154 0 0
154 0 0 154 0 0 155 0 0 155 0 0 155 0 179 155 0 179 155 0 178 155 0
178 155 0 178 155 0 177 156 0 177 156 0 177 156 0 0 156 0 0 156 0 0
156 0 0 156 0 0 156 0 0 157 0 0 157 0 0 157 0 0 157 0 0 157 0 0 157 0
0 157 0 0 157 0 0 158 0 0 158 0 0 158 0 0 158 0 0 158 0 0 158 0 0 158
0 0 158 0 0 159 0 0 159 0 0 159 0 0 159 0 0 159 0 0 159 0 0 159 0 0
159 0 170 159 0 169 160 0 169 160 0 169 160 0 169 160 0 168 160 0 168
160 0 168 160 0 168 160 0 167 161 0 167 161 0 167 161 0 167 161 0 167
161 0 166 161 0 166 161 0 166 161 0 166 161 0 165 162 0 165 162 0 165
162 0 165 162 0 164 162 0 164 162 0 164 162 0 164 162 0 164 162 0 163
163 0 163 163 0 163 163 0 0 163 0 0 163 0 0 163 0 0 163 0 0 163 0 0
163 0 161 163 0 161 164 0 161 164 0 161 164 0 160 164 0 160 164 0 160
164 0 160 164 0 160 164 0 159 164 0 159 165 0 159 165 0 159 165 0 158
165 0 158 165 0 158 165 0 158 165 0 158 165 0 157 165 0 157 165 0 157
165 0 157 166 0 157 166 0 0 166 0 0 166 0 0 166 0 0 166 0 0 166 0 0
166 0 0 166 0 0 166 0 0 166 0 0 167 0 0 167 0 0 167 0 0 167 0 0 167 0
0 167 0 0 167 0 0 167 0 0 167 0 0 167 0 0 167 0 0 168 0 0 168 0 0 168
0 0 168 0 0 168 0 0 168 0 0 168 0 0 168 0 0 168 0 0 168 0 150 168 0
150 168 0 150 168 0 150 169 0 149 169 0 149 169 0 149 169 0 149 169 0
149 169 0 148 169 0 148 169 0 148 169 0 148 169 0 148 169 0 147 169 0
147 169 0 147 169 0 147 170 0 147 170 0 146 170 0 146 170 0 0 170 0 0
170 0 0 170 0 0 170 0 0 170 0 0 170 0 0 170 0 0 170 0 145 170 0 144
170 0 144 170 0 144 170 0 144 171 0 144 171 0 144 171 0 143 171 0 143
171 0 143 171 0 143 171 0 143 171 0 142 171 0 142 171 0 142 171 0 142
171 0 142 171 0 142 171 0 141 171 0 141 171 0 141 171 0 141 171 0 141
171 0 140 171 0 140 171 0 140 172 0 140 172 0 140 172 0 140 172 0 139
172 0 0 172 0 0 172 0 0 172 0 0 172 0 0 172 0 0 172 0 0 172 0 0 172 0
0 172 0 0 172 0 0 172 0 0 172 0 0 172 0 0 172 0 0 172 0 0 172 0 0 172
0 0 172 0 0 172 0 0 172 0 0 172 0
192 149 0 192 149 0 191 149 0 191 149 0 191 149 0 190 149 0 190 150 0
190 150 0 190 150 0 189 150 0 189 150 0 189 150 0 189 150 0 188 150 0
188 151 0 188 151 0 188 151 0 187 151 0 187 151 0 187 151 0 187 151 0
186 152 0 186 152 0 186 152 0 185 152 0 185 152 0 185 152 0 0 152 0 0
152 0 0 153 0 0 153 0 0 153 0 0 153 0 0 153 0 0 153 0 0 153 0 0 153 0
0 154 0 0 154 0 0 154 0 0 154 0 0 154 0 0 154 0 0 154 0 0 154 0 0 155
0 0 155 0 0 155 0 0 155 0 0 155 0 0 155 0 0 155 0 178 155 0 178 156 0
178 156 0 178 156 0 177 156 0 0 156 0 0 156 0 0 156 0 0 156 0 0 157 0
0 157 0 0 157 0 0 157 0 0 157 0 0 157 0 0 157 0 0 157 0 0 158 0 0 158
0 0 158 0 0 158 0 0 158 0 0 158 0 0 158 0 0 158 0 0 159 0 0 159 0 0
159 0 0 159 0 0 159 0 0 159 0 0 159 0 0 159 0 0 160 0 0 160 0 170 160
0 169 160 0 169 160 0 169 160 0 169 160 0 169 160 0 168 160 0 168 161
0 168 161 0 168 161 0 167 161 0 167 161 0 167 161 0 167 161 0 166 161
0 166 161 0 166 162 0 166 162 0 165 162 0 165 162 0 165 162 0 165 162
0 165 162 0 164 162 0 164 162 0 164 163 0 164 163 0 163 163 0 163 163
0 0 163 0 0 163 0 0 163 0 0 163 0 0 163 0 0 164 0 0 164 0 0 164 0 0
164 0 0 164 0 0 164 0 161 164 0 160 164 0 160 164 0 160 164 0 160 165
0 159 165 0 159 165 0 159 165 0 159 165 0 159 165 0 158 165 0 158 165
0 158 165 0 158 165 0 157 166 0 157 166 0 157 166 0 157 166 0 157 166
0 0 166 0 0 166 0 0 166 0 0 166 0 0 166 0 0 167 0 0 167 0 0 167 0 0
167 0 0 167 0 0 167 0 0 167 0 0 167 0 0 167 0 0 167 0 0 167 0 0 167 0
0 168 0 0 168 0 0 168 0 0 168 0 0 168 0 0 168 0 0 168 0 0 168 0 0 168
0 0 168 0 0 168 0 0 168 0 0 169 0 150 169 0 150 169 0 150 169 0 150
169 0 150 169 0 149 169 0 149 169 0 149 169 0 149 169 0 149 169 0 148
169 0 148 169 0 148 169 0 148 170 0 148 170 0 147 170 0 147 170 0 147
170 0 147 170 0 147 170 0 146 170 0 146 170 0 146 170 0 146 170 0 146
170 0 0 170 0 0 170 0 0 170 0 0 171 0 145 171 0 145 171 0 144 171 0
144 171 0 144 171 0 144 171 0 144 171 0 143 171 0 143 171 0 143 171 0
143 171 0 143 171 0 143 171 0 142 171 0 142 171 0 142 171 0 142 171 0
142 171 0 142 172 0 141 172 0 141 172 0 141 172 0 141 172 0 141 172 0
140 172 0 140 172 0 140 172 0 140 172 0 140 172 0 140 172 0 0 172 0 0
172 0 0 172 0 0 172 0 0 172 0 0 172 0 0 172 0 0 172 0 0 172 0 0 172 0
0 172 0 0 172 0 0 172 0 0 172 0 0 172 0 0 172 0 0 172 0 0 173 0 0 173
0 0 173 0 0 173 0
192 149 0 192 149 0 191 149 0 191 149 0 191 150 0 190 150 0 190 150 0
190 150 0 190 150 0 189 150 0 189 150 0 189 151 0 189 151 0 188 151 0
188 151 0 188 151 0 188 151 0 187 151 0 187 151 0 187 152 0 187 152 0
186 152 0 186 152 0 186 152 0 185 152 0 185 152 0 0 152 0 0 153 0 0
153 0 0 153 0 0 153 0 0 153 0 0 153 0 0 153 0 0 153 0 0 154 0 0 154 0
0 154 0 0 154 0 0 154 0 0 154 0 0 154 0 0 155 0 0 155 0 0 155 0 0 155
0 0 155 0 0 155 0 0 155 0 0 155 0 0 156 0 0 156 0 0 156 0 0 156 0 0
156 0 178 156 0 0 156 0 0 156 0 0 157 0 0 157 0 0 157 0 0 157 0 0 157
0 0 157 0 0 157 0 0 157 0 0 158 0 0 158 0 0 158 0 0 158 0 0 158 0 0
158 0 0 158 0 0 158 0 0 159 0 0 159 0 0 159 0 0 159 0 0 159 0 0 159 0
0 159 0 0 159 0 0 159 0 0 160 0 0 160 0 0 160 0 170 160 0 170 160 0
170 160 0 169 160 0 169 160 0 169 161 0 169 161 0 168 161 0 168 161 0
168 161 0 168 161 0 167 161 0 167 161 0 167 161 0 167 162 0 166 162 0
166 162 0 166 162 0 166 162 0 166 162 0 165 162 0 165 162 0 165 162 0
165 163 0 164 163 0 164 163 0 164 163 0 164 163 0 164 163 0 163 163 0
0 163 0 0 163 0 0 164 0 0 164 0 0 164 0 0 164 0 0 164 0 0 164 0 0 164
0 0 164 0 0 164 0 0 164 0 0 165 0 0 165 0 160 165 0 160 165 0 160 165
0 159 165 0 159 165 0 159 165 0 159 165 0 158 165 0 158 166 0 158 166
0 158 166 0 158 166 0 157 166 0 157 166 0 157 166 0 157 166 0 0 166 0
0 166 0 0 167 0 0 167 0 0 167 0 0 167 0 0 167 0 0 167 0 0 167 0 0 167
0 0 167 0 0 167 0 0 167 0 0 168 0 0 168 0 0 168 0 0 168 0 0 168 0 0
168 0 0 168 0 0 168 0 0 168 0 0 168 0 0 168 0 0 168 0 0 169 0 0 169 0
0 169 0 0 169 0 151 169 0 150 169 0 150 169 0 150 169 0 150 169 0 150
169 0 149 169 0 149 169 0 149 169 0 149 170 0 149 170 0 148 170 0 148
170 0 148 170 0 148 170 0 148 170 0 148 170 0 147 170 0 147 170 0 147
170 0 147 170 0 147 170 0 146 170 0 146 170 0 146 171 0 146 171 0 146
171 0 145 171 0 145 171 0 0 171 0 145 171 0 145 171 0 145 171 0 144
171 0 144 171 0 144 171 0 144 171 0 144 171 0 143 171 0 143 171 0 143
171 0 143 171 0 143 172 0 143 172 0 142 172 0 142 172 0 142 172 0 142
172 0 142 172 0 141 172 0 141 172 0 141 172 0 141 172 0 141 172 0 141
172 0 140 172 0 140 172 0 140 172 0 140 172 0 140 172 0 0 172 0 0 172
0 0 172 0 0 172 0 0 172 0 0 172 0 0 173 0 0 173 0 0 173 0 0 173 0 0
173 0 0 173 0 0 173 0 0 173 0 0 173 0 0 173 0 0 173 0 0 173 0 0 173 0
0 173 0 0 173 0
192 149 0 191 149 0 191 150 0 191 150 0 191 150 0 190 150 0 190 150 0
190 150 0 190 150 0 189 151 0 189 151 0 189 151 0 189 151 0 188 151 0
188 151 0 188 151 0 188 151 0 187 152 0 187 152 0 187 152 0 187 152 0
186 152 0 186 152 0 186 152 0 185 152 0 0 153 0 0 153 0 0 153 0 0 153
0 0 153 0 0 153 0 0 153 0 0 154 0 0 154 0 0 154 0 0 154 0 0 154 0 0
154 0 0 154 0 0 154 0 0 155 0 0 155 0 0 155 0 0 155 0 0 155 0 0 155 0
0 155 0 0 155 0 0 156 0 0 156 0 0 156 0 0 156 0 0 156 0 0 156 0 0 156
0 178 156 0 177 157 0 177 157 0 0 157 0 0 157 0 0 157 0 0 157 0 0 157
0 0 157 0 0 158 0 0 158 0 0 158 0 0 158 0 0 158 0 0 158 0 0 158 0 0
158 0 0 159 0 0 159 0 0 159 0 0 159 0 0 159 0 0 159 0 0 159 0 0 159 0
0 160 0 0 160 0 0 160 0 0 160 0 0 160 0 170 160 0 170 160 0 170 160 0
170 160 0 169 161 0 169 161 0 169 161 0 169 161 0 168 161 0 168 161 0
168 161 0 168 161 0 167 161 0 167 162 0 167 162 0 167 162 0 167 162 0
166 162 0 166 162 0 166 162 0 166 162 0 165 162 0 165 163 0 165 163 0
165 163 0 165 163 0 164 163 0 164 163 0 164 163 0 164 163 0 0 163 0 0
164 0 0 164 0 0 164 0 0 164 0 0 164 0 0 164 0 0 164 0 0 164 0 0 164 0
0 165 0 0 165 0 0 165 0 0 165 0 0 165 0 0 165 0 0 165 0 0 165 0 159
165 0 159 165 0 159 166 0 159 166 0 159 166 0 158 166 0 158 166 0 158
166 0 158 166 0 157 166 0 157 166 0 157 166 0 0 167 0 0 167 0 0 167 0
0 167 0 0 167 0 0 167 0 0 167 0 0 167 0 0 167 0 0 167 0 0 167 0 0 168
0 0 168 0 0 168 0 0 168 0 0 168 0 0 168 0 0 168 0 0 168 0 0 168 0 0
168 0 0 168 0 0 168 0 0 169 0 0 169 0 0 169 0 0 169 0 0 169 0 0 169 0
0 169 0 151 169 0 151 169 0 150 169 0 150 169 0 150 169 0 150 169 0
150 170 0 149 170 0 149 170 0 149 170 0 149 170 0 149 170 0 148 170 0
148 170 0 148 170 0 148 170 0 148 170 0 147 170 0 147 170 0 147 170 0
147 171 0 147 171 0 147 171 0 146 171 0 146 171 0 146 171 0 146 171 0
146 171 0 145 171 0 145 171 0 0 171 0 0 171 0 0 171 0 145 171 0 144
171 0 144 171 0 144 172 0 144 172 0 144 172 0 143 172 0 143 172 0 143
172 0 143 172 0 143 172 0 143 172 0 142 172 0 142 172 0 142 172 0 142
172 0 142 172 0 141 172 0 141 172 0 141 172 0 141 172 0 141 172 0 141
172 0 140 172 0 140 173 0 140 173 0 140 173 0 0 173 0 0 173 0 0 173 0
0 173 0 0 173 0 0 173 0 0 173 0 0 173 0 0 173 0 0 173 0 0 173 0 0 173
0 0 173 0 0 173 0 0 173 0 0 173 0 0 173 0 0 173 0 0 173 0 0 173 0 0
173 0
192 150 0 191 150 0 191 150 0 191 150 0 191 150 0 190 150 0 190 150 0
190 151 0 190 151 0 189 151 0 189 151 0 189 151 0 189 151 0 188 151 0
188 151 0 188 152 0 188 152 0 187 152 0 187 152 0 187 152 0 187 152 0
186 152 0 186 153 0 186 153 0 0 153 0 0 153 0 0 153 0 0 153 0 0 153 0
0 153 0 0 154 0 0 154 0 0 154 0 0 154 0 0 154 0 0 154 0 0 154 0 0 154
0 0 155 0 0 155 0 0 155 0 0 155 0 0 155 0 0 155 0 0 155 0 0 155 0 0
156 0 0 156 0 0 156 0 0 156 0 0 156 0 0 156 0 0 156 0 0 156 0 178 157
0 178 157 0 177 157 0 177 157 0 177 157 0 177 157 0 176 157 0 0 157 0
0 158 0 0 158 0 0 158 0 0 158 0 0 158 0 0 158 0 0 158 0 0 158 0 0 159
0 0 159 0 0 159 0 0 159 0 0 159 0 0 159 0 0 159 0 0 159 0 0 160 0 0
160 0 0 160 0 0 160 0 0 160 0 0 160 0 171 160 0 170 160 0 170 160 0
170 161 0 170 161 0 169 161 0 169 161 0 169 161 0 169 161 0 168 161 0
168 161 0 168 162 0 168 162 0 168 162 0 167 162 0 167 162 0 167 162 0
167 162 0 166 162 0 166 162 0 166 163 0 166 163 0 165 163 0 165 163 0
165 163 0 165 163 0 165 163 0 164 163 0 164 163 0 164 164 0 164 164 0
0 164 0 0 164 0 0 164 0 0 164 0 0 164 0 0 164 0 0 164 0 0 165 0 0 165
0 0 165 0 0 165 0 0 165 0 0 165 0 0 165 0 0 165 0 0 165 0 0 165 0 0
166 0 0 166 0 0 166 0 0 166 0 159 166 0 159 166 0 158 166 0 158 166 0
158 166 0 158 166 0 158 167 0 157 167 0 157 167 0 0 167 0 0 167 0 0
167 0 0 167 0 0 167 0 0 167 0 0 167 0 0 167 0 0 168 0 0 168 0 0 168 0
0 168 0 0 168 0 0 168 0 0 168 0 0 168 0 0 168 0 0 168 0 0 168 0 0 169
0 0 169 0 0 169 0 0 169 0 0 169 0 0 169 0 0 169 0 0 169 0 0 169 0 0
169 0 0 169 0 151 169 0 151 169 0 150 170 0 150 170 0 150 170 0 150
170 0 150 170 0 150 170 0 149 170 0 149 170 0 149 170 0 149 170 0 149
170 0 148 170 0 148 170 0 148 171 0 148 171 0 148 171 0 147 171 0 147
171 0 147 171 0 147 171 0 147 171 0 146 171 0 146 171 0 146 171 0 146
171 0 146 171 0 146 171 0 145 171 0 0 171 0 0 172 0 0 172 0 0 172 0 0
172 0 0 172 0 0 172 0 144 172 0 144 172 0 144 172 0 143 172 0 143 172
0 143 172 0 143 172 0 143 172 0 143 172 0 142 172 0 142 172 0 142 172
0 142 172 0 142 173 0 141 173 0 141 173 0 141 173 0 141 173 0 141 173
0 141 173 0 140 173 0 140 173 0 140 173 0 0 173 0 0 173 0 0 173 0 0
173 0 0 173 0 0 173 0 0 173 0 0 173 0 0 173 0 0 173 0 0 173 0 0 173 0
0 173 0 0 173 0 0 173 0 0 173 0 0 173 0 0 173 0 0 173 0 0 174 0 0 174
0
192 150 0 191 150 0 191 150 0 191 150 0 191 150 0 190 151 0 190 151 0
190 151 0 190 151 0 189 151 0 189 151 0 189 151 0 189 152 0 188 152 0
188 152 0 188 152 0 188 152 0 187 152 0 187 152 0 187 152 0 187 153 0
186 153 0 186 153 0 0 153 0 0 153 0 0 153 0 0 153 0 0 153 0 0 154 0 0
154 0 0 154 0 0 154 0 0 154 0 0 154 0 0 154 0 0 154 0 0 155 0 0 155 0
0 155 0 0 155 0 0 155 0 0 155 0 0 155 0 0 156 0 0 156 0 0 156 0 0 156
0 0 156 0 0 156 0 0 156 0 0 156 0 0 157 0 0 157 0 178 157 0 178 157 0
178 157 0 177 157 0 177 157 0 177 157 0 177 158 0 176 158 0 176 158 0
176 158 0 176 158 0 0 158 0 0 158 0 0 158 0 0 158 0 0 159 0 0 159 0 0
159 0 0 159 0 0 159 0 0 159 0 0 159 0 0 159 0 0 160 0 0 160 0 0 160 0
0 160 0 0 160 0 0 160 0 0 160 0 0 160 0 171 161 0 170 161 0 170 161 0
170 161 0 170 161 0 169 161 0 169 161 0 169 161 0 169 161 0 169 162 0
168 162 0 168 162 0 168 162 0 168 162 0 167 162 0 167 162 0 167 162 0
167 162 0 166 163 0 166 163 0 166 163 0 166 163 0 166 163 0 165 163 0
165 163 0 165 163 0 165 163 0 164 164 0 164 164 0 164 164 0 0 164 0 0
164 0 0 164 0 0 164 0 0 164 0 0 164 0 0 165 0 0 165 0 0 165 0 0 165 0
0 165 0 0 165 0 0 165 0 0 165 0 0 165 0 0 166 0 0 166 0 0 166 0 0 166
0 0 166 0 0 166 0 0 166 0 0 166 0 0 166 0 0 166 0 158 166 0 158 167 0
158 167 0 158 167 0 157 167 0 0 167 0 0 167 0 0 167 0 0 167 0 0 167 0
0 167 0 0 168 0 0 168 0 0 168 0 0 168 0 0 168 0 0 168 0 0 168 0 0 168
0 0 168 0 0 168 0 0 168 0 0 169 0 0 169 0 0 169 0 0 169 0 0 169 0 0
169 0 0 169 0 0 169 0 0 169 0 0 169 0 0 169 0 0 169 0 0 170 0 0 170 0
151 170 0 151 170 0 151 170 0 150 170 0 150 170 0 150 170 0 150 170 0
150 170 0 149 170 0 149 170 0 149 170 0 149 171 0 149 171 0 149 171 0
148 171 0 148 171 0 148 171 0 148 171 0 148 171 0 147 171 0 147 171 0
147 171 0 147 171 0 147 171 0 146 171 0 146 171 0 146 172 0 146 172 0
146 172 0 146 172 0 0 172 0 0 172 0 0 172 0 0 172 0 0 172 0 0 172 0 0
172 0 0 172 0 0 172 0 0 172 0 144 172 0 143 172 0 143 172 0 143 172 0
143 173 0 143 173 0 142 173 0 142 173 0 142 173 0 142 173 0 142 173 0
142 173 0 141 173 0 141 173 0 141 173 0 141 173 0 141 173 0 141 173 0
140 173 0 140 173 0 140 173 0 0 173 0 0 173 0 0 173 0 0 173 0 0 173 0
0 173 0 0 173 0 0 174 0 0 174 0 0 174 0 0 174 0 0 174 0 0 174 0 0 174
0 0 174 0 0 174 0 0 174 0 0 174 0 0 174 0 0 174 0
192 150 0 191 150 0 191 150 0 191 151 0 191 151 0 190 151 0 190 151 0
190 151 0 190 151 0 189 151 0 189 152 0 189 152 0 189 152 0 188 152 0
188 152 0 188 152 0 188 152 0 187 152 0 187 153 0 187 153 0 187 153 0
186 153 0 0 153 0 0 153 0 0 153 0 0 153 0 0 154 0 0 154 0 0 154 0 0
154 0 0 154 0 0 154 0 0 154 0 0 155 0 0 155 0 0 155 0 0 155 0 0 155 0
0 155 0 0 155 0 0 155 0 0 156 0 0 156 0 0 156 0 0 156 0 0 156 0 0 156
0 0 156 0 0 156 0 0 157 0 0 157 0 0 157 0 178 157 0 178 157 0 178 157
0 178 157 0 177 157 0 177 158 0 177 158 0 177 158 0 176 158 0 176 158
0 176 158 0 176 158 0 175 158 0 175 159 0 0 159 0 0 159 0 0 159 0 0
159 0 0 159 0 0 159 0 0 159 0 0 159 0 0 160 0 0 160 0 0 160 0 0 160 0
0 160 0 0 160 0 0 160 0 0 160 0 0 161 0 171 161 0 171 161 0 170 161 0
170 161 0 170 161 0 170 161 0 170 161 0 169 162 0 169 162 0 169 162 0
169 162 0 168 162 0 168 162 0 168 162 0 168 162 0 167 162 0 167 163 0
167 163 0 167 163 0 167 163 0 166 163 0 166 163 0 166 163 0 166 163 0
165 163 0 165 164 0 165 164 0 165 164 0 165 164 0 164 164 0 0 164 0 0
164 0 0 164 0 0 164 0 0 165 0 0 165 0 0 165 0 0 165 0 0 165 0 0 165 0
0 165 0 0 165 0 0 165 0 0 165 0 0 166 0 0 166 0 0 166 0 0 166 0 0 166
0 0 166 0 0 166 0 0 166 0 0 166 0 0 166 0 0 167 0 0 167 0 0 167 0 0
167 0 0 167 0 0 167 0 158 167 0 0 167 0 0 167 0 0 167 0 0 168 0 0 168
0 0 168 0 0 168 0 0 168 0 0 168 0 0 168 0 0 168 0 0 168 0 0 168 0 0
168 0 0 169 0 0 169 0 0 169 0 0 169 0 0 169 0 0 169 0 0 169 0 0 169 0
0 169 0 0 169 0 0 169 0 0 169 0 0 170 0 0 170 0 0 170 0 0 170 0 0 170
0 151 170 0 151 170 0 151 170 0 151 170 0 150 170 0 150 170 0 150 170
0 150 170 0 150 171 0 149 171 0 149 171 0 149 171 0 149 171 0 149 171
0 148 171 0 148 171 0 148 171 0 148 171 0 148 171 0 148 171 0 147 171
0 147 171 0 147 172 0 147 172 0 147 172 0 146 172 0 146 172 0 146 172
0 146 172 0 146 172 0 0 172 0 0 172 0 0 172 0 0 172 0 0 172 0 0 172 0
0 172 0 0 172 0 0 172 0 0 173 0 0 173 0 0 173 0 0 173 0 0 173 0 143
173 0 143 173 0 143 173 0 142 173 0 142 173 0 142 173 0 142 173 0 142
173 0 142 173 0 141 173 0 141 173 0 141 173 0 141 173 0 141 173 0 141
173 0 140 173 0 140 174 0 0 174 0 0 174 0 0 174 0 0 174 0 0 174 0 0
174 0 0 174 0 0 174 0 0 174 0 0 174 0 0 174 0 0 174 0 0 174 0 0 174 0
0 174 0 0 174 0 0 174 0 0 174 0 0 174 0 0 174 0
192 151 0 191 151 0 191 151 0 191 151 0 191 151 0 190 151 0 190 151 0
190 151 0 190 152 0 189 152 0 189 152 0 189 152 0 189 152 0 188 152 0
188 152 0 188 152 0 188 153 0 187 153 0 187 153 0 187 153 0 186 153 0
0 153 0 0 153 0 0 154 0 0 154 0 0 154 0 0 154 0 0 154 0 0 154 0 0 154
0 0 154 0 0 155 0 0 155 0 0 155 0 0 155 0 0 155 0 0 155 0 0 155 0 0
155 0 0 156 0 0 156 0 0 156 0 0 156 0 0 156 0 0 156 0 0 156 0 0 156 0
0 157 0 0 157 0 0 157 0 0 157 0 179 157 0 178 157 0 178 157 0 178 157
0 178 158 0 177 158 0 177 158 0 177 158 0 177 158 0 176 158 0 176 158
0 176 158 0 176 159 0 176 159 0 175 159 0 175 159 0 175 159 0 175 159
0 0 159 0 0 159 0 0 160 0 0 160 0 0 160 0 0 160 0 0 160 0 0 160 0 0
160 0 0 160 0 0 160 0 0 161 0 0 161 0 171 161 0 171 161 0 171 161 0
171 161 0 170 161 0 170 161 0 170 162 0 170 162 0 169 162 0 169 162 0
169 162 0 169 162 0 168 162 0 168 162 0 168 162 0 168 163 0 168 163 0
167 163 0 167 163 0 167 163 0 167 163 0 166 163 0 166 163 0 166 163 0
166 164 0 165 164 0 165 164 0 165 164 0 165 164 0 165 164 0 164 164 0
0 164 0 0 164 0 0 165 0 0 165 0 0 165 0 0 165 0 0 165 0 0 165 0 0 165
0 0 165 0 0 165 0 0 166 0 0 166 0 0 166 0 0 166 0 0 166 0 0 166 0 0
166 0 0 166 0 0 166 0 0 166 0 0 167 0 0 167 0 0 167 0 0 167 0 0 167 0
0 167 0 0 167 0 0 167 0 0 167 0 0 167 0 157 168 0 157 168 0 0 168 0 0
168 0 0 168 0 0 168 0 0 168 0 0 168 0 0 168 0 0 168 0 0 168 0 0 169 0
0 169 0 0 169 0 0 169 0 0 169 0 0 169 0 0 169 0 0 169 0 0 169 0 0 169
0 0 169 0 0 169 0 0 170 0 0 170 0 0 170 0 0 170 0 0 170 0 0 170 0 0
170 0 151 170 0 151 170 0 151 170 0 151 170 0 151 170 0 150 171 0 150
171 0 150 171 0 150 171 0 150 171 0 150 171 0 149 171 0 149 171 0 149
171 0 149 171 0 149 171 0 148 171 0 148 171 0 148 171 0 148 172 0 148
172 0 147 172 0 147 172 0 147 172 0 147 172 0 147 172 0 147 172 0 146
172 0 146 172 0 146 172 0 146 172 0 0 172 0 0 172 0 0 172 0 0 172 0 0
173 0 0 173 0 0 173 0 0 173 0 0 173 0 0 173 0 0 173 0 0 173 0 0 173 0
0 173 0 0 173 0 0 173 0 0 173 0 0 173 0 142 173 0 142 173 0 142 173 0
142 173 0 142 173 0 142 174 0 141 174 0 141 174 0 141 174 0 141 174 0
141 174 0 141 174 0 140 174 0 0 174 0 0 174 0 0 174 0 0 174 0 0 174 0
0 174 0 0 174 0 0 174 0 0 174 0 0 174 0 0 174 0 0 174 0 0 174 0 0 174
0 0 174 0 0 174 0 0 174 0 0 174 0 0 174 0 0 174 0
192 151 0 191 151 0 191 151 0 191 151 0 191 151 0 190 151 0 190 152 0
190 152 0 190 152 0 189 152 0 189 152 0 189 152 0 189 152 0 188 152 0
188 153 0 188 153 0 188 153 0 187 153 0 187 153 0 187 153 0 0 153 0 0
154 0 0 154 0 0 154 0 0 154 0 0 154 0 0 154 0 0 154 0 0 154 0 0 155 0
0 155 0 0 155 0 0 155 0 0 155 0 0 155 0 0 155 0 0 155 0 0 156 0 0 156
0 0 156 0 0 156 0 0 156 0 0 156 0 0 156 0 0 156 0 0 157 0 0 157 0 0
157 0 0 157 0 0 157 0 179 157 0 179 157 0 178 157 0 178 158 0 178 158
0 178 158 0 177 158 0 177 158 0 177 158 0 177 158 0 177 158 0 176 159
0 176 159 0 176 159 0 176 159 0 175 159 0 175 159 0 175 159 0 175 159
0 174 160 0 174 160 0 174 160 0 0 160 0 0 160 0 0 160 0 0 160 0 0 160
0 0 161 0 0 161 0 0 161 0 0 161 0 172 161 0 171 161 0 171 161 0 171
161 0 171 161 0 170 162 0 170 162 0 170 162 0 170 162 0 169 162 0 169
162 0 169 162 0 169 162 0 168 163 0 168 163 0 168 163 0 168 163 0 168
163 0 167 163 0 167 163 0 167 163 0 167 163 0 166 164 0 166 164 0 166
164 0 166 164 0 166 164 0 165 164 0 165 164 0 165 164 0 165 164 0 0
165 0 0 165 0 0 165 0 0 165 0 0 165 0 0 165 0 0 165 0 0 165 0 0 165 0
0 165 0 0 166 0 0 166 0 0 166 0 0 166 0 0 166 0 0 166 0 0 166 0 0 166
0 0 166 0 0 167 0 0 167 0 0 167 0 0 167 0 0 167 0 0 167 0 0 167 0 0
167 0 0 167 0 0 167 0 0 168 0 0 168 0 158 168 0 158 168 0 157 168 0
157 168 0 157 168 0 157 168 0 0 168 0 0 168 0 0 168 0 0 169 0 0 169 0
0 169 0 0 169 0 0 169 0 0 169 0 0 169 0 0 169 0 0 169 0 0 169 0 0 169
0 0 170 0 0 170 0 0 170 0 0 170 0 0 170 0 0 170 0 0 170 0 0 170 0 0
170 0 0 170 0 0 170 0 152 170 0 151 170 0 151 171 0 151 171 0 151 171
0 151 171 0 150 171 0 150 171 0 150 171 0 150 171 0 150 171 0 149 171
0 149 171 0 149 171 0 149 171 0 149 172 0 149 172 0 148 172 0 148 172
0 148 172 0 148 172 0 148 172 0 147 172 0 147 172 0 147 172 0 147 172
0 147 172 0 146 172 0 146 172 0 146 172 0 146 173 0 0 173 0 0 173 0 0
173 0 0 173 0 0 173 0 0 173 0 0 173 0 0 173 0 0 173 0 0 173 0 0 173 0
0 173 0 0 173 0 0 173 0 0 173 0 0 173 0 0 173 0 0 174 0 0 174 0 0 174
0 0 174 0 142 174 0 142 174 0 142 174 0 142 174 0 141 174 0 141 174 0
141 174 0 141 174 0 141 174 0 141 174 0 0 174 0 0 174 0 0 174 0 0 174
0 0 174 0 0 174 0 0 174 0 0 174 0 0 174 0 0 174 0 0 174 0 0 175 0 0
175 0 0 175 0 0 175 0 0 175 0 0 175 0 0 175 0 0 175 0 0 175 0
192 151 0 191 151 0 191 151 0 191 151 0 191 152 0 190 152 0 190 152 0
190 152 0 190 152 0 189 152 0 189 152 0 189 153 0 189 153 0 188 153 0
188 153 0 188 153 0 187 153 0 187 153 0 0 153 0 0 154 0 0 154 0 0 154
0 0 154 0 0 154 0 0 154 0 0 154 0 0 154 0 0 155 0 0 155 0 0 155 0 0
155 0 0 155 0 0 155 0 0 155 0 0 155 0 0 156 0 0 156 0 0 156 0 0 156 0
0 156 0 0 156 0 0 156 0 0 156 0 0 157 0 0 157 0 0 157 0 0 157 0 0 157
0 0 157 0 0 157 0 179 157 0 179 158 0 178 158 0 178 158 0 178 158 0
178 158 0 178 158 0 177 158 0 177 158 0 177 159 0 177 159 0 176 159 0
176 159 0 176 159 0 176 159 0 175 159 0 175 159 0 175 160 0 175 160 0
174 160 0 174 160 0 174 160 0 174 160 0 173 160 0 173 160 0 0 161 0 0
161 0 0 161 0 0 161 0 0 161 0 0 161 0 172 161 0 171 161 0 171 161 0
171 162 0 171 162 0 170 162 0 170 162 0 170 162 0 170 162 0 169 162 0
169 162 0 169 163 0 169 163 0 169 163 0 168 163 0 168 163 0 168 163 0
168 163 0 167 163 0 167 163 0 167 164 0 167 164 0 167 164 0 166 164 0
166 164 0 166 164 0 166 164 0 165 164 0 165 164 0 165 165 0 165 165 0
0 165 0 0 165 0 0 165 0 0 165 0 0 165 0 0 165 0 0 165 0 0 166 0 0 166
0 0 166 0 0 166 0 0 166 0 0 166 0 0 166 0 0 166 0 0 166 0 0 166 0 0
167 0 0 167 0 0 167 0 0 167 0 0 167 0 0 167 0 0 167 0 0 167 0 0 167 0
0 167 0 0 168 0 0 168 0 0 168 0 0 168 0 158 168 0 158 168 0 157 168 0
157 168 0 157 168 0 157 168 0 157 169 0 156 169 0 156 169 0 0 169 0 0
169 0 0 169 0 0 169 0 0 169 0 0 169 0 0 169 0 0 169 0 0 170 0 0 170 0
0 170 0 0 170 0 0 170 0 0 170 0 0 170 0 0 170 0 0 170 0 0 170 0 0 170
0 0 170 0 0 171 0 0 171 0 152 171 0 152 171 0 151 171 0 151 171 0 151
171 0 151 171 0 151 171 0 150 171 0 150 171 0 150 171 0 150 171 0 150
172 0 149 172 0 149 172 0 149 172 0 149 172 0 149 172 0 148 172 0 148
172 0 148 172 0 148 172 0 148 172 0 148 172 0 147 172 0 147 172 0 147
172 0 147 173 0 147 173 0 146 173 0 146 173 0 146 173 0 0 173 0 0 173
0 0 173 0 0 173 0 0 173 0 0 173 0 0 173 0 0 173 0 0 173 0 0 173 0 0
173 0 0 174 0 0 174 0 0 174 0 0 174 0 0 174 0 0 174 0 0 174 0 0 174 0
0 174 0 0 174 0 0 174 0 0 174 0 0 174 0 0 174 0 142 174 0 141 174 0
141 174 0 141 174 0 141 174 0 141 174 0 0 174 0 0 174 0 0 175 0 0 175
0 0 175 0 0 175 0 0 175 0 0 175 0 0 175 0 0 175 0 0 175 0 0 175 0 0
175 0 0 175 0 0 175 0 0 175 0 0 175 0 0 175 0 0 175 0 0 175 0
192 151 0 191 151 0 191 152 0 191 152 0 191 152 0 190 152 0 190 152 0
190 152 0 190 152 0 189 153 0 189 153 0 189 153 0 189 153 0 188 153 0
188 153 0 188 153 0 187 153 0 0 154 0 0 154 0 0 154 0 0 154 0 0 154 0
0 154 0 0 154 0 0 154 0 0 155 0 0 155 0 0 155 0 0 155 0 0 155 0 0 155
0 0 155 0 0 155 0 0 156 0 0 156 0 0 156 0 0 156 0 0 156 0 0 156 0 0
156 0 0 156 0 0 157 0 0 157 0 0 157 0 0 157 0 0 157 0 0 157 0 0 157 0
0 158 0 179 158 0 179 158 0 179 158 0 178 158 0 178 158 0 178 158 0
178 158 0 178 158 0 177 159 0 177 159 0 177 159 0 177 159 0 176 159 0
176 159 0 176 159 0 176 159 0 175 160 0 175 160 0 175 160 0 175 160 0
174 160 0 174 160 0 174 160 0 174 160 0 173 161 0 173 161 0 173 161 0
173 161 0 0 161 0 0 161 0 0 161 0 172 161 0 172 162 0 171 162 0 171
162 0 171 162 0 171 162 0 170 162 0 170 162 0 170 162 0 170 162 0 170
163 0 169 163 0 169 163 0 169 163 0 169 163 0 168 163 0 168 163 0 168
163 0 168 163 0 167 164 0 167 164 0 167 164 0 167 164 0 167 164 0 166
164 0 166 164 0 166 164 0 166 164 0 165 165 0 165 165 0 165 165 0 0
165 0 0 165 0 0 165 0 0 165 0 0 165 0 0 165 0 0 166 0 0 166 0 0 166 0
0 166 0 0 166 0 0 166 0 0 166 0 0 166 0 0 166 0 0 167 0 0 167 0 0 167
0 0 167 0 0 167 0 0 167 0 0 167 0 0 167 0 0 167 0 0 167 0 0 168 0 0
168 0 0 168 0 0 168 0 0 168 0 0 168 0 158 168 0 158 168 0 158 168 0
158 168 0 157 169 0 157 169 0 157 169 0 157 169 0 157 169 0 156 169 0
156 169 0 156 169 0 156 169 0 156 169 0 0 169 0 0 170 0 0 170 0 0 170
0 0 170 0 0 170 0 0 170 0 0 170 0 0 170 0 0 170 0 0 170 0 0 170 0 0
170 0 0 171 0 0 171 0 0 171 0 0 171 0 0 171 0 152 171 0 152 171 0 151
171 0 151 171 0 151 171 0 151 171 0 151 171 0 150 171 0 150 172 0 150
172 0 150 172 0 150 172 0 150 172 0 149 172 0 149 172 0 149 172 0 149
172 0 149 172 0 148 172 0 148 172 0 148 172 0 148 173 0 148 173 0 147
173 0 147 173 0 147 173 0 147 173 0 147 173 0 147 173 0 146 173 0 146
173 0 0 173 0 0 173 0 0 173 0 0 173 0 0 173 0 0 173 0 0 174 0 0 174 0
0 174 0 0 174 0 0 174 0 0 174 0 0 174 0 0 174 0 0 174 0 0 174 0 0 174
0 0 174 0 0 174 0 0 174 0 0 174 0 0 174 0 0 174 0 0 174 0 0 174 0 0
174 0 0 175 0 0 175 0 0 175 0 141 175 0 141 175 0 0 175 0 0 175 0 0
175 0 0 175 0 0 175 0 0 175 0 0 175 0 0 175 0 0 175 0 0 175 0 0 175 0
0 175 0 0 175 0 0 175 0 0 175 0 0 175 0 0 175 0 0 175 0 0 175 0 0 175
0
0 152 0 0 152 0 191 152 0 191 152 0 191 152 0 190 152 0 190 152 0 190
153 0 190 153 0 189 153 0 189 153 0 189 153 0 188 153 0 188 153 0 188
153 0 188 154 0 0 154 0 0 154 0 0 154 0 0 154 0 0 154 0 0 154 0 0 154
0 0 155 0 0 155 0 0 155 0 0 155 0 0 155 0 0 155 0 0 155 0 0 155 0 0
156 0 0 156 0 0 156 0 0 156 0 0 156 0 0 156 0 0 156 0 0 157 0 0 157 0
0 157 0 0 157 0 0 157 0 0 157 0 0 157 0 0 157 0 0 158 0 0 158 0 179
158 0 179 158 0 179 158 0 179 158 0 179 158 0 178 158 0 178 159 0 178
159 0 178 159 0 177 159 0 177 159 0 177 159 0 177 159 0 176 159 0 176
160 0 176 160 0 176 160 0 175 160 0 175 160 0 175 160 0 175 160 0 174
160 0 174 160 0 174 161 0 174 161 0 173 161 0 173 161 0 173 161 0 173
161 0 173 161 0 172 161 0 0 162 0 172 162 0 172 162 0 171 162 0 171
162 0 171 162 0 171 162 0 170 162 0 170 162 0 170 163 0 170 163 0 170
163 0 169 163 0 169 163 0 169 163 0 169 163 0 168 163 0 168 164 0 168
164 0 168 164 0 168 164 0 167 164 0 167 164 0 167 164 0 167 164 0 166
164 0 166 165 0 166 165 0 166 165 0 166 165 0 165 165 0 165 165 0 0
165 0 0 165 0 0 165 0 0 166 0 0 166 0 0 166 0 0 166 0 0 166 0 0 166 0
0 166 0 0 166 0 0 166 0 0 166 0 0 167 0 0 167 0 0 167 0 0 167 0 0 167
0 0 167 0 0 167 0 0 167 0 0 167 0 0 168 0 0 168 0 0 168 0 0 168 0 0
168 0 0 168 0 0 168 0 0 168 0 0 168 0 158 168 0 158 168 0 158 169 0
158 169 0 157 169 0 157 169 0 157 169 0 157 169 0 157 169 0 156 169 0
156 169 0 156 169 0 156 170 0 156 170 0 155 170 0 155 170 0 155 170 0
0 170 0 0 170 0 0 170 0 0 170 0 0 170 0 0 170 0 0 170 0 0 171 0 0 171
0 0 171 0 0 171 0 0 171 0 0 171 0 0 171 0 152 171 0 152 171 0 152 171
0 152 171 0 151 171 0 151 172 0 151 172 0 151 172 0 151 172 0 150 172
0 150 172 0 150 172 0 150 172 0 150 172 0 149 172 0 149 172 0 149 172
0 149 172 0 149 172 0 149 173 0 148 173 0 148 173 0 148 173 0 148 173
0 148 173 0 147 173 0 147 173 0 147 173 0 147 173 0 147 173 0 147 173
0 146 173 0 0 173 0 0 173 0 0 174 0 0 174 0 0 174 0 0 174 0 0 174 0 0
174 0 0 174 0 0 174 0 0 174 0 0 174 0 0 174 0 0 174 0 0 174 0 0 174 0
0 174 0 0 174 0 0 174 0 0 174 0 0 175 0 0 175 0 0 175 0 0 175 0 0 175
0 0 175 0 0 175 0 0 175 0 0 175 0 0 175 0 0 175 0 141 175 0 0 175 0 0
175 0 0 175 0 0 175 0 0 175 0 0 175 0 0 175 0 0 175 0 0 175 0 0 175 0
0 175 0 0 175 0 0 175 0 0 175 0 0 176 0 0 176 0 0 176 0 0 176 0 0 176
0
0 152 0 0 152 0 0 152 0 0 152 0 190 152 0 190 153 0 190 153 0 190 153
0 189 153 0 189 153 0 189 153 0 189 153 0 188 153 0 188 154 0 188 154
0 0 154 0 0 154 0 0 154 0 0 154 0 0 154 0 0 154 0 0 155 0 0 155 0 0
155 0 0 155 0 0 155 0 0 155 0 0 155 0 0 156 0 0 156 0 0 156 0 0 156 0
0 156 0 0 156 0 0 156 0 0 156 0 0 157 0 0 157 0 0 157 0 0 157 0 0 157
0 0 157 0 0 157 0 0 157 0 0 158 0 0 158 0 0 158 0 180 158 0 179 158 0
179 158 0 179 158 0 179 158 0 179 159 0 178 159 0 178 159 0 178 159 0
178 159 0 177 159 0 177 159 0 177 159 0 177 160 0 176 160 0 176 160 0
176 160 0 176 160 0 175 160 0 175 160 0 175 160 0 175 160 0 174 161 0
174 161 0 174 161 0 174 161 0 174 161 0 173 161 0 173 161 0 173 161 0
173 162 0 0 162 0 0 162 0 0 162 0 0 162 0 0 162 0 171 162 0 171 162 0
171 163 0 171 163 0 170 163 0 170 163 0 170 163 0 170 163 0 169 163 0
169 163 0 169 163 0 169 164 0 168 164 0 168 164 0 168 164 0 168 164 0
168 164 0 167 164 0 167 164 0 167 164 0 167 165 0 166 165 0 166 165 0
166 165 0 166 165 0 166 165 0 165 165 0 0 165 0 0 165 0 0 166 0 0 166
0 0 166 0 0 166 0 0 166 0 0 166 0 0 166 0 0 166 0 0 166 0 0 167 0 0
167 0 0 167 0 0 167 0 0 167 0 0 167 0 0 167 0 0 167 0 0 167 0 0 167 0
0 168 0 0 168 0 0 168 0 0 168 0 0 168 0 0 168 0 0 168 0 0 168 0 0 168
0 0 168 0 0 169 0 158 169 0 158 169 0 158 169 0 158 169 0 158 169 0
157 169 0 157 169 0 157 169 0 157 169 0 157 169 0 156 170 0 156 170 0
156 170 0 156 170 0 156 170 0 155 170 0 155 170 0 155 170 0 155 170 0
155 170 0 0 170 0 0 171 0 0 171 0 0 171 0 0 171 0 0 171 0 0 171 0 0
171 0 0 171 0 0 171 0 0 171 0 152 171 0 152 171 0 152 172 0 152 172 0
151 172 0 151 172 0 151 172 0 151 172 0 151 172 0 151 172 0 150 172 0
150 172 0 150 172 0 150 172 0 150 172 0 149 173 0 149 173 0 149 173 0
149 173 0 149 173 0 148 173 0 148 173 0 148 173 0 148 173 0 148 173 0
148 173 0 147 173 0 147 173 0 147 173 0 147 173 0 147 174 0 146 174 0
0 174 0 0 174 0 0 174 0 0 174 0 0 174 0 0 174 0 0 174 0 0 174 0 0 174
0 0 174 0 0 174 0 0 174 0 0 174 0 0 174 0 0 174 0 0 175 0 0 175 0 0
175 0 0 175 0 0 175 0 0 175 0 0 175 0 0 175 0 0 175 0 0 175 0 0 175 0
0 175 0 0 175 0 0 175 0 0 175 0 0 175 0 141 175 0 141 175 0 141 175 0
140 175 0 140 175 0 0 175 0 0 176 0 0 176 0 0 176 0 0 176 0 0 176 0 0
176 0 0 176 0 0 176 0 0 176 0 0 176 0 0 176 0 0 176 0 0 176 0 0 176 0
0 152 0 0 152 0 0 152 0 0 153 0 0 153 0 0 153 0 190 153 0 190 153 0
189 153 0 189 153 0 189 153 0 189 154 0 188 154 0 188 154 0 0 154 0 0
154 0 0 154 0 0 154 0 0 154 0 0 155 0 0 155 0 0 155 0 0 155 0 0 155 0
0 155 0 0 155 0 0 156 0 0 156 0 0 156 0 0 156 0 0 156 0 0 156 0 0 156
0 0 156 0 0 157 0 0 157 0 0 157 0 0 157 0 0 157 0 0 157 0 0 157 0 0
157 0 0 158 0 0 158 0 0 158 0 0 158 0 180 158 0 180 158 0 180 158 0
179 158 0 179 159 0 179 159 0 179 159 0 178 159 0 178 159 0 178 159 0
178 159 0 177 159 0 177 160 0 177 160 0 177 160 0 176 160 0 176 160 0
176 160 0 176 160 0 175 160 0 175 161 0 175 161 0 175 161 0 174 161 0
174 161 0 174 161 0 174 161 0 174 161 0 173 161 0 173 162 0 173 162 0
173 162 0 0 162 0 0 162 0 0 162 0 0 162 0 0 162 0 0 163 0 0 163 0 0
163 0 171 163 0 170 163 0 170 163 0 170 163 0 170 163 0 169 163 0 169
164 0 169 164 0 169 164 0 169 164 0 168 164 0 168 164 0 168 164 0 168
164 0 167 164 0 167 165 0 167 165 0 167 165 0 167 165 0 166 165 0 166
165 0 166 165 0 166 165 0 0 165 0 0 166 0 0 166 0 0 166 0 0 166 0 0
166 0 0 166 0 0 166 0 0 166 0 0 166 0 0 167 0 0 167 0 0 167 0 0 167 0
0 167 0 0 167 0 0 167 0 0 167 0 0 167 0 0 168 0 0 168 0 0 168 0 0 168
0 0 168 0 0 168 0 0 168 0 0 168 0 0 168 0 0 168 0 0 169 0 0 169 0 0
169 0 159 169 0 158 169 0 158 169 0 158 169 0 158 169 0 158 169 0 157
169 0 157 169 0 157 170 0 157 170 0 157 170 0 156 170 0 156 170 0 156
170 0 156 170 0 156 170 0 155 170 0 155 170 0 155 170 0 155 171 0 155
171 0 154 171 0 154 171 0 154 171 0 0 171 0 0 171 0 0 171 0 0 171 0 0
171 0 0 171 0 0 171 0 0 172 0 152 172 0 152 172 0 152 172 0 152 172 0
152 172 0 151 172 0 151 172 0 151 172 0 151 172 0 151 172 0 150 172 0
150 173 0 150 173 0 150 173 0 150 173 0 150 173 0 149 173 0 149 173 0
149 173 0 149 173 0 149 173 0 148 173 0 148 173 0 148 173 0 148 173 0
148 174 0 148 174 0 147 174 0 147 174 0 147 174 0 147 174 0 147 174 0
0 174 0 0 174 0 0 174 0 0 174 0 0 174 0 0 174 0 0 174 0 0 174 0 0 174
0 0 174 0 0 175 0 0 175 0 0 175 0 0 175 0 0 175 0 0 175 0 0 175 0 0
175 0 0 175 0 0 175 0 0 175 0 0 175 0 0 175 0 0 175 0 0 175 0 0 175 0
0 175 0 0 175 0 0 175 0 0 175 0 0 176 0 141 176 0 141 176 0 141 176 0
141 176 0 140 176 0 140 176 0 140 176 0 140 176 0 140 176 0 0 176 0 0
176 0 0 176 0 0 176 0 0 176 0 0 176 0 0 176 0 0 176 0 0 176 0 0 176 0
0 176 0
0 152 0 0 153 0 0 153 0 0 153 0 0 153 0 0 153 0 0 153 0 0 153 0 0 153
0 189 154 0 189 154 0 189 154 0 188 154 0 0 154 0 0 154 0 0 154 0 0
155 0 0 155 0 0 155 0 0 155 0 0 155 0 0 155 0 0 155 0 0 155 0 0 156 0
0 156 0 0 156 0 0 156 0 0 156 0 0 156 0 0 156 0 0 156 0 0 157 0 0 157
0 0 157 0 0 157 0 0 157 0 0 157 0 0 157 0 0 157 0 0 158 0 0 158 0 0
158 0 0 158 0 0 158 0 180 158 0 180 158 0 180 158 0 180 159 0 179 159
0 179 159 0 179 159 0 179 159 0 178 159 0 178 159 0 178 159 0 178 160
0 177 160 0 177 160 0 177 160 0 177 160 0 176 160 0 176 160 0 176 160
0 176 161 0 175 161 0 175 161 0 175 161 0 175 161 0 175 161 0 174 161
0 174 161 0 174 161 0 174 162 0 173 162 0 173 162 0 173 162 0 0 162 0
0 162 0 0 162 0 0 162 0 0 163 0 0 163 0 0 163 0 0 163 0 0 163 0 0 163
0 0 163 0 0 163 0 170 163 0 170 164 0 169 164 0 169 164 0 169 164 0
169 164 0 169 164 0 168 164 0 168 164 0 168 165 0 168 165 0 167 165 0
167 165 0 167 165 0 167 165 0 167 165 0 166 165 0 166 165 0 166 166 0
166 166 0 0 166 0 0 166 0 0 166 0 0 166 0 0 166 0 0 166 0 0 166 0 0
167 0 0 167 0 0 167 0 0 167 0 0 167 0 0 167 0 0 167 0 0 167 0 0 167 0
0 167 0 0 168 0 0 168 0 0 168 0 0 168 0 0 168 0 0 168 0 0 168 0 0 168
0 0 168 0 0 168 0 0 169 0 0 169 0 0 169 0 0 169 0 0 169 0 159 169 0
159 169 0 158 169 0 158 169 0 158 169 0 158 170 0 158 170 0 157 170 0
157 170 0 157 170 0 157 170 0 157 170 0 156 170 0 156 170 0 156 170 0
156 170 0 156 171 0 155 171 0 155 171 0 155 171 0 155 171 0 155 171 0
154 171 0 154 171 0 154 171 0 154 171 0 154 171 0 0 171 0 0 172 0 0
172 0 0 172 0 0 172 0 152 172 0 152 172 0 152 172 0 152 172 0 152 172
0 152 172 0 151 172 0 151 172 0 151 173 0 151 173 0 151 173 0 150 173
0 150 173 0 150 173 0 150 173 0 150 173 0 149 173 0 149 173 0 149 173
0 149 173 0 149 173 0 149 173 0 148 174 0 148 174 0 148 174 0 148 174
0 148 174 0 147 174 0 147 174 0 147 174 0 147 174 0 147 174 0 0 174 0
0 174 0 0 174 0 0 174 0 0 174 0 0 175 0 0 175 0 0 175 0 0 175 0 0 175
0 0 175 0 0 175 0 0 175 0 0 175 0 0 175 0 0 175 0 0 175 0 0 175 0 0
175 0 0 175 0 0 175 0 0 175 0 0 175 0 0 175 0 0 176 0 0 176 0 0 176 0
0 176 0 0 176 0 0 176 0 0 176 0 0 176 0 141 176 0 141 176 0 141 176 0
141 176 0 140 176 0 140 176 0 140 176 0 140 176 0 140 176 0 140 176 0
139 176 0 0 176 0 0 176 0 0 176 0 0 176 0 0 176 0 0 176 0 0 176 0 0
176 0
0 153 0 0 153 0 0 153 0 0 153 0 0 153 0 0 153 0 0 153 0 0 154 0 0 154
0 0 154 0 0 154 0 189 154 0 0 154 0 0 154 0 0 155 0 0 155 0 0 155 0 0
155 0 0 155 0 0 155 0 0 155 0 0 155 0 0 156 0 0 156 0 0 156 0 0 156 0
0 156 0 0 156 0 0 156 0 0 156 0 0 157 0 0 157 0 0 157 0 0 157 0 0 157
0 0 157 0 0 157 0 0 157 0 0 158 0 0 158 0 0 158 0 0 158 0 0 158 0 0
158 0 180 158 0 180 158 0 180 159 0 180 159 0 180 159 0 179 159 0 179
159 0 179 159 0 179 159 0 178 159 0 178 160 0 178 160 0 178 160 0 177
160 0 177 160 0 177 160 0 177 160 0 176 160 0 176 161 0 176 161 0 176
161 0 175 161 0 175 161 0 175 161 0 175 161 0 175 161 0 174 162 0 174
162 0 174 162 0 174 162 0 173 162 0 173 162 0 0 162 0 0 162 0 0 162 0
0 163 0 0 163 0 0 163 0 0 163 0 0 163 0 0 163 0 0 163 0 0 163 0 0 164
0 0 164 0 0 164 0 0 164 0 170 164 0 169 164 0 169 164 0 169 164 0 169
164 0 168 165 0 168 165 0 168 165 0 168 165 0 168 165 0 167 165 0 167
165 0 167 165 0 167 165 0 166 166 0 166 166 0 166 166 0 0 166 0 0 166
0 0 166 0 0 166 0 0 166 0 0 166 0 0 167 0 0 167 0 0 167 0 0 167 0 0
167 0 0 167 0 0 167 0 0 167 0 0 167 0 0 167 0 0 168 0 0 168 0 0 168 0
0 168 0 0 168 0 0 168 0 0 168 0 0 168 0 0 168 0 0 169 0 0 169 0 0 169
0 0 169 0 0 169 0 0 169 0 0 169 0 159 169 0 159 169 0 159 169 0 158
169 0 158 170 0 158 170 0 158 170 0 158 170 0 157 170 0 157 170 0 157
170 0 157 170 0 157 170 0 156 170 0 156 171 0 156 171 0 156 171 0 156
171 0 155 171 0 155 171 0 155 171 0 155 171 0 155 171 0 154 171 0 154
171 0 154 171 0 154 172 0 154 172 0 154 172 0 153 172 0 153 172 0 153
172 0 153 172 0 153 172 0 152 172 0 152 172 0 152 172 0 152 172 0 152
173 0 151 173 0 151 173 0 151 173 0 151 173 0 151 173 0 150 173 0 150
173 0 150 173 0 150 173 0 150 173 0 150 173 0 149 173 0 149 174 0 149
174 0 149 174 0 149 174 0 148 174 0 148 174 0 148 174 0 148 174 0 148
174 0 148 174 0 147 174 0 147 174 0 147 174 0 147 174 0 0 174 0 0 175
0 0 175 0 0 175 0 0 175 0 0 175 0 0 175 0 0 175 0 0 175 0 0 175 0 0
175 0 0 175 0 0 175 0 0 175 0 0 175 0 0 175 0 0 175 0 0 175 0 0 175 0
0 176 0 0 176 0 0 176 0 0 176 0 0 176 0 0 176 0 0 176 0 0 176 0 0 176
0 0 176 0 0 176 0 0 176 0 0 176 0 141 176 0 141 176 0 141 176 0 141
176 0 141 176 0 140 176 0 140 176 0 140 176 0 140 176 0 140 176 0 140
177 0 139 177 0 139 177 0 139 177 0 139 177 0 0 177 0 0 177 0 0 177 0
0 177 0
0 153 0 0 153 0 0 153 0 0 153 0 0 153 0 0 154 0 0 154 0 0 154 0 0 154
0 0 154 0 0 154 0 189 154 0 188 155 0 0 155 0 0 155 0 0 155 0 0 155 0
0 155 0 0 155 0 0 155 0 0 156 0 0 156 0 0 156 0 0 156 0 0 156 0 0 156
0 0 156 0 0 156 0 0 157 0 0 157 0 0 157 0 0 157 0 0 157 0 0 157 0 0
157 0 0 157 0 0 158 0 0 158 0 0 158 0 0 158 0 0 158 0 0 158 0 0 158 0
181 158 0 180 159 0 180 159 0 180 159 0 180 159 0 180 159 0 179 159 0
179 159 0 179 159 0 179 160 0 178 160 0 178 160 0 178 160 0 178 160 0
177 160 0 177 160 0 177 160 0 177 161 0 176 161 0 176 161 0 176 161 0
176 161 0 176 161 0 175 161 0 175 161 0 175 162 0 175 162 0 174 162 0
174 162 0 174 162 0 174 162 0 173 162 0 0 162 0 0 162 0 0 163 0 0 163
0 0 163 0 0 163 0 0 163 0 0 163 0 0 163 0 0 163 0 0 164 0 0 164 0 0
164 0 0 164 0 0 164 0 0 164 0 0 164 0 0 164 0 0 164 0 169 165 0 169
165 0 168 165 0 168 165 0 168 165 0 168 165 0 168 165 0 167 165 0 167
165 0 167 166 0 167 166 0 166 166 0 166 166 0 166 166 0 0 166 0 0 166
0 0 166 0 0 166 0 0 167 0 0 167 0 0 167 0 0 167 0 0 167 0 0 167 0 0
167 0 0 167 0 0 167 0 0 168 0 0 168 0 0 168 0 0 168 0 0 168 0 0 168 0
0 168 0 0 168 0 0 168 0 0 168 0 0 169 0 0 169 0 0 169 0 0 169 0 0 169
0 0 169 0 0 169 0 0 169 0 0 169 0 159 169 0 159 170 0 159 170 0 159
170 0 158 170 0 158 170 0 158 170 0 158 170 0 158 170 0 157 170 0 157
170 0 157 171 0 157 171 0 157 171 0 156 171 0 156 171 0 156 171 0 156
171 0 156 171 0 155 171 0 155 171 0 155 171 0 155 171 0 155 172 0 154
172 0 154 172 0 154 172 0 154 172 0 154 172 0 153 172 0 153 172 0 153
172 0 0 172 0 0 172 0 0 172 0 152 173 0 152 173 0 152 173 0 152 173 0
152 173 0 151 173 0 151 173 0 151 173 0 151 173 0 151 173 0 150 173 0
150 173 0 150 174 0 150 174 0 150 174 0 150 174 0 149 174 0 149 174 0
149 174 0 149 174 0 149 174 0 148 174 0 148 174 0 148 174 0 148 174 0
148 174 0 148 174 0 147 175 0 147 175 0 0 175 0 0 175 0 0 175 0 0 175
0 0 175 0 0 175 0 0 175 0 0 175 0 0 175 0 0 175 0 0 175 0 0 175 0 0
175 0 0 175 0 0 175 0 0 176 0 0 176 0 0 176 0 0 176 0 0 176 0 0 176 0
0 176 0 0 176 0 0 176 0 0 176 0 0 176 0 0 176 0 0 176 0 0 176 0 0 176
0 0 176 0 0 176 0 0 176 0 141 176 0 141 176 0 141 176 0 141 177 0 141
177 0 141 177 0 140 177 0 140 177 0 140 177 0 140 177 0 140 177 0 140
177 0 139 177 0 139 177 0 139 177 0 139 177 0 139 177 0 139 177 0 138
177 0
0 153 0 0 153 0 0 153 0 0 154 0 0 154 0 0 154 0 0 154 0 0 154 0 0 154
0 0 154 0 189 155 0 189 155 0 188 155 0 188 155 0 188 155 0 188 155 0
0 155 0 0 155 0 0 156 0 0 156 0 0 156 0 0 156 0 0 156 0 0 156 0 0 156
0 0 156 0 0 157 0 0 157 0 0 157 0 0 157 0 0 157 0 0 157 0 0 157 0 0
157 0 0 158 0 0 158 0 0 158 0 0 158 0 0 158 0 0 158 0 0 158 0 0 158 0
181 159 0 181 159 0 180 159 0 180 159 0 180 159 0 180 159 0 180 159 0
179 159 0 179 160 0 179 160 0 179 160 0 178 160 0 178 160 0 178 160 0
178 160 0 177 160 0 177 161 0 177 161 0 177 161 0 176 161 0 176 161 0
176 161 0 176 161 0 176 161 0 175 162 0 175 162 0 175 162 0 175 162 0
174 162 0 174 162 0 174 162 0 174 162 0 173 162 0 0 163 0 0 163 0 0
163 0 0 163 0 0 163 0 0 163 0 0 163 0 0 163 0 0 164 0 0 164 0 0 164 0
0 164 0 0 164 0 0 164 0 0 164 0 0 164 0 0 164 0 0 165 0 0 165 0 0 165
0 0 165 0 0 165 0 168 165 0 168 165 0 168 165 0 168 165 0 167 166 0
167 166 0 167 166 0 167 166 0 167 166 0 166 166 0 0 166 0 0 166 0 0
166 0 0 167 0 0 167 0 0 167 0 0 167 0 0 167 0 0 167 0 0 167 0 0 167 0
0 167 0 0 168 0 0 168 0 0 168 0 0 168 0 0 168 0 0 168 0 0 168 0 0 168
0 0 168 0 0 169 0 0 169 0 0 169 0 0 169 0 0 169 0 0 169 0 0 169 0 0
169 0 0 169 0 0 169 0 0 170 0 159 170 0 159 170 0 159 170 0 159 170 0
159 170 0 158 170 0 158 170 0 158 170 0 158 170 0 158 170 0 157 171 0
157 171 0 157 171 0 157 171 0 157 171 0 156 171 0 156 171 0 156 171 0
156 171 0 156 171 0 155 171 0 155 172 0 155 172 0 155 172 0 155 172 0
154 172 0 154 172 0 154 172 0 154 172 0 154 172 0 154 172 0 153 172 0
153 173 0 0 173 0 0 173 0 0 173 0 0 173 0 0 173 0 0 173 0 152 173 0
152 173 0 151 173 0 151 173 0 151 173 0 151 173 0 151 174 0 151 174 0
150 174 0 150 174 0 150 174 0 150 174 0 150 174 0 149 174 0 149 174 0
149 174 0 149 174 0 149 174 0 149 174 0 148 174 0 148 175 0 148 175 0
148 175 0 148 175 0 147 175 0 147 175 0 0 175 0 0 175 0 0 175 0 0 175
0 0 175 0 0 175 0 0 175 0 0 175 0 0 175 0 0 175 0 0 176 0 0 176 0 0
176 0 0 176 0 0 176 0 0 176 0 0 176 0 0 176 0 0 176 0 0 176 0 0 176 0
0 176 0 0 176 0 0 176 0 0 176 0 0 176 0 0 176 0 0 176 0 0 176 0 0 177
0 0 177 0 0 177 0 0 177 0 142 177 0 141 177 0 141 177 0 141 177 0 141
177 0 141 177 0 141 177 0 140 177 0 140 177 0 140 177 0 140 177 0 140
177 0 140 177 0 139 177 0 139 177 0 139 177 0 139 177 0 139 177 0 139
177 0
0 154 0 0 154 0 0 154 0 0 154 0 0 154 0 0 154 0 0 154 0 0 154 0 0 155
0 189 155 0 189 155 0 189 155 0 188 155 0 188 155 0 188 155 0 188 155
0 187 156 0 187 156 0 0 156 0 0 156 0 0 156 0 0 156 0 0 156 0 0 156 0
0 157 0 0 157 0 0 157 0 0 157 0 0 157 0 0 157 0 0 157 0 0 157 0 0 158
0 0 158 0 0 158 0 0 158 0 0 158 0 0 158 0 0 158 0 0 158 0 0 159 0 181
159 0 181 159 0 181 159 0 180 159 0 180 159 0 180 159 0 180 159 0 180
160 0 179 160 0 179 160 0 179 160 0 179 160 0 178 160 0 178 160 0 178
160 0 178 161 0 177 161 0 177 161 0 177 161 0 177 161 0 176 161 0 176
161 0 176 161 0 176 162 0 176 162 0 175 162 0 175 162 0 175 162 0 175
162 0 174 162 0 174 162 0 174 162 0 174 163 0 0 163 0 0 163 0 0 163 0
0 163 0 0 163 0 0 163 0 0 163 0 0 164 0 0 164 0 0 164 0 0 164 0 0 164
0 0 164 0 0 164 0 0 164 0 0 164 0 0 165 0 0 165 0 0 165 0 0 165 0 0
165 0 0 165 0 0 165 0 0 165 0 0 166 0 0 166 0 168 166 0 167 166 0 167
166 0 167 166 0 167 166 0 167 166 0 0 166 0 0 167 0 0 167 0 0 167 0 0
167 0 0 167 0 0 167 0 0 167 0 0 167 0 0 167 0 0 167 0 0 168 0 0 168 0
0 168 0 0 168 0 0 168 0 0 168 0 0 168 0 0 168 0 0 168 0 0 169 0 0 169
0 0 169 0 0 169 0 0 169 0 0 169 0 0 169 0 0 169 0 0 169 0 0 169 0 0
170 0 0 170 0 0 170 0 159 170 0 159 170 0 159 170 0 159 170 0 159 170
0 158 170 0 158 170 0 158 171 0 158 171 0 158 171 0 158 171 0 157 171
0 157 171 0 157 171 0 157 171 0 157 171 0 156 171 0 156 171 0 156 172
0 156 172 0 156 172 0 155 172 0 155 172 0 155 172 0 155 172 0 155 172
0 154 172 0 154 172 0 154 172 0 154 172 0 154 173 0 153 173 0 153 173
0 0 173 0 0 173 0 0 173 0 0 173 0 0 173 0 0 173 0 0 173 0 0 173 0 0
173 0 151 174 0 151 174 0 151 174 0 151 174 0 151 174 0 150 174 0 150
174 0 150 174 0 150 174 0 150 174 0 150 174 0 149 174 0 149 174 0 149
175 0 149 175 0 149 175 0 148 175 0 148 175 0 148 175 0 148 175 0 148
175 0 148 175 0 147 175 0 0 175 0 0 175 0 0 175 0 0 175 0 0 175 0 0
175 0 0 176 0 0 176 0 0 176 0 0 176 0 0 176 0 0 176 0 0 176 0 0 176 0
0 176 0 0 176 0 0 176 0 0 176 0 0 176 0 0 176 0 0 176 0 0 176 0 0 176
0 0 176 0 0 177 0 0 177 0 0 177 0 0 177 0 0 177 0 0 177 0 0 177 0 0
177 0 0 177 0 142 177 0 141 177 0 141 177 0 141 177 0 141 177 0 141
177 0 141 177 0 141 177 0 140 177 0 140 177 0 140 177 0 140 177 0 140
177 0 140 177 0 139 177 0 139 178 0 139 178 0 139 178 0 139 178 0
0 154 0 0 154 0 0 154 0 0 154 0 0 154 0 0 154 0 0 155 0 189 155 0 189
155 0 189 155 0 189 155 0 189 155 0 188 155 0 188 155 0 188 156 0 188
156 0 187 156 0 187 156 0 187 156 0 187 156 0 186 156 0 0 156 0 0 157
0 0 157 0 0 157 0 0 157 0 0 157 0 0 157 0 0 157 0 0 157 0 0 158 0 0
158 0 0 158 0 0 158 0 0 158 0 0 158 0 0 158 0 0 158 0 0 159 0 0 159 0
181 159 0 181 159 0 181 159 0 181 159 0 180 159 0 180 159 0 180 160 0
180 160 0 180 160 0 179 160 0 179 160 0 179 160 0 179 160 0 178 160 0
178 161 0 178 161 0 178 161 0 177 161 0 177 161 0 177 161 0 177 161 0
176 161 0 176 162 0 176 162 0 176 162 0 176 162 0 175 162 0 175 162 0
175 162 0 175 162 0 174 163 0 174 163 0 174 163 0 0 163 0 0 163 0 0
163 0 0 163 0 0 163 0 0 163 0 0 164 0 0 164 0 0 164 0 0 164 0 0 164 0
0 164 0 0 164 0 0 164 0 0 165 0 0 165 0 0 165 0 0 165 0 0 165 0 0 165
0 0 165 0 0 165 0 0 165 0 0 166 0 0 166 0 0 166 0 0 166 0 0 166 0 0
166 0 0 166 0 167 166 0 167 166 0 167 167 0 0 167 0 0 167 0 0 167 0 0
167 0 0 167 0 0 167 0 0 167 0 0 167 0 0 168 0 0 168 0 0 168 0 0 168 0
0 168 0 0 168 0 0 168 0 0 168 0 0 168 0 0 168 0 0 169 0 0 169 0 0 169
0 0 169 0 0 169 0 0 169 0 0 169 0 0 169 0 0 169 0 0 169 0 0 170 0 0
170 0 0 170 0 0 170 0 0 170 0 160 170 0 159 170 0 159 170 0 159 170 0
159 170 0 159 171 0 158 171 0 158 171 0 158 171 0 158 171 0 158 171 0
157 171 0 157 171 0 157 171 0 157 171 0 157 172 0 156 172 0 156 172 0
156 172 0 156 172 0 156 172 0 155 172 0 155 172 0 155 172 0 155 172 0
155 172 0 154 172 0 154 173 0 154 173 0 154 173 0 154 173 0 154 173 0
0 173 0 0 173 0 0 173 0 0 173 0 0 173 0 0 173 0 0 173 0 0 174 0 0 174
0 0 174 0 0 174 0 0 174 0 0 174 0 0 174 0 151 174 0 151 174 0 150 174
0 150 174 0 150 174 0 150 174 0 150 175 0 149 175 0 149 175 0 149 175
0 149 175 0 149 175 0 149 175 0 148 175 0 148 175 0 148 175 0 148 175
0 148 175 0 148 175 0 0 175 0 0 175 0 0 176 0 0 176 0 0 176 0 0 176 0
0 176 0 0 176 0 0 176 0 0 176 0 0 176 0 0 176 0 0 176 0 0 176 0 0 176
0 0 176 0 0 176 0 0 176 0 0 176 0 0 177 0 0 177 0 0 177 0 0 177 0 0
177 0 0 177 0 0 177 0 0 177 0 0 177 0 0 177 0 0 177 0 0 177 0 0 177 0
0 177 0 142 177 0 142 177 0 141 177 0 141 177 0 141 177 0 141 177 0
141 177 0 141 177 0 141 178 0 140 178 0 140 178 0 140 178 0 140 178 0
140 178 0 140 178 0 139 178 0 139 178 0 139 178 0 139 178 0
0 154 0 0 154 0 0 154 0 0 154 0 0 155 0 0 155 0 190 155 0 189 155 0
189 155 0 189 155 0 189 155 0 188 155 0 188 156 0 188 156 0 188 156 0
187 156 0 187 156 0 187 156 0 187 156 0 187 156 0 186 157 0 186 157 0
186 157 0 0 157 0 0 157 0 0 157 0 0 157 0 0 157 0 0 158 0 0 158 0 0
158 0 0 158 0 0 158 0 0 158 0 0 158 0 0 158 0 0 159 0 0 159 0 0 159 0
182 159 0 181 159 0 181 159 0 181 159 0 181 159 0 180 160 0 180 160 0
180 160 0 180 160 0 180 160 0 179 160 0 179 160 0 179 160 0 179 161 0
178 161 0 178 161 0 178 161 0 178 161 0 177 161 0 177 161 0 177 161 0
177 162 0 176 162 0 176 162 0 176 162 0 176 162 0 176 162 0 175 162 0
175 162 0 175 163 0 175 163 0 174 163 0 174 163 0 0 163 0 0 163 0 0
163 0 0 163 0 0 163 0 0 164 0 0 164 0 0 164 0 0 164 0 0 164 0 0 164 0
0 164 0 0 164 0 0 165 0 0 165 0 0 165 0 0 165 0 0 165 0 0 165 0 0 165
0 0 165 0 0 165 0 0 166 0 0 166 0 0 166 0 0 166 0 0 166 0 0 166 0 0
166 0 0 166 0 0 166 0 0 167 0 0 167 0 0 167 0 0 167 0 0 167 0 0 167 0
0 167 0 0 167 0 0 167 0 0 168 0 0 168 0 0 168 0 0 168 0 0 168 0 0 168
0 0 168 0 0 168 0 0 168 0 0 169 0 0 169 0 0 169 0 0 169 0 0 169 0 0
169 0 0 169 0 0 169 0 0 169 0 0 169 0 0 170 0 0 170 0 0 170 0 0 170 0
0 170 0 0 170 0 0 170 0 160 170 0 160 170 0 159 170 0 159 171 0 159
171 0 159 171 0 159 171 0 158 171 0 158 171 0 158 171 0 158 171 0 158
171 0 157 171 0 157 171 0 157 172 0 157 172 0 157 172 0 157 172 0 156
172 0 156 172 0 156 172 0 156 172 0 156 172 0 155 172 0 155 172 0 155
173 0 155 173 0 155 173 0 154 173 0 154 173 0 154 173 0 154 173 0 154
173 0 0 173 0 0 173 0 0 173 0 0 173 0 0 174 0 0 174 0 0 174 0 0 174 0
0 174 0 0 174 0 0 174 0 0 174 0 0 174 0 0 174 0 0 174 0 0 174 0 0 174
0 150 175 0 150 175 0 150 175 0 150 175 0 150 175 0 149 175 0 149 175
0 149 175 0 149 175 0 149 175 0 149 175 0 148 175 0 148 175 0 148 175
0 148 176 0 148 176 0 0 176 0 0 176 0 0 176 0 0 176 0 0 176 0 0 176 0
0 176 0 0 176 0 0 176 0 0 176 0 0 176 0 0 176 0 0 176 0 0 176 0 0 177
0 0 177 0 0 177 0 0 177 0 0 177 0 0 177 0 0 177 0 0 177 0 0 177 0 0
177 0 0 177 0 0 177 0 0 177 0 0 177 0 0 177 0 0 177 0 0 177 0 0 177 0
0 177 0 142 177 0 142 178 0 142 178 0 141 178 0 141 178 0 141 178 0
141 178 0 141 178 0 141 178 0 140 178 0 140 178 0 140 178 0 140 178 0
140 178 0 140 178 0 140 178 0 139 178 0 139 178 0 139 178 0
0 154 0 0 154 0 0 155 0 0 155 0 0 155 0 190 155 0 190 155 0 189 155 0
189 155 0 189 155 0 189 156 0 188 156 0 188 156 0 188 156 0 188 156 0
187 156 0 187 156 0 187 156 0 187 157 0 186 157 0 186 157 0 186 157 0
186 157 0 186 157 0 185 157 0 0 157 0 0 158 0 0 158 0 0 158 0 0 158 0
0 158 0 0 158 0 0 158 0 0 158 0 0 159 0 0 159 0 0 159 0 0 159 0 182
159 0 182 159 0 181 159 0 181 159 0 181 160 0 181 160 0 180 160 0 180
160 0 180 160 0 180 160 0 180 160 0 179 160 0 179 161 0 179 161 0 179
161 0 178 161 0 178 161 0 178 161 0 178 161 0 177 161 0 177 162 0 177
162 0 177 162 0 177 162 0 176 162 0 176 162 0 176 162 0 176 162 0 175
163 0 175 163 0 175 163 0 175 163 0 174 163 0 174 163 0 0 163 0 0 163
0 0 163 0 0 164 0 0 164 0 0 164 0 0 164 0 0 164 0 0 164 0 0 164 0 0
164 0 0 165 0 0 165 0 0 165 0 0 165 0 0 165 0 0 165 0 0 165 0 0 165 0
0 165 0 0 166 0 0 166 0 0 166 0 0 166 0 0 166 0 0 166 0 0 166 0 0 166
0 0 166 0 0 167 0 0 167 0 0 167 0 0 167 0 167 167 0 167 167 0 166 167
0 0 167 0 0 167 0 0 168 0 0 168 0 0 168 0 0 168 0 0 168 0 0 168 0 0
168 0 0 168 0 0 168 0 0 169 0 0 169 0 0 169 0 0 169 0 0 169 0 0 169 0
0 169 0 0 169 0 0 169 0 0 169 0 0 170 0 0 170 0 0 170 0 0 170 0 0 170
0 0 170 0 0 170 0 0 170 0 0 170 0 160 170 0 160 171 0 160 171 0 159
171 0 159 171 0 159 171 0 159 171 0 159 171 0 158 171 0 158 171 0 158
171 0 158 172 0 158 172 0 157 172 0 157 172 0 157 172 0 157 172 0 157
172 0 156 172 0 156 172 0 156 172 0 156 172 0 156 173 0 155 173 0 155
173 0 155 173 0 155 173 0 155 173 0 154 173 0 154 173 0 154 173 0 154
173 0 154 173 0 0 173 0 0 174 0 0 174 0 0 174 0 0 174 0 0 174 0 0 174
0 0 174 0 0 174 0 0 174 0 0 174 0 0 174 0 0 174 0 0 175 0 0 175 0 0
175 0 0 175 0 0 175 0 0 175 0 0 175 0 150 175 0 150 175 0 150 175 0
149 175 0 149 175 0 149 175 0 149 175 0 149 176 0 148 176 0 148 176 0
148 176 0 148 176 0 148 176 0 0 176 0 0 176 0 0 176 0 0 176 0 0 176 0
0 176 0 0 176 0 0 176 0 0 176 0 0 176 0 0 177 0 0 177 0 0 177 0 0 177
0 0 177 0 0 177 0 0 177 0 0 177 0 0 177 0 0 177 0 0 177 0 0 177 0 0
177 0 0 177 0 0 177 0 0 177 0 0 177 0 0 177 0 0 177 0 0 178 0 0 178 0
0 178 0 0 178 0 142 178 0 142 178 0 142 178 0 142 178 0 141 178 0 141
178 0 141 178 0 141 178 0 141 178 0 141 178 0 140 178 0 140 178 0 140
178 0 140 178 0 140 178 0 140 178 0 140 178 0 139 178 0 139 178 0
0 155 0 0 155 0 0 155 0 0 155 0 190 155 0 190 155 0 190 155 0 189 155
0 189 156 0 189 156 0 189 156 0 188 156 0 188 156 0 188 156 0 188 156
0 187 156 0 187 157 0 187 157 0 187 157 0 186 157 0 186 157 0 186 157
0 186 157 0 185 157 0 185 158 0 185 158 0 185 158 0 185 158 0 0 158 0
0 158 0 0 158 0 0 158 0 0 159 0 0 159 0 0 159 0 0 159 0 0 159 0 182
159 0 182 159 0 182 159 0 181 160 0 181 160 0 181 160 0 181 160 0 180
160 0 180 160 0 180 160 0 180 160 0 180 161 0 179 161 0 179 161 0 179
161 0 179 161 0 178 161 0 178 161 0 178 161 0 178 162 0 177 162 0 177
162 0 177 162 0 177 162 0 177 162 0 176 162 0 176 162 0 176 163 0 176
163 0 175 163 0 175 163 0 175 163 0 175 163 0 174 163 0 0 163 0 0 163
0 0 164 0 0 164 0 0 164 0 0 164 0 0 164 0 0 164 0 0 164 0 0 164 0 0
165 0 0 165 0 0 165 0 0 165 0 0 165 0 0 165 0 0 165 0 0 165 0 0 165 0
0 166 0 0 166 0 0 166 0 0 166 0 0 166 0 0 166 0 0 166 0 0 166 0 0 166
0 0 167 0 0 167 0 0 167 0 0 167 0 0 167 0 167 167 0 167 167 0 167 167
0 166 167 0 166 168 0 166 168 0 166 168 0 0 168 0 0 168 0 0 168 0 0
168 0 0 168 0 0 168 0 0 169 0 0 169 0 0 169 0 0 169 0 0 169 0 0 169 0
0 169 0 0 169 0 0 169 0 0 169 0 0 170 0 0 170 0 0 170 0 0 170 0 0 170
0 0 170 0 0 170 0 0 170 0 0 170 0 0 171 0 160 171 0 160 171 0 160 171
0 160 171 0 159 171 0 159 171 0 159 171 0 159 171 0 159 171 0 158 171
0 158 172 0 158 172 0 158 172 0 158 172 0 157 172 0 157 172 0 157 172
0 157 172 0 157 172 0 156 172 0 156 172 0 156 173 0 156 173 0 156 173
0 156 173 0 155 173 0 155 173 0 155 173 0 155 173 0 155 173 0 154 173
0 154 173 0 154 174 0 154 174 0 0 174 0 0 174 0 0 174 0 0 174 0 0 174
0 0 174 0 0 174 0 0 174 0 0 174 0 0 174 0 0 175 0 0 175 0 0 175 0 0
175 0 0 175 0 0 175 0 0 175 0 0 175 0 0 175 0 0 175 0 0 175 0 0 175 0
0 175 0 149 175 0 149 176 0 149 176 0 149 176 0 149 176 0 149 176 0
148 176 0 148 176 0 148 176 0 148 176 0 0 176 0 0 176 0 0 176 0 0 176
0 0 176 0 0 176 0 0 177 0 0 177 0 0 177 0 0 177 0 0 177 0 0 177 0 0
177 0 0 177 0 0 177 0 0 177 0 0 177 0 0 177 0 0 177 0 0 177 0 0 177 0
0 177 0 0 177 0 0 177 0 0 178 0 0 178 0 0 178 0 0 178 0 0 178 0 0 178
0 0 178 0 0 178 0 0 178 0 142 178 0 142 178 0 142 178 0 142 178 0 142
178 0 141 178 0 141 178 0 141 178 0 141 178 0 141 178 0 141 178 0 140
178 0 140 178 0 140 178 0 140 179 0 140 179 0 140 179 0 140 179 0 139
179 0
0 155 0 0 155 0 0 155 0 190 155 0 190 155 0 190 155 0 190 156 0 189
156 0 189 156 0 189 156 0 189 156 0 188 156 0 188 156 0 188 156 0 188
157 0 187 157 0 187 157 0 187 157 0 187 157 0 186 157 0 186 157 0 186
157 0 186 158 0 185 158 0 185 158 0 185 158 0 185 158 0 184 158 0 184
158 0 184 158 0 0 159 0 0 159 0 0 159 0 0 159 0 0 159 0 0 159 0 0 159
0 182 159 0 182 160 0 182 160 0 181 160 0 181 160 0 181 160 0 181 160
0 180 160 0 180 160 0 180 161 0 180 161 0 180 161 0 179 161 0 179 161
0 179 161 0 179 161 0 178 161 0 178 162 0 178 162 0 178 162 0 177 162
0 177 162 0 177 162 0 177 162 0 177 162 0 176 163 0 176 163 0 176 163
0 176 163 0 175 163 0 175 163 0 175 163 0 175 163 0 0 163 0 0 164 0 0
164 0 0 164 0 0 164 0 0 164 0 0 164 0 0 164 0 0 164 0 0 165 0 0 165 0
0 165 0 0 165 0 0 165 0 0 165 0 0 165 0 0 165 0 0 165 0 0 166 0 0 166
0 0 166 0 0 166 0 0 166 0 0 166 0 0 166 0 0 166 0 0 166 0 0 167 0 0
167 0 0 167 0 0 167 0 0 167 0 0 167 0 167 167 0 167 167 0 167 167 0
167 168 0 166 168 0 166 168 0 166 168 0 166 168 0 166 168 0 165 168 0
165 168 0 0 168 0 0 169 0 0 169 0 0 169 0 0 169 0 0 169 0 0 169 0 0
169 0 0 169 0 0 169 0 0 170 0 0 170 0 0 170 0 0 170 0 0 170 0 0 170 0
0 170 0 0 170 0 0 170 0 0 170 0 0 171 0 0 171 0 0 171 0 160 171 0 160
171 0 160 171 0 160 171 0 159 171 0 159 171 0 159 171 0 159 172 0 159
172 0 159 172 0 158 172 0 158 172 0 158 172 0 158 172 0 158 172 0 157
172 0 157 172 0 157 172 0 157 173 0 157 173 0 156 173 0 156 173 0 156
173 0 156 173 0 156 173 0 155 173 0 155 173 0 155 173 0 155 173 0 155
174 0 154 174 0 154 174 0 154 174 0 0 174 0 0 174 0 0 174 0 0 174 0 0
174 0 0 174 0 0 174 0 0 174 0 0 175 0 0 175 0 0 175 0 0 175 0 0 175 0
0 175 0 0 175 0 0 175 0 0 175 0 0 175 0 0 175 0 0 175 0 0 175 0 0 176
0 0 176 0 0 176 0 0 176 0 0 176 0 0 176 0 149 176 0 149 176 0 149 176
0 149 176 0 148 176 0 148 176 0 148 176 0 0 176 0 0 176 0 0 177 0 0
177 0 0 177 0 0 177 0 0 177 0 0 177 0 0 177 0 0 177 0 0 177 0 0 177 0
0 177 0 0 177 0 0 177 0 0 177 0 0 177 0 0 177 0 0 177 0 0 178 0 0 178
0 0 178 0 0 178 0 0 178 0 0 178 0 0 178 0 0 178 0 0 178 0 0 178 0 0
178 0 0 178 0 0 178 0 0 178 0 142 178 0 142 178 0 142 178 0 142 178 0
142 178 0 142 178 0 141 178 0 141 179 0 141 179 0 141 179 0 141 179 0
141 179 0 140 179 0 140 179 0 140 179 0 140 179 0 140 179 0 140 179 0
139 179 0
0 155 0 0 155 0 191 155 0 190 155 0 190 156 0 190 156 0 190 156 0 189
156 0 189 156 0 189 156 0 189 156 0 188 156 0 188 157 0 188 157 0 188
157 0 187 157 0 187 157 0 187 157 0 187 157 0 186 157 0 186 158 0 186
158 0 186 158 0 185 158 0 185 158 0 185 158 0 185 158 0 184 158 0 184
159 0 184 159 0 184 159 0 184 159 0 0 159 0 0 159 0 0 159 0 0 159 0
182 160 0 182 160 0 182 160 0 182 160 0 181 160 0 181 160 0 181 160 0
181 160 0 180 161 0 180 161 0 180 161 0 180 161 0 180 161 0 179 161 0
179 161 0 179 161 0 179 162 0 178 162 0 178 162 0 178 162 0 178 162 0
177 162 0 177 162 0 177 162 0 177 163 0 177 163 0 176 163 0 176 163 0
176 163 0 176 163 0 175 163 0 175 163 0 175 163 0 0 164 0 0 164 0 0
164 0 0 164 0 0 164 0 0 164 0 0 164 0 0 164 0 0 165 0 0 165 0 0 165 0
0 165 0 0 165 0 0 165 0 0 165 0 0 165 0 0 165 0 0 166 0 0 166 0 0 166
0 0 166 0 0 166 0 0 166 0 0 166 0 0 166 0 0 166 0 0 167 0 0 167 0 0
167 0 0 167 0 0 167 0 0 167 0 0 167 0 0 167 0 167 168 0 167 168 0 167
168 0 167 168 0 166 168 0 166 168 0 166 168 0 166 168 0 166 168 0 165
168 0 165 169 0 165 169 0 165 169 0 0 169 0 0 169 0 0 169 0 0 169 0 0
169 0 0 169 0 0 170 0 0 170 0 0 170 0 0 170 0 0 170 0 0 170 0 0 170 0
0 170 0 0 170 0 0 170 0 0 171 0 0 171 0 0 171 0 0 171 0 0 171 0 160
171 0 160 171 0 160 171 0 160 171 0 160 171 0 159 172 0 159 172 0 159
172 0 159 172 0 159 172 0 158 172 0 158 172 0 158 172 0 158 172 0 158
172 0 157 173 0 157 173 0 157 173 0 157 173 0 157 173 0 156 173 0 156
173 0 156 173 0 156 173 0 156 173 0 156 173 0 155 173 0 155 174 0 155
174 0 155 174 0 155 174 0 154 174 0 154 174 0 0 174 0 0 174 0 0 174 0
0 174 0 0 174 0 0 175 0 0 175 0 0 175 0 0 175 0 0 175 0 0 175 0 0 175
0 0 175 0 0 175 0 0 175 0 0 175 0 0 175 0 0 175 0 0 176 0 0 176 0 0
176 0 0 176 0 0 176 0 0 176 0 0 176 0 0 176 0 0 176 0 0 176 0 0 176 0
0 176 0 0 176 0 148 176 0 148 177 0 148 177 0 0 177 0 0 177 0 0 177 0
0 177 0 0 177 0 0 177 0 0 177 0 0 177 0 0 177 0 0 177 0 0 177 0 0 177
0 0 177 0 0 177 0 0 177 0 0 178 0 0 178 0 0 178 0 0 178 0 0 178 0 0
178 0 0 178 0 0 178 0 0 178 0 0 178 0 0 178 0 0 178 0 0 178 0 0 178 0
0 178 0 0 178 0 0 178 0 0 178 0 0 178 0 142 179 0 142 179 0 142 179 0
142 179 0 142 179 0 142 179 0 141 179 0 141 179 0 141 179 0 141 179 0
141 179 0 141 179 0 140 179 0 140 179 0 140 179 0 140 179 0 140 179 0
140 179 0
0 155 0 191 155 0 190 156 0 190 156 0 190 156 0 190 156 0 189 156 0
189 156 0 189 156 0 189 156 0 189 157 0 188 157 0 188 157 0 188 157 0
188 157 0 187 157 0 187 157 0 187 157 0 187 158 0 186 158 0 186 158 0
186 158 0 186 158 0 185 158 0 185 158 0 185 158 0 185 159 0 184 159 0
184 159 0 184 159 0 184 159 0 183 159 0 183 159 0 183 159 0 183 160 0
183 160 0 182 160 0 182 160 0 182 160 0 182 160 0 181 160 0 181 160 0
181 161 0 181 161 0 180 161 0 180 161 0 180 161 0 180 161 0 180 161 0
179 161 0 179 162 0 179 162 0 179 162 0 178 162 0 178 162 0 178 162 0
178 162 0 177 162 0 177 163 0 177 163 0 177 163 0 177 163 0 176 163 0
176 163 0 176 163 0 176 163 0 175 163 0 175 164 0 0 164 0 0 164 0 0
164 0 0 164 0 0 164 0 0 164 0 0 164 0 0 165 0 0 165 0 0 165 0 0 165 0
0 165 0 0 165 0 0 165 0 0 165 0 0 165 0 0 166 0 0 166 0 0 166 0 0 166
0 0 166 0 0 166 0 0 166 0 0 166 0 0 167 0 0 167 0 0 167 0 0 167 0 0
167 0 0 167 0 0 167 0 0 167 0 0 167 0 0 168 0 168 168 0 167 168 0 167
168 0 167 168 0 167 168 0 167 168 0 166 168 0 166 168 0 166 168 0 166
169 0 165 169 0 165 169 0 165 169 0 165 169 0 165 169 0 164 169 0 164
169 0 0 169 0 0 170 0 0 170 0 0 170 0 0 170 0 0 170 0 0 170 0 0 170 0
0 170 0 0 170 0 0 170 0 0 171 0 0 171 0 0 171 0 0 171 0 0 171 0 0 171
0 161 171 0 160 171 0 160 171 0 160 171 0 160 172 0 160 172 0 159 172
0 159 172 0 159 172 0 159 172 0 159 172 0 158 172 0 158 172 0 158 172
0 158 173 0 158 173 0 157 173 0 157 173 0 157 173 0 157 173 0 157 173
0 157 173 0 156 173 0 156 173 0 156 173 0 156 174 0 156 174 0 155 174
0 155 174 0 155 174 0 155 174 0 155 174 0 154 174 0 154 174 0 0 174 0
0 174 0 0 174 0 0 175 0 0 175 0 0 175 0 0 175 0 0 175 0 0 175 0 0 175
0 0 175 0 0 175 0 0 175 0 0 175 0 0 175 0 0 176 0 0 176 0 0 176 0 0
176 0 0 176 0 0 176 0 0 176 0 0 176 0 0 176 0 0 176 0 0 176 0 0 176 0
0 176 0 0 176 0 0 177 0 0 177 0 0 177 0 0 177 0 0 177 0 0 177 0 0 177
0 0 177 0 0 177 0 0 177 0 0 177 0 0 177 0 0 177 0 0 177 0 0 177 0 0
178 0 0 178 0 0 178 0 0 178 0 0 178 0 0 178 0 0 178 0 0 178 0 0 178 0
0 178 0 0 178 0 0 178 0 0 178 0 0 178 0 0 178 0 0 178 0 0 178 0 0 178
0 0 178 0 0 179 0 0 179 0 0 179 0 0 179 0 0 179 0 142 179 0 142 179 0
142 179 0 142 179 0 142 179 0 142 179 0 141 179 0 141 179 0 141 179 0
141 179 0 141 179 0 141 179 0 141 179 0 140 179 0 140 179 0 140 179 0
140 179 0 140 179 0
191 156 0 191 156 0 190 156 0 190 156 0 190 156 0 190 156 0 189 156 0
189 156 0 189 157 0 189 157 0 188 157 0 188 157 0 188 157 0 188 157 0
188 157 0 187 157 0 187 158 0 187 158 0 187 158 0 186 158 0 186 158 0
186 158 0 186 158 0 185 158 0 185 159 0 185 159 0 185 159 0 184 159 0
184 159 0 184 159 0 184 159 0 183 159 0 183 160 0 183 160 0 0 160 0 0
160 0 0 160 0 182 160 0 182 160 0 182 160 0 181 161 0 181 161 0 181
161 0 181 161 0 180 161 0 180 161 0 180 161 0 180 161 0 180 162 0 179
162 0 179 162 0 179 162 0 179 162 0 178 162 0 178 162 0 178 162 0 178
162 0 177 163 0 177 163 0 177 163 0 177 163 0 177 163 0 176 163 0 176
163 0 176 163 0 176 164 0 175 164 0 175 164 0 0 164 0 0 164 0 0 164 0
0 164 0 0 164 0 0 165 0 0 165 0 0 165 0 0 165 0 0 165 0 0 165 0 0 165
0 0 165 0 0 165 0 0 166 0 0 166 0 0 166 0 0 166 0 0 166 0 0 166 0 0
166 0 0 166 0 0 167 0 0 167 0 0 167 0 0 167 0 0 167 0 0 167 0 0 167 0
0 167 0 0 167 0 0 168 0 0 168 0 0 168 0 168 168 0 167 168 0 167 168 0
167 168 0 167 168 0 167 168 0 166 169 0 166 169 0 166 169 0 166 169 0
166 169 0 165 169 0 165 169 0 165 169 0 165 169 0 164 169 0 164 170 0
164 170 0 164 170 0 164 170 0 0 170 0 0 170 0 0 170 0 0 170 0 0 170 0
0 171 0 0 171 0 0 171 0 0 171 0 0 171 0 0 171 0 0 171 0 0 171 0 0 171
0 161 171 0 160 172 0 160 172 0 160 172 0 160 172 0 160 172 0 160 172
0 159 172 0 159 172 0 159 172 0 159 172 0 159 172 0 158 173 0 158 173
0 158 173 0 158 173 0 158 173 0 157 173 0 157 173 0 157 173 0 157 173
0 157 173 0 156 174 0 156 174 0 156 174 0 156 174 0 156 174 0 156 174
0 155 174 0 155 174 0 155 174 0 155 174 0 155 174 0 154 174 0 0 175 0
0 175 0 0 175 0 0 175 0 0 175 0 0 175 0 0 175 0 0 175 0 0 175 0 0 175
0 0 175 0 0 175 0 0 176 0 0 176 0 0 176 0 0 176 0 0 176 0 0 176 0 0
176 0 0 176 0 0 176 0 0 176 0 0 176 0 0 176 0 0 176 0 0 176 0 0 177 0
0 177 0 0 177 0 0 177 0 0 177 0 0 177 0 0 177 0 0 177 0 148 177 0 148
177 0 148 177 0 0 177 0 0 177 0 0 177 0 0 177 0 0 178 0 0 178 0 0 178
0 0 178 0 0 178 0 0 178 0 0 178 0 0 178 0 0 178 0 0 178 0 0 178 0 0
178 0 0 178 0 0 178 0 0 178 0 0 178 0 0 178 0 0 179 0 0 179 0 0 179 0
0 179 0 0 179 0 0 179 0 0 179 0 0 179 0 0 179 0 0 179 0 143 179 0 142
179 0 142 179 0 142 179 0 142 179 0 142 179 0 142 179 0 141 179 0 141
179 0 141 179 0 141 179 0 141 179 0 141 179 0 141 180 0 140 180 0 140
180 0 140 180 0 140 180 0
191 156 0 191 156 0 190 156 0 190 156 0 190 156 0 190 156 0 189 157 0
189 157 0 189 157 0 189 157 0 188 157 0 188 157 0 188 157 0 188 157 0
187 158 0 187 158 0 187 158 0 187 158 0 187 158 0 186 158 0 186 158 0
186 158 0 186 159 0 185 159 0 185 159 0 185 159 0 185 159 0 184 159 0
184 159 0 184 159 0 184 160 0 183 160 0 183 160 0 0 160 0 0 160 0 0
160 0 0 160 0 0 160 0 0 161 0 182 161 0 181 161 0 181 161 0 181 161 0
181 161 0 180 161 0 180 161 0 180 162 0 180 162 0 180 162 0 179 162 0
179 162 0 179 162 0 179 162 0 178 162 0 178 162 0 178 163 0 178 163 0
177 163 0 177 163 0 177 163 0 177 163 0 177 163 0 176 163 0 176 164 0
176 164 0 176 164 0 175 164 0 0 164 0 0 164 0 0 164 0 0 164 0 0 165 0
0 165 0 0 165 0 0 165 0 0 165 0 0 165 0 0 165 0 0 165 0 0 165 0 0 166
0 0 166 0 0 166 0 0 166 0 0 166 0 0 166 0 0 166 0 0 166 0 0 167 0 0
167 0 0 167 0 0 167 0 0 167 0 0 167 0 0 167 0 0 167 0 0 167 0 0 168 0
0 168 0 0 168 0 0 168 0 168 168 0 168 168 0 167 168 0 167 168 0 167
168 0 167 169 0 167 169 0 166 169 0 166 169 0 166 169 0 166 169 0 166
169 0 165 169 0 165 169 0 165 169 0 165 170 0 165 170 0 164 170 0 164
170 0 164 170 0 164 170 0 164 170 0 163 170 0 163 170 0 0 171 0 0 171
0 0 171 0 0 171 0 0 171 0 0 171 0 0 171 0 0 171 0 0 171 0 0 171 0 161
172 0 161 172 0 161 172 0 160 172 0 160 172 0 160 172 0 160 172 0 160
172 0 159 172 0 159 172 0 159 173 0 159 173 0 159 173 0 158 173 0 158
173 0 158 173 0 158 173 0 158 173 0 157 173 0 157 173 0 157 173 0 157
174 0 157 174 0 157 174 0 156 174 0 156 174 0 156 174 0 156 174 0 156
174 0 155 174 0 155 174 0 155 174 0 155 175 0 155 175 0 154 175 0 0
175 0 0 175 0 0 175 0 0 175 0 0 175 0 0 175 0 0 175 0 0 175 0 0 175 0
0 176 0 0 176 0 0 176 0 0 176 0 0 176 0 0 176 0 0 176 0 0 176 0 0 176
0 0 176 0 0 176 0 0 176 0 0 176 0 0 177 0 0 177 0 0 177 0 0 177 0 0
177 0 0 177 0 0 177 0 0 177 0 0 177 0 0 177 0 0 177 0 0 177 0 148 177
0 148 177 0 148 177 0 148 178 0 148 178 0 147 178 0 0 178 0 0 178 0 0
178 0 0 178 0 0 178 0 0 178 0 0 178 0 0 178 0 0 178 0 0 178 0 0 178 0
0 178 0 0 178 0 0 178 0 0 179 0 0 179 0 0 179 0 0 179 0 0 179 0 0 179
0 0 179 0 0 179 0 0 179 0 0 179 0 0 179 0 0 179 0 0 179 0 0 179 0 143
179 0 143 179 0 142 179 0 142 179 0 142 179 0 142 179 0 142 180 0 142
180 0 141 180 0 141 180 0 141 180 0 141 180 0 141 180 0 141 180 0 140
180 0 140 180 0 140 180 0 140 180 0
191 156 0 191 156 0 190 156 0 190 156 0 190 157 0 190 157 0 189 157 0
189 157 0 189 157 0 189 157 0 188 157 0 188 157 0 188 158 0 188 158 0
187 158 0 187 158 0 187 158 0 187 158 0 186 158 0 186 158 0 186 159 0
186 159 0 186 159 0 185 159 0 185 159 0 185 159 0 185 159 0 184 159 0
184 160 0 184 160 0 184 160 0 183 160 0 0 160 0 0 160 0 0 160 0 0 160
0 0 161 0 0 161 0 0 161 0 0 161 0 0 161 0 0 161 0 181 161 0 181 161 0
180 162 0 180 162 0 180 162 0 180 162 0 179 162 0 179 162 0 179 162 0
179 162 0 179 162 0 178 163 0 178 163 0 178 163 0 178 163 0 177 163 0
177 163 0 177 163 0 177 163 0 177 164 0 176 164 0 176 164 0 176 164 0
176 164 0 0 164 0 0 164 0 0 164 0 0 165 0 0 165 0 0 165 0 0 165 0 0
165 0 0 165 0 0 165 0 0 165 0 0 165 0 0 166 0 0 166 0 0 166 0 0 166 0
0 166 0 0 166 0 0 166 0 0 166 0 0 167 0 0 167 0 0 167 0 0 167 0 0 167
0 0 167 0 0 167 0 0 167 0 0 167 0 0 168 0 0 168 0 0 168 0 0 168 0 0
168 0 0 168 0 168 168 0 168 168 0 167 168 0 167 169 0 167 169 0 167
169 0 167 169 0 166 169 0 166 169 0 166 169 0 166 169 0 166 169 0 165
169 0 165 170 0 165 170 0 165 170 0 165 170 0 164 170 0 164 170 0 164
170 0 164 170 0 164 170 0 163 171 0 163 171 0 163 171 0 163 171 0 163
171 0 0 171 0 0 171 0 0 171 0 0 171 0 0 171 0 0 172 0 0 172 0 161 172
0 161 172 0 161 172 0 160 172 0 160 172 0 160 172 0 160 172 0 160 172
0 159 173 0 159 173 0 159 173 0 159 173 0 159 173 0 158 173 0 158 173
0 158 173 0 158 173 0 158 173 0 158 173 0 157 174 0 157 174 0 157 174
0 157 174 0 157 174 0 156 174 0 156 174 0 156 174 0 156 174 0 156 174
0 155 174 0 155 175 0 155 175 0 155 175 0 155 175 0 0 175 0 0 175 0 0
175 0 0 175 0 0 175 0 0 175 0 0 175 0 0 175 0 0 176 0 0 176 0 0 176 0
0 176 0 0 176 0 0 176 0 0 176 0 0 176 0 0 176 0 0 176 0 0 176 0 0 176
0 0 177 0 0 177 0 0 177 0 0 177 0 0 177 0 0 177 0 0 177 0 0 177 0 0
177 0 0 177 0 0 177 0 0 177 0 0 177 0 0 177 0 0 177 0 148 178 0 148
178 0 148 178 0 148 178 0 148 178 0 148 178 0 147 178 0 147 178 0 147
178 0 147 178 0 0 178 0 0 178 0 0 178 0 0 178 0 0 178 0 0 178 0 0 179
0 0 179 0 0 179 0 0 179 0 0 179 0 0 179 0 0 179 0 0 179 0 0 179 0 0
179 0 0 179 0 0 179 0 0 179 0 0 179 0 0 179 0 0 179 0 0 179 0 0 179 0
143 179 0 143 180 0 142 180 0 142 180 0 142 180 0 142 180 0 142 180 0
142 180 0 142 180 0 141 180 0 141 180 0 141 180 0 141 180 0 141 180 0
141 180 0 140 180 0 140 180 0 140 180 0
191 156 0 191 156 0 190 157 0 190 157 0 190 157 0 190 157 0 189 157 0
189 157 0 189 157 0 189 157 0 188 158 0 188 158 0 188 158 0 188 158 0
187 158 0 187 158 0 187 158 0 187 158 0 186 159 0 186 159 0 186 159 0
186 159 0 186 159 0 185 159 0 185 159 0 185 159 0 185 160 0 184 160 0
184 160 0 184 160 0 184 160 0 0 160 0 0 160 0 0 160 0 0 161 0 0 161 0
0 161 0 0 161 0 0 161 0 0 161 0 0 161 0 0 161 0 0 161 0 0 162 0 180
162 0 180 162 0 180 162 0 180 162 0 179 162 0 179 162 0 179 162 0 179
163 0 179 163 0 178 163 0 178 163 0 178 163 0 178 163 0 177 163 0 177
163 0 177 164 0 177 164 0 177 164 0 176 164 0 176 164 0 176 164 0 0
164 0 0 164 0 0 165 0 0 165 0 0 165 0 0 165 0 0 165 0 0 165 0 0 165 0
0 165 0 0 165 0 0 166 0 0 166 0 0 166 0 0 166 0 0 166 0 0 166 0 0 166
0 0 166 0 0 166 0 0 167 0 0 167 0 0 167 0 0 167 0 0 167 0 0 167 0 0
167 0 0 167 0 0 168 0 0 168 0 0 168 0 0 168 0 0 168 0 0 168 0 0 168 0
168 168 0 168 168 0 168 169 0 168 169 0 167 169 0 167 169 0 167 169 0
167 169 0 166 169 0 166 169 0 166 169 0 166 170 0 166 170 0 165 170 0
165 170 0 165 170 0 165 170 0 165 170 0 164 170 0 164 170 0 164 170 0
164 171 0 164 171 0 163 171 0 163 171 0 163 171 0 163 171 0 163 171 0
162 171 0 162 171 0 0 171 0 0 172 0 0 172 0 0 172 0 0 172 0 161 172 0
161 172 0 161 172 0 160 172 0 160 172 0 160 172 0 160 173 0 160 173 0
160 173 0 159 173 0 159 173 0 159 173 0 159 173 0 159 173 0 158 173 0
158 173 0 158 174 0 158 174 0 158 174 0 157 174 0 157 174 0 157 174 0
157 174 0 157 174 0 156 174 0 156 174 0 156 174 0 156 175 0 156 175 0
156 175 0 155 175 0 155 175 0 155 175 0 155 175 0 0 175 0 0 175 0 0
175 0 0 175 0 0 175 0 0 176 0 0 176 0 0 176 0 0 176 0 0 176 0 0 176 0
0 176 0 0 176 0 0 176 0 0 176 0 0 176 0 0 176 0 0 177 0 0 177 0 0 177
0 0 177 0 0 177 0 0 177 0 0 177 0 0 177 0 0 177 0 0 177 0 0 177 0 0
177 0 0 177 0 0 177 0 0 178 0 0 178 0 0 178 0 0 178 0 148 178 0 148
178 0 148 178 0 148 178 0 148 178 0 148 178 0 147 178 0 147 178 0 147
178 0 147 178 0 147 178 0 147 178 0 146 179 0 0 179 0 0 179 0 0 179 0
0 179 0 0 179 0 0 179 0 0 179 0 0 179 0 0 179 0 0 179 0 0 179 0 0 179
0 0 179 0 0 179 0 0 179 0 0 179 0 0 179 0 0 180 0 0 180 0 0 180 0 0
180 0 143 180 0 143 180 0 143 180 0 142 180 0 142 180 0 142 180 0 142
180 0 142 180 0 142 180 0 142 180 0 141 180 0 141 180 0 141 180 0 141
180 0 141 180 0 141 180 0 140 180 0 140 180 0
191 156 0 190 157 0 190 157 0 190 157 0 190 157 0 190 157 0 189 157 0
189 157 0 189 157 0 189 158 0 188 158 0 188 158 0 188 158 0 188 158 0
187 158 0 187 158 0 187 158 0 187 159 0 186 159 0 186 159 0 186 159 0
186 159 0 185 159 0 185 159 0 185 159 0 185 160 0 185 160 0 184 160 0
184 160 0 184 160 0 0 160 0 0 160 0 0 160 0 0 161 0 0 161 0 0 161 0 0
161 0 0 161 0 0 161 0 0 161 0 0 161 0 0 162 0 0 162 0 0 162 0 0 162 0
0 162 0 180 162 0 180 162 0 179 162 0 179 163 0 179 163 0 179 163 0
179 163 0 178 163 0 178 163 0 178 163 0 178 163 0 177 164 0 177 164 0
177 164 0 177 164 0 177 164 0 176 164 0 176 164 0 176 164 0 0 164 0 0
165 0 0 165 0 0 165 0 0 165 0 0 165 0 0 165 0 0 165 0 0 165 0 0 166 0
0 166 0 0 166 0 0 166 0 0 166 0 0 166 0 0 166 0 0 166 0 0 166 0 0 167
0 0 167 0 0 167 0 0 167 0 0 167 0 0 167 0 0 167 0 0 167 0 0 168 0 0
168 0 0 168 0 0 168 0 0 168 0 0 168 0 0 168 0 0 168 0 168 168 0 168
169 0 168 169 0 168 169 0 168 169 0 167 169 0 167 169 0 167 169 0 167
169 0 167 169 0 166 170 0 166 170 0 166 170 0 166 170 0 166 170 0 165
170 0 165 170 0 165 170 0 165 170 0 164 170 0 164 171 0 164 171 0 164
171 0 164 171 0 163 171 0 163 171 0 163 171 0 163 171 0 163 171 0 163
172 0 162 172 0 162 172 0 162 172 0 162 172 0 0 172 0 161 172 0 161
172 0 161 172 0 161 172 0 161 173 0 160 173 0 160 173 0 160 173 0 160
173 0 160 173 0 159 173 0 159 173 0 159 173 0 159 173 0 159 173 0 158
174 0 158 174 0 158 174 0 158 174 0 158 174 0 158 174 0 157 174 0 157
174 0 157 174 0 157 174 0 157 174 0 156 175 0 156 175 0 156 175 0 156
175 0 156 175 0 155 175 0 155 175 0 155 175 0 155 175 0 0 175 0 0 175
0 0 176 0 0 176 0 0 176 0 0 176 0 0 176 0 0 176 0 0 176 0 0 176 0 0
176 0 0 176 0 0 176 0 0 176 0 0 176 0 0 177 0 0 177 0 0 177 0 0 177 0
0 177 0 0 177 0 0 177 0 0 177 0 0 177 0 0 177 0 0 177 0 0 177 0 0 177
0 0 178 0 0 178 0 0 178 0 0 178 0 0 178 0 0 178 0 0 178 0 149 178 0
148 178 0 148 178 0 148 178 0 148 178 0 148 178 0 148 178 0 147 178 0
147 179 0 147 179 0 147 179 0 147 179 0 147 179 0 146 179 0 146 179 0
146 179 0 0 179 0 0 179 0 0 179 0 0 179 0 0 179 0 0 179 0 0 179 0 0
179 0 0 179 0 0 180 0 0 180 0 0 180 0 0 180 0 0 180 0 0 180 0 0 180 0
0 180 0 0 180 0 143 180 0 143 180 0 143 180 0 143 180 0 142 180 0 142
180 0 142 180 0 142 180 0 142 180 0 142 180 0 142 180 0 141 180 0 141
180 0 141 181 0 141 181 0 141 181 0 141 181 0 140 181 0
191 157 0 190 157 0 190 157 0 190 157 0 190 157 0 189 157 0 189 157 0
189 158 0 189 158 0 189 158 0 188 158 0 188 158 0 188 158 0 188 158 0
187 158 0 187 159 0 187 159 0 187 159 0 186 159 0 186 159 0 186 159 0
186 159 0 185 159 0 185 160 0 185 160 0 185 160 0 185 160 0 184 160 0
184 160 0 0 160 0 0 160 0 0 161 0 0 161 0 0 161 0 0 161 0 0 161 0 0
161 0 0 161 0 0 161 0 0 162 0 0 162 0 0 162 0 0 162 0 0 162 0 0 162 0
0 162 0 0 162 0 0 163 0 0 163 0 179 163 0 179 163 0 179 163 0 179 163
0 178 163 0 178 163 0 178 164 0 178 164 0 177 164 0 177 164 0 177 164
0 177 164 0 177 164 0 176 164 0 176 164 0 0 165 0 0 165 0 0 165 0 0
165 0 0 165 0 0 165 0 0 165 0 0 165 0 0 166 0 0 166 0 0 166 0 0 166 0
0 166 0 0 166 0 0 166 0 0 166 0 0 166 0 0 167 0 0 167 0 0 167 0 0 167
0 0 167 0 0 167 0 0 167 0 0 167 0 0 168 0 0 168 0 0 168 0 0 168 0 0
168 0 0 168 0 0 168 0 0 168 0 0 168 0 0 169 0 168 169 0 168 169 0 168
169 0 168 169 0 168 169 0 167 169 0 167 169 0 167 169 0 167 170 0 167
170 0 166 170 0 166 170 0 166 170 0 166 170 0 166 170 0 165 170 0 165
170 0 165 170 0 165 171 0 165 171 0 164 171 0 164 171 0 164 171 0 164
171 0 164 171 0 163 171 0 163 171 0 163 172 0 163 172 0 163 172 0 162
172 0 162 172 0 162 172 0 162 172 0 162 172 0 0 172 0 0 172 0 161 173
0 161 173 0 161 173 0 160 173 0 160 173 0 160 173 0 160 173 0 160 173
0 159 173 0 159 173 0 159 173 0 159 174 0 159 174 0 159 174 0 158 174
0 158 174 0 158 174 0 158 174 0 158 174 0 157 174 0 157 174 0 157 175
0 157 175 0 157 175 0 156 175 0 156 175 0 156 175 0 156 175 0 156 175
0 156 175 0 155 175 0 155 175 0 155 175 0 0 176 0 0 176 0 0 176 0 0
176 0 0 176 0 0 176 0 0 176 0 0 176 0 0 176 0 0 176 0 0 176 0 0 176 0
0 177 0 0 177 0 0 177 0 0 177 0 0 177 0 0 177 0 0 177 0 0 177 0 0 177
0 0 177 0 0 177 0 0 177 0 0 177 0 0 178 0 0 178 0 0 178 0 0 178 0 0
178 0 0 178 0 0 178 0 0 178 0 0 178 0 149 178 0 149 178 0 149 178 0
148 178 0 148 178 0 148 179 0 148 179 0 148 179 0 148 179 0 147 179 0
147 179 0 147 179 0 147 179 0 147 179 0 147 179 0 146 179 0 146 179 0
146 179 0 146 179 0 146 179 0 0 179 0 0 179 0 0 180 0 0 180 0 0 180 0
0 180 0 0 180 0 0 180 0 0 180 0 0 180 0 0 180 0 0 180 0 0 180 0 0 180
0 0 180 0 143 180 0 143 180 0 143 180 0 143 180 0 143 180 0 142 180 0
142 180 0 142 180 0 142 181 0 142 181 0 142 181 0 141 181 0 141 181 0
141 181 0 141 181 0 141 181 0 141 181 0 141 181 0
191 157 0 190 157 0 190 157 0 190 157 0 190 157 0 189 158 0 189 158 0
189 158 0 189 158 0 188 158 0 188 158 0 188 158 0 188 158 0 188 159 0
187 159 0 187 159 0 187 159 0 187 159 0 186 159 0 186 159 0 186 159 0
186 160 0 185 160 0 185 160 0 185 160 0 185 160 0 184 160 0 184 160 0
0 160 0 0 161 0 0 161 0 0 161 0 0 161 0 0 161 0 0 161 0 0 161 0 0 161
0 0 162 0 0 162 0 0 162 0 0 162 0 0 162 0 0 162 0 0 162 0 0 162 0 0
163 0 0 163 0 0 163 0 0 163 0 0 163 0 0 163 0 179 163 0 179 163 0 178
164 0 178 164 0 178 164 0 178 164 0 177 164 0 177 164 0 177 164 0 177
164 0 177 164 0 176 165 0 0 165 0 0 165 0 0 165 0 0 165 0 0 165 0 0
165 0 0 165 0 0 166 0 0 166 0 0 166 0 0 166 0 0 166 0 0 166 0 0 166 0
0 166 0 0 166 0 0 167 0 0 167 0 0 167 0 0 167 0 0 167 0 0 167 0 0 167
0 0 167 0 0 168 0 0 168 0 0 168 0 0 168 0 0 168 0 0 168 0 0 168 0 0
168 0 0 168 0 0 169 0 0 169 0 169 169 0 168 169 0 168 169 0 168 169 0
168 169 0 168 169 0 167 169 0 167 170 0 167 170 0 167 170 0 167 170 0
166 170 0 166 170 0 166 170 0 166 170 0 166 170 0 165 170 0 165 171 0
165 171 0 165 171 0 165 171 0 164 171 0 164 171 0 164 171 0 164 171 0
164 171 0 163 172 0 163 172 0 163 172 0 163 172 0 163 172 0 162 172 0
162 172 0 162 172 0 162 172 0 0 172 0 0 173 0 0 173 0 0 173 0 0 173 0
0 173 0 160 173 0 160 173 0 160 173 0 160 173 0 160 173 0 160 174 0
159 174 0 159 174 0 159 174 0 159 174 0 159 174 0 158 174 0 158 174 0
158 174 0 158 174 0 158 174 0 157 175 0 157 175 0 157 175 0 157 175 0
157 175 0 157 175 0 156 175 0 156 175 0 156 175 0 156 175 0 156 175 0
155 176 0 155 176 0 0 176 0 0 176 0 0 176 0 0 176 0 0 176 0 0 176 0 0
176 0 0 176 0 0 176 0 0 176 0 0 177 0 0 177 0 0 177 0 0 177 0 0 177 0
0 177 0 0 177 0 0 177 0 0 177 0 0 177 0 0 177 0 0 177 0 0 177 0 0 178
0 0 178 0 0 178 0 0 178 0 0 178 0 0 178 0 0 178 0 0 178 0 0 178 0 0
178 0 0 178 0 0 178 0 149 178 0 149 178 0 149 179 0 148 179 0 148 179
0 148 179 0 148 179 0 148 179 0 148 179 0 147 179 0 147 179 0 147 179
0 147 179 0 147 179 0 147 179 0 146 179 0 146 179 0 146 179 0 146 180
0 146 180 0 146 180 0 146 180 0 145 180 0 0 180 0 0 180 0 0 180 0 0
180 0 0 180 0 0 180 0 0 180 0 0 180 0 0 180 0 0 180 0 0 180 0 0 180 0
143 180 0 143 180 0 143 181 0 143 181 0 143 181 0 143 181 0 142 181 0
142 181 0 142 181 0 142 181 0 142 181 0 142 181 0 141 181 0 141 181 0
141 181 0 141 181 0 141 181 0 141 181 0
191 157 0 190 157 0 190 157 0 190 158 0 190 158 0 189 158 0 189 158 0
189 158 0 189 158 0 188 158 0 188 158 0 188 159 0 188 159 0 187 159 0
187 159 0 187 159 0 187 159 0 187 159 0 186 159 0 186 160 0 186 160 0
186 160 0 185 160 0 185 160 0 185 160 0 185 160 0 184 160 0 0 161 0 0
161 0 0 161 0 0 161 0 0 161 0 0 161 0 0 161 0 0 161 0 0 162 0 0 162 0
0 162 0 0 162 0 0 162 0 0 162 0 0 162 0 0 162 0 0 163 0 0 163 0 0 163
0 0 163 0 0 163 0 0 163 0 0 163 0 0 163 0 0 163 0 0 164 0 0 164 0 178
164 0 178 164 0 178 164 0 177 164 0 177 164 0 177 164 0 177 165 0 177
165 0 0 165 0 0 165 0 0 165 0 0 165 0 0 165 0 0 165 0 0 166 0 0 166 0
0 166 0 0 166 0 0 166 0 0 166 0 0 166 0 0 166 0 0 166 0 0 167 0 0 167
0 0 167 0 0 167 0 0 167 0 0 167 0 0 167 0 0 167 0 0 167 0 0 168 0 0
168 0 0 168 0 0 168 0 0 168 0 0 168 0 0 168 0 0 168 0 0 169 0 0 169 0
0 169 0 0 169 0 169 169 0 168 169 0 168 169 0 168 169 0 168 169 0 168
170 0 167 170 0 167 170 0 167 170 0 167 170 0 167 170 0 166 170 0 166
170 0 166 170 0 166 170 0 166 171 0 165 171 0 165 171 0 165 171 0 165
171 0 165 171 0 164 171 0 164 171 0 164 171 0 164 172 0 164 172 0 163
172 0 163 172 0 163 172 0 163 172 0 163 172 0 162 172 0 162 172 0 162
172 0 162 173 0 0 173 0 0 173 0 0 173 0 0 173 0 0 173 0 0 173 0 0 173
0 0 173 0 0 173 0 160 174 0 160 174 0 160 174 0 159 174 0 159 174 0
159 174 0 159 174 0 159 174 0 158 174 0 158 174 0 158 174 0 158 175 0
158 175 0 158 175 0 157 175 0 157 175 0 157 175 0 157 175 0 157 175 0
156 175 0 156 175 0 156 175 0 156 176 0 156 176 0 156 176 0 155 176 0
0 176 0 0 176 0 0 176 0 0 176 0 0 176 0 0 176 0 0 176 0 0 177 0 0 177
0 0 177 0 0 177 0 0 177 0 0 177 0 0 177 0 0 177 0 0 177 0 0 177 0 0
177 0 0 177 0 0 177 0 0 178 0 0 178 0 0 178 0 0 178 0 0 178 0 0 178 0
0 178 0 0 178 0 0 178 0 0 178 0 0 178 0 0 178 0 0 178 0 0 178 0 0 179
0 149 179 0 149 179 0 149 179 0 149 179 0 148 179 0 148 179 0 148 179
0 148 179 0 148 179 0 148 179 0 147 179 0 147 179 0 147 179 0 147 179
0 147 180 0 147 180 0 146 180 0 146 180 0 146 180 0 146 180 0 146 180
0 146 180 0 145 180 0 145 180 0 145 180 0 145 180 0 145 180 0 0 180 0
0 180 0 0 180 0 0 180 0 0 180 0 0 180 0 0 181 0 0 181 0 0 181 0 143
181 0 143 181 0 143 181 0 143 181 0 143 181 0 142 181 0 142 181 0 142
181 0 142 181 0 142 181 0 142 181 0 142 181 0 141 181 0 141 181 0 141
181 0 141 181 0 141 181 0
190 157 0 190 158 0 190 158 0 190 158 0 190 158 0 189 158 0 189 158 0
189 158 0 189 158 0 188 159 0 188 159 0 188 159 0 188 159 0 187 159 0
187 159 0 187 159 0 187 159 0 186 160 0 186 160 0 186 160 0 186 160 0
186 160 0 185 160 0 185 160 0 185 160 0 185 161 0 0 161 0 0 161 0 0
161 0 0 161 0 0 161 0 0 161 0 0 161 0 0 162 0 0 162 0 0 162 0 0 162 0
0 162 0 0 162 0 0 162 0 0 162 0 0 163 0 0 163 0 0 163 0 0 163 0 0 163
0 0 163 0 0 163 0 0 163 0 0 163 0 0 164 0 0 164 0 0 164 0 0 164 0 0
164 0 0 164 0 178 164 0 177 164 0 177 165 0 177 165 0 177 165 0 177
165 0 0 165 0 0 165 0 0 165 0 0 165 0 0 166 0 0 166 0 0 166 0 0 166 0
0 166 0 0 166 0 0 166 0 0 166 0 0 166 0 0 167 0 0 167 0 0 167 0 0 167
0 0 167 0 0 167 0 0 167 0 0 167 0 0 167 0 0 168 0 0 168 0 0 168 0 0
168 0 0 168 0 0 168 0 0 168 0 0 168 0 0 169 0 0 169 0 0 169 0 0 169 0
0 169 0 169 169 0 169 169 0 169 169 0 168 169 0 168 170 0 168 170 0
168 170 0 167 170 0 167 170 0 167 170 0 167 170 0 167 170 0 166 170 0
166 170 0 166 171 0 166 171 0 166 171 0 165 171 0 165 171 0 165 171 0
165 171 0 165 171 0 164 171 0 164 172 0 164 172 0 164 172 0 164 172 0
164 172 0 163 172 0 163 172 0 163 172 0 163 172 0 163 172 0 162 173 0
162 173 0 0 173 0 0 173 0 0 173 0 0 173 0 0 173 0 0 173 0 0 173 0 0
173 0 0 174 0 0 174 0 0 174 0 0 174 0 160 174 0 159 174 0 159 174 0
159 174 0 159 174 0 159 174 0 159 175 0 158 175 0 158 175 0 158 175 0
158 175 0 158 175 0 157 175 0 157 175 0 157 175 0 157 175 0 157 175 0
157 176 0 156 176 0 156 176 0 156 176 0 156 176 0 156 176 0 155 176 0
0 176 0 0 176 0 0 176 0 0 176 0 0 176 0 0 177 0 0 177 0 0 177 0 0 177
0 0 177 0 0 177 0 0 177 0 0 177 0 0 177 0 0 177 0 0 177 0 0 177 0 0
178 0 0 178 0 0 178 0 0 178 0 0 178 0 0 178 0 0 178 0 0 178 0 0 178 0
0 178 0 0 178 0 0 178 0 0 178 0 0 178 0 0 179 0 0 179 0 0 179 0 0 179
0 149 179 0 149 179 0 149 179 0 149 179 0 149 179 0 148 179 0 148 179
0 148 179 0 148 179 0 148 179 0 148 179 0 147 180 0 147 180 0 147 180
0 147 180 0 147 180 0 147 180 0 146 180 0 146 180 0 146 180 0 146 180
0 146 180 0 146 180 0 145 180 0 145 180 0 145 180 0 145 180 0 145 180
0 145 181 0 144 181 0 0 181 0 0 181 0 0 181 0 0 181 0 0 181 0 0 181 0
143 181 0 143 181 0 143 181 0 143 181 0 143 181 0 143 181 0 142 181 0
142 181 0 142 181 0 142 181 0 142 181 0 142 181 0 142 181 0 141 181 0
141 182 0 141 182 0 141 182 0
190 158 0 190 158 0 190 158 0 190 158 0 189 158 0 189 158 0 189 158 0
189 159 0 189 159 0 188 159 0 188 159 0 188 159 0 188 159 0 187 159 0
187 159 0 187 160 0 187 160 0 186 160 0 186 160 0 186 160 0 186 160 0
186 160 0 185 160 0 185 161 0 185 161 0 0 161 0 0 161 0 0 161 0 0 161
0 0 161 0 0 161 0 0 162 0 0 162 0 0 162 0 0 162 0 0 162 0 0 162 0 0
162 0 0 162 0 0 162 0 0 163 0 0 163 0 0 163 0 0 163 0 0 163 0 0 163 0
0 163 0 0 163 0 0 164 0 0 164 0 0 164 0 0 164 0 0 164 0 0 164 0 0 164
0 0 164 0 0 165 0 0 165 0 177 165 0 177 165 0 177 165 0 0 165 0 0 165
0 0 165 0 0 165 0 0 166 0 0 166 0 0 166 0 0 166 0 0 166 0 0 166 0 0
166 0 0 166 0 0 167 0 0 167 0 0 167 0 0 167 0 0 167 0 0 167 0 0 167 0
0 167 0 0 167 0 0 168 0 0 168 0 0 168 0 0 168 0 0 168 0 0 168 0 0 168
0 0 168 0 0 168 0 0 169 0 0 169 0 0 169 0 0 169 0 0 169 0 169 169 0
169 169 0 169 169 0 169 169 0 168 170 0 168 170 0 168 170 0 168 170 0
168 170 0 167 170 0 167 170 0 167 170 0 167 170 0 167 171 0 166 171 0
166 171 0 166 171 0 166 171 0 166 171 0 165 171 0 165 171 0 165 171 0
165 172 0 165 172 0 164 172 0 164 172 0 164 172 0 164 172 0 164 172 0
163 172 0 163 172 0 163 172 0 163 173 0 163 173 0 162 173 0 162 173 0
0 173 0 0 173 0 0 173 0 0 173 0 0 173 0 0 173 0 0 174 0 0 174 0 0 174
0 0 174 0 0 174 0 0 174 0 0 174 0 0 174 0 0 174 0 159 174 0 159 175 0
159 175 0 159 175 0 158 175 0 158 175 0 158 175 0 158 175 0 158 175 0
157 175 0 157 175 0 157 175 0 157 176 0 157 176 0 157 176 0 156 176 0
156 176 0 156 176 0 156 176 0 156 176 0 156 176 0 0 176 0 0 176 0 0
177 0 0 177 0 0 177 0 0 177 0 0 177 0 0 177 0 0 177 0 0 177 0 0 177 0
0 177 0 0 177 0 0 177 0 0 177 0 0 178 0 0 178 0 0 178 0 0 178 0 0 178
0 0 178 0 0 178 0 0 178 0 0 178 0 0 178 0 0 178 0 0 178 0 0 178 0 0
179 0 0 179 0 0 179 0 0 179 0 0 179 0 0 179 0 0 179 0 149 179 0 149
179 0 149 179 0 149 179 0 149 179 0 148 179 0 148 179 0 148 180 0 148
180 0 148 180 0 148 180 0 147 180 0 147 180 0 147 180 0 147 180 0 147
180 0 147 180 0 146 180 0 146 180 0 146 180 0 146 180 0 146 180 0 146
180 0 146 180 0 145 181 0 145 181 0 145 181 0 145 181 0 145 181 0 145
181 0 144 181 0 144 181 0 144 181 0 0 181 0 0 181 0 0 181 0 143 181 0
143 181 0 143 181 0 143 181 0 143 181 0 143 181 0 143 181 0 142 181 0
142 181 0 142 182 0 142 182 0 142 182 0 142 182 0 142 182 0 141 182 0
141 182 0 141 182 0
190 158 0 190 158 0 190 158 0 190 158 0 189 158 0 189 159 0 189 159 0
189 159 0 188 159 0 188 159 0 188 159 0 188 159 0 188 159 0 187 160 0
187 160 0 187 160 0 187 160 0 186 160 0 186 160 0 186 160 0 186 160 0
185 160 0 185 161 0 185 161 0 0 161 0 0 161 0 0 161 0 0 161 0 0 161 0
0 161 0 0 162 0 0 162 0 0 162 0 0 162 0 0 162 0 0 162 0 0 162 0 0 162
0 0 163 0 0 163 0 0 163 0 0 163 0 0 163 0 0 163 0 0 163 0 0 163 0 0
164 0 0 164 0 0 164 0 0 164 0 0 164 0 0 164 0 0 164 0 0 164 0 0 165 0
0 165 0 0 165 0 0 165 0 0 165 0 0 165 0 177 165 0 0 165 0 0 165 0 0
166 0 0 166 0 0 166 0 0 166 0 0 166 0 0 166 0 0 166 0 0 166 0 0 167 0
0 167 0 0 167 0 0 167 0 0 167 0 0 167 0 0 167 0 0 167 0 0 167 0 0 168
0 0 168 0 0 168 0 0 168 0 0 168 0 0 168 0 0 168 0 0 168 0 0 168 0 0
169 0 0 169 0 0 169 0 0 169 0 0 169 0 0 169 0 0 169 0 169 169 0 169
169 0 169 170 0 169 170 0 168 170 0 168 170 0 168 170 0 168 170 0 168
170 0 167 170 0 167 170 0 167 171 0 167 171 0 167 171 0 166 171 0 166
171 0 166 171 0 166 171 0 166 171 0 165 171 0 165 172 0 165 172 0 165
172 0 165 172 0 164 172 0 164 172 0 164 172 0 164 172 0 164 172 0 163
172 0 163 173 0 163 173 0 163 173 0 163 173 0 162 173 0 162 173 0 0
173 0 0 173 0 0 173 0 0 173 0 0 174 0 0 174 0 0 174 0 0 174 0 0 174 0
0 174 0 0 174 0 0 174 0 0 174 0 0 174 0 0 175 0 0 175 0 0 175 0 0 175
0 159 175 0 158 175 0 158 175 0 158 175 0 158 175 0 158 175 0 158 175
0 157 176 0 157 176 0 157 176 0 157 176 0 157 176 0 156 176 0 156 176
0 156 176 0 156 176 0 156 176 0 0 176 0 0 177 0 0 177 0 0 177 0 0 177
0 0 177 0 0 177 0 0 177 0 0 177 0 0 177 0 0 177 0 0 177 0 0 177 0 0
178 0 0 178 0 0 178 0 0 178 0 0 178 0 0 178 0 0 178 0 0 178 0 0 178 0
0 178 0 0 178 0 0 178 0 0 178 0 0 179 0 0 179 0 0 179 0 0 179 0 0 179
0 0 179 0 0 179 0 0 179 0 0 179 0 0 179 0 149 179 0 149 179 0 149 179
0 149 179 0 149 180 0 149 180 0 148 180 0 148 180 0 148 180 0 148 180
0 148 180 0 148 180 0 147 180 0 147 180 0 147 180 0 147 180 0 147 180
0 147 180 0 146 180 0 146 180 0 146 181 0 146 181 0 146 181 0 146 181
0 145 181 0 145 181 0 145 181 0 145 181 0 145 181 0 145 181 0 145 181
0 144 181 0 144 181 0 144 181 0 144 181 0 144 181 0 144 181 0 143 181
0 143 181 0 143 181 0 143 182 0 143 182 0 143 182 0 143 182 0 142 182
0 142 182 0 142 182 0 142 182 0 142 182 0 142 182 0 141 182 0 141 182
0 141 182 0
190 158 0 190 158 0 190 158 0 190 158 0 189 159 0 189 159 0 189 159 0
189 159 0 188 159 0 188 159 0 188 159 0 188 159 0 188 160 0 187 160 0
187 160 0 187 160 0 187 160 0 186 160 0 186 160 0 186 160 0 186 161 0
185 161 0 185 161 0 0 161 0 0 161 0 0 161 0 0 161 0 0 161 0 0 162 0 0
162 0 0 162 0 0 162 0 0 162 0 0 162 0 0 162 0 0 162 0 0 163 0 0 163 0
0 163 0 0 163 0 0 163 0 0 163 0 0 163 0 0 163 0 0 164 0 0 164 0 0 164
0 0 164 0 0 164 0 0 164 0 0 164 0 0 164 0 0 164 0 0 165 0 0 165 0 0
165 0 0 165 0 0 165 0 0 165 0 177 165 0 177 165 0 177 166 0 176 166 0
0 166 0 0 166 0 0 166 0 0 166 0 0 166 0 0 166 0 0 167 0 0 167 0 0 167
0 0 167 0 0 167 0 0 167 0 0 167 0 0 167 0 0 167 0 0 168 0 0 168 0 0
168 0 0 168 0 0 168 0 0 168 0 0 168 0 0 168 0 0 168 0 0 169 0 0 169 0
0 169 0 0 169 0 0 169 0 0 169 0 0 169 0 0 169 0 169 169 0 169 170 0
169 170 0 169 170 0 169 170 0 168 170 0 168 170 0 168 170 0 168 170 0
168 170 0 167 171 0 167 171 0 167 171 0 167 171 0 167 171 0 166 171 0
166 171 0 166 171 0 166 171 0 166 172 0 165 172 0 165 172 0 165 172 0
165 172 0 165 172 0 164 172 0 164 172 0 164 172 0 164 172 0 164 173 0
163 173 0 163 173 0 163 173 0 163 173 0 163 173 0 162 173 0 0 173 0 0
173 0 0 173 0 0 174 0 0 174 0 0 174 0 0 174 0 0 174 0 0 174 0 0 174 0
0 174 0 0 174 0 0 174 0 0 175 0 0 175 0 0 175 0 0 175 0 0 175 0 0 175
0 0 175 0 0 175 0 0 175 0 158 175 0 158 176 0 158 176 0 158 176 0 157
176 0 157 176 0 157 176 0 157 176 0 157 176 0 157 176 0 156 176 0 156
176 0 156 176 0 156 177 0 0 177 0 0 177 0 0 177 0 0 177 0 0 177 0 0
177 0 0 177 0 0 177 0 0 177 0 0 177 0 0 178 0 0 178 0 0 178 0 0 178 0
0 178 0 0 178 0 0 178 0 0 178 0 0 178 0 0 178 0 0 178 0 0 178 0 0 178
0 0 179 0 0 179 0 0 179 0 0 179 0 0 179 0 0 179 0 0 179 0 0 179 0 0
179 0 0 179 0 0 179 0 0 179 0 0 179 0 149 179 0 149 180 0 149 180 0
149 180 0 149 180 0 149 180 0 148 180 0 148 180 0 148 180 0 148 180 0
148 180 0 148 180 0 148 180 0 147 180 0 147 180 0 147 180 0 147 180 0
147 181 0 147 181 0 146 181 0 146 181 0 146 181 0 146 181 0 146 181 0
146 181 0 145 181 0 145 181 0 145 181 0 145 181 0 145 181 0 145 181 0
145 181 0 144 181 0 144 181 0 144 181 0 144 182 0 0 182 0 0 182 0 0
182 0 0 182 0 143 182 0 143 182 0 143 182 0 143 182 0 143 182 0 142
182 0 142 182 0 142 182 0 142 182 0 142 182 0 142 182 0 141 182 0 141
182 0
190 158 0 190 158 0 190 159 0 190 159 0 189 159 0 189 159 0 189 159 0
189 159 0 188 159 0 188 159 0 188 160 0 188 160 0 187 160 0 187 160 0
187 160 0 187 160 0 187 160 0 186 160 0 186 161 0 186 161 0 186 161 0
185 161 0 185 161 0 0 161 0 0 161 0 0 161 0 0 162 0 0 162 0 0 162 0 0
162 0 0 162 0 0 162 0 0 162 0 0 162 0 0 163 0 0 163 0 0 163 0 0 163 0
0 163 0 0 163 0 0 163 0 0 163 0 0 164 0 0 164 0 0 164 0 0 164 0 0 164
0 0 164 0 0 164 0 0 164 0 0 164 0 0 165 0 0 165 0 0 165 0 0 165 0 0
165 0 0 165 0 0 165 0 0 165 0 177 166 0 177 166 0 177 166 0 176 166 0
176 166 0 176 166 0 0 166 0 0 166 0 0 166 0 0 167 0 0 167 0 0 167 0 0
167 0 0 167 0 0 167 0 0 167 0 0 167 0 0 168 0 0 168 0 0 168 0 0 168 0
0 168 0 0 168 0 0 168 0 0 168 0 0 168 0 0 169 0 0 169 0 0 169 0 0 169
0 0 169 0 0 169 0 0 169 0 0 169 0 0 169 0 0 170 0 169 170 0 169 170 0
169 170 0 169 170 0 169 170 0 168 170 0 168 170 0 168 170 0 168 171 0
168 171 0 167 171 0 167 171 0 167 171 0 167 171 0 167 171 0 166 171 0
166 171 0 166 172 0 166 172 0 166 172 0 165 172 0 165 172 0 165 172 0
165 172 0 165 172 0 164 172 0 164 172 0 164 173 0 164 173 0 164 173 0
164 173 0 163 173 0 163 173 0 163 173 0 163 173 0 163 173 0 0 173 0 0
174 0 0 174 0 0 174 0 0 174 0 0 174 0 0 174 0 0 174 0 0 174 0 0 174 0
0 174 0 0 175 0 0 175 0 0 175 0 0 175 0 0 175 0 0 175 0 0 175 0 0 175
0 0 175 0 0 175 0 0 176 0 0 176 0 0 176 0 0 176 0 158 176 0 158 176 0
157 176 0 157 176 0 157 176 0 157 176 0 157 176 0 156 177 0 156 177 0
156 177 0 156 177 0 0 177 0 0 177 0 0 177 0 0 177 0 0 177 0 0 177 0 0
177 0 0 177 0 0 178 0 0 178 0 0 178 0 0 178 0 0 178 0 0 178 0 0 178 0
0 178 0 0 178 0 0 178 0 0 178 0 0 178 0 0 179 0 0 179 0 0 179 0 0 179
0 0 179 0 0 179 0 0 179 0 0 179 0 0 179 0 0 179 0 0 179 0 0 179 0 0
179 0 0 179 0 0 180 0 0 180 0 150 180 0 149 180 0 149 180 0 149 180 0
149 180 0 149 180 0 149 180 0 148 180 0 148 180 0 148 180 0 148 180 0
148 180 0 148 180 0 147 181 0 147 181 0 147 181 0 147 181 0 147 181 0
147 181 0 146 181 0 146 181 0 146 181 0 146 181 0 146 181 0 146 181 0
146 181 0 145 181 0 145 181 0 145 181 0 145 181 0 145 181 0 145 182 0
144 182 0 144 182 0 144 182 0 144 182 0 0 182 0 0 182 0 0 182 0 0 182
0 0 182 0 0 182 0 0 182 0 143 182 0 143 182 0 142 182 0 142 182 0 142
182 0 142 182 0 142 182 0 142 182 0 142 182 0 141 182 0
190 159 0 190 159 0 190 159 0 189 159 0 189 159 0 189 159 0 189 159 0
189 159 0 188 160 0 188 160 0 188 160 0 188 160 0 187 160 0 187 160 0
187 160 0 187 160 0 187 161 0 186 161 0 186 161 0 186 161 0 186 161 0
185 161 0 0 161 0 0 161 0 0 162 0 0 162 0 0 162 0 0 162 0 0 162 0 0
162 0 0 162 0 0 162 0 0 163 0 0 163 0 0 163 0 0 163 0 0 163 0 0 163 0
0 163 0 0 163 0 0 163 0 0 164 0 0 164 0 0 164 0 0 164 0 0 164 0 0 164
0 0 164 0 0 164 0 0 165 0 0 165 0 0 165 0 0 165 0 0 165 0 0 165 0 0
165 0 0 165 0 0 166 0 177 166 0 177 166 0 177 166 0 177 166 0 176 166
0 176 166 0 176 166 0 176 166 0 175 167 0 175 167 0 0 167 0 0 167 0 0
167 0 0 167 0 0 167 0 0 167 0 0 168 0 0 168 0 0 168 0 0 168 0 0 168 0
0 168 0 0 168 0 0 168 0 0 168 0 0 169 0 0 169 0 0 169 0 0 169 0 0 169
0 0 169 0 0 169 0 0 169 0 0 169 0 0 170 0 0 170 0 170 170 0 169 170 0
169 170 0 169 170 0 169 170 0 169 170 0 168 170 0 168 171 0 168 171 0
168 171 0 168 171 0 167 171 0 167 171 0 167 171 0 167 171 0 167 171 0
166 172 0 166 172 0 166 172 0 166 172 0 166 172 0 165 172 0 165 172 0
165 172 0 165 172 0 165 172 0 165 173 0 164 173 0 164 173 0 164 173 0
164 173 0 164 173 0 163 173 0 163 173 0 163 173 0 163 173 0 0 174 0 0
174 0 0 174 0 0 174 0 0 174 0 0 174 0 0 174 0 0 174 0 0 174 0 0 174 0
0 175 0 0 175 0 0 175 0 0 175 0 0 175 0 0 175 0 0 175 0 0 175 0 0 175
0 0 175 0 0 176 0 0 176 0 0 176 0 0 176 0 0 176 0 0 176 0 0 176 0 0
176 0 157 176 0 157 176 0 157 176 0 157 177 0 157 177 0 157 177 0 156
177 0 156 177 0 156 177 0 0 177 0 0 177 0 0 177 0 0 177 0 0 177 0 0
177 0 0 178 0 0 178 0 0 178 0 0 178 0 0 178 0 0 178 0 0 178 0 0 178 0
0 178 0 0 178 0 0 178 0 0 178 0 0 179 0 0 179 0 0 179 0 0 179 0 0 179
0 0 179 0 0 179 0 0 179 0 0 179 0 0 179 0 0 179 0 0 179 0 0 179 0 0
180 0 0 180 0 0 180 0 0 180 0 0 180 0 150 180 0 150 180 0 149 180 0
149 180 0 149 180 0 149 180 0 149 180 0 149 180 0 148 180 0 148 180 0
148 181 0 148 181 0 148 181 0 148 181 0 147 181 0 147 181 0 147 181 0
147 181 0 147 181 0 147 181 0 146 181 0 146 181 0 146 181 0 146 181 0
146 181 0 146 181 0 145 181 0 145 182 0 145 182 0 145 182 0 145 182 0
145 182 0 145 182 0 144 182 0 144 182 0 144 182 0 0 182 0 0 182 0 0
182 0 0 182 0 0 182 0 0 182 0 0 182 0 0 182 0 0 182 0 0 182 0 142 182
0 142 183 0 142 183 0 142 183 0 142 183 0 142 183 0 142 183 0
190 159 0 190 159 0 190 159 0 189 159 0 189 159 0 189 159 0 189 160 0
189 160 0 188 160 0 188 160 0 188 160 0 188 160 0 187 160 0 187 160 0
187 161 0 187 161 0 186 161 0 186 161 0 186 161 0 186 161 0 186 161 0
0 161 0 0 161 0 0 162 0 0 162 0 0 162 0 0 162 0 0 162 0 0 162 0 0 162
0 0 162 0 0 163 0 0 163 0 0 163 0 0 163 0 0 163 0 0 163 0 0 163 0 0
163 0 0 164 0 0 164 0 0 164 0 0 164 0 0 164 0 0 164 0 0 164 0 0 164 0
0 165 0 0 165 0 0 165 0 0 165 0 0 165 0 0 165 0 0 165 0 0 165 0 0 165
0 0 166 0 177 166 0 177 166 0 177 166 0 177 166 0 177 166 0 176 166 0
176 166 0 176 167 0 176 167 0 175 167 0 175 167 0 175 167 0 175 167 0
0 167 0 0 167 0 0 167 0 0 168 0 0 168 0 0 168 0 0 168 0 0 168 0 0 168
0 0 168 0 0 168 0 0 169 0 0 169 0 0 169 0 0 169 0 0 169 0 0 169 0 0
169 0 0 169 0 0 169 0 0 170 0 0 170 0 0 170 0 0 170 0 170 170 0 169
170 0 169 170 0 169 170 0 169 170 0 169 171 0 168 171 0 168 171 0 168
171 0 168 171 0 168 171 0 167 171 0 167 171 0 167 171 0 167 172 0 167
172 0 166 172 0 166 172 0 166 172 0 166 172 0 166 172 0 166 172 0 165
172 0 165 172 0 165 173 0 165 173 0 165 173 0 164 173 0 164 173 0 164
173 0 164 173 0 164 173 0 163 173 0 163 173 0 163 174 0 163 174 0 0
174 0 0 174 0 0 174 0 0 174 0 0 174 0 0 174 0 0 174 0 0 174 0 0 175 0
0 175 0 0 175 0 0 175 0 0 175 0 0 175 0 0 175 0 0 175 0 0 175 0 0 175
0 0 176 0 0 176 0 0 176 0 0 176 0 0 176 0 0 176 0 0 176 0 0 176 0 0
176 0 0 176 0 0 176 0 0 177 0 0 177 0 157 177 0 157 177 0 157 177 0
156 177 0 156 177 0 0 177 0 0 177 0 0 177 0 0 177 0 0 178 0 0 178 0 0
178 0 0 178 0 0 178 0 0 178 0 0 178 0 0 178 0 0 178 0 0 178 0 0 178 0
0 178 0 0 179 0 0 179 0 0 179 0 0 179 0 0 179 0 0 179 0 0 179 0 0 179
0 0 179 0 0 179 0 0 179 0 0 179 0 0 179 0 0 180 0 0 180 0 0 180 0 0
180 0 0 180 0 0 180 0 0 180 0 0 180 0 150 180 0 150 180 0 149 180 0
149 180 0 149 180 0 149 180 0 149 180 0 149 181 0 148 181 0 148 181 0
148 181 0 148 181 0 148 181 0 148 181 0 147 181 0 147 181 0 147 181 0
147 181 0 147 181 0 147 181 0 147 181 0 146 181 0 146 181 0 146 182 0
146 182 0 146 182 0 146 182 0 145 182 0 145 182 0 145 182 0 145 182 0
145 182 0 145 182 0 145 182 0 144 182 0 144 182 0 0 182 0 0 182 0 0
182 0 0 182 0 0 182 0 0 182 0 0 183 0 0 183 0 0 183 0 0 183 0 0 183 0
0 183 0 0 183 0 142 183 0 142 183 0 142 183 0 142 183 0
190 159 0 190 159 0 190 159 0 189 159 0 189 159 0 189 160 0 189 160 0
188 160 0 188 160 0 188 160 0 188 160 0 188 160 0 187 160 0 187 161 0
187 161 0 187 161 0 186 161 0 186 161 0 186 161 0 186 161 0 0 161 0 0
162 0 0 162 0 0 162 0 0 162 0 0 162 0 0 162 0 0 162 0 0 162 0 0 163 0
0 163 0 0 163 0 0 163 0 0 163 0 0 163 0 0 163 0 0 163 0 0 164 0 0 164
0 0 164 0 0 164 0 0 164 0 0 164 0 0 164 0 0 164 0 0 165 0 0 165 0 0
165 0 0 165 0 0 165 0 0 165 0 0 165 0 0 165 0 0 165 0 0 166 0 0 166 0
178 166 0 177 166 0 177 166 0 177 166 0 177 166 0 177 166 0 176 167 0
176 167 0 176 167 0 176 167 0 175 167 0 175 167 0 175 167 0 175 167 0
175 167 0 174 168 0 0 168 0 0 168 0 0 168 0 0 168 0 0 168 0 0 168 0 0
168 0 0 168 0 0 169 0 0 169 0 0 169 0 0 169 0 0 169 0 0 169 0 0 169 0
0 169 0 0 170 0 0 170 0 0 170 0 0 170 0 0 170 0 170 170 0 170 170 0
170 170 0 169 170 0 169 171 0 169 171 0 169 171 0 169 171 0 168 171 0
168 171 0 168 171 0 168 171 0 168 171 0 167 171 0 167 172 0 167 172 0
167 172 0 167 172 0 166 172 0 166 172 0 166 172 0 166 172 0 166 172 0
165 173 0 165 173 0 165 173 0 165 173 0 165 173 0 164 173 0 164 173 0
164 173 0 164 173 0 164 173 0 163 174 0 163 174 0 163 174 0 163 174 0
0 174 0 0 174 0 0 174 0 0 174 0 0 174 0 0 174 0 0 175 0 0 175 0 0 175
0 0 175 0 0 175 0 0 175 0 0 175 0 0 175 0 0 175 0 0 175 0 0 176 0 0
176 0 0 176 0 0 176 0 0 176 0 0 176 0 0 176 0 0 176 0 0 176 0 0 176 0
0 176 0 0 177 0 0 177 0 0 177 0 0 177 0 0 177 0 0 177 0 0 177 0 156
177 0 156 177 0 0 177 0 0 177 0 0 178 0 0 178 0 0 178 0 0 178 0 0 178
0 0 178 0 0 178 0 0 178 0 0 178 0 0 178 0 0 178 0 0 178 0 0 179 0 0
179 0 0 179 0 0 179 0 0 179 0 0 179 0 0 179 0 0 179 0 0 179 0 0 179 0
0 179 0 0 179 0 0 179 0 0 180 0 0 180 0 0 180 0 0 180 0 0 180 0 0 180
0 0 180 0 0 180 0 0 180 0 0 180 0 150 180 0 150 180 0 150 180 0 149
180 0 149 181 0 149 181 0 149 181 0 149 181 0 149 181 0 148 181 0 148
181 0 148 181 0 148 181 0 148 181 0 148 181 0 147 181 0 147 181 0 147
181 0 147 181 0 147 182 0 147 182 0 146 182 0 146 182 0 146 182 0 146
182 0 146 182 0 146 182 0 146 182 0 145 182 0 145 182 0 145 182 0 145
182 0 145 182 0 145 182 0 144 182 0 144 182 0 0 182 0 0 182 0 0 183 0
0 183 0 0 183 0 0 183 0 0 183 0 0 183 0 0 183 0 0 183 0 0 183 0 0 183
0 0 183 0 0 183 0 0 183 0 0 183 0 142 183 0
190 159 0 190 159 0 190 159 0 189 160 0 189 160 0 189 160 0 189 160 0
188 160 0 188 160 0 188 160 0 188 160 0 187 161 0 187 161 0 187 161 0
187 161 0 187 161 0 186 161 0 186 161 0 186 161 0 0 162 0 0 162 0 0
162 0 0 162 0 0 162 0 0 162 0 0 162 0 0 162 0 0 163 0 0 163 0 0 163 0
0 163 0 0 163 0 0 163 0 0 163 0 0 163 0 0 164 0 0 164 0 0 164 0 0 164
0 0 164 0 0 164 0 0 164 0 0 164 0 0 164 0 0 165 0 0 165 0 0 165 0 0
165 0 0 165 0 0 165 0 0 165 0 0 165 0 0 166 0 0 166 0 0 166 0 0 166 0
178 166 0 177 166 0 177 166 0 177 166 0 177 166 0 177 167 0 176 167 0
176 167 0 176 167 0 176 167 0 175 167 0 175 167 0 175 167 0 175 168 0
175 168 0 174 168 0 174 168 0 174 168 0 174 168 0 0 168 0 0 168 0 0
168 0 0 169 0 0 169 0 0 169 0 0 169 0 0 169 0 0 169 0 0 169 0 0 169 0
0 169 0 0 170 0 0 170 0 0 170 0 0 170 0 0 170 0 170 170 0 170 170 0
170 170 0 170 170 0 169 171 0 169 171 0 169 171 0 169 171 0 169 171 0
168 171 0 168 171 0 168 171 0 168 171 0 168 172 0 167 172 0 167 172 0
167 172 0 167 172 0 167 172 0 166 172 0 166 172 0 166 172 0 166 173 0
166 173 0 165 173 0 165 173 0 165 173 0 165 173 0 165 173 0 164 173 0
164 173 0 164 173 0 164 174 0 164 174 0 163 174 0 163 174 0 163 174 0
0 174 0 0 174 0 0 174 0 0 174 0 0 174 0 0 175 0 0 175 0 0 175 0 0 175
0 0 175 0 0 175 0 0 175 0 0 175 0 0 175 0 0 175 0 0 176 0 0 176 0 0
176 0 0 176 0 0 176 0 0 176 0 0 176 0 0 176 0 0 176 0 0 176 0 0 177 0
0 177 0 0 177 0 0 177 0 0 177 0 0 177 0 0 177 0 0 177 0 0 177 0 0 177
0 0 177 0 0 177 0 156 178 0 0 178 0 0 178 0 0 178 0 0 178 0 0 178 0 0
178 0 0 178 0 0 178 0 0 178 0 0 178 0 0 179 0 0 179 0 0 179 0 0 179 0
0 179 0 0 179 0 0 179 0 0 179 0 0 179 0 0 179 0 0 179 0 0 179 0 0 179
0 0 180 0 0 180 0 0 180 0 0 180 0 0 180 0 0 180 0 0 180 0 0 180 0 0
180 0 0 180 0 0 180 0 0 180 0 0 180 0 150 180 0 150 181 0 150 181 0
149 181 0 149 181 0 149 181 0 149 181 0 149 181 0 149 181 0 148 181 0
148 181 0 148 181 0 148 181 0 148 181 0 148 181 0 148 181 0 147 182 0
147 182 0 147 182 0 147 182 0 147 182 0 147 182 0 146 182 0 146 182 0
146 182 0 146 182 0 146 182 0 146 182 0 146 182 0 145 182 0 145 182 0
145 182 0 145 182 0 145 182 0 145 183 0 144 183 0 144 183 0 0 183 0 0
183 0 0 183 0 0 183 0 0 183 0 0 183 0 0 183 0 0 183 0 0 183 0 0 183 0
0 183 0 0 183 0 0 183 0 0 183 0 0 183 0 0 183 0
190 159 0 190 160 0 189 160 0 189 160 0 189 160 0 189 160 0 189 160 0
188 160 0 188 160 0 188 161 0 188 161 0 187 161 0 187 161 0 187 161 0
187 161 0 187 161 0 186 161 0 186 162 0 0 162 0 0 162 0 0 162 0 0 162
0 0 162 0 0 162 0 0 162 0 0 163 0 0 163 0 0 163 0 0 163 0 0 163 0 0
163 0 0 163 0 0 163 0 0 163 0 0 164 0 0 164 0 0 164 0 0 164 0 0 164 0
0 164 0 0 164 0 0 164 0 0 165 0 0 165 0 0 165 0 0 165 0 0 165 0 0 165
0 0 165 0 0 165 0 0 166 0 0 166 0 0 166 0 0 166 0 0 166 0 178 166 0
178 166 0 177 166 0 177 166 0 177 167 0 177 167 0 177 167 0 176 167 0
176 167 0 176 167 0 176 167 0 175 167 0 175 168 0 175 168 0 175 168 0
175 168 0 174 168 0 174 168 0 174 168 0 174 168 0 174 168 0 173 169 0
0 169 0 0 169 0 0 169 0 0 169 0 0 169 0 0 169 0 0 169 0 0 169 0 0 170
0 0 170 0 0 170 0 0 170 0 0 170 0 0 170 0 0 170 0 170 170 0 170 170 0
170 171 0 170 171 0 169 171 0 169 171 0 169 171 0 169 171 0 169 171 0
168 171 0 168 171 0 168 172 0 168 172 0 168 172 0 167 172 0 167 172 0
167 172 0 167 172 0 167 172 0 166 172 0 166 173 0 166 173 0 166 173 0
166 173 0 165 173 0 165 173 0 165 173 0 165 173 0 165 173 0 164 173 0
164 174 0 164 174 0 164 174 0 164 174 0 164 174 0 163 174 0 163 174 0
0 174 0 0 174 0 0 174 0 0 175 0 0 175 0 0 175 0 0 175 0 0 175 0 0 175
0 0 175 0 0 175 0 0 175 0 0 175 0 0 176 0 0 176 0 0 176 0 0 176 0 0
176 0 0 176 0 0 176 0 0 176 0 0 176 0 0 176 0 0 177 0 0 177 0 0 177 0
0 177 0 0 177 0 0 177 0 0 177 0 0 177 0 0 177 0 0 177 0 0 177 0 0 178
0 0 178 0 0 178 0 156 178 0 156 178 0 156 178 0 0 178 0 0 178 0 0 178
0 0 178 0 0 178 0 0 178 0 0 179 0 0 179 0 0 179 0 0 179 0 0 179 0 0
179 0 0 179 0 0 179 0 0 179 0 0 179 0 0 179 0 0 179 0 0 180 0 0 180 0
0 180 0 0 180 0 0 180 0 0 180 0 0 180 0 0 180 0 0 180 0 0 180 0 0 180
0 0 180 0 0 180 0 0 180 0 0 181 0 0 181 0 150 181 0 150 181 0 150 181
0 150 181 0 149 181 0 149 181 0 149 181 0 149 181 0 149 181 0 149 181
0 148 181 0 148 181 0 148 181 0 148 182 0 148 182 0 148 182 0 147 182
0 147 182 0 147 182 0 147 182 0 147 182 0 147 182 0 147 182 0 146 182
0 146 182 0 146 182 0 146 182 0 146 182 0 146 182 0 145 182 0 145 183
0 145 183 0 145 183 0 145 183 0 145 183 0 145 183 0 144 183 0 0 183 0
0 183 0 0 183 0 0 183 0 0 183 0 0 183 0 0 183 0 0 183 0 0 183 0 0 183
0 0 183 0 0 183 0 0 183 0 0 183 0 0 184 0 0 184 0
190 160 0 190 160 0 189 160 0 189 160 0 189 160 0 189 160 0 189 160 0
188 161 0 188 161 0 188 161 0 188 161 0 187 161 0 187 161 0 187 161 0
187 161 0 186 161 0 186 162 0 0 162 0 0 162 0 0 162 0 0 162 0 0 162 0
0 162 0 0 162 0 0 163 0 0 163 0 0 163 0 0 163 0 0 163 0 0 163 0 0 163
0 0 163 0 0 164 0 0 164 0 0 164 0 0 164 0 0 164 0 0 164 0 0 164 0 0
164 0 0 165 0 0 165 0 0 165 0 0 165 0 0 165 0 0 165 0 0 165 0 0 165 0
0 165 0 0 166 0 0 166 0 0 166 0 0 166 0 0 166 0 178 166 0 178 166 0
178 166 0 177 167 0 177 167 0 177 167 0 177 167 0 177 167 0 176 167 0
176 167 0 176 167 0 176 167 0 175 168 0 175 168 0 175 168 0 175 168 0
175 168 0 174 168 0 174 168 0 174 168 0 174 169 0 174 169 0 173 169 0
173 169 0 173 169 0 0 169 0 0 169 0 0 169 0 0 169 0 0 170 0 0 170 0 0
170 0 0 170 0 0 170 0 0 170 0 0 170 0 0 170 0 170 170 0 170 171 0 170
171 0 170 171 0 170 171 0 169 171 0 169 171 0 169 171 0 169 171 0 169
171 0 168 172 0 168 172 0 168 172 0 168 172 0 168 172 0 167 172 0 167
172 0 167 172 0 167 172 0 167 173 0 166 173 0 166 173 0 166 173 0 166
173 0 166 173 0 165 173 0 165 173 0 165 173 0 165 173 0 165 174 0 165
174 0 164 174 0 164 174 0 164 174 0 164 174 0 164 174 0 163 174 0 0
174 0 0 174 0 0 175 0 0 175 0 0 175 0 0 175 0 0 175 0 0 175 0 0 175 0
0 175 0 0 175 0 0 175 0 0 176 0 0 176 0 0 176 0 0 176 0 0 176 0 0 176
0 0 176 0 0 176 0 0 176 0 0 176 0 0 177 0 0 177 0 0 177 0 0 177 0 0
177 0 0 177 0 0 177 0 0 177 0 0 177 0 0 177 0 0 177 0 0 178 0 0 178 0
0 178 0 0 178 0 157 178 0 156 178 0 156 178 0 156 178 0 156 178 0 156
178 0 155 178 0 0 178 0 0 179 0 0 179 0 0 179 0 0 179 0 0 179 0 0 179
0 0 179 0 0 179 0 0 179 0 0 179 0 0 179 0 0 179 0 0 180 0 0 180 0 0
180 0 0 180 0 0 180 0 0 180 0 0 180 0 0 180 0 0 180 0 0 180 0 0 180 0
0 180 0 0 180 0 0 181 0 0 181 0 0 181 0 0 181 0 0 181 0 150 181 0 150
181 0 150 181 0 150 181 0 149 181 0 149 181 0 149 181 0 149 181 0 149
181 0 149 181 0 149 182 0 148 182 0 148 182 0 148 182 0 148 182 0 148
182 0 148 182 0 147 182 0 147 182 0 147 182 0 147 182 0 147 182 0 147
182 0 146 182 0 146 182 0 146 182 0 146 183 0 146 183 0 146 183 0 146
183 0 145 183 0 145 183 0 145 183 0 145 183 0 145 183 0 145 183 0 144
183 0 0 183 0 0 183 0 0 183 0 0 183 0 0 183 0 0 183 0 0 183 0 0 183 0
0 183 0 0 184 0 0 184 0 0 184 0 0 184 0 0 184 0 0 184 0 0 184 0
190 160 0 190 160 0 189 160 0 189 160 0 189 160 0 189 160 0 188 161 0
188 161 0 188 161 0 188 161 0 188 161 0 187 161 0 187 161 0 187 161 0
187 162 0 186 162 0 0 162 0 0 162 0 0 162 0 0 162 0 0 162 0 0 162 0 0
163 0 0 163 0 0 163 0 0 163 0 0 163 0 0 163 0 0 163 0 0 163 0 0 164 0
0 164 0 0 164 0 0 164 0 0 164 0 0 164 0 0 164 0 0 164 0 0 164 0 0 165
0 0 165 0 0 165 0 0 165 0 0 165 0 0 165 0 0 165 0 0 165 0 0 166 0 0
166 0 0 166 0 0 166 0 0 166 0 0 166 0 178 166 0 178 166 0 178 167 0
178 167 0 177 167 0 177 167 0 177 167 0 177 167 0 177 167 0 176 167 0
176 167 0 176 168 0 176 168 0 175 168 0 175 168 0 175 168 0 175 168 0
175 168 0 174 168 0 174 168 0 174 169 0 174 169 0 174 169 0 173 169 0
173 169 0 173 169 0 173 169 0 173 169 0 172 170 0 0 170 0 0 170 0 0
170 0 0 170 0 0 170 0 0 170 0 0 170 0 0 170 0 0 171 0 170 171 0 170
171 0 170 171 0 170 171 0 170 171 0 169 171 0 169 171 0 169 171 0 169
172 0 169 172 0 168 172 0 168 172 0 168 172 0 168 172 0 168 172 0 167
172 0 167 172 0 167 172 0 167 173 0 167 173 0 166 173 0 166 173 0 166
173 0 166 173 0 166 173 0 166 173 0 165 173 0 165 174 0 165 174 0 165
174 0 165 174 0 164 174 0 164 174 0 164 174 0 164 174 0 164 174 0 163
174 0 0 175 0 0 175 0 0 175 0 0 175 0 0 175 0 0 175 0 0 175 0 0 175 0
0 175 0 0 175 0 0 176 0 0 176 0 0 176 0 0 176 0 0 176 0 0 176 0 0 176
0 0 176 0 0 176 0 0 176 0 0 177 0 0 177 0 0 177 0 0 177 0 0 177 0 0
177 0 0 177 0 0 177 0 0 177 0 0 177 0 0 177 0 0 178 0 0 178 0 0 178 0
0 178 0 0 178 0 0 178 0 157 178 0 156 178 0 156 178 0 156 178 0 156
178 0 156 179 0 156 179 0 155 179 0 155 179 0 155 179 0 0 179 0 0 179
0 0 179 0 0 179 0 0 179 0 0 179 0 0 179 0 0 179 0 0 180 0 0 180 0 0
180 0 0 180 0 0 180 0 0 180 0 0 180 0 0 180 0 0 180 0 0 180 0 0 180 0
0 180 0 0 180 0 0 181 0 0 181 0 0 181 0 0 181 0 0 181 0 0 181 0 0 181
0 150 181 0 150 181 0 150 181 0 150 181 0 150 181 0 149 181 0 149 181
0 149 182 0 149 182 0 149 182 0 149 182 0 148 182 0 148 182 0 148 182
0 148 182 0 148 182 0 148 182 0 148 182 0 147 182 0 147 182 0 147 182
0 147 182 0 147 182 0 147 183 0 146 183 0 146 183 0 146 183 0 146 183
0 146 183 0 146 183 0 146 183 0 145 183 0 145 183 0 145 183 0 145 183
0 145 183 0 145 183 0 0 183 0 0 183 0 0 183 0 0 183 0 0 183 0 0 184 0
0 184 0 0 184 0 0 184 0 0 184 0 0 184 0 0 184 0 0 184 0 0 184 0 0 184
0 0 184 0
190 160 0 190 160 0 189 160 0 189 160 0 189 161 0 189 161 0 188 161 0
188 161 0 188 161 0 188 161 0 188 161 0 187 161 0 187 162 0 187 162 0
187 162 0 0 162 0 0 162 0 0 162 0 0 162 0 0 162 0 0 163 0 0 163 0 0
163 0 0 163 0 0 163 0 0 163 0 0 163 0 0 163 0 0 163 0 0 164 0 0 164 0
0 164 0 0 164 0 0 164 0 0 164 0 0 164 0 0 164 0 0 165 0 0 165 0 0 165
0 0 165 0 0 165 0 0 165 0 0 165 0 0 165 0 0 166 0 0 166 0 0 166 0 0
166 0 0 166 0 0 166 0 0 166 0 0 166 0 178 166 0 178 167 0 178 167 0
178 167 0 177 167 0 177 167 0 177 167 0 177 167 0 176 167 0 176 168 0
176 168 0 176 168 0 176 168 0 175 168 0 175 168 0 175 168 0 175 168 0
175 168 0 174 169 0 174 169 0 174 169 0 174 169 0 174 169 0 173 169 0
173 169 0 173 169 0 173 169 0 173 170 0 172 170 0 172 170 0 172 170 0
0 170 0 0 170 0 0 170 0 0 170 0 0 171 0 0 171 0 171 171 0 170 171 0
170 171 0 170 171 0 170 171 0 170 171 0 169 171 0 169 172 0 169 172 0
169 172 0 169 172 0 168 172 0 168 172 0 168 172 0 168 172 0 168 172 0
167 172 0 167 173 0 167 173 0 167 173 0 167 173 0 166 173 0 166 173 0
166 173 0 166 173 0 166 173 0 166 174 0 165 174 0 165 174 0 165 174 0
165 174 0 165 174 0 164 174 0 164 174 0 164 174 0 164 174 0 164 175 0
163 175 0 0 175 0 0 175 0 0 175 0 0 175 0 0 175 0 0 175 0 0 175 0 0
175 0 0 176 0 0 176 0 0 176 0 0 176 0 0 176 0 0 176 0 0 176 0 0 176 0
0 176 0 0 176 0 0 177 0 0 177 0 0 177 0 0 177 0 0 177 0 0 177 0 0 177
0 0 177 0 0 177 0 0 177 0 0 177 0 0 178 0 0 178 0 0 178 0 0 178 0 0
178 0 0 178 0 0 178 0 0 178 0 157 178 0 156 178 0 156 178 0 156 179 0
156 179 0 156 179 0 156 179 0 155 179 0 155 179 0 155 179 0 155 179 0
155 179 0 155 179 0 0 179 0 0 179 0 0 180 0 0 180 0 0 180 0 0 180 0 0
180 0 0 180 0 0 180 0 0 180 0 0 180 0 0 180 0 0 180 0 0 180 0 0 180 0
0 181 0 0 181 0 0 181 0 0 181 0 0 181 0 0 181 0 0 181 0 0 181 0 0 181
0 150 181 0 150 181 0 150 181 0 150 181 0 150 181 0 150 182 0 149 182
0 149 182 0 149 182 0 149 182 0 149 182 0 149 182 0 149 182 0 148 182
0 148 182 0 148 182 0 148 182 0 148 182 0 148 182 0 147 182 0 147 183
0 147 183 0 147 183 0 147 183 0 147 183 0 147 183 0 146 183 0 146 183
0 146 183 0 146 183 0 146 183 0 146 183 0 145 183 0 145 183 0 145 183
0 145 183 0 145 183 0 145 183 0 0 184 0 0 184 0 0 184 0 0 184 0 0 184
0 0 184 0 0 184 0 0 184 0 0 184 0 0 184 0 0 184 0 0 184 0 0 184 0 0
184 0 0 184 0 0 184 0
190 160 0 189 160 0 189 161 0 189 161 0 189 161 0 189 161 0 188 161 0
188 161 0 188 161 0 188 161 0 187 162 0 187 162 0 187 162 0 187 162 0
0 162 0 0 162 0 0 162 0 0 162 0 0 162 0 0 163 0 0 163 0 0 163 0 0 163
0 0 163 0 0 163 0 0 163 0 0 163 0 0 164 0 0 164 0 0 164 0 0 164 0 0
164 0 0 164 0 0 164 0 0 164 0 0 165 0 0 165 0 0 165 0 0 165 0 0 165 0
0 165 0 0 165 0 0 165 0 0 166 0 0 166 0 0 166 0 0 166 0 0 166 0 0 166
0 0 166 0 0 166 0 0 166 0 178 167 0 178 167 0 178 167 0 178 167 0 178
167 0 177 167 0 177 167 0 177 167 0 177 168 0 176 168 0 176 168 0 176
168 0 176 168 0 176 168 0 175 168 0 175 168 0 175 168 0 175 169 0 175
169 0 174 169 0 174 169 0 174 169 0 174 169 0 174 169 0 173 169 0 173
169 0 173 170 0 173 170 0 173 170 0 172 170 0 172 170 0 172 170 0 172
170 0 172 170 0 0 170 0 0 171 0 0 171 0 171 171 0 171 171 0 170 171 0
170 171 0 170 171 0 170 171 0 170 171 0 169 172 0 169 172 0 169 172 0
169 172 0 169 172 0 168 172 0 168 172 0 168 172 0 168 172 0 168 173 0
167 173 0 167 173 0 167 173 0 167 173 0 167 173 0 167 173 0 166 173 0
166 173 0 166 174 0 166 174 0 166 174 0 165 174 0 165 174 0 165 174 0
165 174 0 165 174 0 164 174 0 164 174 0 164 175 0 164 175 0 164 175 0
0 175 0 0 175 0 0 175 0 0 175 0 0 175 0 0 175 0 0 175 0 0 176 0 0 176
0 0 176 0 0 176 0 0 176 0 0 176 0 0 176 0 0 176 0 0 176 0 0 176 0 0
177 0 0 177 0 0 177 0 0 177 0 0 177 0 0 177 0 0 177 0 0 177 0 0 177 0
0 177 0 0 177 0 0 178 0 0 178 0 0 178 0 0 178 0 0 178 0 0 178 0 0 178
0 0 178 0 0 178 0 0 178 0 157 178 0 157 179 0 156 179 0 156 179 0 156
179 0 156 179 0 156 179 0 156 179 0 155 179 0 155 179 0 155 179 0 155
179 0 155 179 0 154 180 0 154 180 0 154 180 0 0 180 0 0 180 0 0 180 0
0 180 0 0 180 0 0 180 0 0 180 0 0 180 0 0 180 0 0 181 0 0 181 0 0 181
0 0 181 0 0 181 0 0 181 0 0 181 0 0 181 0 0 181 0 0 181 0 0 181 0 0
181 0 151 181 0 150 181 0 150 182 0 150 182 0 150 182 0 150 182 0 150
182 0 149 182 0 149 182 0 149 182 0 149 182 0 149 182 0 149 182 0 148
182 0 148 182 0 148 182 0 148 182 0 148 183 0 148 183 0 148 183 0 147
183 0 147 183 0 147 183 0 147 183 0 147 183 0 147 183 0 146 183 0 146
183 0 146 183 0 146 183 0 146 183 0 146 183 0 146 183 0 145 183 0 145
183 0 145 184 0 145 184 0 145 184 0 0 184 0 0 184 0 0 184 0 0 184 0 0
184 0 0 184 0 0 184 0 0 184 0 0 184 0 0 184 0 0 184 0 0 184 0 0 184 0
0 184 0 0 184 0 0 184 0
190 161 0 189 161 0 189 161 0 189 161 0 189 161 0 189 161 0 188 161 0
188 161 0 188 161 0 188 162 0 187 162 0 187 162 0 187 162 0 0 162 0 0
162 0 0 162 0 0 162 0 0 163 0 0 163 0 0 163 0 0 163 0 0 163 0 0 163 0
0 163 0 0 163 0 0 164 0 0 164 0 0 164 0 0 164 0 0 164 0 0 164 0 0 164
0 0 164 0 0 165 0 0 165 0 0 165 0 0 165 0 0 165 0 0 165 0 0 165 0 0
165 0 0 165 0 0 166 0 0 166 0 0 166 0 0 166 0 0 166 0 0 166 0 0 166 0
0 166 0 0 167 0 179 167 0 178 167 0 178 167 0 178 167 0 178 167 0 178
167 0 177 167 0 177 167 0 177 168 0 177 168 0 176 168 0 176 168 0 176
168 0 176 168 0 176 168 0 175 168 0 175 169 0 175 169 0 175 169 0 175
169 0 174 169 0 174 169 0 174 169 0 174 169 0 174 169 0 173 170 0 173
170 0 173 170 0 173 170 0 173 170 0 172 170 0 172 170 0 172 170 0 172
170 0 172 171 0 171 171 0 171 171 0 171 171 0 171 171 0 171 171 0 170
171 0 170 171 0 170 171 0 170 172 0 170 172 0 169 172 0 169 172 0 169
172 0 169 172 0 169 172 0 168 172 0 168 172 0 168 173 0 168 173 0 168
173 0 168 173 0 167 173 0 167 173 0 167 173 0 167 173 0 167 173 0 166
173 0 166 174 0 166 174 0 166 174 0 166 174 0 165 174 0 165 174 0 165
174 0 165 174 0 165 174 0 164 175 0 164 175 0 164 175 0 164 175 0 164
175 0 0 175 0 0 175 0 0 175 0 0 175 0 0 175 0 0 176 0 0 176 0 0 176 0
0 176 0 0 176 0 0 176 0 0 176 0 0 176 0 0 176 0 0 176 0 0 177 0 0 177
0 0 177 0 0 177 0 0 177 0 0 177 0 0 177 0 0 177 0 0 177 0 0 177 0 0
177 0 0 178 0 0 178 0 0 178 0 0 178 0 0 178 0 0 178 0 0 178 0 0 178 0
0 178 0 0 178 0 0 178 0 0 179 0 157 179 0 157 179 0 156 179 0 156 179
0 156 179 0 156 179 0 156 179 0 156 179 0 155 179 0 155 179 0 155 179
0 155 180 0 155 180 0 155 180 0 154 180 0 154 180 0 154 180 0 154 180
0 0 180 0 0 180 0 0 180 0 0 180 0 0 180 0 0 181 0 0 181 0 0 181 0 0
181 0 0 181 0 0 181 0 0 181 0 0 181 0 0 181 0 0 181 0 0 181 0 0 181 0
0 181 0 0 182 0 151 182 0 150 182 0 150 182 0 150 182 0 150 182 0 150
182 0 150 182 0 150 182 0 149 182 0 149 182 0 149 182 0 149 182 0 149
182 0 149 182 0 148 183 0 148 183 0 148 183 0 148 183 0 148 183 0 148
183 0 147 183 0 147 183 0 147 183 0 147 183 0 147 183 0 147 183 0 147
183 0 146 183 0 146 183 0 146 183 0 146 183 0 146 184 0 146 184 0 146
184 0 145 184 0 145 184 0 145 184 0 145 184 0 0 184 0 0 184 0 0 184 0
0 184 0 0 184 0 0 184 0 0 184 0 0 184 0 0 184 0 0 184 0 0 184 0 0 184
0 0 184 0 0 185 0 0 185 0 0 185 0
190 161 0 189 161 0 189 161 0 189 161 0 189 161 0 188 161 0 188 161 0
188 162 0 188 162 0 188 162 0 187 162 0 187 162 0 0 162 0 0 162 0 0
162 0 0 163 0 0 163 0 0 163 0 0 163 0 0 163 0 0 163 0 0 163 0 0 163 0
0 164 0 0 164 0 0 164 0 0 164 0 0 164 0 0 164 0 0 164 0 0 164 0 0 164
0 0 165 0 0 165 0 0 165 0 0 165 0 0 165 0 0 165 0 0 165 0 0 165 0 0
166 0 0 166 0 0 166 0 0 166 0 0 166 0 0 166 0 0 166 0 0 166 0 0 166 0
0 167 0 179 167 0 179 167 0 178 167 0 178 167 0 178 167 0 178 167 0
177 167 0 177 168 0 177 168 0 177 168 0 177 168 0 176 168 0 176 168 0
176 168 0 176 168 0 176 168 0 175 169 0 175 169 0 175 169 0 175 169 0
175 169 0 174 169 0 174 169 0 174 169 0 174 170 0 174 170 0 173 170 0
173 170 0 173 170 0 173 170 0 173 170 0 172 170 0 172 170 0 172 171 0
172 171 0 172 171 0 171 171 0 171 171 0 0 171 0 0 171 0 0 171 0 170
171 0 170 172 0 170 172 0 170 172 0 170 172 0 169 172 0 169 172 0 169
172 0 169 172 0 169 172 0 168 173 0 168 173 0 168 173 0 168 173 0 168
173 0 168 173 0 167 173 0 167 173 0 167 173 0 167 173 0 167 174 0 166
174 0 166 174 0 166 174 0 166 174 0 166 174 0 165 174 0 165 174 0 165
174 0 165 175 0 165 175 0 165 175 0 164 175 0 164 175 0 164 175 0 0
175 0 0 175 0 0 175 0 0 175 0 0 176 0 0 176 0 0 176 0 0 176 0 0 176 0
0 176 0 0 176 0 0 176 0 0 176 0 0 176 0 0 177 0 0 177 0 0 177 0 0 177
0 0 177 0 0 177 0 0 177 0 0 177 0 0 177 0 0 177 0 0 177 0 0 178 0 0
178 0 0 178 0 0 178 0 0 178 0 0 178 0 0 178 0 0 178 0 0 178 0 0 178 0
0 178 0 0 179 0 0 179 0 157 179 0 157 179 0 157 179 0 156 179 0 156
179 0 156 179 0 156 179 0 156 179 0 156 179 0 155 180 0 155 180 0 155
180 0 155 180 0 155 180 0 155 180 0 154 180 0 154 180 0 154 180 0 154
180 0 154 180 0 154 180 0 153 180 0 0 181 0 0 181 0 0 181 0 0 181 0 0
181 0 0 181 0 0 181 0 0 181 0 0 181 0 0 181 0 0 181 0 0 181 0 0 181 0
0 182 0 0 182 0 0 182 0 151 182 0 151 182 0 150 182 0 150 182 0 150
182 0 150 182 0 150 182 0 150 182 0 149 182 0 149 182 0 149 182 0 149
183 0 149 183 0 149 183 0 149 183 0 148 183 0 148 183 0 148 183 0 148
183 0 148 183 0 148 183 0 147 183 0 147 183 0 147 183 0 147 183 0 147
183 0 147 183 0 147 183 0 146 184 0 146 184 0 146 184 0 146 184 0 146
184 0 146 184 0 145 184 0 145 184 0 145 184 0 145 184 0 0 184 0 0 184
0 0 184 0 0 184 0 0 184 0 0 184 0 0 184 0 0 184 0 0 184 0 0 185 0 0
185 0 0 185 0 0 185 0 0 185 0 0 185 0 0 185 0
190 161 0 189 161 0 189 161 0 189 161 0 189 161 0 188 162 0 188 162 0
188 162 0 188 162 0 188 162 0 187 162 0 0 162 0 0 162 0 0 162 0 0 163
0 0 163 0 0 163 0 0 163 0 0 163 0 0 163 0 0 163 0 0 163 0 0 164 0 0
164 0 0 164 0 0 164 0 0 164 0 0 164 0 0 164 0 0 164 0 0 165 0 0 165 0
0 165 0 0 165 0 0 165 0 0 165 0 0 165 0 0 165 0 0 166 0 0 166 0 0 166
0 0 166 0 0 166 0 0 166 0 0 166 0 0 166 0 0 166 0 0 167 0 0 167 0 0
167 0 179 167 0 179 167 0 178 167 0 178 167 0 178 167 0 178 168 0 177
168 0 177 168 0 177 168 0 177 168 0 177 168 0 176 168 0 176 168 0 176
168 0 176 169 0 176 169 0 175 169 0 175 169 0 175 169 0 175 169 0 175
169 0 174 169 0 174 169 0 174 170 0 174 170 0 174 170 0 173 170 0 173
170 0 173 170 0 173 170 0 173 170 0 172 170 0 172 171 0 172 171 0 172
171 0 172 171 0 171 171 0 171 171 0 0 171 0 0 171 0 0 171 0 0 172 0 0
172 0 0 172 0 170 172 0 170 172 0 169 172 0 169 172 0 169 172 0 169
172 0 169 173 0 169 173 0 168 173 0 168 173 0 168 173 0 168 173 0 168
173 0 167 173 0 167 173 0 167 174 0 167 174 0 167 174 0 166 174 0 166
174 0 166 174 0 166 174 0 166 174 0 165 174 0 165 174 0 165 175 0 165
175 0 165 175 0 165 175 0 164 175 0 164 175 0 164 175 0 0 175 0 0 175
0 0 176 0 0 176 0 0 176 0 0 176 0 0 176 0 0 176 0 0 176 0 0 176 0 0
176 0 0 176 0 0 177 0 0 177 0 0 177 0 0 177 0 0 177 0 0 177 0 0 177 0
0 177 0 0 177 0 0 177 0 0 177 0 0 178 0 0 178 0 0 178 0 0 178 0 0 178
0 0 178 0 0 178 0 0 178 0 0 178 0 0 178 0 0 178 0 0 179 0 0 179 0 0
179 0 0 179 0 157 179 0 157 179 0 157 179 0 157 179 0 156 179 0 156
179 0 156 179 0 156 180 0 156 180 0 156 180 0 155 180 0 155 180 0 155
180 0 155 180 0 155 180 0 155 180 0 154 180 0 154 180 0 154 180 0 154
181 0 154 181 0 154 181 0 153 181 0 153 181 0 153 181 0 0 181 0 0 181
0 0 181 0 0 181 0 0 181 0 0 181 0 0 181 0 0 182 0 0 182 0 0 182 0 0
182 0 0 182 0 0 182 0 151 182 0 151 182 0 150 182 0 150 182 0 150 182
0 150 182 0 150 182 0 150 182 0 150 183 0 149 183 0 149 183 0 149 183
0 149 183 0 149 183 0 149 183 0 148 183 0 148 183 0 148 183 0 148 183
0 148 183 0 148 183 0 148 183 0 147 183 0 147 183 0 147 184 0 147 184
0 147 184 0 147 184 0 146 184 0 146 184 0 146 184 0 146 184 0 146 184
0 146 184 0 146 184 0 145 184 0 145 184 0 145 184 0 0 184 0 0 184 0 0
184 0 0 184 0 0 184 0 0 185 0 0 185 0 0 185 0 0 185 0 0 185 0 0 185 0
0 185 0 0 185 0 0 185 0 0 185 0 0 185 0
189 161 0 189 161 0 189 161 0 189 161 0 189 162 0 188 162 0 188 162 0
188 162 0 188 162 0 187 162 0 0 162 0 0 162 0 0 163 0 0 163 0 0 163 0
0 163 0 0 163 0 0 163 0 0 163 0 0 163 0 0 164 0 0 164 0 0 164 0 0 164
0 0 164 0 0 164 0 0 164 0 0 164 0 0 165 0 0 165 0 0 165 0 0 165 0 0
165 0 0 165 0 0 165 0 0 165 0 0 165 0 0 166 0 0 166 0 0 166 0 0 166 0
0 166 0 0 166 0 0 166 0 0 166 0 0 167 0 0 167 0 0 167 0 0 167 0 179
167 0 179 167 0 178 167 0 178 167 0 178 167 0 178 168 0 178 168 0 177
168 0 177 168 0 177 168 0 177 168 0 177 168 0 176 168 0 176 169 0 176
169 0 176 169 0 176 169 0 175 169 0 175 169 0 175 169 0 175 169 0 175
169 0 174 170 0 174 170 0 174 170 0 174 170 0 174 170 0 173 170 0 173
170 0 173 170 0 173 170 0 173 171 0 172 171 0 172 171 0 172 171 0 172
171 0 172 171 0 171 171 0 0 171 0 0 171 0 0 172 0 0 172 0 0 172 0 0
172 0 0 172 0 0 172 0 0 172 0 169 172 0 169 172 0 169 173 0 169 173 0
169 173 0 169 173 0 168 173 0 168 173 0 168 173 0 168 173 0 168 173 0
167 174 0 167 174 0 167 174 0 167 174 0 167 174 0 166 174 0 166 174 0
166 174 0 166 174 0 166 174 0 166 175 0 165 175 0 165 175 0 165 175 0
165 175 0 165 175 0 164 175 0 164 175 0 0 175 0 0 176 0 0 176 0 0 176
0 0 176 0 0 176 0 0 176 0 0 176 0 0 176 0 0 176 0 0 176 0 0 176 0 0
177 0 0 177 0 0 177 0 0 177 0 0 177 0 0 177 0 0 177 0 0 177 0 0 177 0
0 177 0 0 178 0 0 178 0 0 178 0 0 178 0 0 178 0 0 178 0 0 178 0 0 178
0 0 178 0 0 178 0 0 178 0 0 179 0 0 179 0 0 179 0 0 179 0 0 179 0 0
179 0 157 179 0 157 179 0 157 179 0 157 179 0 156 179 0 156 180 0 156
180 0 156 180 0 156 180 0 156 180 0 155 180 0 155 180 0 155 180 0 155
180 0 155 180 0 155 180 0 154 180 0 154 181 0 154 181 0 154 181 0 154
181 0 154 181 0 153 181 0 153 181 0 153 181 0 153 181 0 153 181 0 153
181 0 0 181 0 0 181 0 0 182 0 0 182 0 0 182 0 0 182 0 0 182 0 0 182 0
0 182 0 0 182 0 151 182 0 151 182 0 151 182 0 150 182 0 150 182 0 150
182 0 150 183 0 150 183 0 150 183 0 149 183 0 149 183 0 149 183 0 149
183 0 149 183 0 149 183 0 149 183 0 148 183 0 148 183 0 148 183 0 148
183 0 148 183 0 148 184 0 147 184 0 147 184 0 147 184 0 147 184 0 147
184 0 147 184 0 147 184 0 146 184 0 146 184 0 146 184 0 146 184 0 146
184 0 146 184 0 146 184 0 145 184 0 145 184 0 0 184 0 0 185 0 0 185 0
0 185 0 0 185 0 0 185 0 0 185 0 0 185 0 0 185 0 0 185 0 0 185 0 0 185
0 0 185 0 0 185 0 0 185 0 0 185 0
0 161 0 0 161 0 189 162 0 189 162 0 188 162 0 188 162 0 188 162 0 188
162 0 188 162 0 187 162 0 0 163 0 0 163 0 0 163 0 0 163 0 0 163 0 0
163 0 0 163 0 0 163 0 0 164 0 0 164 0 0 164 0 0 164 0 0 164 0 0 164 0
0 164 0 0 164 0 0 164 0 0 165 0 0 165 0 0 165 0 0 165 0 0 165 0 0 165
0 0 165 0 0 165 0 0 166 0 0 166 0 0 166 0 0 166 0 0 166 0 0 166 0 0
166 0 0 166 0 0 166 0 0 167 0 0 167 0 0 167 0 0 167 0 179 167 0 179
167 0 179 167 0 178 167 0 178 168 0 178 168 0 178 168 0 178 168 0 177
168 0 177 168 0 177 168 0 177 168 0 177 168 0 176 169 0 176 169 0 176
169 0 176 169 0 176 169 0 175 169 0 175 169 0 175 169 0 175 170 0 175
170 0 174 170 0 174 170 0 174 170 0 174 170 0 174 170 0 173 170 0 173
170 0 173 171 0 173 171 0 173 171 0 172 171 0 172 171 0 172 171 0 172
171 0 172 171 0 171 171 0 0 172 0 0 172 0 0 172 0 0 172 0 0 172 0 0
172 0 0 172 0 0 172 0 0 172 0 0 173 0 0 173 0 169 173 0 169 173 0 169
173 0 169 173 0 168 173 0 168 173 0 168 173 0 168 174 0 168 174 0 167
174 0 167 174 0 167 174 0 167 174 0 167 174 0 166 174 0 166 174 0 166
174 0 166 175 0 166 175 0 166 175 0 165 175 0 165 175 0 165 175 0 165
175 0 165 175 0 164 175 0 164 175 0 0 176 0 0 176 0 0 176 0 0 176 0 0
176 0 0 176 0 0 176 0 0 176 0 0 176 0 0 176 0 0 177 0 0 177 0 0 177 0
0 177 0 0 177 0 0 177 0 0 177 0 0 177 0 0 177 0 0 177 0 0 178 0 0 178
0 0 178 0 0 178 0 0 178 0 0 178 0 0 178 0 0 178 0 0 178 0 0 178 0 0
178 0 0 179 0 0 179 0 0 179 0 0 179 0 0 179 0 0 179 0 0 179 0 0 179 0
157 179 0 157 179 0 157 179 0 157 180 0 157 180 0 156 180 0 156 180 0
156 180 0 156 180 0 156 180 0 156 180 0 155 180 0 155 180 0 155 180 0
155 180 0 155 181 0 155 181 0 154 181 0 154 181 0 154 181 0 154 181 0
154 181 0 154 181 0 153 181 0 153 181 0 153 181 0 153 181 0 153 182 0
153 182 0 152 182 0 152 182 0 0 182 0 0 182 0 0 182 0 0 182 0 0 182 0
0 182 0 0 182 0 151 182 0 151 182 0 151 182 0 150 183 0 150 183 0 150
183 0 150 183 0 150 183 0 150 183 0 150 183 0 149 183 0 149 183 0 149
183 0 149 183 0 149 183 0 149 183 0 148 183 0 148 183 0 148 184 0 148
184 0 148 184 0 148 184 0 148 184 0 147 184 0 147 184 0 147 184 0 147
184 0 147 184 0 147 184 0 147 184 0 146 184 0 146 184 0 146 184 0 146
184 0 146 184 0 146 185 0 145 185 0 145 185 0 145 185 0 0 185 0 0 185
0 0 185 0 0 185 0 0 185 0 0 185 0 0 185 0 0 185 0 0 185 0 0 185 0 0
185 0 0 185 0 0 185 0 0 185 0 0 185 0
0 162 0 0 162 0 0 162 0 0 162 0 188 162 0 188 162 0 188 162 0 188 162
0 188 162 0 0 163 0 0 163 0 0 163 0 0 163 0 0 163 0 0 163 0 0 163 0 0
163 0 0 164 0 0 164 0 0 164 0 0 164 0 0 164 0 0 164 0 0 164 0 0 164 0
0 165 0 0 165 0 0 165 0 0 165 0 0 165 0 0 165 0 0 165 0 0 165 0 0 165
0 0 166 0 0 166 0 0 166 0 0 166 0 0 166 0 0 166 0 0 166 0 0 166 0 0
167 0 0 167 0 0 167 0 0 167 0 0 167 0 179 167 0 179 167 0 179 167 0
179 168 0 178 168 0 178 168 0 178 168 0 178 168 0 178 168 0 177 168 0
177 168 0 177 168 0 177 169 0 177 169 0 176 169 0 176 169 0 176 169 0
176 169 0 176 169 0 175 169 0 175 169 0 175 170 0 175 170 0 175 170 0
174 170 0 174 170 0 174 170 0 174 170 0 174 170 0 173 170 0 173 171 0
173 171 0 173 171 0 173 171 0 172 171 0 172 171 0 172 171 0 172 171 0
172 172 0 0 172 0 0 172 0 0 172 0 0 172 0 0 172 0 0 172 0 0 172 0 0
172 0 0 172 0 0 173 0 0 173 0 0 173 0 0 173 0 0 173 0 0 173 0 169 173
0 168 173 0 168 173 0 168 174 0 168 174 0 168 174 0 167 174 0 167 174
0 167 174 0 167 174 0 167 174 0 167 174 0 166 175 0 166 175 0 166 175
0 166 175 0 166 175 0 165 175 0 165 175 0 165 175 0 165 175 0 165 175
0 164 176 0 164 176 0 0 176 0 0 176 0 0 176 0 0 176 0 0 176 0 0 176 0
0 176 0 0 176 0 0 177 0 0 177 0 0 177 0 0 177 0 0 177 0 0 177 0 0 177
0 0 177 0 0 177 0 0 177 0 0 178 0 0 178 0 0 178 0 0 178 0 0 178 0 0
178 0 0 178 0 0 178 0 0 178 0 0 178 0 0 178 0 0 179 0 0 179 0 0 179 0
0 179 0 0 179 0 0 179 0 0 179 0 0 179 0 0 179 0 157 179 0 157 179 0
157 180 0 157 180 0 157 180 0 157 180 0 156 180 0 156 180 0 156 180 0
156 180 0 156 180 0 156 180 0 155 180 0 155 180 0 155 181 0 155 181 0
155 181 0 155 181 0 154 181 0 154 181 0 154 181 0 154 181 0 154 181 0
154 181 0 153 181 0 153 181 0 153 182 0 153 182 0 153 182 0 153 182 0
152 182 0 152 182 0 152 182 0 152 182 0 0 182 0 0 182 0 0 182 0 0 182
0 0 182 0 151 183 0 151 183 0 151 183 0 151 183 0 150 183 0 150 183 0
150 183 0 150 183 0 150 183 0 150 183 0 149 183 0 149 183 0 149 183 0
149 183 0 149 183 0 149 184 0 149 184 0 148 184 0 148 184 0 148 184 0
148 184 0 148 184 0 148 184 0 147 184 0 147 184 0 147 184 0 147 184 0
147 184 0 147 184 0 147 184 0 146 184 0 146 184 0 146 185 0 146 185 0
146 185 0 146 185 0 146 185 0 145 185 0 145 185 0 0 185 0 0 185 0 0
185 0 0 185 0 0 185 0 0 185 0 0 185 0 0 185 0 0 185 0 0 185 0 0 185 0
0 185 0 0 185 0 0 186 0 0 186 0
0 162 0 0 162 0 0 162 0 0 162 0 0 162 0 0 162 0 188 162 0 188 163 0 0
163 0 0 163 0 0 163 0 0 163 0 0 163 0 0 163 0 0 163 0 0 164 0 0 164 0
0 164 0 0 164 0 0 164 0 0 164 0 0 164 0 0 164 0 0 165 0 0 165 0 0 165
0 0 165 0 0 165 0 0 165 0 0 165 0 0 165 0 0 165 0 0 166 0 0 166 0 0
166 0 0 166 0 0 166 0 0 166 0 0 166 0 0 166 0 0 167 0 0 167 0 0 167 0
0 167 0 0 167 0 0 167 0 0 167 0 179 167 0 179 167 0 179 168 0 179 168
0 178 168 0 178 168 0 178 168 0 178 168 0 178 168 0 177 168 0 177 169
0 177 169 0 177 169 0 177 169 0 176 169 0 176 169 0 176 169 0 176 169
0 176 169 0 175 170 0 175 170 0 175 170 0 175 170 0 175 170 0 174 170
0 174 170 0 174 170 0 174 170 0 174 171 0 173 171 0 173 171 0 173 171
0 173 171 0 173 171 0 172 171 0 172 171 0 172 171 0 172 172 0 0 172 0
0 172 0 0 172 0 0 172 0 0 172 0 0 172 0 0 172 0 0 172 0 0 173 0 0 173
0 0 173 0 0 173 0 0 173 0 0 173 0 0 173 0 0 173 0 0 173 0 0 174 0 168
174 0 168 174 0 168 174 0 168 174 0 167 174 0 167 174 0 167 174 0 167
174 0 167 175 0 167 175 0 166 175 0 166 175 0 166 175 0 166 175 0 166
175 0 165 175 0 165 175 0 165 175 0 165 176 0 165 176 0 165 176 0 0
176 0 0 176 0 0 176 0 0 176 0 0 176 0 0 176 0 0 176 0 0 177 0 0 177 0
0 177 0 0 177 0 0 177 0 0 177 0 0 177 0 0 177 0 0 177 0 0 177 0 0 178
0 0 178 0 0 178 0 0 178 0 0 178 0 0 178 0 0 178 0 0 178 0 0 178 0 0
178 0 0 178 0 0 179 0 0 179 0 0 179 0 0 179 0 0 179 0 0 179 0 0 179 0
0 179 0 0 179 0 0 179 0 0 179 0 157 180 0 157 180 0 157 180 0 157 180
0 157 180 0 157 180 0 156 180 0 156 180 0 156 180 0 156 180 0 156 180
0 156 180 0 155 181 0 155 181 0 155 181 0 155 181 0 155 181 0 155 181
0 154 181 0 154 181 0 154 181 0 154 181 0 154 181 0 154 181 0 154 182
0 153 182 0 153 182 0 153 182 0 153 182 0 153 182 0 153 182 0 152 182
0 152 182 0 152 182 0 152 182 0 152 182 0 152 182 0 0 183 0 0 183 0
151 183 0 151 183 0 151 183 0 151 183 0 150 183 0 150 183 0 150 183 0
150 183 0 150 183 0 150 183 0 150 183 0 149 183 0 149 184 0 149 184 0
149 184 0 149 184 0 149 184 0 148 184 0 148 184 0 148 184 0 148 184 0
148 184 0 148 184 0 148 184 0 147 184 0 147 184 0 147 184 0 147 184 0
147 184 0 147 185 0 147 185 0 146 185 0 146 185 0 146 185 0 146 185 0
146 185 0 146 185 0 146 185 0 145 185 0 0 185 0 0 185 0 0 185 0 0 185
0 0 185 0 0 185 0 0 185 0 0 185 0 0 185 0 0 186 0 0 186 0 0 186 0 0
186 0 0 186 0 0 186 0
0 162 0 0 162 0 0 162 0 0 162 0 0 162 0 0 163 0 0 163 0 188 163 0 0
163 0 0 163 0 0 163 0 0 163 0 0 163 0 0 163 0 0 164 0 0 164 0 0 164 0
0 164 0 0 164 0 0 164 0 0 164 0 0 164 0 0 165 0 0 165 0 0 165 0 0 165
0 0 165 0 0 165 0 0 165 0 0 165 0 0 166 0 0 166 0 0 166 0 0 166 0 0
166 0 0 166 0 0 166 0 0 166 0 0 166 0 0 167 0 0 167 0 0 167 0 0 167 0
0 167 0 0 167 0 0 167 0 179 167 0 179 168 0 179 168 0 179 168 0 179
168 0 178 168 0 178 168 0 178 168 0 178 168 0 178 168 0 177 169 0 177
169 0 177 169 0 177 169 0 177 169 0 176 169 0 176 169 0 176 169 0 176
170 0 176 170 0 175 170 0 175 170 0 175 170 0 175 170 0 175 170 0 174
170 0 174 170 0 174 171 0 174 171 0 174 171 0 173 171 0 173 171 0 173
171 0 173 171 0 173 171 0 172 171 0 172 172 0 172 172 0 172 172 0 0
172 0 0 172 0 0 172 0 0 172 0 0 172 0 0 172 0 0 173 0 0 173 0 0 173 0
0 173 0 0 173 0 0 173 0 0 173 0 0 173 0 0 173 0 0 174 0 0 174 0 0 174
0 0 174 0 0 174 0 168 174 0 168 174 0 167 174 0 167 174 0 167 174 0
167 175 0 167 175 0 167 175 0 166 175 0 166 175 0 166 175 0 166 175 0
166 175 0 165 175 0 165 176 0 165 176 0 165 176 0 165 176 0 165 176 0
0 176 0 0 176 0 0 176 0 0 176 0 0 176 0 0 177 0 0 177 0 0 177 0 0 177
0 0 177 0 0 177 0 0 177 0 0 177 0 0 177 0 0 177 0 0 178 0 0 178 0 0
178 0 0 178 0 0 178 0 0 178 0 0 178 0 0 178 0 0 178 0 0 178 0 0 178 0
0 179 0 0 179 0 0 179 0 0 179 0 0 179 0 0 179 0 0 179 0 0 179 0 0 179
0 0 179 0 0 179 0 0 180 0 0 180 0 158 180 0 157 180 0 157 180 0 157
180 0 157 180 0 157 180 0 157 180 0 156 180 0 156 180 0 156 181 0 156
181 0 156 181 0 156 181 0 155 181 0 155 181 0 155 181 0 155 181 0 155
181 0 155 181 0 154 181 0 154 181 0 154 181 0 154 182 0 154 182 0 154
182 0 153 182 0 153 182 0 153 182 0 153 182 0 153 182 0 153 182 0 152
182 0 152 182 0 152 182 0 152 182 0 152 183 0 152 183 0 152 183 0 151
183 0 0 183 0 151 183 0 151 183 0 151 183 0 151 183 0 150 183 0 150
183 0 150 183 0 150 183 0 150 183 0 150 184 0 149 184 0 149 184 0 149
184 0 149 184 0 149 184 0 149 184 0 149 184 0 148 184 0 148 184 0 148
184 0 148 184 0 148 184 0 148 184 0 148 184 0 147 185 0 147 185 0 147
185 0 147 185 0 147 185 0 147 185 0 146 185 0 146 185 0 146 185 0 146
185 0 146 185 0 146 185 0 146 185 0 145 185 0 0 185 0 0 185 0 0 185 0
0 185 0 0 185 0 0 186 0 0 186 0 0 186 0 0 186 0 0 186 0 0 186 0 0 186
0 0 186 0 0 186 0 0 186 0
0 162 0 0 162 0 0 162 0 0 162 0 0 163 0 0 163 0 188 163 0 188 163 0
187 163 0 187 163 0 0 163 0 0 163 0 0 164 0 0 164 0 0 164 0 0 164 0 0
164 0 0 164 0 0 164 0 0 164 0 0 165 0 0 165 0 0 165 0 0 165 0 0 165 0
0 165 0 0 165 0 0 165 0 0 165 0 0 166 0 0 166 0 0 166 0 0 166 0 0 166
0 0 166 0 0 166 0 0 166 0 0 167 0 0 167 0 0 167 0 0 167 0 0 167 0 0
167 0 0 167 0 0 167 0 180 167 0 179 168 0 179 168 0 179 168 0 179 168
0 179 168 0 178 168 0 178 168 0 178 168 0 178 169 0 178 169 0 177 169
0 177 169 0 177 169 0 177 169 0 177 169 0 176 169 0 176 169 0 176 170
0 176 170 0 176 170 0 175 170 0 175 170 0 175 170 0 175 170 0 175 170
0 174 170 0 174 171 0 174 171 0 174 171 0 174 171 0 173 171 0 173 171
0 173 171 0 173 171 0 173 171 0 172 172 0 172 172 0 172 172 0 0 172 0
0 172 0 0 172 0 0 172 0 0 172 0 0 172 0 0 173 0 0 173 0 0 173 0 0 173
0 0 173 0 0 173 0 0 173 0 0 173 0 0 173 0 0 174 0 0 174 0 0 174 0 0
174 0 0 174 0 0 174 0 0 174 0 0 174 0 0 174 0 167 175 0 167 175 0 167
175 0 167 175 0 167 175 0 166 175 0 166 175 0 166 175 0 166 175 0 166
175 0 165 176 0 165 176 0 165 176 0 165 176 0 165 176 0 0 176 0 0 176
0 0 176 0 0 176 0 0 176 0 0 177 0 0 177 0 0 177 0 0 177 0 0 177 0 0
177 0 0 177 0 0 177 0 0 177 0 0 177 0 0 178 0 0 178 0 0 178 0 0 178 0
0 178 0 0 178 0 0 178 0 0 178 0 0 178 0 0 178 0 0 179 0 0 179 0 0 179
0 0 179 0 0 179 0 0 179 0 0 179 0 0 179 0 0 179 0 0 179 0 0 179 0 0
180 0 0 180 0 0 180 0 0 180 0 158 180 0 157 180 0 157 180 0 157 180 0
157 180 0 157 180 0 157 180 0 156 181 0 156 181 0 156 181 0 156 181 0
156 181 0 156 181 0 155 181 0 155 181 0 155 181 0 155 181 0 155 181 0
155 181 0 154 182 0 154 182 0 154 182 0 154 182 0 154 182 0 154 182 0
153 182 0 153 182 0 153 182 0 153 182 0 153 182 0 153 182 0 153 182 0
152 183 0 152 183 0 152 183 0 152 183 0 152 183 0 152 183 0 151 183 0
0 183 0 0 183 0 0 183 0 0 183 0 151 183 0 151 183 0 150 183 0 150 184
0 150 184 0 150 184 0 150 184 0 150 184 0 149 184 0 149 184 0 149 184
0 149 184 0 149 184 0 149 184 0 149 184 0 148 184 0 148 184 0 148 184
0 148 184 0 148 185 0 148 185 0 147 185 0 147 185 0 147 185 0 147 185
0 147 185 0 147 185 0 147 185 0 146 185 0 146 185 0 146 185 0 146 185
0 146 185 0 146 185 0 146 185 0 0 185 0 0 186 0 0 186 0 0 186 0 0 186
0 0 186 0 0 186 0 0 186 0 0 186 0 0 186 0 0 186 0 0 186 0 0 186 0 0
186 0 0 186 0
0 162 0 0 162 0 0 163 0 0 163 0 0 163 0 188 163 0 188 163 0 188 163 0
187 163 0 187 163 0 187 164 0 187 164 0 0 164 0 0 164 0 0 164 0 0 164
0 0 164 0 0 164 0 0 164 0 0 165 0 0 165 0 0 165 0 0 165 0 0 165 0 0
165 0 0 165 0 0 165 0 0 166 0 0 166 0 0 166 0 0 166 0 0 166 0 0 166 0
0 166 0 0 166 0 0 167 0 0 167 0 0 167 0 0 167 0 0 167 0 0 167 0 0 167
0 0 167 0 0 167 0 180 168 0 180 168 0 179 168 0 179 168 0 179 168 0
179 168 0 179 168 0 178 168 0 178 168 0 178 169 0 178 169 0 178 169 0
177 169 0 177 169 0 177 169 0 177 169 0 177 169 0 176 170 0 176 170 0
176 170 0 176 170 0 176 170 0 175 170 0 175 170 0 175 170 0 175 170 0
175 171 0 174 171 0 174 171 0 174 171 0 174 171 0 174 171 0 173 171 0
173 171 0 173 171 0 173 172 0 173 172 0 172 172 0 172 172 0 172 172 0
0 172 0 0 172 0 0 172 0 0 172 0 0 173 0 0 173 0 0 173 0 0 173 0 0 173
0 0 173 0 0 173 0 0 173 0 0 173 0 0 174 0 0 174 0 0 174 0 0 174 0 0
174 0 0 174 0 0 174 0 0 174 0 0 174 0 0 175 0 0 175 0 0 175 0 0 175 0
167 175 0 167 175 0 167 175 0 166 175 0 166 175 0 166 175 0 166 176 0
166 176 0 166 176 0 165 176 0 165 176 0 165 176 0 165 176 0 0 176 0 0
176 0 0 176 0 0 177 0 0 177 0 0 177 0 0 177 0 0 177 0 0 177 0 0 177 0
0 177 0 0 177 0 0 177 0 0 178 0 0 178 0 0 178 0 0 178 0 0 178 0 0 178
0 0 178 0 0 178 0 0 178 0 0 178 0 0 179 0 0 179 0 0 179 0 0 179 0 0
179 0 0 179 0 0 179 0 0 179 0 0 179 0 0 179 0 0 179 0 0 180 0 0 180 0
0 180 0 0 180 0 0 180 0 158 180 0 158 180 0 157 180 0 157 180 0 157
180 0 157 180 0 157 181 0 157 181 0 156 181 0 156 181 0 156 181 0 156
181 0 156 181 0 156 181 0 156 181 0 155 181 0 155 181 0 155 181 0 155
182 0 155 182 0 155 182 0 154 182 0 154 182 0 154 182 0 154 182 0 154
182 0 154 182 0 153 182 0 153 182 0 153 182 0 153 182 0 153 183 0 153
183 0 152 183 0 152 183 0 152 183 0 152 183 0 152 183 0 152 183 0 152
183 0 0 183 0 0 183 0 0 183 0 0 183 0 0 183 0 0 184 0 150 184 0 150
184 0 150 184 0 150 184 0 150 184 0 150 184 0 150 184 0 149 184 0 149
184 0 149 184 0 149 184 0 149 184 0 149 184 0 148 184 0 148 185 0 148
185 0 148 185 0 148 185 0 148 185 0 148 185 0 147 185 0 147 185 0 147
185 0 147 185 0 147 185 0 147 185 0 147 185 0 146 185 0 146 185 0 146
185 0 146 185 0 146 186 0 146 186 0 0 186 0 0 186 0 0 186 0 0 186 0 0
186 0 0 186 0 0 186 0 0 186 0 0 186 0 0 186 0 0 186 0 0 186 0 0 186 0
0 186 0 0 186 0
0 163 0 0 163 0 0 163 0 0 163 0 188 163 0 188 163 0 188 163 0 187 163
0 187 163 0 187 164 0 187 164 0 187 164 0 186 164 0 186 164 0 0 164 0
0 164 0 0 164 0 0 165 0 0 165 0 0 165 0 0 165 0 0 165 0 0 165 0 0 165
0 0 165 0 0 166 0 0 166 0 0 166 0 0 166 0 0 166 0 0 166 0 0 166 0 0
166 0 0 166 0 0 167 0 0 167 0 0 167 0 0 167 0 0 167 0 0 167 0 0 167 0
0 167 0 0 168 0 180 168 0 180 168 0 180 168 0 179 168 0 179 168 0 179
168 0 179 168 0 179 168 0 178 169 0 178 169 0 178 169 0 178 169 0 178
169 0 177 169 0 177 169 0 177 169 0 177 169 0 177 170 0 176 170 0 176
170 0 176 170 0 176 170 0 176 170 0 175 170 0 175 170 0 175 171 0 175
171 0 175 171 0 174 171 0 174 171 0 174 171 0 174 171 0 174 171 0 173
171 0 173 172 0 173 172 0 173 172 0 173 172 0 172 172 0 172 172 0 0
172 0 0 172 0 0 172 0 0 173 0 0 173 0 0 173 0 0 173 0 0 173 0 0 173 0
0 173 0 0 173 0 0 173 0 0 174 0 0 174 0 0 174 0 0 174 0 0 174 0 0 174
0 0 174 0 0 174 0 0 174 0 0 174 0 0 175 0 0 175 0 0 175 0 0 175 0 0
175 0 0 175 0 0 175 0 167 175 0 166 175 0 166 176 0 166 176 0 166 176
0 166 176 0 166 176 0 165 176 0 165 176 0 165 176 0 165 176 0 0 176 0
0 177 0 0 177 0 0 177 0 0 177 0 0 177 0 0 177 0 0 177 0 0 177 0 0 177
0 0 177 0 0 178 0 0 178 0 0 178 0 0 178 0 0 178 0 0 178 0 0 178 0 0
178 0 0 178 0 0 178 0 0 179 0 0 179 0 0 179 0 0 179 0 0 179 0 0 179 0
0 179 0 0 179 0 0 179 0 0 179 0 0 179 0 0 180 0 0 180 0 0 180 0 0 180
0 0 180 0 0 180 0 0 180 0 158 180 0 158 180 0 158 180 0 157 180 0 157
181 0 157 181 0 157 181 0 157 181 0 157 181 0 156 181 0 156 181 0 156
181 0 156 181 0 156 181 0 156 181 0 155 181 0 155 182 0 155 182 0 155
182 0 155 182 0 155 182 0 154 182 0 154 182 0 154 182 0 154 182 0 154
182 0 154 182 0 153 182 0 153 182 0 153 183 0 153 183 0 153 183 0 153
183 0 153 183 0 152 183 0 152 183 0 152 183 0 152 183 0 152 183 0 152
183 0 0 183 0 0 183 0 0 184 0 0 184 0 0 184 0 0 184 0 0 184 0 0 184 0
0 184 0 150 184 0 150 184 0 150 184 0 150 184 0 149 184 0 149 184 0
149 184 0 149 184 0 149 185 0 149 185 0 149 185 0 148 185 0 148 185 0
148 185 0 148 185 0 148 185 0 148 185 0 147 185 0 147 185 0 147 185 0
147 185 0 147 185 0 147 185 0 147 185 0 146 186 0 146 186 0 146 186 0
146 186 0 146 186 0 146 186 0 0 186 0 0 186 0 0 186 0 0 186 0 0 186 0
0 186 0 0 186 0 0 186 0 0 186 0 0 186 0 0 186 0 0 186 0 0 186 0 0 186
0 0 187 0
0 163 0 0 163 0 0 163 0 188 163 0 188 163 0 188 163 0 188 163 0 187
164 0 187 164 0 187 164 0 187 164 0 187 164 0 186 164 0 186 164 0 186
164 0 0 165 0 0 165 0 0 165 0 0 165 0 0 165 0 0 165 0 0 165 0 0 165 0
0 165 0 0 166 0 0 166 0 0 166 0 0 166 0 0 166 0 0 166 0 0 166 0 0 166
0 0 167 0 0 167 0 0 167 0 0 167 0 0 167 0 0 167 0 0 167 0 0 167 0 0
167 0 0 168 0 0 168 0 180 168 0 180 168 0 180 168 0 179 168 0 179 168
0 179 168 0 179 169 0 179 169 0 178 169 0 178 169 0 178 169 0 178 169
0 178 169 0 177 169 0 177 169 0 177 170 0 177 170 0 177 170 0 176 170
0 176 170 0 176 170 0 176 170 0 176 170 0 175 170 0 175 171 0 175 171
0 175 171 0 175 171 0 174 171 0 174 171 0 174 171 0 174 171 0 174 171
0 173 172 0 173 172 0 173 172 0 173 172 0 173 172 0 172 172 0 0 172 0
0 172 0 0 172 0 0 173 0 0 173 0 0 173 0 0 173 0 0 173 0 0 173 0 0 173
0 0 173 0 0 173 0 0 174 0 0 174 0 0 174 0 0 174 0 0 174 0 0 174 0 0
174 0 0 174 0 0 174 0 0 175 0 0 175 0 0 175 0 0 175 0 0 175 0 0 175 0
0 175 0 0 175 0 0 175 0 0 175 0 0 176 0 0 176 0 166 176 0 166 176 0
166 176 0 166 176 0 165 176 0 165 176 0 165 176 0 0 177 0 0 177 0 0
177 0 0 177 0 0 177 0 0 177 0 0 177 0 0 177 0 0 177 0 0 177 0 0 178 0
0 178 0 0 178 0 0 178 0 0 178 0 0 178 0 0 178 0 0 178 0 0 178 0 0 178
0 0 178 0 0 179 0 0 179 0 0 179 0 0 179 0 0 179 0 0 179 0 0 179 0 0
179 0 0 179 0 0 179 0 0 180 0 0 180 0 0 180 0 0 180 0 0 180 0 0 180 0
0 180 0 0 180 0 0 180 0 158 180 0 158 180 0 158 181 0 157 181 0 157
181 0 157 181 0 157 181 0 157 181 0 157 181 0 156 181 0 156 181 0 156
181 0 156 181 0 156 181 0 156 182 0 155 182 0 155 182 0 155 182 0 155
182 0 155 182 0 155 182 0 154 182 0 154 182 0 154 182 0 154 182 0 154
182 0 154 183 0 154 183 0 153 183 0 153 183 0 153 183 0 153 183 0 153
183 0 153 183 0 152 183 0 152 183 0 152 183 0 152 183 0 152 183 0 152
183 0 0 184 0 0 184 0 0 184 0 0 184 0 0 184 0 0 184 0 0 184 0 0 184 0
0 184 0 0 184 0 0 184 0 0 184 0 150 184 0 150 184 0 149 185 0 149 185
0 149 185 0 149 185 0 149 185 0 149 185 0 148 185 0 148 185 0 148 185
0 148 185 0 148 185 0 148 185 0 148 185 0 147 185 0 147 185 0 147 185
0 147 186 0 147 186 0 147 186 0 147 186 0 146 186 0 146 186 0 146 186
0 146 186 0 146 186 0 0 186 0 0 186 0 0 186 0 0 186 0 0 186 0 0 186 0
0 186 0 0 186 0 0 186 0 0 186 0 0 187 0 0 187 0 0 187 0 0 187 0 0 187
0
0 163 0 0 163 0 188 163 0 188 163 0 188 163 0 188 164 0 188 164 0 187
164 0 187 164 0 187 164 0 187 164 0 187 164 0 186 164 0 186 164 0 186
165 0 186 165 0 185 165 0 0 165 0 0 165 0 0 165 0 0 165 0 0 165 0 0
166 0 0 166 0 0 166 0 0 166 0 0 166 0 0 166 0 0 166 0 0 166 0 0 166 0
0 167 0 0 167 0 0 167 0 0 167 0 0 167 0 0 167 0 0 167 0 0 167 0 0 168
0 0 168 0 0 168 0 180 168 0 180 168 0 180 168 0 180 168 0 179 168 0
179 168 0 179 169 0 179 169 0 179 169 0 178 169 0 178 169 0 178 169 0
178 169 0 178 169 0 177 170 0 177 170 0 177 170 0 177 170 0 177 170 0
176 170 0 176 170 0 176 170 0 176 170 0 176 171 0 175 171 0 175 171 0
175 171 0 175 171 0 175 171 0 174 171 0 174 171 0 174 171 0 174 172 0
174 172 0 173 172 0 173 172 0 173 172 0 173 172 0 173 172 0 172 172 0
0 172 0 0 173 0 0 173 0 0 173 0 0 173 0 0 173 0 0 173 0 0 173 0 0 173
0 0 173 0 0 174 0 0 174 0 0 174 0 0 174 0 0 174 0 0 174 0 0 174 0 0
174 0 0 174 0 0 175 0 0 175 0 0 175 0 0 175 0 0 175 0 0 175 0 0 175 0
0 175 0 0 175 0 0 175 0 0 176 0 0 176 0 0 176 0 0 176 0 0 176 0 0 176
0 166 176 0 166 176 0 165 176 0 165 176 0 165 177 0 0 177 0 0 177 0 0
177 0 0 177 0 0 177 0 0 177 0 0 177 0 0 177 0 0 177 0 0 178 0 0 178 0
0 178 0 0 178 0 0 178 0 0 178 0 0 178 0 0 178 0 0 178 0 0 178 0 0 179
0 0 179 0 0 179 0 0 179 0 0 179 0 0 179 0 0 179 0 0 179 0 0 179 0 0
179 0 0 180 0 0 180 0 0 180 0 0 180 0 0 180 0 0 180 0 0 180 0 0 180 0
0 180 0 0 180 0 0 180 0 158 180 0 158 181 0 158 181 0 157 181 0 157
181 0 157 181 0 157 181 0 157 181 0 157 181 0 157 181 0 156 181 0 156
181 0 156 182 0 156 182 0 156 182 0 156 182 0 155 182 0 155 182 0 155
182 0 155 182 0 155 182 0 155 182 0 154 182 0 154 182 0 154 183 0 154
183 0 154 183 0 154 183 0 153 183 0 153 183 0 153 183 0 153 183 0 153
183 0 153 183 0 153 183 0 152 183 0 152 183 0 152 184 0 152 184 0 152
184 0 0 184 0 0 184 0 0 184 0 0 184 0 0 184 0 0 184 0 0 184 0 0 184 0
0 184 0 0 184 0 0 184 0 0 184 0 0 185 0 0 185 0 0 185 0 149 185 0 149
185 0 149 185 0 149 185 0 149 185 0 149 185 0 148 185 0 148 185 0 148
185 0 148 185 0 148 185 0 148 185 0 148 186 0 147 186 0 147 186 0 147
186 0 147 186 0 147 186 0 147 186 0 147 186 0 146 186 0 146 186 0 146
186 0 146 186 0 0 186 0 0 186 0 0 186 0 0 186 0 0 186 0 0 186 0 0 186
0 0 187 0 0 187 0 0 187 0 0 187 0 0 187 0 0 187 0 0 187 0 0 187 0
0 163 0 189 163 0 188 163 0 188 163 0 188 164 0 188 164 0 188 164 0
187 164 0 187 164 0 187 164 0 187 164 0 186 164 0 186 165 0 186 165 0
186 165 0 186 165 0 185 165 0 185 165 0 185 165 0 0 165 0 0 165 0 0
166 0 0 166 0 0 166 0 0 166 0 0 166 0 0 166 0 0 166 0 0 166 0 0 167 0
0 167 0 0 167 0 0 167 0 0 167 0 0 167 0 0 167 0 0 167 0 0 167 0 0 168
0 0 168 0 0 168 0 180 168 0 180 168 0 180 168 0 180 168 0 179 168 0
179 169 0 179 169 0 179 169 0 179 169 0 178 169 0 178 169 0 178 169 0
178 169 0 178 169 0 177 170 0 177 170 0 177 170 0 177 170 0 177 170 0
177 170 0 176 170 0 176 170 0 176 170 0 176 171 0 176 171 0 175 171 0
175 171 0 175 171 0 175 171 0 175 171 0 174 171 0 174 172 0 174 172 0
174 172 0 174 172 0 173 172 0 173 172 0 173 172 0 173 172 0 173 172 0
0 173 0 0 173 0 0 173 0 0 173 0 0 173 0 0 173 0 0 173 0 0 173 0 0 173
0 0 173 0 0 174 0 0 174 0 0 174 0 0 174 0 0 174 0 0 174 0 0 174 0 0
174 0 0 174 0 0 175 0 0 175 0 0 175 0 0 175 0 0 175 0 0 175 0 0 175 0
0 175 0 0 175 0 0 176 0 0 176 0 0 176 0 0 176 0 0 176 0 0 176 0 0 176
0 0 176 0 0 176 0 0 176 0 165 177 0 165 177 0 0 177 0 0 177 0 0 177 0
0 177 0 0 177 0 0 177 0 0 177 0 0 177 0 0 178 0 0 178 0 0 178 0 0 178
0 0 178 0 0 178 0 0 178 0 0 178 0 0 178 0 0 178 0 0 179 0 0 179 0 0
179 0 0 179 0 0 179 0 0 179 0 0 179 0 0 179 0 0 179 0 0 179 0 0 179 0
0 180 0 0 180 0 0 180 0 0 180 0 0 180 0 0 180 0 0 180 0 0 180 0 0 180
0 0 180 0 0 180 0 158 181 0 158 181 0 158 181 0 158 181 0 158 181 0
157 181 0 157 181 0 157 181 0 157 181 0 157 181 0 157 181 0 156 182 0
156 182 0 156 182 0 156 182 0 156 182 0 156 182 0 155 182 0 155 182 0
155 182 0 155 182 0 155 182 0 155 182 0 154 183 0 154 183 0 154 183 0
154 183 0 154 183 0 154 183 0 154 183 0 153 183 0 153 183 0 153 183 0
153 183 0 153 183 0 153 183 0 152 184 0 152 184 0 152 184 0 152 184 0
0 184 0 0 184 0 0 184 0 0 184 0 0 184 0 0 184 0 0 184 0 0 184 0 0 184
0 0 184 0 0 185 0 0 185 0 0 185 0 0 185 0 0 185 0 0 185 0 0 185 0 0
185 0 0 185 0 149 185 0 149 185 0 149 185 0 148 185 0 148 185 0 148
185 0 148 185 0 148 186 0 148 186 0 148 186 0 147 186 0 147 186 0 147
186 0 147 186 0 147 186 0 147 186 0 147 186 0 146 186 0 146 186 0 146
186 0 146 186 0 146 186 0 0 186 0 0 186 0 0 187 0 0 187 0 0 187 0 0
187 0 0 187 0 0 187 0 0 187 0 0 187 0 0 187 0 0 187 0 0 187 0 0 187 0
189 163 0 189 163 0 188 164 0 188 164 0 188 164 0 188 164 0 187 164 0
187 164 0 187 164 0 187 164 0 187 164 0 186 165 0 186 165 0 186 165 0
186 165 0 186 165 0 185 165 0 185 165 0 185 165 0 185 166 0 185 166 0
0 166 0 0 166 0 0 166 0 0 166 0 0 166 0 0 166 0 0 166 0 0 167 0 0 167
0 0 167 0 0 167 0 0 167 0 0 167 0 0 167 0 0 167 0 0 168 0 0 168 0 0
168 0 0 168 0 180 168 0 180 168 0 180 168 0 180 168 0 180 168 0 179
169 0 179 169 0 179 169 0 179 169 0 179 169 0 178 169 0 178 169 0 178
169 0 178 170 0 178 170 0 177 170 0 177 170 0 177 170 0 177 170 0 177
170 0 176 170 0 176 170 0 176 171 0 176 171 0 176 171 0 176 171 0 175
171 0 175 171 0 175 171 0 175 171 0 175 171 0 174 172 0 174 172 0 174
172 0 174 172 0 174 172 0 173 172 0 173 172 0 173 172 0 173 172 0 173
173 0 0 173 0 0 173 0 0 173 0 0 173 0 0 173 0 0 173 0 0 173 0 0 173 0
0 174 0 0 174 0 0 174 0 0 174 0 0 174 0 0 174 0 0 174 0 0 174 0 0 174
0 0 175 0 0 175 0 0 175 0 0 175 0 0 175 0 0 175 0 0 175 0 0 175 0 0
175 0 0 175 0 0 176 0 0 176 0 0 176 0 0 176 0 0 176 0 0 176 0 0 176 0
0 176 0 0 176 0 0 177 0 0 177 0 0 177 0 0 177 0 165 177 0 0 177 0 0
177 0 0 177 0 0 177 0 0 177 0 0 178 0 0 178 0 0 178 0 0 178 0 0 178 0
0 178 0 0 178 0 0 178 0 0 178 0 0 178 0 0 179 0 0 179 0 0 179 0 0 179
0 0 179 0 0 179 0 0 179 0 0 179 0 0 179 0 0 179 0 0 179 0 0 180 0 0
180 0 0 180 0 0 180 0 0 180 0 0 180 0 0 180 0 0 180 0 0 180 0 0 180 0
0 180 0 0 181 0 0 181 0 158 181 0 158 181 0 158 181 0 158 181 0 158
181 0 157 181 0 157 181 0 157 181 0 157 181 0 157 182 0 157 182 0 156
182 0 156 182 0 156 182 0 156 182 0 156 182 0 156 182 0 155 182 0 155
182 0 155 182 0 155 182 0 155 183 0 155 183 0 155 183 0 154 183 0 154
183 0 154 183 0 154 183 0 154 183 0 154 183 0 153 183 0 153 183 0 153
183 0 153 183 0 153 184 0 153 184 0 152 184 0 152 184 0 152 184 0 152
184 0 0 184 0 0 184 0 0 184 0 0 184 0 0 184 0 0 184 0 0 184 0 0 184 0
0 185 0 0 185 0 0 185 0 0 185 0 0 185 0 0 185 0 0 185 0 0 185 0 0 185
0 0 185 0 0 185 0 0 185 0 0 185 0 149 185 0 149 185 0 148 186 0 148
186 0 148 186 0 148 186 0 148 186 0 148 186 0 148 186 0 147 186 0 147
186 0 147 186 0 147 186 0 147 186 0 147 186 0 147 186 0 146 186 0 146
186 0 146 186 0 146 187 0 0 187 0 0 187 0 0 187 0 0 187 0 0 187 0 0
187 0 0 187 0 0 187 0 0 187 0 0 187 0 0 187 0 0 187 0 0 187 0 0 187 0
189 163 0 188 164 0 188 164 0 188 164 0 188 164 0 188 164 0 187 164 0
187 164 0 187 164 0 187 165 0 187 165 0 186 165 0 186 165 0 186 165 0
186 165 0 186 165 0 185 165 0 185 166 0 185 166 0 185 166 0 184 166 0
184 166 0 184 166 0 0 166 0 0 166 0 0 166 0 0 167 0 0 167 0 0 167 0 0
167 0 0 167 0 0 167 0 0 167 0 0 167 0 0 167 0 0 168 0 0 168 0 0 168 0
0 168 0 0 168 0 180 168 0 180 168 0 180 168 0 180 169 0 180 169 0 179
169 0 179 169 0 179 169 0 179 169 0 179 169 0 178 169 0 178 169 0 178
170 0 178 170 0 178 170 0 177 170 0 177 170 0 177 170 0 177 170 0 177
170 0 176 170 0 176 171 0 176 171 0 176 171 0 176 171 0 175 171 0 175
171 0 175 171 0 175 171 0 175 172 0 175 172 0 174 172 0 174 172 0 174
172 0 174 172 0 174 172 0 173 172 0 173 172 0 173 173 0 173 173 0 0
173 0 0 173 0 0 173 0 0 173 0 0 173 0 0 173 0 0 173 0 0 174 0 0 174 0
0 174 0 0 174 0 0 174 0 0 174 0 0 174 0 0 174 0 0 174 0 0 174 0 0 175
0 0 175 0 0 175 0 0 175 0 0 175 0 0 175 0 0 175 0 0 175 0 0 175 0 0
176 0 0 176 0 0 176 0 0 176 0 0 176 0 0 176 0 0 176 0 0 176 0 0 176 0
0 176 0 0 177 0 0 177 0 0 177 0 0 177 0 0 177 0 165 177 0 165 177 0
165 177 0 0 177 0 0 177 0 0 178 0 0 178 0 0 178 0 0 178 0 0 178 0 0
178 0 0 178 0 0 178 0 0 178 0 0 178 0 0 179 0 0 179 0 0 179 0 0 179 0
0 179 0 0 179 0 0 179 0 0 179 0 0 179 0 0 179 0 0 180 0 0 180 0 0 180
0 0 180 0 0 180 0 0 180 0 0 180 0 0 180 0 0 180 0 0 180 0 0 180 0 0
181 0 0 181 0 0 181 0 0 181 0 158 181 0 158 181 0 158 181 0 158 181 0
158 181 0 157 181 0 157 181 0 157 182 0 157 182 0 157 182 0 157 182 0
157 182 0 156 182 0 156 182 0 156 182 0 156 182 0 156 182 0 156 182 0
155 182 0 155 183 0 155 183 0 155 183 0 155 183 0 155 183 0 154 183 0
154 183 0 154 183 0 154 183 0 154 183 0 154 183 0 153 183 0 153 183 0
153 184 0 153 184 0 153 184 0 153 184 0 153 184 0 152 184 0 152 184 0
152 184 0 0 184 0 0 184 0 0 184 0 0 184 0 0 184 0 0 185 0 0 185 0 0
185 0 0 185 0 0 185 0 0 185 0 0 185 0 0 185 0 0 185 0 0 185 0 0 185 0
0 185 0 0 185 0 0 185 0 0 185 0 0 186 0 0 186 0 0 186 0 0 186 0 148
186 0 148 186 0 148 186 0 148 186 0 148 186 0 148 186 0 147 186 0 147
186 0 147 186 0 147 186 0 147 186 0 147 186 0 147 186 0 146 187 0 146
187 0 146 187 0 146 187 0 0 187 0 0 187 0 0 187 0 0 187 0 0 187 0 0
187 0 0 187 0 0 187 0 0 187 0 0 187 0 0 187 0 0 187 0 0 187 0 0 187 0
189 164 0 188 164 0 188 164 0 188 164 0 188 164 0 188 164 0 187 164 0
187 165 0 187 165 0 187 165 0 187 165 0 186 165 0 186 165 0 186 165 0
186 165 0 185 165 0 185 166 0 185 166 0 185 166 0 185 166 0 184 166 0
184 166 0 184 166 0 184 166 0 184 167 0 0 167 0 0 167 0 0 167 0 0 167
0 0 167 0 0 167 0 0 167 0 0 167 0 0 168 0 0 168 0 0 168 0 0 168 0 0
168 0 0 168 0 181 168 0 180 168 0 180 168 0 180 169 0 180 169 0 180
169 0 179 169 0 179 169 0 179 169 0 179 169 0 179 169 0 178 170 0 178
170 0 178 170 0 178 170 0 178 170 0 177 170 0 177 170 0 177 170 0 177
170 0 177 171 0 176 171 0 176 171 0 176 171 0 176 171 0 176 171 0 175
171 0 175 171 0 175 171 0 175 172 0 175 172 0 175 172 0 174 172 0 174
172 0 174 172 0 174 172 0 174 172 0 173 172 0 173 173 0 173 173 0 173
173 0 0 173 0 0 173 0 0 173 0 0 173 0 0 173 0 0 173 0 0 174 0 0 174 0
0 174 0 0 174 0 0 174 0 0 174 0 0 174 0 0 174 0 0 174 0 0 175 0 0 175
0 0 175 0 0 175 0 0 175 0 0 175 0 0 175 0 0 175 0 0 175 0 0 176 0 0
176 0 0 176 0 0 176 0 0 176 0 0 176 0 0 176 0 0 176 0 0 176 0 0 176 0
0 177 0 0 177 0 0 177 0 0 177 0 0 177 0 0 177 0 165 177 0 165 177 0
165 177 0 165 177 0 165 178 0 164 178 0 164 178 0 0 178 0 0 178 0 0
178 0 0 178 0 0 178 0 0 178 0 0 178 0 0 179 0 0 179 0 0 179 0 0 179 0
0 179 0 0 179 0 0 179 0 0 179 0 0 179 0 0 179 0 0 180 0 0 180 0 0 180
0 0 180 0 0 180 0 0 180 0 0 180 0 0 180 0 0 180 0 0 180 0 0 180 0 0
181 0 0 181 0 0 181 0 0 181 0 0 181 0 0 181 0 158 181 0 158 181 0 158
181 0 158 181 0 158 181 0 158 182 0 157 182 0 157 182 0 157 182 0 157
182 0 157 182 0 157 182 0 156 182 0 156 182 0 156 182 0 156 182 0 156
182 0 156 183 0 155 183 0 155 183 0 155 183 0 155 183 0 155 183 0 155
183 0 154 183 0 154 183 0 154 183 0 154 183 0 154 183 0 154 183 0 154
184 0 153 184 0 153 184 0 153 184 0 153 184 0 153 184 0 153 184 0 152
184 0 152 184 0 152 184 0 0 184 0 0 184 0 0 184 0 0 185 0 0 185 0 0
185 0 0 185 0 0 185 0 0 185 0 0 185 0 0 185 0 0 185 0 0 185 0 0 185 0
0 185 0 0 185 0 0 185 0 0 185 0 0 186 0 0 186 0 0 186 0 0 186 0 0 186
0 0 186 0 0 186 0 0 186 0 0 186 0 148 186 0 148 186 0 148 186 0 148
186 0 147 186 0 147 186 0 147 186 0 147 187 0 147 187 0 147 187 0 147
187 0 146 187 0 146 187 0 146 187 0 0 187 0 0 187 0 0 187 0 0 187 0 0
187 0 0 187 0 0 187 0 0 187 0 0 187 0 0 187 0 0 187 0 0 187 0 0 188 0
0 188 0
189 164 0 188 164 0 188 164 0 188 164 0 188 164 0 187 164 0 187 165 0
187 165 0 187 165 0 187 165 0 186 165 0 186 165 0 186 165 0 186 165 0
186 166 0 185 166 0 185 166 0 185 166 0 185 166 0 185 166 0 184 166 0
184 166 0 184 166 0 184 167 0 184 167 0 183 167 0 183 167 0 0 167 0 0
167 0 0 167 0 0 167 0 0 168 0 0 168 0 0 168 0 0 168 0 0 168 0 0 168 0
0 168 0 181 168 0 181 168 0 180 169 0 180 169 0 180 169 0 180 169 0
180 169 0 179 169 0 179 169 0 179 169 0 179 169 0 179 170 0 178 170 0
178 170 0 178 170 0 178 170 0 178 170 0 177 170 0 177 170 0 177 171 0
177 171 0 177 171 0 176 171 0 176 171 0 176 171 0 176 171 0 176 171 0
175 171 0 175 172 0 175 172 0 175 172 0 175 172 0 175 172 0 174 172 0
174 172 0 174 172 0 174 172 0 174 173 0 173 173 0 173 173 0 173 173 0
0 173 0 0 173 0 0 173 0 0 173 0 0 173 0 0 174 0 0 174 0 0 174 0 0 174
0 0 174 0 0 174 0 0 174 0 0 174 0 0 174 0 0 174 0 0 175 0 0 175 0 0
175 0 0 175 0 0 175 0 0 175 0 0 175 0 0 175 0 0 175 0 0 176 0 0 176 0
0 176 0 0 176 0 0 176 0 0 176 0 0 176 0 0 176 0 0 176 0 0 177 0 0 177
0 0 177 0 0 177 0 0 177 0 0 177 0 0 177 0 0 177 0 165 177 0 165 177 0
165 178 0 165 178 0 165 178 0 164 178 0 164 178 0 164 178 0 164 178 0
0 178 0 0 178 0 0 178 0 0 179 0 0 179 0 0 179 0 0 179 0 0 179 0 0 179
0 0 179 0 0 179 0 0 179 0 0 179 0 0 179 0 0 180 0 0 180 0 0 180 0 0
180 0 0 180 0 0 180 0 0 180 0 0 180 0 0 180 0 0 180 0 0 181 0 0 181 0
0 181 0 0 181 0 0 181 0 0 181 0 0 181 0 159 181 0 158 181 0 158 181 0
158 181 0 158 181 0 158 182 0 158 182 0 157 182 0 157 182 0 157 182 0
157 182 0 157 182 0 157 182 0 156 182 0 156 182 0 156 182 0 156 183 0
156 183 0 156 183 0 156 183 0 155 183 0 155 183 0 155 183 0 155 183 0
155 183 0 155 183 0 154 183 0 154 183 0 154 183 0 154 184 0 154 184 0
154 184 0 153 184 0 153 184 0 153 184 0 153 184 0 153 184 0 153 184 0
153 184 0 152 184 0 152 184 0 0 184 0 0 185 0 0 185 0 0 185 0 0 185 0
0 185 0 0 185 0 0 185 0 0 185 0 0 185 0 0 185 0 0 185 0 0 185 0 0 185
0 0 185 0 0 186 0 0 186 0 0 186 0 0 186 0 0 186 0 0 186 0 0 186 0 0
186 0 0 186 0 0 186 0 0 186 0 0 186 0 0 186 0 0 186 0 0 186 0 148 186
0 148 187 0 147 187 0 147 187 0 147 187 0 147 187 0 147 187 0 147 187
0 147 187 0 146 187 0 146 187 0 0 187 0 0 187 0 0 187 0 0 187 0 0 187
0 0 187 0 0 187 0 0 187 0 0 188 0 0 188 0 0 188 0 0 188 0 0 188 0 0
188 0
188 164 0 188 164 0 188 164 0 188 164 0 188 165 0 187 165 0 187 165 0
187 165 0 187 165 0 187 165 0 186 165 0 186 165 0 186 165 0 186 166 0
186 166 0 185 166 0 185 166 0 185 166 0 185 166 0 185 166 0 184 166 0
184 167 0 184 167 0 184 167 0 184 167 0 183 167 0 183 167 0 183 167 0
183 167 0 0 167 0 0 168 0 0 168 0 0 168 0 0 168 0 0 168 0 0 168 0 0
168 0 181 168 0 181 169 0 181 169 0 180 169 0 180 169 0 180 169 0 180
169 0 180 169 0 179 169 0 179 169 0 179 170 0 179 170 0 179 170 0 178
170 0 178 170 0 178 170 0 178 170 0 178 170 0 177 170 0 177 171 0 177
171 0 177 171 0 177 171 0 176 171 0 176 171 0 176 171 0 176 171 0 176
171 0 175 172 0 175 172 0 175 172 0 175 172 0 175 172 0 175 172 0 174
172 0 174 172 0 174 172 0 174 173 0 174 173 0 173 173 0 173 173 0 0
173 0 0 173 0 0 173 0 0 173 0 0 173 0 0 174 0 0 174 0 0 174 0 0 174 0
0 174 0 0 174 0 0 174 0 0 174 0 0 174 0 0 175 0 0 175 0 0 175 0 0 175
0 0 175 0 0 175 0 0 175 0 0 175 0 0 175 0 0 176 0 0 176 0 0 176 0 0
176 0 0 176 0 0 176 0 0 176 0 0 176 0 0 176 0 0 176 0 0 177 0 0 177 0
0 177 0 0 177 0 0 177 0 0 177 0 0 177 0 0 177 0 166 177 0 165 177 0
165 178 0 165 178 0 165 178 0 165 178 0 165 178 0 164 178 0 164 178 0
164 178 0 164 178 0 164 178 0 0 179 0 0 179 0 0 179 0 0 179 0 0 179 0
0 179 0 0 179 0 0 179 0 0 179 0 0 179 0 0 180 0 0 180 0 0 180 0 0 180
0 0 180 0 0 180 0 0 180 0 0 180 0 0 180 0 0 180 0 0 180 0 0 181 0 0
181 0 0 181 0 0 181 0 0 181 0 0 181 0 0 181 0 0 181 0 159 181 0 158
181 0 158 181 0 158 182 0 158 182 0 158 182 0 158 182 0 157 182 0 157
182 0 157 182 0 157 182 0 157 182 0 157 182 0 157 182 0 156 183 0 156
183 0 156 183 0 156 183 0 156 183 0 156 183 0 155 183 0 155 183 0 155
183 0 155 183 0 155 183 0 155 183 0 154 183 0 154 184 0 154 184 0 154
184 0 154 184 0 154 184 0 154 184 0 153 184 0 153 184 0 153 184 0 153
184 0 153 184 0 153 184 0 152 184 0 152 185 0 0 185 0 0 185 0 0 185 0
0 185 0 0 185 0 0 185 0 0 185 0 0 185 0 0 185 0 0 185 0 0 185 0 0 185
0 0 185 0 0 186 0 0 186 0 0 186 0 0 186 0 0 186 0 0 186 0 0 186 0 0
186 0 0 186 0 0 186 0 0 186 0 0 186 0 0 186 0 0 186 0 0 186 0 0 187 0
0 187 0 0 187 0 0 187 0 0 187 0 147 187 0 147 187 0 147 187 0 147 187
0 147 187 0 147 187 0 146 187 0 146 187 0 0 187 0 0 187 0 0 187 0 0
187 0 0 187 0 0 188 0 0 188 0 0 188 0 0 188 0 0 188 0 0 188 0 0 188 0
0 188 0 0 188 0
188 164 0 188 164 0 188 164 0 188 165 0 188 165 0 187 165 0 187 165 0
187 165 0 187 165 0 187 165 0 186 165 0 186 166 0 186 166 0 186 166 0
186 166 0 185 166 0 185 166 0 185 166 0 185 166 0 184 166 0 184 167 0
184 167 0 184 167 0 184 167 0 183 167 0 183 167 0 183 167 0 183 167 0
183 168 0 182 168 0 182 168 0 0 168 0 0 168 0 0 168 0 0 168 0 0 168 0
0 168 0 181 169 0 181 169 0 180 169 0 180 169 0 180 169 0 180 169 0
180 169 0 180 169 0 179 169 0 179 170 0 179 170 0 179 170 0 179 170 0
178 170 0 178 170 0 178 170 0 178 170 0 178 171 0 177 171 0 177 171 0
177 171 0 177 171 0 177 171 0 176 171 0 176 171 0 176 171 0 176 172 0
176 172 0 175 172 0 175 172 0 175 172 0 175 172 0 175 172 0 174 172 0
174 172 0 174 173 0 174 173 0 174 173 0 174 173 0 173 173 0 173 173 0
0 173 0 0 173 0 0 173 0 0 174 0 0 174 0 0 174 0 0 174 0 0 174 0 0 174
0 0 174 0 0 174 0 0 174 0 0 175 0 0 175 0 0 175 0 0 175 0 0 175 0 0
175 0 0 175 0 0 175 0 0 175 0 0 175 0 0 176 0 0 176 0 0 176 0 0 176 0
0 176 0 0 176 0 0 176 0 0 176 0 0 176 0 0 177 0 0 177 0 0 177 0 0 177
0 0 177 0 0 177 0 0 177 0 0 177 0 0 177 0 0 177 0 166 178 0 165 178 0
165 178 0 165 178 0 165 178 0 165 178 0 165 178 0 164 178 0 164 178 0
164 178 0 164 179 0 164 179 0 164 179 0 163 179 0 163 179 0 0 179 0 0
179 0 0 179 0 0 179 0 0 179 0 0 180 0 0 180 0 0 180 0 0 180 0 0 180 0
0 180 0 0 180 0 0 180 0 0 180 0 0 180 0 0 180 0 0 181 0 0 181 0 0 181
0 0 181 0 0 181 0 0 181 0 0 181 0 0 181 0 0 181 0 0 181 0 159 181 0
158 182 0 158 182 0 158 182 0 158 182 0 158 182 0 158 182 0 158 182 0
157 182 0 157 182 0 157 182 0 157 182 0 157 183 0 157 183 0 156 183 0
156 183 0 156 183 0 156 183 0 156 183 0 156 183 0 155 183 0 155 183 0
155 183 0 155 183 0 155 183 0 155 184 0 155 184 0 154 184 0 154 184 0
154 184 0 154 184 0 154 184 0 154 184 0 153 184 0 153 184 0 153 184 0
153 184 0 153 185 0 153 185 0 153 185 0 152 185 0 0 185 0 0 185 0 0
185 0 0 185 0 0 185 0 0 185 0 0 185 0 0 185 0 0 185 0 0 185 0 0 186 0
0 186 0 0 186 0 0 186 0 0 186 0 0 186 0 0 186 0 0 186 0 0 186 0 0 186
0 0 186 0 0 186 0 0 186 0 0 186 0 0 186 0 0 186 0 0 187 0 0 187 0 0
187 0 0 187 0 0 187 0 0 187 0 0 187 0 0 187 0 0 187 0 147 187 0 147
187 0 147 187 0 147 187 0 147 187 0 146 187 0 0 187 0 0 187 0 0 188 0
0 188 0 0 188 0 0 188 0 0 188 0 0 188 0 0 188 0 0 188 0 0 188 0 0 188
0 0 188 0 0 188 0
188 164 0 188 165 0 188 165 0 188 165 0 188 165 0 187 165 0 187 165 0
187 165 0 187 165 0 186 165 0 186 166 0 186 166 0 186 166 0 186 166 0
185 166 0 185 166 0 185 166 0 185 166 0 185 167 0 184 167 0 184 167 0
184 167 0 184 167 0 184 167 0 183 167 0 183 167 0 183 167 0 183 168 0
183 168 0 182 168 0 182 168 0 182 168 0 182 168 0 0 168 0 0 168 0 0
169 0 181 169 0 181 169 0 181 169 0 180 169 0 180 169 0 180 169 0 180
169 0 180 169 0 179 170 0 179 170 0 179 170 0 179 170 0 179 170 0 178
170 0 178 170 0 178 170 0 178 170 0 178 171 0 178 171 0 177 171 0 177
171 0 177 171 0 177 171 0 177 171 0 176 171 0 176 171 0 176 172 0 176
172 0 176 172 0 175 172 0 175 172 0 175 172 0 175 172 0 175 172 0 174
172 0 174 173 0 174 173 0 174 173 0 174 173 0 174 173 0 173 173 0 0
173 0 0 173 0 0 173 0 0 174 0 0 174 0 0 174 0 0 174 0 0 174 0 0 174 0
0 174 0 0 174 0 0 174 0 0 175 0 0 175 0 0 175 0 0 175 0 0 175 0 0 175
0 0 175 0 0 175 0 0 175 0 0 176 0 0 176 0 0 176 0 0 176 0 0 176 0 0
176 0 0 176 0 0 176 0 0 176 0 0 176 0 0 177 0 0 177 0 0 177 0 0 177 0
0 177 0 0 177 0 0 177 0 0 177 0 0 177 0 0 178 0 166 178 0 166 178 0
165 178 0 165 178 0 165 178 0 165 178 0 165 178 0 165 178 0 164 178 0
164 179 0 164 179 0 164 179 0 164 179 0 164 179 0 163 179 0 163 179 0
163 179 0 163 179 0 0 179 0 0 179 0 0 180 0 0 180 0 0 180 0 0 180 0 0
180 0 0 180 0 0 180 0 0 180 0 0 180 0 0 180 0 0 181 0 0 181 0 0 181 0
0 181 0 0 181 0 0 181 0 0 181 0 0 181 0 0 181 0 0 181 0 0 181 0 0 182
0 159 182 0 159 182 0 158 182 0 158 182 0 158 182 0 158 182 0 158 182
0 158 182 0 157 182 0 157 182 0 157 182 0 157 183 0 157 183 0 157 183
0 156 183 0 156 183 0 156 183 0 156 183 0 156 183 0 156 183 0 156 183
0 155 183 0 155 183 0 155 184 0 155 184 0 155 184 0 155 184 0 154 184
0 154 184 0 154 184 0 154 184 0 154 184 0 154 184 0 154 184 0 153 184
0 153 185 0 153 185 0 153 185 0 153 185 0 153 185 0 152 185 0 0 185 0
0 185 0 0 185 0 0 185 0 0 185 0 0 185 0 0 185 0 0 185 0 0 186 0 0 186
0 0 186 0 0 186 0 0 186 0 0 186 0 0 186 0 0 186 0 0 186 0 0 186 0 0
186 0 0 186 0 0 186 0 0 186 0 0 186 0 0 187 0 0 187 0 0 187 0 0 187 0
0 187 0 0 187 0 0 187 0 0 187 0 0 187 0 0 187 0 0 187 0 0 187 0 0 187
0 0 187 0 0 187 0 147 187 0 147 187 0 146 188 0 0 188 0 0 188 0 0 188
0 0 188 0 0 188 0 0 188 0 0 188 0 0 188 0 0 188 0 0 188 0 0 188 0 0
188 0 0 188 0 0 188 0
188 165 0 188 165 0 188 165 0 188 165 0 187 165 0 187 165 0 187 165 0
187 165 0 187 166 0 186 166 0 186 166 0 186 166 0 186 166 0 186 166 0
185 166 0 185 166 0 185 166 0 185 167 0 185 167 0 184 167 0 184 167 0
184 167 0 184 167 0 184 167 0 183 167 0 183 168 0 183 168 0 183 168 0
183 168 0 182 168 0 182 168 0 182 168 0 182 168 0 182 168 0 181 169 0
181 169 0 181 169 0 181 169 0 181 169 0 180 169 0 180 169 0 180 169 0
180 169 0 180 170 0 179 170 0 179 170 0 179 170 0 179 170 0 179 170 0
178 170 0 178 170 0 178 171 0 178 171 0 178 171 0 178 171 0 177 171 0
177 171 0 177 171 0 177 171 0 177 171 0 176 172 0 176 172 0 176 172 0
176 172 0 176 172 0 175 172 0 175 172 0 175 172 0 175 172 0 175 173 0
174 173 0 174 173 0 174 173 0 174 173 0 174 173 0 174 173 0 173 173 0
0 173 0 0 174 0 0 174 0 0 174 0 0 174 0 0 174 0 0 174 0 0 174 0 0 174
0 0 174 0 0 175 0 0 175 0 0 175 0 0 175 0 0 175 0 0 175 0 0 175 0 0
175 0 0 175 0 0 175 0 0 176 0 0 176 0 0 176 0 0 176 0 0 176 0 0 176 0
0 176 0 0 176 0 0 176 0 0 177 0 0 177 0 0 177 0 0 177 0 0 177 0 0 177
0 0 177 0 0 177 0 0 177 0 0 177 0 0 178 0 0 178 0 166 178 0 166 178 0
165 178 0 165 178 0 165 178 0 165 178 0 165 178 0 165 178 0 164 179 0
164 179 0 164 179 0 164 179 0 164 179 0 164 179 0 163 179 0 163 179 0
163 179 0 163 179 0 163 180 0 163 180 0 0 180 0 0 180 0 0 180 0 0 180
0 0 180 0 0 180 0 0 180 0 0 180 0 0 180 0 0 181 0 0 181 0 0 181 0 0
181 0 0 181 0 0 181 0 0 181 0 0 181 0 0 181 0 0 181 0 0 182 0 0 182 0
0 182 0 159 182 0 159 182 0 158 182 0 158 182 0 158 182 0 158 182 0
158 182 0 158 182 0 157 182 0 157 183 0 157 183 0 157 183 0 157 183 0
157 183 0 157 183 0 156 183 0 156 183 0 156 183 0 156 183 0 156 183 0
156 183 0 155 184 0 155 184 0 155 184 0 155 184 0 155 184 0 155 184 0
154 184 0 154 184 0 154 184 0 154 184 0 154 184 0 154 184 0 154 185 0
153 185 0 153 185 0 153 185 0 153 185 0 153 185 0 153 185 0 153 185 0
0 185 0 0 185 0 0 185 0 0 185 0 0 185 0 0 185 0 0 186 0 0 186 0 0 186
0 0 186 0 0 186 0 0 186 0 0 186 0 0 186 0 0 186 0 0 186 0 0 186 0 0
186 0 0 186 0 0 186 0 0 187 0 0 187 0 0 187 0 0 187 0 0 187 0 0 187 0
0 187 0 0 187 0 0 187 0 0 187 0 0 187 0 0 187 0 0 187 0 0 187 0 0 187
0 0 187 0 0 187 0 0 188 0 0 188 0 0 188 0 0 188 0 0 188 0 0 188 0 0
188 0 0 188 0 0 188 0 0 188 0 0 188 0 0 188 0 0 188 0 0 188 0 0 188 0
0 188 0 0 188 0 0 188 0
188 165 0 188 165 0 188 165 0 188 165 0 187 165 0 187 165 0 187 165 0
187 166 0 187 166 0 186 166 0 186 166 0 186 166 0 186 166 0 186 166 0
185 166 0 185 167 0 185 167 0 185 167 0 185 167 0 184 167 0 184 167 0
184 167 0 184 167 0 184 167 0 183 168 0 183 168 0 183 168 0 183 168 0
183 168 0 182 168 0 182 168 0 182 168 0 182 169 0 182 169 0 0 169 0 0
169 0 0 169 0 181 169 0 181 169 0 180 169 0 180 169 0 180 170 0 180
170 0 180 170 0 179 170 0 179 170 0 179 170 0 179 170 0 179 170 0 178
170 0 178 171 0 178 171 0 178 171 0 178 171 0 177 171 0 177 171 0 177
171 0 177 171 0 177 171 0 177 172 0 176 172 0 176 172 0 176 172 0 176
172 0 176 172 0 175 172 0 175 172 0 175 172 0 175 173 0 175 173 0 174
173 0 174 173 0 174 173 0 174 173 0 174 173 0 174 173 0 0 173 0 0 174
0 0 174 0 0 174 0 0 174 0 0 174 0 0 174 0 0 174 0 0 174 0 0 174 0 0
175 0 0 175 0 0 175 0 0 175 0 0 175 0 0 175 0 0 175 0 0 175 0 0 175 0
0 176 0 0 176 0 0 176 0 0 176 0 0 176 0 0 176 0 0 176 0 0 176 0 0 176
0 0 176 0 0 177 0 0 177 0 0 177 0 0 177 0 0 177 0 0 177 0 0 177 0 0
177 0 0 177 0 0 178 0 0 178 0 0 178 0 0 178 0 166 178 0 166 178 0 165
178 0 165 178 0 165 178 0 165 178 0 165 179 0 165 179 0 164 179 0 164
179 0 164 179 0 164 179 0 164 179 0 164 179 0 163 179 0 163 179 0 163
180 0 163 180 0 163 180 0 163 180 0 162 180 0 162 180 0 162 180 0 0
180 0 0 180 0 0 180 0 0 180 0 0 181 0 0 181 0 0 181 0 0 181 0 0 181 0
0 181 0 0 181 0 0 181 0 0 181 0 0 181 0 0 181 0 0 182 0 0 182 0 0 182
0 159 182 0 159 182 0 159 182 0 158 182 0 158 182 0 158 182 0 158 182
0 158 182 0 158 183 0 158 183 0 157 183 0 157 183 0 157 183 0 157 183
0 157 183 0 157 183 0 156 183 0 156 183 0 156 183 0 156 183 0 156 184
0 156 184 0 155 184 0 155 184 0 155 184 0 155 184 0 155 184 0 155 184
0 155 184 0 154 184 0 154 184 0 154 184 0 154 185 0 154 185 0 154 185
0 153 185 0 153 185 0 153 185 0 153 185 0 153 185 0 153 185 0 153 185
0 0 185 0 0 185 0 0 185 0 0 185 0 0 186 0 0 186 0 0 186 0 0 186 0 0
186 0 0 186 0 0 186 0 0 186 0 0 186 0 0 186 0 0 186 0 0 186 0 0 186 0
0 186 0 0 187 0 0 187 0 0 187 0 0 187 0 0 187 0 0 187 0 0 187 0 0 187
0 0 187 0 0 187 0 0 187 0 0 187 0 0 187 0 0 187 0 0 187 0 0 187 0 0
188 0 0 188 0 0 188 0 0 188 0 0 188 0 0 188 0 0 188 0 0 188 0 146 188
0 146 188 0 0 188 0 0 188 0 0 188 0 0 188 0 0 188 0 0 188 0 0 188 0 0
188 0 0 188 0 0 189 0 0 189 0
188 165 0 188 165 0 188 165 0 188 165 0 187 165 0 187 166 0 187 166 0
187 166 0 187 166 0 186 166 0 186 166 0 186 166 0 186 166 0 186 166 0
185 167 0 185 167 0 185 167 0 185 167 0 184 167 0 184 167 0 184 167 0
184 167 0 184 168 0 184 168 0 183 168 0 183 168 0 183 168 0 183 168 0
183 168 0 182 168 0 182 168 0 182 169 0 182 169 0 182 169 0 0 169 0 0
169 0 0 169 0 0 169 0 0 169 0 180 169 0 180 170 0 180 170 0 180 170 0
180 170 0 179 170 0 179 170 0 179 170 0 179 170 0 179 171 0 178 171 0
178 171 0 178 171 0 178 171 0 178 171 0 177 171 0 177 171 0 177 171 0
177 172 0 177 172 0 177 172 0 176 172 0 176 172 0 176 172 0 176 172 0
176 172 0 175 172 0 175 173 0 175 173 0 175 173 0 175 173 0 174 173 0
174 173 0 174 173 0 174 173 0 174 173 0 0 174 0 0 174 0 0 174 0 0 174
0 0 174 0 0 174 0 0 174 0 0 174 0 0 174 0 0 175 0 0 175 0 0 175 0 0
175 0 0 175 0 0 175 0 0 175 0 0 175 0 0 175 0 0 175 0 0 176 0 0 176 0
0 176 0 0 176 0 0 176 0 0 176 0 0 176 0 0 176 0 0 176 0 0 177 0 0 177
0 0 177 0 0 177 0 0 177 0 0 177 0 0 177 0 0 177 0 0 177 0 0 177 0 0
178 0 0 178 0 0 178 0 0 178 0 166 178 0 166 178 0 166 178 0 165 178 0
165 178 0 165 178 0 165 179 0 165 179 0 165 179 0 164 179 0 164 179 0
164 179 0 164 179 0 164 179 0 164 179 0 163 179 0 163 180 0 163 180 0
163 180 0 163 180 0 163 180 0 162 180 0 162 180 0 162 180 0 162 180 0
162 180 0 0 181 0 0 181 0 0 181 0 0 181 0 0 181 0 0 181 0 0 181 0 0
181 0 0 181 0 0 181 0 0 181 0 0 182 0 0 182 0 0 182 0 0 182 0 0 182 0
159 182 0 159 182 0 159 182 0 159 182 0 158 182 0 158 182 0 158 183 0
158 183 0 158 183 0 158 183 0 157 183 0 157 183 0 157 183 0 157 183 0
157 183 0 157 183 0 156 183 0 156 183 0 156 184 0 156 184 0 156 184 0
156 184 0 156 184 0 155 184 0 155 184 0 155 184 0 155 184 0 155 184 0
155 184 0 154 184 0 154 185 0 154 185 0 154 185 0 154 185 0 154 185 0
154 185 0 153 185 0 153 185 0 153 185 0 153 185 0 153 185 0 153 185 0
0 185 0 0 186 0 0 186 0 0 186 0 0 186 0 0 186 0 0 186 0 0 186 0 0 186
0 0 186 0 0 186 0 0 186 0 0 186 0 0 186 0 0 186 0 0 186 0 0 187 0 0
187 0 0 187 0 0 187 0 0 187 0 0 187 0 0 187 0 0 187 0 0 187 0 0 187 0
0 187 0 0 187 0 0 187 0 0 187 0 0 187 0 0 188 0 0 188 0 0 188 0 0 188
0 0 188 0 0 188 0 0 188 0 0 188 0 0 188 0 0 188 0 0 188 0 146 188 0
146 188 0 146 188 0 146 188 0 146 188 0 0 188 0 0 188 0 0 189 0 0 189
0 0 189 0 0 189 0 0 189 0 0 189 0
188 165 0 188 165 0 188 165 0 187 165 0 187 166 0 187 166 0 187 166 0
187 166 0 186 166 0 186 166 0 186 166 0 186 166 0 186 167 0 185 167 0
185 167 0 185 167 0 185 167 0 185 167 0 184 167 0 184 167 0 184 167 0
184 168 0 184 168 0 183 168 0 183 168 0 183 168 0 183 168 0 183 168 0
182 168 0 182 169 0 182 169 0 182 169 0 182 169 0 0 169 0 0 169 0 0
169 0 0 169 0 0 169 0 0 170 0 0 170 0 180 170 0 180 170 0 180 170 0
180 170 0 179 170 0 179 170 0 179 170 0 179 171 0 179 171 0 178 171 0
178 171 0 178 171 0 178 171 0 178 171 0 177 171 0 177 171 0 177 172 0
177 172 0 177 172 0 176 172 0 176 172 0 176 172 0 176 172 0 176 172 0
176 172 0 175 173 0 175 173 0 175 173 0 175 173 0 175 173 0 174 173 0
174 173 0 174 173 0 174 173 0 174 174 0 0 174 0 0 174 0 0 174 0 0 174
0 0 174 0 0 174 0 0 174 0 0 174 0 0 175 0 0 175 0 0 175 0 0 175 0 0
175 0 0 175 0 0 175 0 0 175 0 0 175 0 0 176 0 0 176 0 0 176 0 0 176 0
0 176 0 0 176 0 0 176 0 0 176 0 0 176 0 0 176 0 0 177 0 0 177 0 0 177
0 0 177 0 0 177 0 0 177 0 0 177 0 0 177 0 0 177 0 0 178 0 0 178 0 0
178 0 0 178 0 0 178 0 0 178 0 166 178 0 166 178 0 166 178 0 166 178 0
165 179 0 165 179 0 165 179 0 165 179 0 165 179 0 164 179 0 164 179 0
164 179 0 164 179 0 164 179 0 164 180 0 163 180 0 163 180 0 163 180 0
163 180 0 163 180 0 163 180 0 162 180 0 162 180 0 162 180 0 162 180 0
162 181 0 162 181 0 161 181 0 0 181 0 0 181 0 0 181 0 0 181 0 0 181 0
0 181 0 0 181 0 0 182 0 0 182 0 0 182 0 0 182 0 0 182 0 0 182 0 0 182
0 159 182 0 159 182 0 159 182 0 159 182 0 158 183 0 158 183 0 158 183
0 158 183 0 158 183 0 158 183 0 157 183 0 157 183 0 157 183 0 157 183
0 157 183 0 157 183 0 157 184 0 156 184 0 156 184 0 156 184 0 156 184
0 156 184 0 156 184 0 155 184 0 155 184 0 155 184 0 155 184 0 155 184
0 155 185 0 155 185 0 154 185 0 154 185 0 154 185 0 154 185 0 154 185
0 154 185 0 153 185 0 153 185 0 153 185 0 153 185 0 153 185 0 153 186
0 0 186 0 0 186 0 0 186 0 0 186 0 0 186 0 0 186 0 0 186 0 0 186 0 0
186 0 0 186 0 0 186 0 0 186 0 0 186 0 0 187 0 0 187 0 0 187 0 0 187 0
0 187 0 0 187 0 0 187 0 0 187 0 0 187 0 0 187 0 0 187 0 0 187 0 0 187
0 0 187 0 0 187 0 0 187 0 0 188 0 0 188 0 0 188 0 0 188 0 0 188 0 0
188 0 0 188 0 0 188 0 0 188 0 0 188 0 0 188 0 0 188 0 0 188 0 147 188
0 146 188 0 146 188 0 146 188 0 146 189 0 146 189 0 146 189 0 0 189 0
0 189 0 0 189 0 0 189 0 0 189 0 0 189 0
188 165 0 188 165 0 188 166 0 187 166 0 187 166 0 187 166 0 187 166 0
187 166 0 186 166 0 186 166 0 186 166 0 186 167 0 186 167 0 185 167 0
185 167 0 185 167 0 185 167 0 185 167 0 184 167 0 184 168 0 184 168 0
184 168 0 184 168 0 183 168 0 183 168 0 183 168 0 183 168 0 183 168 0
182 169 0 182 169 0 182 169 0 182 169 0 0 169 0 0 169 0 0 169 0 0 169
0 0 169 0 0 170 0 0 170 0 0 170 0 0 170 0 0 170 0 180 170 0 180 170 0
179 170 0 179 171 0 179 171 0 179 171 0 179 171 0 178 171 0 178 171 0
178 171 0 178 171 0 178 171 0 177 172 0 177 172 0 177 172 0 177 172 0
177 172 0 176 172 0 176 172 0 176 172 0 176 172 0 176 173 0 176 173 0
175 173 0 175 173 0 175 173 0 175 173 0 175 173 0 174 173 0 174 173 0
174 174 0 174 174 0 0 174 0 0 174 0 0 174 0 0 174 0 0 174 0 0 174 0 0
174 0 0 175 0 0 175 0 0 175 0 0 175 0 0 175 0 0 175 0 0 175 0 0 175 0
0 175 0 0 175 0 0 176 0 0 176 0 0 176 0 0 176 0 0 176 0 0 176 0 0 176
0 0 176 0 0 176 0 0 177 0 0 177 0 0 177 0 0 177 0 0 177 0 0 177 0 0
177 0 0 177 0 0 177 0 0 177 0 0 178 0 0 178 0 0 178 0 0 178 0 0 178 0
0 178 0 166 178 0 166 178 0 166 178 0 166 178 0 166 179 0 165 179 0
165 179 0 165 179 0 165 179 0 165 179 0 165 179 0 164 179 0 164 179 0
164 179 0 164 180 0 164 180 0 164 180 0 163 180 0 163 180 0 163 180 0
163 180 0 163 180 0 163 180 0 162 180 0 162 181 0 162 181 0 162 181 0
162 181 0 162 181 0 161 181 0 161 181 0 161 181 0 0 181 0 0 181 0 0
181 0 0 182 0 0 182 0 0 182 0 0 182 0 0 182 0 0 182 0 0 182 0 0 182 0
159 182 0 159 182 0 159 182 0 159 183 0 158 183 0 158 183 0 158 183 0
158 183 0 158 183 0 158 183 0 158 183 0 157 183 0 157 183 0 157 183 0
157 184 0 157 184 0 157 184 0 156 184 0 156 184 0 156 184 0 156 184 0
156 184 0 156 184 0 155 184 0 155 184 0 155 184 0 155 185 0 155 185 0
155 185 0 155 185 0 154 185 0 154 185 0 154 185 0 154 185 0 154 185 0
154 185 0 154 185 0 153 185 0 153 185 0 153 186 0 153 186 0 153 186 0
0 186 0 0 186 0 0 186 0 0 186 0 0 186 0 0 186 0 0 186 0 0 186 0 0 186
0 0 186 0 0 186 0 0 187 0 0 187 0 0 187 0 0 187 0 0 187 0 0 187 0 0
187 0 0 187 0 0 187 0 0 187 0 0 187 0 0 187 0 0 187 0 0 187 0 0 187 0
0 188 0 0 188 0 0 188 0 0 188 0 0 188 0 0 188 0 0 188 0 0 188 0 0 188
0 0 188 0 0 188 0 0 188 0 0 188 0 0 188 0 0 188 0 0 188 0 147 188 0
146 189 0 146 189 0 146 189 0 146 189 0 146 189 0 146 189 0 146 189 0
146 189 0 145 189 0 0 189 0 0 189 0 0 189 0
188 165 0 188 166 0 188 166 0 187 166 0 187 166 0 187 166 0 187 166 0
187 166 0 186 166 0 186 167 0 186 167 0 186 167 0 186 167 0 185 167 0
185 167 0 185 167 0 185 167 0 185 167 0 184 168 0 184 168 0 184 168 0
184 168 0 184 168 0 183 168 0 183 168 0 183 168 0 183 169 0 183 169 0
182 169 0 182 169 0 182 169 0 0 169 0 0 169 0 0 169 0 0 169 0 0 170 0
0 170 0 0 170 0 0 170 0 0 170 0 0 170 0 0 170 0 0 170 0 0 170 0 179
171 0 179 171 0 179 171 0 179 171 0 179 171 0 178 171 0 178 171 0 178
171 0 178 171 0 178 172 0 177 172 0 177 172 0 177 172 0 177 172 0 177
172 0 176 172 0 176 172 0 176 172 0 176 173 0 176 173 0 176 173 0 175
173 0 175 173 0 175 173 0 175 173 0 175 173 0 174 173 0 174 174 0 174
174 0 174 174 0 0 174 0 0 174 0 0 174 0 0 174 0 0 174 0 0 174 0 0 175
0 0 175 0 0 175 0 0 175 0 0 175 0 0 175 0 0 175 0 0 175 0 0 175 0 0
176 0 0 176 0 0 176 0 0 176 0 0 176 0 0 176 0 0 176 0 0 176 0 0 176 0
0 176 0 0 177 0 0 177 0 0 177 0 0 177 0 0 177 0 0 177 0 0 177 0 0 177
0 0 177 0 0 178 0 0 178 0 0 178 0 0 178 0 0 178 0 0 178 0 0 178 0 0
178 0 166 178 0 166 178 0 166 179 0 166 179 0 166 179 0 165 179 0 165
179 0 165 179 0 165 179 0 165 179 0 165 179 0 164 179 0 164 180 0 164
180 0 164 180 0 164 180 0 164 180 0 163 180 0 163 180 0 163 180 0 163
180 0 163 180 0 163 181 0 162 181 0 162 181 0 162 181 0 162 181 0 162
181 0 162 181 0 161 181 0 161 181 0 161 181 0 161 181 0 161 182 0 0
182 0 0 182 0 0 182 0 0 182 0 0 182 0 0 182 0 0 182 0 0 182 0 159 182
0 159 182 0 159 183 0 159 183 0 159 183 0 159 183 0 158 183 0 158 183
0 158 183 0 158 183 0 158 183 0 158 183 0 157 183 0 157 183 0 157 184
0 157 184 0 157 184 0 157 184 0 156 184 0 156 184 0 156 184 0 156 184
0 156 184 0 156 184 0 156 184 0 155 184 0 155 185 0 155 185 0 155 185
0 155 185 0 155 185 0 154 185 0 154 185 0 154 185 0 154 185 0 154 185
0 154 185 0 154 185 0 153 186 0 153 186 0 153 186 0 153 186 0 153 186
0 0 186 0 0 186 0 0 186 0 0 186 0 0 186 0 0 186 0 0 186 0 0 186 0 0
186 0 0 187 0 0 187 0 0 187 0 0 187 0 0 187 0 0 187 0 0 187 0 0 187 0
0 187 0 0 187 0 0 187 0 0 187 0 0 187 0 0 187 0 0 187 0 0 188 0 0 188
0 0 188 0 0 188 0 0 188 0 0 188 0 0 188 0 0 188 0 0 188 0 0 188 0 0
188 0 0 188 0 0 188 0 0 188 0 0 188 0 0 188 0 0 188 0 0 189 0 147 189
0 147 189 0 146 189 0 146 189 0 146 189 0 146 189 0 146 189 0 146 189
0 146 189 0 145 189 0 145 189 0 145 189 0 145 189 0
188 166 0 188 166 0 187 166 0 187 166 0 187 166 0 187 166 0 187 166 0
186 166 0 186 167 0 186 167 0 186 167 0 186 167 0 185 167 0 185 167 0
185 167 0 185 167 0 185 168 0 184 168 0 184 168 0 184 168 0 184 168 0
184 168 0 184 168 0 183 168 0 183 168 0 183 169 0 183 169 0 183 169 0
182 169 0 182 169 0 182 169 0 0 169 0 0 169 0 0 169 0 0 170 0 0 170 0
0 170 0 0 170 0 0 170 0 0 170 0 0 170 0 0 170 0 0 171 0 0 171 0 0 171
0 0 171 0 179 171 0 179 171 0 178 171 0 178 171 0 178 171 0 178 172 0
178 172 0 178 172 0 177 172 0 177 172 0 177 172 0 177 172 0 177 172 0
176 172 0 176 173 0 176 173 0 176 173 0 176 173 0 176 173 0 175 173 0
175 173 0 175 173 0 175 173 0 175 174 0 174 174 0 174 174 0 174 174 0
0 174 0 0 174 0 0 174 0 0 174 0 0 174 0 0 175 0 0 175 0 0 175 0 0 175
0 0 175 0 0 175 0 0 175 0 0 175 0 0 175 0 0 175 0 0 176 0 0 176 0 0
176 0 0 176 0 0 176 0 0 176 0 0 176 0 0 176 0 0 176 0 0 177 0 0 177 0
0 177 0 0 177 0 0 177 0 0 177 0 0 177 0 0 177 0 0 177 0 0 177 0 0 178
0 0 178 0 0 178 0 0 178 0 0 178 0 0 178 0 0 178 0 0 178 0 0 178 0 166
179 0 166 179 0 166 179 0 166 179 0 166 179 0 165 179 0 165 179 0 165
179 0 165 179 0 165 179 0 165 180 0 164 180 0 164 180 0 164 180 0 164
180 0 164 180 0 164 180 0 163 180 0 163 180 0 163 180 0 163 180 0 163
181 0 163 181 0 162 181 0 162 181 0 162 181 0 162 181 0 162 181 0 162
181 0 161 181 0 161 181 0 161 182 0 161 182 0 161 182 0 161 182 0 160
182 0 0 182 0 0 182 0 0 182 0 0 182 0 0 182 0 0 182 0 159 183 0 159
183 0 159 183 0 159 183 0 159 183 0 159 183 0 158 183 0 158 183 0 158
183 0 158 183 0 158 183 0 158 183 0 157 184 0 157 184 0 157 184 0 157
184 0 157 184 0 157 184 0 157 184 0 156 184 0 156 184 0 156 184 0 156
184 0 156 184 0 156 185 0 155 185 0 155 185 0 155 185 0 155 185 0 155
185 0 155 185 0 155 185 0 154 185 0 154 185 0 154 185 0 154 185 0 154
186 0 154 186 0 153 186 0 153 186 0 153 186 0 153 186 0 153 186 0 0
186 0 0 186 0 0 186 0 0 186 0 0 186 0 0 186 0 0 186 0 0 187 0 0 187 0
0 187 0 0 187 0 0 187 0 0 187 0 0 187 0 0 187 0 0 187 0 0 187 0 0 187
0 0 187 0 0 187 0 0 187 0 0 187 0 0 188 0 0 188 0 0 188 0 0 188 0 0
188 0 0 188 0 0 188 0 0 188 0 0 188 0 0 188 0 0 188 0 0 188 0 0 188 0
0 188 0 0 188 0 0 188 0 0 189 0 0 189 0 0 189 0 0 189 0 147 189 0 147
189 0 147 189 0 146 189 0 146 189 0 146 189 0 146 189 0 146 189 0 146
189 0 146 189 0 145 189 0 145 189 0 145 189 0
188 166 0 188 166 0 187 166 0 187 166 0 187 166 0 187 166 0 187 167 0
186 167 0 186 167 0 186 167 0 186 167 0 186 167 0 185 167 0 185 167 0
185 167 0 185 168 0 185 168 0 184 168 0 184 168 0 184 168 0 184 168 0
184 168 0 183 168 0 183 168 0 183 169 0 183 169 0 183 169 0 182 169 0
182 169 0 182 169 0 0 169 0 0 169 0 0 170 0 0 170 0 0 170 0 0 170 0 0
170 0 0 170 0 0 170 0 0 170 0 0 170 0 0 171 0 0 171 0 0 171 0 0 171 0
0 171 0 0 171 0 0 171 0 178 171 0 178 171 0 178 172 0 178 172 0 178
172 0 178 172 0 177 172 0 177 172 0 177 172 0 177 172 0 177 172 0 176
173 0 176 173 0 176 173 0 176 173 0 176 173 0 175 173 0 175 173 0 175
173 0 175 173 0 175 174 0 175 174 0 174 174 0 174 174 0 174 174 0 0
174 0 0 174 0 0 174 0 0 174 0 0 175 0 0 175 0 0 175 0 0 175 0 0 175 0
0 175 0 0 175 0 0 175 0 0 175 0 0 176 0 0 176 0 0 176 0 0 176 0 0 176
0 0 176 0 0 176 0 0 176 0 0 176 0 0 176 0 0 177 0 0 177 0 0 177 0 0
177 0 0 177 0 0 177 0 0 177 0 0 177 0 0 177 0 0 178 0 0 178 0 0 178 0
0 178 0 0 178 0 0 178 0 0 178 0 0 178 0 0 178 0 0 178 0 166 179 0 166
179 0 166 179 0 166 179 0 166 179 0 166 179 0 165 179 0 165 179 0 165
179 0 165 179 0 165 180 0 165 180 0 164 180 0 164 180 0 164 180 0 164
180 0 164 180 0 164 180 0 163 180 0 163 180 0 163 181 0 163 181 0 163
181 0 163 181 0 162 181 0 162 181 0 162 181 0 162 181 0 162 181 0 162
181 0 161 181 0 161 182 0 161 182 0 161 182 0 161 182 0 161 182 0 160
182 0 160 182 0 160 182 0 160 182 0 0 182 0 0 182 0 0 183 0 159 183 0
159 183 0 159 183 0 159 183 0 159 183 0 159 183 0 158 183 0 158 183 0
158 183 0 158 183 0 158 184 0 158 184 0 157 184 0 157 184 0 157 184 0
157 184 0 157 184 0 157 184 0 157 184 0 156 184 0 156 184 0 156 184 0
156 185 0 156 185 0 156 185 0 156 185 0 155 185 0 155 185 0 155 185 0
155 185 0 155 185 0 155 185 0 154 185 0 154 185 0 154 186 0 154 186 0
154 186 0 154 186 0 154 186 0 153 186 0 153 186 0 153 186 0 0 186 0 0
186 0 0 186 0 0 186 0 0 186 0 0 186 0 0 187 0 0 187 0 0 187 0 0 187 0
0 187 0 0 187 0 0 187 0 0 187 0 0 187 0 0 187 0 0 187 0 0 187 0 0 187
0 0 187 0 0 188 0 0 188 0 0 188 0 0 188 0 0 188 0 0 188 0 0 188 0 0
188 0 0 188 0 0 188 0 0 188 0 0 188 0 0 188 0 0 188 0 0 188 0 0 188 0
0 189 0 0 189 0 0 189 0 0 189 0 0 189 0 0 189 0 0 189 0 147 189 0 147
189 0 147 189 0 146 189 0 146 189 0 146 189 0 146 189 0 146 189 0 146
189 0 146 189 0 146 189 0 145 189 0 145 190 0
188 166 0 188 166 0 187 166 0 187 166 0 187 166 0 187 167 0 187 167 0
186 167 0 186 167 0 186 167 0 186 167 0 186 167 0 185 167 0 185 168 0
185 168 0 185 168 0 185 168 0 184 168 0 184 168 0 184 168 0 184 168 0
184 168 0 183 169 0 183 169 0 183 169 0 183 169 0 183 169 0 182 169 0
182 169 0 0 169 0 0 169 0 0 170 0 0 170 0 0 170 0 0 170 0 0 170 0 0
170 0 0 170 0 0 170 0 0 170 0 0 171 0 0 171 0 0 171 0 0 171 0 0 171 0
0 171 0 0 171 0 0 171 0 0 172 0 0 172 0 178 172 0 178 172 0 178 172 0
178 172 0 177 172 0 177 172 0 177 172 0 177 173 0 177 173 0 176 173 0
176 173 0 176 173 0 176 173 0 176 173 0 175 173 0 175 173 0 175 174 0
175 174 0 175 174 0 175 174 0 174 174 0 174 174 0 0 174 0 0 174 0 0
174 0 0 174 0 0 175 0 0 175 0 0 175 0 0 175 0 0 175 0 0 175 0 0 175 0
0 175 0 0 175 0 0 176 0 0 176 0 0 176 0 0 176 0 0 176 0 0 176 0 0 176
0 0 176 0 0 176 0 0 177 0 0 177 0 0 177 0 0 177 0 0 177 0 0 177 0 0
177 0 0 177 0 0 177 0 0 177 0 0 178 0 0 178 0 0 178 0 0 178 0 0 178 0
0 178 0 0 178 0 0 178 0 0 178 0 0 179 0 0 179 0 166 179 0 166 179 0
166 179 0 166 179 0 166 179 0 166 179 0 165 179 0 165 179 0 165 180 0
165 180 0 165 180 0 165 180 0 164 180 0 164 180 0 164 180 0 164 180 0
164 180 0 164 180 0 163 180 0 163 181 0 163 181 0 163 181 0 163 181 0
163 181 0 162 181 0 162 181 0 162 181 0 162 181 0 162 181 0 162 182 0
161 182 0 161 182 0 161 182 0 161 182 0 161 182 0 161 182 0 161 182 0
160 182 0 160 182 0 160 182 0 160 183 0 160 183 0 0 183 0 159 183 0
159 183 0 159 183 0 159 183 0 159 183 0 159 183 0 158 183 0 158 183 0
158 184 0 158 184 0 158 184 0 158 184 0 158 184 0 157 184 0 157 184 0
157 184 0 157 184 0 157 184 0 157 184 0 156 184 0 156 185 0 156 185 0
156 185 0 156 185 0 156 185 0 156 185 0 155 185 0 155 185 0 155 185 0
155 185 0 155 185 0 155 185 0 155 185 0 154 186 0 154 186 0 154 186 0
154 186 0 154 186 0 154 186 0 153 186 0 153 186 0 153 186 0 0 186 0 0
186 0 0 186 0 0 186 0 0 187 0 0 187 0 0 187 0 0 187 0 0 187 0 0 187 0
0 187 0 0 187 0 0 187 0 0 187 0 0 187 0 0 187 0 0 187 0 0 187 0 0 188
0 0 188 0 0 188 0 0 188 0 0 188 0 0 188 0 0 188 0 0 188 0 0 188 0 0
188 0 0 188 0 0 188 0 0 188 0 0 188 0 0 188 0 0 188 0 0 189 0 0 189 0
0 189 0 0 189 0 0 189 0 0 189 0 0 189 0 0 189 0 0 189 0 147 189 0 147
189 0 147 189 0 147 189 0 146 189 0 146 189 0 146 189 0 146 189 0 146
189 0 146 190 0 146 190 0 145 190 0 145 190 0
188 166 0 187 166 0 187 166 0 187 167 0 187 167 0 187 167 0 186 167 0
186 167 0 186 167 0 186 167 0 186 167 0 186 167 0 185 168 0 185 168 0
185 168 0 185 168 0 185 168 0 184 168 0 184 168 0 184 168 0 184 168 0
184 169 0 183 169 0 183 169 0 183 169 0 183 169 0 183 169 0 182 169 0
0 169 0 0 170 0 0 170 0 0 170 0 0 170 0 0 170 0 0 170 0 0 170 0 0 170
0 0 170 0 0 171 0 0 171 0 0 171 0 0 171 0 0 171 0 0 171 0 0 171 0 0
171 0 0 171 0 0 172 0 0 172 0 0 172 0 0 172 0 0 172 0 178 172 0 177
172 0 177 172 0 177 172 0 177 173 0 177 173 0 177 173 0 176 173 0 176
173 0 176 173 0 176 173 0 176 173 0 175 173 0 175 174 0 175 174 0 175
174 0 175 174 0 175 174 0 174 174 0 0 174 0 0 174 0 0 174 0 0 175 0 0
175 0 0 175 0 0 175 0 0 175 0 0 175 0 0 175 0 0 175 0 0 175 0 0 176 0
0 176 0 0 176 0 0 176 0 0 176 0 0 176 0 0 176 0 0 176 0 0 176 0 0 176
0 0 177 0 0 177 0 0 177 0 0 177 0 0 177 0 0 177 0 0 177 0 0 177 0 0
177 0 0 178 0 0 178 0 0 178 0 0 178 0 0 178 0 0 178 0 0 178 0 0 178 0
0 178 0 0 178 0 0 179 0 0 179 0 167 179 0 166 179 0 166 179 0 166 179
0 166 179 0 166 179 0 166 179 0 165 179 0 165 180 0 165 180 0 165 180
0 165 180 0 165 180 0 164 180 0 164 180 0 164 180 0 164 180 0 164 180
0 164 181 0 163 181 0 163 181 0 163 181 0 163 181 0 163 181 0 163 181
0 162 181 0 162 181 0 162 181 0 162 181 0 162 182 0 162 182 0 162 182
0 161 182 0 161 182 0 161 182 0 161 182 0 161 182 0 161 182 0 160 182
0 160 183 0 160 183 0 160 183 0 160 183 0 0 183 0 0 183 0 0 183 0 159
183 0 159 183 0 159 183 0 159 183 0 159 183 0 158 184 0 158 184 0 158
184 0 158 184 0 158 184 0 158 184 0 157 184 0 157 184 0 157 184 0 157
184 0 157 184 0 157 185 0 157 185 0 156 185 0 156 185 0 156 185 0 156
185 0 156 185 0 156 185 0 155 185 0 155 185 0 155 185 0 155 185 0 155
185 0 155 186 0 155 186 0 154 186 0 154 186 0 154 186 0 154 186 0 154
186 0 154 186 0 154 186 0 153 186 0 153 186 0 0 186 0 0 186 0 0 187 0
0 187 0 0 187 0 0 187 0 0 187 0 0 187 0 0 187 0 0 187 0 0 187 0 0 187
0 0 187 0 0 187 0 0 187 0 0 187 0 0 188 0 0 188 0 0 188 0 0 188 0 0
188 0 0 188 0 0 188 0 0 188 0 0 188 0 0 188 0 0 188 0 0 188 0 0 188 0
0 188 0 0 188 0 0 189 0 0 189 0 0 189 0 0 189 0 0 189 0 0 189 0 0 189
0 0 189 0 0 189 0 0 189 0 0 189 0 0 189 0 147 189 0 147 189 0 147 189
0 147 189 0 146 189 0 146 189 0 146 190 0 146 190 0 146 190 0 146 190
0 146 190 0 146 190 0 145 190 0
188 166 0 187 166 0 187 167 0 187 167 0 187 167 0 187 167 0 186 167 0
186 167 0 186 167 0 186 167 0 186 168 0 185 168 0 185 168 0 185 168 0
185 168 0 185 168 0 184 168 0 184 168 0 184 168 0 184 169 0 184 169 0
184 169 0 183 169 0 183 169 0 183 169 0 183 169 0 183 169 0 182 169 0
0 170 0 0 170 0 0 170 0 0 170 0 0 170 0 0 170 0 0 170 0 0 170 0 0 170
0 0 171 0 0 171 0 0 171 0 0 171 0 0 171 0 0 171 0 0 171 0 0 171 0 0
171 0 0 172 0 0 172 0 0 172 0 0 172 0 0 172 0 0 172 0 0 172 0 0 172 0
177 173 0 177 173 0 177 173 0 177 173 0 177 173 0 176 173 0 176 173 0
176 173 0 176 173 0 176 173 0 175 174 0 175 174 0 175 174 0 175 174 0
175 174 0 175 174 0 174 174 0 0 174 0 0 174 0 0 175 0 0 175 0 0 175 0
0 175 0 0 175 0 0 175 0 0 175 0 0 175 0 0 175 0 0 176 0 0 176 0 0 176
0 0 176 0 0 176 0 0 176 0 0 176 0 0 176 0 0 176 0 0 177 0 0 177 0 0
177 0 0 177 0 0 177 0 0 177 0 0 177 0 0 177 0 0 177 0 0 177 0 0 178 0
0 178 0 0 178 0 0 178 0 0 178 0 0 178 0 0 178 0 0 178 0 0 178 0 0 178
0 0 179 0 0 179 0 0 179 0 167 179 0 166 179 0 166 179 0 166 179 0 166
179 0 166 179 0 166 180 0 165 180 0 165 180 0 165 180 0 165 180 0 165
180 0 165 180 0 164 180 0 164 180 0 164 180 0 164 180 0 164 181 0 164
181 0 164 181 0 163 181 0 163 181 0 163 181 0 163 181 0 163 181 0 163
181 0 162 181 0 162 182 0 162 182 0 162 182 0 162 182 0 162 182 0 161
182 0 161 182 0 161 182 0 161 182 0 161 182 0 161 182 0 160 183 0 160
183 0 160 183 0 160 183 0 160 183 0 0 183 0 0 183 0 0 183 0 0 183 0 0
183 0 159 183 0 159 184 0 159 184 0 158 184 0 158 184 0 158 184 0 158
184 0 158 184 0 158 184 0 157 184 0 157 184 0 157 184 0 157 184 0 157
185 0 157 185 0 157 185 0 156 185 0 156 185 0 156 185 0 156 185 0 156
185 0 156 185 0 156 185 0 155 185 0 155 185 0 155 186 0 155 186 0 155
186 0 155 186 0 154 186 0 154 186 0 154 186 0 154 186 0 154 186 0 154
186 0 154 186 0 153 186 0 153 186 0 0 187 0 0 187 0 0 187 0 0 187 0 0
187 0 0 187 0 0 187 0 0 187 0 0 187 0 0 187 0 0 187 0 0 187 0 0 187 0
0 187 0 0 188 0 0 188 0 0 188 0 0 188 0 0 188 0 0 188 0 0 188 0 0 188
0 0 188 0 0 188 0 0 188 0 0 188 0 0 188 0 0 188 0 0 188 0 0 189 0 0
189 0 0 189 0 0 189 0 0 189 0 0 189 0 0 189 0 0 189 0 0 189 0 0 189 0
0 189 0 0 189 0 0 189 0 0 189 0 147 189 0 147 189 0 147 189 0 147 190
0 147 190 0 146 190 0 146 190 0 146 190 0 146 190 0 146 190 0 146 190
0 146 190 0 145 190 0
188 167 0 187 167 0 187 167 0 187 167 0 187 167 0 187 167 0 186 167 0
186 167 0 186 167 0 186 168 0 186 168 0 185 168 0 185 168 0 185 168 0
185 168 0 185 168 0 184 168 0 184 168 0 184 169 0 184 169 0 184 169 0
183 169 0 183 169 0 183 169 0 183 169 0 183 169 0 182 170 0 0 170 0 0
170 0 0 170 0 0 170 0 0 170 0 0 170 0 0 170 0 0 170 0 0 171 0 0 171 0
0 171 0 0 171 0 0 171 0 0 171 0 0 171 0 0 171 0 0 171 0 0 172 0 0 172
0 0 172 0 0 172 0 0 172 0 0 172 0 0 172 0 0 172 0 0 172 0 0 173 0 0
173 0 0 173 0 177 173 0 177 173 0 177 173 0 176 173 0 176 173 0 176
173 0 176 174 0 176 174 0 175 174 0 175 174 0 175 174 0 175 174 0 175
174 0 175 174 0 0 174 0 0 175 0 0 175 0 0 175 0 0 175 0 0 175 0 0 175
0 0 175 0 0 175 0 0 175 0 0 176 0 0 176 0 0 176 0 0 176 0 0 176 0 0
176 0 0 176 0 0 176 0 0 176 0 0 176 0 0 177 0 0 177 0 0 177 0 0 177 0
0 177 0 0 177 0 0 177 0 0 177 0 0 177 0 0 178 0 0 178 0 0 178 0 0 178
0 0 178 0 0 178 0 0 178 0 0 178 0 0 178 0 0 178 0 0 179 0 0 179 0 0
179 0 0 179 0 0 179 0 167 179 0 167 179 0 166 179 0 166 179 0 166 179
0 166 180 0 166 180 0 166 180 0 165 180 0 165 180 0 165 180 0 165 180
0 165 180 0 165 180 0 164 180 0 164 181 0 164 181 0 164 181 0 164 181
0 164 181 0 163 181 0 163 181 0 163 181 0 163 181 0 163 181 0 163 181
0 162 182 0 162 182 0 162 182 0 162 182 0 162 182 0 162 182 0 161 182
0 161 182 0 161 182 0 161 182 0 161 183 0 161 183 0 160 183 0 160 183
0 160 183 0 160 183 0 160 183 0 0 183 0 0 183 0 0 183 0 0 183 0 0 184
0 0 184 0 0 184 0 159 184 0 158 184 0 158 184 0 158 184 0 158 184 0
158 184 0 158 184 0 158 184 0 157 184 0 157 185 0 157 185 0 157 185 0
157 185 0 157 185 0 156 185 0 156 185 0 156 185 0 156 185 0 156 185 0
156 185 0 156 185 0 155 186 0 155 186 0 155 186 0 155 186 0 155 186 0
155 186 0 155 186 0 154 186 0 154 186 0 154 186 0 154 186 0 154 186 0
154 186 0 153 187 0 153 187 0 0 187 0 0 187 0 0 187 0 0 187 0 0 187 0
0 187 0 0 187 0 0 187 0 0 187 0 0 187 0 0 187 0 0 187 0 0 188 0 0 188
0 0 188 0 0 188 0 0 188 0 0 188 0 0 188 0 0 188 0 0 188 0 0 188 0 0
188 0 0 188 0 0 188 0 0 188 0 0 188 0 0 189 0 0 189 0 0 189 0 0 189 0
0 189 0 0 189 0 0 189 0 0 189 0 0 189 0 0 189 0 0 189 0 0 189 0 0 189
0 0 189 0 0 189 0 0 189 0 0 190 0 147 190 0 147 190 0 147 190 0 147
190 0 147 190 0 146 190 0 146 190 0 146 190 0 146 190 0 146 190 0 146
190 0 146 190 0
187 167 0 187 167 0 187 167 0 187 167 0 187 167 0 187 167 0 186 167 0
186 167 0 186 168 0 186 168 0 186 168 0 185 168 0 185 168 0 185 168 0
185 168 0 185 168 0 184 169 0 184 169 0 184 169 0 184 169 0 184 169 0
183 169 0 183 169 0 183 169 0 183 169 0 183 170 0 0 170 0 0 170 0 0
170 0 0 170 0 0 170 0 0 170 0 0 170 0 0 170 0 0 171 0 0 171 0 0 171 0
0 171 0 0 171 0 0 171 0 0 171 0 0 171 0 0 171 0 0 172 0 0 172 0 0 172
0 0 172 0 0 172 0 0 172 0 0 172 0 0 172 0 0 172 0 0 173 0 0 173 0 0
173 0 0 173 0 0 173 0 0 173 0 176 173 0 176 173 0 176 173 0 176 174 0
176 174 0 176 174 0 175 174 0 175 174 0 175 174 0 175 174 0 175 174 0
174 174 0 0 175 0 0 175 0 0 175 0 0 175 0 0 175 0 0 175 0 0 175 0 0
175 0 0 175 0 0 176 0 0 176 0 0 176 0 0 176 0 0 176 0 0 176 0 0 176 0
0 176 0 0 176 0 0 177 0 0 177 0 0 177 0 0 177 0 0 177 0 0 177 0 0 177
0 0 177 0 0 177 0 0 177 0 0 178 0 0 178 0 0 178 0 0 178 0 0 178 0 0
178 0 0 178 0 0 178 0 0 178 0 0 178 0 0 179 0 0 179 0 0 179 0 0 179 0
0 179 0 167 179 0 167 179 0 167 179 0 166 179 0 166 179 0 166 180 0
166 180 0 166 180 0 166 180 0 165 180 0 165 180 0 165 180 0 165 180 0
165 180 0 165 180 0 164 181 0 164 181 0 164 181 0 164 181 0 164 181 0
164 181 0 163 181 0 163 181 0 163 181 0 163 181 0 163 182 0 163 182 0
162 182 0 162 182 0 162 182 0 162 182 0 162 182 0 162 182 0 161 182 0
161 182 0 161 182 0 161 183 0 161 183 0 161 183 0 161 183 0 160 183 0
160 183 0 160 183 0 160 183 0 0 183 0 0 183 0 0 183 0 0 184 0 0 184 0
0 184 0 0 184 0 0 184 0 0 184 0 0 184 0 158 184 0 158 184 0 158 184 0
158 184 0 158 185 0 157 185 0 157 185 0 157 185 0 157 185 0 157 185 0
157 185 0 157 185 0 156 185 0 156 185 0 156 185 0 156 185 0 156 186 0
156 186 0 155 186 0 155 186 0 155 186 0 155 186 0 155 186 0 155 186 0
155 186 0 154 186 0 154 186 0 154 186 0 154 186 0 154 187 0 154 187 0
154 187 0 153 187 0 0 187 0 0 187 0 0 187 0 0 187 0 0 187 0 0 187 0 0
187 0 0 187 0 0 187 0 0 187 0 0 188 0 0 188 0 0 188 0 0 188 0 0 188 0
0 188 0 0 188 0 0 188 0 0 188 0 0 188 0 0 188 0 0 188 0 0 188 0 0 188
0 0 189 0 0 189 0 0 189 0 0 189 0 0 189 0 0 189 0 0 189 0 0 189 0 0
189 0 0 189 0 0 189 0 0 189 0 0 189 0 0 189 0 0 189 0 0 189 0 0 189 0
0 190 0 0 190 0 0 190 0 147 190 0 147 190 0 147 190 0 147 190 0 147
190 0 146 190 0 146 190 0 146 190 0 146 190 0 146 190 0 146 190 0 146
190 0
187 167 0 187 167 0 187 167 0 187 167 0 187 167 0 186 167 0 186 168 0
186 168 0 186 168 0 186 168 0 185 168 0 185 168 0 185 168 0 185 168 0
185 168 0 185 169 0 184 169 0 184 169 0 184 169 0 184 169 0 184 169 0
183 169 0 183 169 0 183 169 0 183 170 0 0 170 0 0 170 0 0 170 0 0 170
0 0 170 0 0 170 0 0 170 0 0 171 0 0 171 0 0 171 0 0 171 0 0 171 0 0
171 0 0 171 0 0 171 0 0 171 0 0 172 0 0 172 0 0 172 0 0 172 0 0 172 0
0 172 0 0 172 0 0 172 0 0 172 0 0 173 0 0 173 0 0 173 0 0 173 0 0 173
0 0 173 0 0 173 0 0 173 0 0 173 0 0 174 0 176 174 0 176 174 0 176 174
0 176 174 0 175 174 0 175 174 0 175 174 0 175 174 0 175 175 0 0 175 0
0 175 0 0 175 0 0 175 0 0 175 0 0 175 0 0 175 0 0 175 0 0 175 0 0 176
0 0 176 0 0 176 0 0 176 0 0 176 0 0 176 0 0 176 0 0 176 0 0 176 0 0
177 0 0 177 0 0 177 0 0 177 0 0 177 0 0 177 0 0 177 0 0 177 0 0 177 0
0 177 0 0 178 0 0 178 0 0 178 0 0 178 0 0 178 0 0 178 0 0 178 0 0 178
0 0 178 0 0 179 0 0 179 0 0 179 0 0 179 0 0 179 0 0 179 0 0 179 0 167
179 0 167 179 0 167 179 0 166 180 0 166 180 0 166 180 0 166 180 0 166
180 0 166 180 0 165 180 0 165 180 0 165 180 0 165 180 0 165 181 0 165
181 0 164 181 0 164 181 0 164 181 0 164 181 0 164 181 0 164 181 0 163
181 0 163 181 0 163 181 0 163 182 0 163 182 0 163 182 0 162 182 0 162
182 0 162 182 0 162 182 0 162 182 0 162 182 0 161 182 0 161 183 0 161
183 0 161 183 0 161 183 0 161 183 0 161 183 0 160 183 0 160 183 0 160
183 0 0 183 0 0 183 0 0 184 0 0 184 0 0 184 0 0 184 0 0 184 0 0 184 0
0 184 0 0 184 0 0 184 0 0 184 0 0 184 0 158 184 0 158 185 0 158 185 0
157 185 0 157 185 0 157 185 0 157 185 0 157 185 0 157 185 0 157 185 0
156 185 0 156 185 0 156 185 0 156 186 0 156 186 0 156 186 0 156 186 0
155 186 0 155 186 0 155 186 0 155 186 0 155 186 0 155 186 0 154 186 0
154 186 0 154 187 0 154 187 0 154 187 0 154 187 0 154 187 0 153 187 0
0 187 0 0 187 0 0 187 0 0 187 0 0 187 0 0 187 0 0 187 0 0 187 0 0 188
0 0 188 0 0 188 0 0 188 0 0 188 0 0 188 0 0 188 0 0 188 0 0 188 0 0
188 0 0 188 0 0 188 0 0 188 0 0 188 0 0 189 0 0 189 0 0 189 0 0 189 0
0 189 0 0 189 0 0 189 0 0 189 0 0 189 0 0 189 0 0 189 0 0 189 0 0 189
0 0 189 0 0 189 0 0 189 0 0 190 0 0 190 0 0 190 0 0 190 0 0 190 0 0
190 0 147 190 0 147 190 0 147 190 0 147 190 0 147 190 0 147 190 0 146
190 0 146 190 0 146 190 0 146 190 0 146 190 0 146 190 0
187 167 0 187 167 0 187 167 0 187 167 0 187 167 0 186 168 0 186 168 0
186 168 0 186 168 0 186 168 0 185 168 0 185 168 0 185 168 0 185 169 0
185 169 0 184 169 0 184 169 0 184 169 0 184 169 0 184 169 0 183 169 0
183 169 0 183 170 0 183 170 0 183 170 0 0 170 0 0 170 0 0 170 0 0 170
0 0 170 0 0 170 0 0 171 0 0 171 0 0 171 0 0 171 0 0 171 0 0 171 0 0
171 0 0 171 0 0 171 0 0 172 0 0 172 0 0 172 0 0 172 0 0 172 0 0 172 0
0 172 0 0 172 0 0 172 0 0 173 0 0 173 0 0 173 0 0 173 0 0 173 0 0 173
0 0 173 0 0 173 0 0 173 0 0 174 0 0 174 0 0 174 0 0 174 0 176 174 0
176 174 0 175 174 0 175 174 0 175 174 0 175 175 0 0 175 0 0 175 0 0
175 0 0 175 0 0 175 0 0 175 0 0 175 0 0 175 0 0 176 0 0 176 0 0 176 0
0 176 0 0 176 0 0 176 0 0 176 0 0 176 0 0 176 0 0 176 0 0 177 0 0 177
0 0 177 0 0 177 0 0 177 0 0 177 0 0 177 0 0 177 0 0 177 0 0 178 0 0
178 0 0 178 0 0 178 0 0 178 0 0 178 0 0 178 0 0 178 0 0 178 0 0 178 0
0 179 0 0 179 0 0 179 0 0 179 0 0 179 0 0 179 0 0 179 0 167 179 0 167
179 0 167 179 0 167 180 0 166 180 0 166 180 0 166 180 0 166 180 0 166
180 0 166 180 0 165 180 0 165 180 0 165 180 0 165 181 0 165 181 0 165
181 0 164 181 0 164 181 0 164 181 0 164 181 0 164 181 0 164 181 0 163
181 0 163 182 0 163 182 0 163 182 0 163 182 0 163 182 0 162 182 0 162
182 0 162 182 0 162 182 0 162 182 0 162 182 0 162 183 0 161 183 0 161
183 0 161 183 0 161 183 0 161 183 0 161 183 0 160 183 0 160 183 0 160
183 0 0 183 0 0 184 0 0 184 0 0 184 0 0 184 0 0 184 0 0 184 0 0 184 0
0 184 0 0 184 0 0 184 0 0 184 0 0 185 0 0 185 0 0 185 0 158 185 0 158
185 0 157 185 0 157 185 0 157 185 0 157 185 0 157 185 0 157 185 0 156
185 0 156 186 0 156 186 0 156 186 0 156 186 0 156 186 0 156 186 0 155
186 0 155 186 0 155 186 0 155 186 0 155 186 0 155 186 0 155 187 0 154
187 0 154 187 0 154 187 0 154 187 0 154 187 0 154 187 0 154 187 0 0
187 0 0 187 0 0 187 0 0 187 0 0 187 0 0 187 0 0 188 0 0 188 0 0 188 0
0 188 0 0 188 0 0 188 0 0 188 0 0 188 0 0 188 0 0 188 0 0 188 0 0 188
0 0 188 0 0 188 0 0 189 0 0 189 0 0 189 0 0 189 0 0 189 0 0 189 0 0
189 0 0 189 0 0 189 0 0 189 0 0 189 0 0 189 0 0 189 0 0 189 0 0 189 0
0 189 0 0 190 0 0 190 0 0 190 0 0 190 0 0 190 0 0 190 0 0 190 0 0 190
0 147 190 0 147 190 0 147 190 0 147 190 0 147 190 0 147 190 0 146 190
0 146 190 0 146 190 0 146 190 0 146 191 0 146 191 0
187 167 0 187 167 0 187 167 0 187 168 0 187 168 0 186 168 0 186 168 0
186 168 0 186 168 0 186 168 0 185 168 0 185 168 0 185 169 0 185 169 0
185 169 0 184 169 0 184 169 0 184 169 0 184 169 0 184 169 0 183 169 0
183 170 0 183 170 0 183 170 0 0 170 0 0 170 0 0 170 0 0 170 0 0 170 0
0 170 0 0 171 0 0 171 0 0 171 0 0 171 0 0 171 0 0 171 0 0 171 0 0 171
0 0 171 0 0 172 0 0 172 0 0 172 0 0 172 0 0 172 0 0 172 0 0 172 0 0
172 0 0 173 0 0 173 0 0 173 0 0 173 0 0 173 0 0 173 0 0 173 0 0 173 0
0 173 0 0 174 0 0 174 0 0 174 0 0 174 0 0 174 0 0 174 0 0 174 0 0 174
0 175 174 0 175 174 0 175 175 0 175 175 0 0 175 0 0 175 0 0 175 0 0
175 0 0 175 0 0 175 0 0 175 0 0 176 0 0 176 0 0 176 0 0 176 0 0 176 0
0 176 0 0 176 0 0 176 0 0 176 0 0 177 0 0 177 0 0 177 0 0 177 0 0 177
0 0 177 0 0 177 0 0 177 0 0 177 0 0 177 0 0 178 0 0 178 0 0 178 0 0
178 0 0 178 0 0 178 0 0 178 0 0 178 0 0 178 0 0 179 0 0 179 0 0 179 0
0 179 0 0 179 0 0 179 0 0 179 0 0 179 0 0 179 0 167 179 0 167 180 0
167 180 0 167 180 0 166 180 0 166 180 0 166 180 0 166 180 0 166 180 0
166 180 0 165 180 0 165 181 0 165 181 0 165 181 0 165 181 0 165 181 0
164 181 0 164 181 0 164 181 0 164 181 0 164 181 0 164 181 0 163 182 0
163 182 0 163 182 0 163 182 0 163 182 0 163 182 0 163 182 0 162 182 0
162 182 0 162 182 0 162 183 0 162 183 0 162 183 0 161 183 0 161 183 0
161 183 0 161 183 0 161 183 0 161 183 0 160 183 0 160 183 0 160 184 0
0 184 0 0 184 0 0 184 0 0 184 0 0 184 0 0 184 0 0 184 0 0 184 0 0 184
0 0 184 0 0 185 0 0 185 0 0 185 0 0 185 0 0 185 0 0 185 0 0 185 0 0
185 0 157 185 0 157 185 0 157 185 0 157 185 0 157 186 0 157 186 0 156
186 0 156 186 0 156 186 0 156 186 0 156 186 0 156 186 0 155 186 0 155
186 0 155 186 0 155 186 0 155 186 0 155 187 0 155 187 0 154 187 0 154
187 0 154 187 0 154 187 0 154 187 0 154 187 0 154 187 0 0 187 0 0 187
0 0 187 0 0 187 0 0 188 0 0 188 0 0 188 0 0 188 0 0 188 0 0 188 0 0
188 0 0 188 0 0 188 0 0 188 0 0 188 0 0 188 0 0 188 0 0 188 0 0 189 0
0 189 0 0 189 0 0 189 0 0 189 0 0 189 0 0 189 0 0 189 0 0 189 0 0 189
0 0 189 0 0 189 0 0 189 0 0 189 0 0 189 0 0 189 0 0 190 0 0 190 0 0
190 0 0 190 0 0 190 0 0 190 0 0 190 0 0 190 0 0 190 0 0 190 0 147 190
0 147 190 0 147 190 0 147 190 0 147 190 0 147 190 0 147 190 0 146 191
0 146 191 0 146 191 0 146 191 0 146 191 0
187 167 0 187 167 0 187 168 0 187 168 0 186 168 0 186 168 0 186 168 0
186 168 0 186 168 0 185 168 0 185 168 0 185 169 0 185 169 0 185 169 0
185 169 0 184 169 0 184 169 0 184 169 0 184 169 0 184 170 0 183 170 0
183 170 0 183 170 0 0 170 0 0 170 0 0 170 0 0 170 0 0 170 0 0 171 0 0
171 0 0 171 0 0 171 0 0 171 0 0 171 0 0 171 0 0 171 0 0 171 0 0 172 0
0 172 0 0 172 0 0 172 0 0 172 0 0 172 0 0 172 0 0 172 0 0 172 0 0 173
0 0 173 0 0 173 0 0 173 0 0 173 0 0 173 0 0 173 0 0 173 0 0 173 0 0
174 0 0 174 0 0 174 0 0 174 0 0 174 0 0 174 0 0 174 0 0 174 0 0 174 0
0 175 0 175 175 0 175 175 0 0 175 0 0 175 0 0 175 0 0 175 0 0 175 0 0
175 0 0 176 0 0 176 0 0 176 0 0 176 0 0 176 0 0 176 0 0 176 0 0 176 0
0 176 0 0 176 0 0 177 0 0 177 0 0 177 0 0 177 0 0 177 0 0 177 0 0 177
0 0 177 0 0 177 0 0 178 0 0 178 0 0 178 0 0 178 0 0 178 0 0 178 0 0
178 0 0 178 0 0 178 0 0 178 0 0 179 0 0 179 0 0 179 0 0 179 0 0 179 0
0 179 0 0 179 0 0 179 0 0 179 0 167 179 0 167 180 0 167 180 0 167 180
0 167 180 0 166 180 0 166 180 0 166 180 0 166 180 0 166 180 0 166 180
0 165 181 0 165 181 0 165 181 0 165 181 0 165 181 0 165 181 0 164 181
0 164 181 0 164 181 0 164 181 0 164 182 0 164 182 0 163 182 0 163 182
0 163 182 0 163 182 0 163 182 0 163 182 0 163 182 0 162 182 0 162 182
0 162 183 0 162 183 0 162 183 0 162 183 0 161 183 0 161 183 0 161 183
0 161 183 0 161 183 0 161 183 0 160 183 0 160 184 0 160 184 0 0 184 0
0 184 0 0 184 0 0 184 0 0 184 0 0 184 0 0 184 0 0 184 0 0 184 0 0 185
0 0 185 0 0 185 0 0 185 0 0 185 0 0 185 0 0 185 0 0 185 0 0 185 0 0
185 0 0 185 0 157 185 0 157 186 0 157 186 0 157 186 0 156 186 0 156
186 0 156 186 0 156 186 0 156 186 0 156 186 0 156 186 0 155 186 0 155
186 0 155 187 0 155 187 0 155 187 0 155 187 0 155 187 0 154 187 0 154
187 0 154 187 0 154 187 0 154 187 0 154 187 0 0 187 0 0 187 0 0 188 0
0 188 0 0 188 0 0 188 0 0 188 0 0 188 0 0 188 0 0 188 0 0 188 0 0 188
0 0 188 0 0 188 0 0 188 0 0 188 0 0 189 0 0 189 0 0 189 0 0 189 0 0
189 0 0 189 0 0 189 0 0 189 0 0 189 0 0 189 0 0 189 0 0 189 0 0 189 0
0 189 0 0 189 0 0 190 0 0 190 0 0 190 0 0 190 0 0 190 0 0 190 0 0 190
0 0 190 0 0 190 0 0 190 0 0 190 0 0 190 0 0 190 0 147 190 0 147 190 0
147 190 0 147 190 0 147 191 0 147 191 0 147 191 0 147 191 0 146 191 0
146 191 0 146 191 0 146 191 0
187 168 0 187 168 0 187 168 0 187 168 0 186 168 0 186 168 0 186 168 0
186 168 0 186 168 0 185 169 0 185 169 0 185 169 0 185 169 0 185 169 0
184 169 0 184 169 0 184 169 0 184 169 0 184 170 0 184 170 0 183 170 0
183 170 0 0 170 0 0 170 0 0 170 0 0 170 0 0 170 0 0 171 0 0 171 0 0
171 0 0 171 0 0 171 0 0 171 0 0 171 0 0 171 0 0 171 0 0 172 0 0 172 0
0 172 0 0 172 0 0 172 0 0 172 0 0 172 0 0 172 0 0 172 0 0 173 0 0 173
0 0 173 0 0 173 0 0 173 0 0 173 0 0 173 0 0 173 0 0 173 0 0 174 0 0
174 0 0 174 0 0 174 0 0 174 0 0 174 0 0 174 0 0 174 0 0 174 0 0 175 0
0 175 0 0 175 0 0 175 0 0 175 0 0 175 0 0 175 0 0 175 0 0 175 0 0 176
0 0 176 0 0 176 0 0 176 0 0 176 0 0 176 0 0 176 0 0 176 0 0 176 0 0
177 0 0 177 0 0 177 0 0 177 0 0 177 0 0 177 0 0 177 0 0 177 0 0 177 0
0 177 0 0 178 0 0 178 0 0 178 0 0 178 0 0 178 0 0 178 0 0 178 0 0 178
0 0 178 0 0 178 0 0 179 0 0 179 0 0 179 0 0 179 0 0 179 0 0 179 0 0
179 0 0 179 0 0 179 0 0 180 0 167 180 0 167 180 0 167 180 0 167 180 0
167 180 0 166 180 0 166 180 0 166 180 0 166 180 0 166 181 0 166 181 0
165 181 0 165 181 0 165 181 0 165 181 0 165 181 0 165 181 0 164 181 0
164 181 0 164 181 0 164 182 0 164 182 0 164 182 0 164 182 0 163 182 0
163 182 0 163 182 0 163 182 0 163 182 0 163 182 0 162 183 0 162 183 0
162 183 0 162 183 0 162 183 0 162 183 0 161 183 0 161 183 0 161 183 0
161 183 0 161 183 0 161 184 0 161 184 0 160 184 0 0 184 0 0 184 0 0
184 0 0 184 0 0 184 0 0 184 0 0 184 0 0 184 0 0 185 0 0 185 0 0 185 0
0 185 0 0 185 0 0 185 0 0 185 0 0 185 0 0 185 0 0 185 0 0 185 0 0 185
0 0 186 0 0 186 0 0 186 0 157 186 0 157 186 0 156 186 0 156 186 0 156
186 0 156 186 0 156 186 0 156 186 0 156 186 0 155 187 0 155 187 0 155
187 0 155 187 0 155 187 0 155 187 0 155 187 0 154 187 0 154 187 0 154
187 0 154 187 0 154 187 0 154 187 0 0 188 0 0 188 0 0 188 0 0 188 0 0
188 0 0 188 0 0 188 0 0 188 0 0 188 0 0 188 0 0 188 0 0 188 0 0 188 0
0 188 0 0 189 0 0 189 0 0 189 0 0 189 0 0 189 0 0 189 0 0 189 0 0 189
0 0 189 0 0 189 0 0 189 0 0 189 0 0 189 0 0 189 0 0 189 0 0 190 0 0
190 0 0 190 0 0 190 0 0 190 0 0 190 0 0 190 0 0 190 0 0 190 0 0 190 0
0 190 0 0 190 0 0 190 0 0 190 0 0 190 0 148 190 0 147 190 0 147 191 0
147 191 0 147 191 0 147 191 0 147 191 0 147 191 0 146 191 0 146 191 0
146 191 0 146 191 0
187 168 0 187 168 0 187 168 0 187 168 0 186 168 0 186 168 0 186 168 0
186 168 0 186 169 0 185 169 0 185 169 0 185 169 0 185 169 0 185 169 0
184 169 0 184 169 0 184 169 0 184 170 0 184 170 0 183 170 0 183 170 0
183 170 0 0 170 0 0 170 0 0 170 0 0 171 0 0 171 0 0 171 0 0 171 0 0
171 0 0 171 0 0 171 0 0 171 0 0 171 0 0 172 0 0 172 0 0 172 0 0 172 0
0 172 0 0 172 0 0 172 0 0 172 0 0 172 0 0 173 0 0 173 0 0 173 0 0 173
0 0 173 0 0 173 0 0 173 0 0 173 0 0 173 0 0 174 0 0 174 0 0 174 0 0
174 0 0 174 0 0 174 0 0 174 0 0 174 0 0 174 0 0 175 0 0 175 0 0 175 0
0 175 0 0 175 0 175 175 0 175 175 0 175 175 0 0 175 0 0 175 0 0 176 0
0 176 0 0 176 0 0 176 0 0 176 0 0 176 0 0 176 0 0 176 0 0 176 0 0 177
0 0 177 0 0 177 0 0 177 0 0 177 0 0 177 0 0 177 0 0 177 0 0 177 0 0
177 0 0 178 0 0 178 0 0 178 0 0 178 0 0 178 0 0 178 0 0 178 0 0 178 0
0 178 0 0 179 0 0 179 0 0 179 0 0 179 0 0 179 0 0 179 0 0 179 0 0 179
0 0 179 0 0 179 0 0 180 0 0 180 0 167 180 0 167 180 0 167 180 0 167
180 0 167 180 0 166 180 0 166 180 0 166 180 0 166 181 0 166 181 0 166
181 0 165 181 0 165 181 0 165 181 0 165 181 0 165 181 0 165 181 0 164
181 0 164 182 0 164 182 0 164 182 0 164 182 0 164 182 0 164 182 0 163
182 0 163 182 0 163 182 0 163 182 0 163 182 0 163 183 0 162 183 0 162
183 0 162 183 0 162 183 0 162 183 0 162 183 0 161 183 0 161 183 0 161
183 0 161 184 0 161 184 0 161 184 0 161 184 0 160 184 0 0 184 0 0 184
0 0 184 0 0 184 0 0 184 0 0 184 0 0 184 0 0 185 0 0 185 0 0 185 0 0
185 0 0 185 0 0 185 0 0 185 0 0 185 0 0 185 0 0 185 0 0 185 0 0 186 0
0 186 0 0 186 0 0 186 0 0 186 0 0 186 0 0 186 0 0 186 0 156 186 0 156
186 0 156 186 0 156 186 0 156 187 0 156 187 0 155 187 0 155 187 0 155
187 0 155 187 0 155 187 0 155 187 0 155 187 0 154 187 0 154 187 0 154
187 0 154 187 0 154 188 0 154 188 0 0 188 0 0 188 0 0 188 0 0 188 0 0
188 0 0 188 0 0 188 0 0 188 0 0 188 0 0 188 0 0 188 0 0 188 0 0 189 0
0 189 0 0 189 0 0 189 0 0 189 0 0 189 0 0 189 0 0 189 0 0 189 0 0 189
0 0 189 0 0 189 0 0 189 0 0 189 0 0 189 0 0 190 0 0 190 0 0 190 0 0
190 0 0 190 0 0 190 0 0 190 0 0 190 0 0 190 0 0 190 0 0 190 0 0 190 0
0 190 0 0 190 0 0 190 0 0 190 0 0 191 0 148 191 0 147 191 0 147 191 0
147 191 0 147 191 0 147 191 0 147 191 0 147 191 0 147 191 0 146 191 0
146 191 0 146 191 0
187 168 0 187 168 0 187 168 0 186 168 0 186 168 0 186 168 0 186 169 0
186 169 0 186 169 0 185 169 0 185 169 0 185 169 0 185 169 0 185 169 0
184 169 0 184 170 0 184 170 0 184 170 0 184 170 0 183 170 0 183 170 0
0 170 0 0 170 0 0 170 0 0 171 0 0 171 0 0 171 0 0 171 0 0 171 0 0 171
0 0 171 0 0 171 0 0 171 0 0 172 0 0 172 0 0 172 0 0 172 0 0 172 0 0
172 0 0 172 0 0 172 0 0 172 0 0 173 0 0 173 0 0 173 0 0 173 0 0 173 0
0 173 0 0 173 0 0 173 0 0 173 0 0 174 0 0 174 0 0 174 0 0 174 0 0 174
0 0 174 0 0 174 0 0 174 0 0 174 0 0 175 0 0 175 0 0 175 0 0 175 0 0
175 0 0 175 0 175 175 0 175 175 0 175 175 0 174 176 0 174 176 0 0 176
0 0 176 0 0 176 0 0 176 0 0 176 0 0 176 0 0 176 0 0 176 0 0 177 0 0
177 0 0 177 0 0 177 0 0 177 0 0 177 0 0 177 0 0 177 0 0 177 0 0 178 0
0 178 0 0 178 0 0 178 0 0 178 0 0 178 0 0 178 0 0 178 0 0 178 0 0 178
0 0 179 0 0 179 0 0 179 0 0 179 0 0 179 0 0 179 0 0 179 0 0 179 0 0
179 0 0 179 0 0 180 0 0 180 0 167 180 0 167 180 0 167 180 0 167 180 0
167 180 0 167 180 0 166 180 0 166 180 0 166 181 0 166 181 0 166 181 0
166 181 0 165 181 0 165 181 0 165 181 0 165 181 0 165 181 0 165 181 0
165 182 0 164 182 0 164 182 0 164 182 0 164 182 0 164 182 0 164 182 0
163 182 0 163 182 0 163 182 0 163 183 0 163 183 0 163 183 0 162 183 0
162 183 0 162 183 0 162 183 0 162 183 0 162 183 0 162 183 0 161 183 0
161 184 0 161 184 0 161 184 0 161 184 0 161 184 0 160 184 0 0 184 0 0
184 0 0 184 0 0 184 0 0 184 0 0 185 0 0 185 0 0 185 0 0 185 0 0 185 0
0 185 0 0 185 0 0 185 0 0 185 0 0 185 0 0 185 0 0 185 0 0 186 0 0 186
0 0 186 0 0 186 0 0 186 0 0 186 0 0 186 0 0 186 0 0 186 0 0 186 0 0
186 0 156 186 0 156 187 0 156 187 0 156 187 0 156 187 0 155 187 0 155
187 0 155 187 0 155 187 0 155 187 0 155 187 0 155 187 0 154 187 0 154
187 0 154 188 0 154 188 0 154 188 0 0 188 0 0 188 0 0 188 0 0 188 0 0
188 0 0 188 0 0 188 0 0 188 0 0 188 0 0 188 0 0 189 0 0 189 0 0 189 0
0 189 0 0 189 0 0 189 0 0 189 0 0 189 0 0 189 0 0 189 0 0 189 0 0 189
0 0 189 0 0 189 0 0 189 0 0 190 0 0 190 0 0 190 0 0 190 0 0 190 0 0
190 0 0 190 0 0 190 0 0 190 0 0 190 0 0 190 0 0 190 0 0 190 0 0 190 0
0 190 0 0 190 0 0 191 0 0 191 0 0 191 0 148 191 0 148 191 0 147 191 0
147 191 0 147 191 0 147 191 0 147 191 0 147 191 0 147 191 0 146 191 0
146 191 0 146 191 0
187 168 0 187 168 0 187 168 0 186 168 0 186 168 0 186 169 0 186 169 0
186 169 0 185 169 0 185 169 0 185 169 0 185 169 0 185 169 0 185 169 0
184 170 0 184 170 0 184 170 0 184 170 0 184 170 0 183 170 0 0 170 0 0
170 0 0 170 0 0 171 0 0 171 0 0 171 0 0 171 0 0 171 0 0 171 0 0 171 0
0 171 0 0 171 0 0 172 0 0 172 0 0 172 0 0 172 0 0 172 0 0 172 0 0 172
0 0 172 0 0 172 0 0 173 0 0 173 0 0 173 0 0 173 0 0 173 0 0 173 0 0
173 0 0 173 0 0 173 0 0 174 0 0 174 0 0 174 0 0 174 0 0 174 0 0 174 0
0 174 0 0 174 0 0 174 0 0 175 0 0 175 0 0 175 0 0 175 0 0 175 0 0 175
0 175 175 0 175 175 0 175 175 0 175 176 0 174 176 0 174 176 0 174 176
0 174 176 0 0 176 0 0 176 0 0 176 0 0 176 0 0 177 0 0 177 0 0 177 0 0
177 0 0 177 0 0 177 0 0 177 0 0 177 0 0 177 0 0 177 0 0 178 0 0 178 0
0 178 0 0 178 0 0 178 0 0 178 0 0 178 0 0 178 0 0 178 0 0 179 0 0 179
0 0 179 0 0 179 0 0 179 0 0 179 0 0 179 0 0 179 0 0 179 0 0 179 0 0
180 0 0 180 0 0 180 0 0 180 0 167 180 0 167 180 0 167 180 0 167 180 0
167 180 0 167 180 0 166 181 0 166 181 0 166 181 0 166 181 0 166 181 0
166 181 0 165 181 0 165 181 0 165 181 0 165 181 0 165 182 0 165 182 0
165 182 0 164 182 0 164 182 0 164 182 0 164 182 0 164 182 0 164 182 0
163 182 0 163 182 0 163 183 0 163 183 0 163 183 0 163 183 0 162 183 0
162 183 0 162 183 0 162 183 0 162 183 0 162 183 0 162 183 0 161 184 0
161 184 0 161 184 0 161 184 0 161 184 0 161 184 0 160 184 0 0 184 0 0
184 0 0 184 0 0 184 0 0 185 0 0 185 0 0 185 0 0 185 0 0 185 0 0 185 0
0 185 0 0 185 0 0 185 0 0 185 0 0 185 0 0 186 0 0 186 0 0 186 0 0 186
0 0 186 0 0 186 0 0 186 0 0 186 0 0 186 0 0 186 0 0 186 0 0 186 0 0
187 0 0 187 0 0 187 0 156 187 0 156 187 0 156 187 0 155 187 0 155 187
0 155 187 0 155 187 0 155 187 0 155 187 0 155 187 0 154 188 0 154 188
0 154 188 0 154 188 0 154 188 0 0 188 0 0 188 0 0 188 0 0 188 0 0 188
0 0 188 0 0 188 0 0 188 0 0 189 0 0 189 0 0 189 0 0 189 0 0 189 0 0
189 0 0 189 0 0 189 0 0 189 0 0 189 0 0 189 0 0 189 0 0 189 0 0 189 0
0 189 0 0 190 0 0 190 0 0 190 0 0 190 0 0 190 0 0 190 0 0 190 0 0 190
0 0 190 0 0 190 0 0 190 0 0 190 0 0 190 0 0 190 0 0 190 0 0 190 0 0
191 0 0 191 0 0 191 0 0 191 0 0 191 0 0 191 0 148 191 0 147 191 0 147
191 0 147 191 0 147 191 0 147 191 0 147 191 0 147 191 0 147 191 0 146
191 0 146 191 0
